/* XPM */
static char * 1_xpm[] = {
"256 256 3811 2",
"  	c #B6A995",
". 	c #AC9D89",
"+ 	c #B7AB97",
"@ 	c #AFA18D",
"# 	c #9F907D",
"$ 	c #B6AA96",
"% 	c #B5A995",
"& 	c #B6A994",
"* 	c #9F9482",
"= 	c #978C7A",
"- 	c #B1A691",
"; 	c #887B69",
"> 	c #473F34",
", 	c #5A5349",
"' 	c #908878",
") 	c #8C8474",
"! 	c #91897A",
"~ 	c #9A9283",
"{ 	c #AFA695",
"] 	c #9A9284",
"^ 	c #958D7F",
"/ 	c #B4AA97",
"( 	c #948C7E",
"_ 	c #B3A691",
": 	c #B2A896",
"< 	c #A59783",
"[ 	c #B5AB98",
"} 	c #B3A897",
"| 	c #C3BAA7",
"1 	c #9A8E7D",
"2 	c #AEA695",
"3 	c #BDB29E",
"4 	c #BEB19D",
"5 	c #CCC2AD",
"6 	c #887865",
"7 	c #998D7C",
"8 	c #B7AC99",
"9 	c #C3B9A6",
"0 	c #BBAE99",
"a 	c #A2927E",
"b 	c #9F917F",
"c 	c #9A9080",
"d 	c #C4B8A4",
"e 	c #B2A693",
"f 	c #BAAF9B",
"g 	c #B6AB98",
"h 	c #ACA08D",
"i 	c #B1A897",
"j 	c #B6AD9B",
"k 	c #B2A490",
"l 	c #B5A892",
"m 	c #A79A87",
"n 	c #998A77",
"o 	c #7D7467",
"p 	c #C6BAA4",
"q 	c #B1A591",
"r 	c #B5AB99",
"s 	c #A59987",
"t 	c #A09381",
"u 	c #8E8374",
"v 	c #867766",
"w 	c #594E41",
"x 	c #4D473F",
"y 	c #777064",
"z 	c #978F80",
"A 	c #B4AB9A",
"B 	c #A89D8B",
"C 	c #BAAE9A",
"D 	c #B0A38F",
"E 	c #A69985",
"F 	c #B1A590",
"G 	c #A99F8C",
"H 	c #B6AA95",
"I 	c #9D8F7C",
"J 	c #938878",
"K 	c #9E9381",
"L 	c #9F9380",
"M 	c #B7A993",
"N 	c #B9B09D",
"O 	c #B6AB97",
"P 	c #AFA390",
"Q 	c #A29988",
"R 	c #B1A795",
"S 	c #C6BBA6",
"T 	c #B0A795",
"U 	c #B5A894",
"V 	c #B2A997",
"W 	c #B5A996",
"X 	c #AEA18D",
"Y 	c #BBAF9B",
"Z 	c #ACA28F",
"` 	c #AFA28F",
" .	c #B7AA95",
"..	c #C1B49F",
"+.	c #A79B89",
"@.	c #A39683",
"#.	c #90826F",
"$.	c #AFA28E",
"%.	c #AFA592",
"&.	c #ACA391",
"*.	c #B5A791",
"=.	c #A08F7A",
"-.	c #B9AD98",
";.	c #BBAF9A",
">.	c #B2A58F",
",.	c #A1947F",
"'.	c #685A4A",
").	c #3D3830",
"!.	c #7F7668",
"~.	c #A39986",
"{.	c #9E9584",
"].	c #9A9180",
"^.	c #A39A89",
"/.	c #AB9E8A",
"(.	c #BDB29D",
"_.	c #9E8F7A",
":.	c #A79781",
"<.	c #B0A28C",
"[.	c #B2A692",
"}.	c #B9AC95",
"|.	c #A99C86",
"1.	c #ADA28D",
"2.	c #B0A48F",
"3.	c #928877",
"4.	c #8F8778",
"5.	c #948876",
"6.	c #928470",
"7.	c #AEA390",
"8.	c #AA9D89",
"9.	c #AEA28D",
"0.	c #ADA28E",
"a.	c #BEB29D",
"b.	c #AFA492",
"c.	c #9B9180",
"d.	c #A19787",
"e.	c #ABA291",
"f.	c #9F9889",
"g.	c #B7AE9D",
"h.	c #BCB3A1",
"i.	c #A49B8A",
"j.	c #ADA28F",
"k.	c #9B9384",
"l.	c #BDB4A3",
"m.	c #CEC4B1",
"n.	c #BEB4A2",
"o.	c #BBB19F",
"p.	c #C3BBA9",
"q.	c #B9AE9B",
"r.	c #BAB1A0",
"s.	c #B1A898",
"t.	c #BFB5A4",
"u.	c #BEB2A0",
"v.	c #ADA08E",
"w.	c #8A7B6A",
"x.	c #726556",
"y.	c #39332C",
"z.	c #686156",
"A.	c #938B7D",
"B.	c #9F9686",
"C.	c #A49A89",
"D.	c #B1A693",
"E.	c #AEA592",
"F.	c #B3A692",
"G.	c #AB9D89",
"H.	c #B9AF9C",
"I.	c #B1A490",
"J.	c #B8AB96",
"K.	c #B9AB95",
"L.	c #9C8F7C",
"M.	c #908575",
"N.	c #AFA28D",
"O.	c #908471",
"P.	c #B2A58E",
"Q.	c #BBAE97",
"R.	c #ACA18E",
"S.	c #BBAF99",
"T.	c #C0B6A2",
"U.	c #A89E8B",
"V.	c #9B9383",
"W.	c #B3A792",
"X.	c #A89C88",
"Y.	c #B3A590",
"Z.	c #998E7C",
"`.	c #9E917E",
" +	c #958C7D",
".+	c #A59D8D",
"++	c #B8AF9D",
"@+	c #B0A694",
"#+	c #A39B8C",
"$+	c #A49C8D",
"%+	c #A79986",
"&+	c #AAA090",
"*+	c #C0B7A4",
"=+	c #B8AC99",
"-+	c #A79C8A",
";+	c #AB9E8B",
">+	c #9C8E7B",
",+	c #AB9D88",
"'+	c #7F7261",
")+	c #3B342C",
"!+	c #665F54",
"~+	c #867E71",
"{+	c #C5BAA6",
"]+	c #B5A793",
"^+	c #BFB39F",
"/+	c #B2A999",
"(+	c #A29786",
"_+	c #B8AF9C",
":+	c #BBB09C",
"<+	c #B4A691",
"[+	c #BEB4A1",
"}+	c #BDB19C",
"|+	c #B5AA96",
"1+	c #B9AC98",
"2+	c #BCB19D",
"3+	c #7E7261",
"4+	c #887C6C",
"5+	c #867A6A",
"6+	c #C2B8A5",
"7+	c #AEA391",
"8+	c #ADA595",
"9+	c #AFA797",
"0+	c #B7AB98",
"a+	c #B6A996",
"b+	c #B2A48F",
"c+	c #A69884",
"d+	c #AA9F8C",
"e+	c #ACA08C",
"f+	c #ADA18C",
"g+	c #A59B88",
"h+	c #A29785",
"i+	c #8B7E6C",
"j+	c #473E34",
"k+	c #887F70",
"l+	c #ABA28F",
"m+	c #81786A",
"n+	c #948B7B",
"o+	c #9C9485",
"p+	c #9C9384",
"q+	c #928A7D",
"r+	c #B6AC99",
"s+	c #91887A",
"t+	c #BEB29E",
"u+	c #C0B4A1",
"v+	c #AD9F8A",
"w+	c #998F80",
"x+	c #C0B7A5",
"y+	c #BAB19F",
"z+	c #948979",
"A+	c #B1A592",
"B+	c #968673",
"C+	c #908372",
"D+	c #9E9383",
"E+	c #BCB29F",
"F+	c #C1B4A0",
"G+	c #A3937F",
"H+	c #8E7E6B",
"I+	c #897F6F",
"J+	c #BAAD97",
"K+	c #BCB09C",
"L+	c #AFA491",
"M+	c #B3A895",
"N+	c #AEA28E",
"O+	c #A99E8B",
"P+	c #BAB09D",
"Q+	c #B1A38E",
"R+	c #A49580",
"S+	c #B8AC98",
"T+	c #BBAF9C",
"U+	c #B4A996",
"V+	c #9B9181",
"W+	c #887A69",
"X+	c #594E42",
"Y+	c #4D483F",
"Z+	c #766F63",
"`+	c #90887A",
" @	c #A79D8D",
".@	c #AA9E8B",
"+@	c #ADA08B",
"@@	c #B0A591",
"#@	c #B7AB96",
"$@	c #A99C87",
"%@	c #9C9180",
"&@	c #ACA18D",
"*@	c #AA9E8A",
"=@	c #A89E8C",
"-@	c #BDB39F",
";@	c #BAB09C",
">@	c #999080",
",@	c #B7AD99",
"'@	c #C3B9A4",
")@	c #BAAE9B",
"!@	c #C2B7A3",
"~@	c #A69D8C",
"{@	c #C4B7A1",
"]@	c #BAAC96",
"^@	c #C0B49F",
"/@	c #BEB19C",
"(@	c #A99C88",
"_@	c #B1A692",
":@	c #A69C8B",
"<@	c #B5A690",
"[@	c #A2917C",
"}@	c #A29887",
"|@	c #B5A891",
"1@	c #C1B49E",
"2@	c #BDB09A",
"3@	c #A2947F",
"4@	c #685A4B",
"5@	c #3E3831",
"6@	c #7D7466",
"7@	c #9D9482",
"8@	c #A69D8B",
"9@	c #A99D8A",
"0@	c #B1A48F",
"a@	c #A59A87",
"b@	c #A49681",
"c@	c #AFA08A",
"d@	c #A89C87",
"e@	c #B6A993",
"f@	c #B7AA94",
"g@	c #AB9F8A",
"h@	c #B2A791",
"i@	c #A59A86",
"j@	c #948A78",
"k@	c #8F8575",
"l@	c #ADA493",
"m@	c #A39682",
"n@	c #9A8F7D",
"o@	c #ADA18D",
"p@	c #B1A38F",
"q@	c #9E9586",
"r@	c #B5A994",
"s@	c #948C7C",
"t@	c #B7AD9A",
"u@	c #C4BBA8",
"v@	c #A19786",
"w@	c #A79D8C",
"x@	c #989081",
"y@	c #B1A797",
"z@	c #C4B9A6",
"A@	c #BBB3A2",
"B@	c #BBB2A1",
"C@	c #B9AF9D",
"D@	c #A99E8D",
"E@	c #BCB19F",
"F@	c #BAB09E",
"G@	c #B6AA97",
"H@	c #887A68",
"I@	c #696156",
"J@	c #948B7D",
"K@	c #978E7F",
"L@	c #A59A89",
"M@	c #ABA290",
"N@	c #B3A793",
"O@	c #B9AC96",
"P@	c #B1A38D",
"Q@	c #918472",
"R@	c #9E9685",
"S@	c #AEA18C",
"T@	c #9D907B",
"U@	c #A4967F",
"V@	c #B1A58F",
"W@	c #BEB29C",
"X@	c #ADA391",
"Y@	c #B7AC97",
"Z@	c #B6AD9A",
"`@	c #A9A08E",
" #	c #A19887",
".#	c #A09582",
"+#	c #A99B85",
"@#	c #A29784",
"##	c #A1937F",
"$#	c #9E9585",
"%#	c #A19888",
"&#	c #B1A998",
"*#	c #B0A797",
"=#	c #ACA494",
"-#	c #BEB29F",
";#	c #B7AC98",
">#	c #BAAF9A",
",#	c #ADA08D",
"'#	c #B0A28E",
")#	c #9C907C",
"!#	c #655E53",
"~#	c #8E8678",
"{#	c #867D70",
"]#	c #BFB4A1",
"^#	c #A69986",
"/#	c #BBB19D",
"(#	c #A99F8E",
"_#	c #B4A997",
":#	c #A19684",
"<#	c #9F9280",
"[#	c #9A9182",
"}#	c #B8AD9B",
"|#	c #BFB19B",
"1#	c #B7AD9B",
"2#	c #B7AA96",
"3#	c #BEB39F",
"4#	c #A99B87",
"5#	c #A89B87",
"6#	c #B3A997",
"7#	c #9C9282",
"8#	c #ADA08C",
"9#	c #A69B89",
"0#	c #776A59",
"a#	c #897E6E",
"b#	c #A59B89",
"c#	c #ABA18F",
"d#	c #B4AA99",
"e#	c #A59D8E",
"f#	c #BAAF9C",
"g#	c #A99B88",
"h#	c #B0A28D",
"i#	c #B5A792",
"j#	c #B2A691",
"k#	c #B0A490",
"l#	c #A29683",
"m#	c #867967",
"n#	c #473E33",
"o#	c #5B544A",
"p#	c #8E8576",
"q#	c #AAA18E",
"r#	c #8F8678",
"s#	c #877F72",
"t#	c #8D8679",
"u#	c #BBB09D",
"v#	c #8C8376",
"w#	c #BDB29F",
"x#	c #AE9F8C",
"y#	c #AEA492",
"z#	c #B0A695",
"A#	c #BEB3A0",
"B#	c #9F9789",
"C#	c #BDB19E",
"D#	c #B5AA98",
"E#	c #A89A86",
"F#	c #8B8172",
"G#	c #A39887",
"H#	c #B4A793",
"I#	c #A99985",
"J#	c #827565",
"K#	c #B2A794",
"L#	c #A99D8B",
"M#	c #ADA290",
"N#	c #AA9F8D",
"O#	c #A59682",
"P#	c #7E7568",
"Q#	c #BCAF9A",
"R#	c #B9AD99",
"S#	c #A79A88",
"T#	c #A49885",
"U#	c #897B69",
"V#	c #A9A08F",
"W#	c #AC9E88",
"X#	c #928878",
"Y#	c #AAA18F",
"Z#	c #A09482",
"`#	c #C7BDA8",
" $	c #B8AE9B",
".$	c #968D7D",
"+$	c #BFB5A1",
"@$	c #B2A694",
"#$	c #B6AC9A",
"$$	c #CCC1AC",
"%$	c #BCB09A",
"&$	c #C1B5A0",
"*$	c #C4BAA6",
"=$	c #B5AA97",
"-$	c #B0A693",
";$	c #A49886",
">$	c #B7A892",
",$	c #9E8D78",
"'$	c #A09481",
")$	c #B7AA93",
"!$	c #BCAF98",
"~$	c #988A75",
"{$	c #685B4B",
"]$	c #3E3931",
"^$	c #807769",
"/$	c #B2A995",
"($	c #908675",
"_$	c #B4A792",
":$	c #B0A38E",
"<$	c #AEA08A",
"[$	c #AC9C86",
"}$	c #9C8E7A",
"|$	c #ADA08A",
"1$	c #B1A38C",
"2$	c #A19581",
"3$	c #ACA08B",
"4$	c #ADA390",
"5$	c #B7AC96",
"6$	c #867C6D",
"7$	c #A49682",
"8$	c #ABA08C",
"9$	c #B9AF9B",
"0$	c #B4AB99",
"a$	c #AAA08F",
"b$	c #B3A794",
"c$	c #9F9483",
"d$	c #91887B",
"e$	c #BFB5A3",
"f$	c #CAC2AF",
"g$	c #C3BAA8",
"h$	c #C0B5A1",
"i$	c #B1A796",
"j$	c #C4BBAA",
"k$	c #BFB4A2",
"l$	c #ACA08E",
"m$	c #8B7C6B",
"n$	c #726555",
"o$	c #837B6F",
"p$	c #9E9483",
"q$	c #A39988",
"r$	c #B8AA94",
"s$	c #938775",
"t$	c #A69C8A",
"u$	c #A99D89",
"v$	c #B0A48E",
"w$	c #9C8F7A",
"x$	c #B3A68F",
"y$	c #A79C89",
"z$	c #AC9E89",
"A$	c #B3A893",
"B$	c #B3AA98",
"C$	c #A29684",
"D$	c #B4A791",
"E$	c #BFB6A2",
"F$	c #908474",
"G$	c #A8A08F",
"H$	c #AEA594",
"I$	c #B9AD9A",
"J$	c #C3B8A5",
"K$	c #B4A894",
"L$	c #AEA08C",
"M$	c #9D907D",
"N$	c #7E7160",
"O$	c #8C8476",
"P$	c #8F8779",
"Q$	c #AFA795",
"R$	c #9D9281",
"S$	c #BCB19E",
"T$	c #C5BBA8",
"U$	c #C7BCA8",
"V$	c #BAAD99",
"W$	c #ACA18F",
"X$	c #867C6E",
"Y$	c #908676",
"Z$	c #AAA191",
"`$	c #A8A090",
" %	c #AC9F8C",
".%	c #A9A090",
"+%	c #BBB2A0",
"@%	c #B6A892",
"#%	c #AA9C87",
"$%	c #B3A690",
"%%	c #A79B86",
"&%	c #857866",
"*%	c #463E33",
"=%	c #595248",
"-%	c #918979",
";%	c #A79D8B",
">%	c #837A6C",
",%	c #8B8273",
"'%	c #8C8477",
")%	c #948A7A",
"!%	c #93897A",
"~%	c #B0A593",
"{%	c #91897B",
"]%	c #AD9F8B",
"^%	c #B2A795",
"/%	c #B8B09F",
"(%	c #C4BCAA",
"_%	c #ACA493",
":%	c #CABEA8",
"<%	c #978977",
"[%	c #8B8071",
"}%	c #A79C8B",
"|%	c #BCAF9B",
"1%	c #91816D",
"2%	c #887C6B",
"3%	c #988C7A",
"4%	c #B1A895",
"5%	c #AD9E89",
"6%	c #AFA08C",
"7%	c #908271",
"8%	c #C0B5A2",
"9%	c #A39684",
"0%	c #918676",
"a%	c #897A69",
"b%	c #766E63",
"c%	c #9C9484",
"d%	c #9D8E7B",
"e%	c #AFA18C",
"f%	c #AEA491",
"g%	c #BFB19A",
"h%	c #928777",
"i%	c #807464",
"j%	c #9B907E",
"k%	c #968C7B",
"l%	c #C4BAA5",
"m%	c #B3A996",
"n%	c #AEA28F",
"o%	c #B5AC9B",
"p%	c #BFB6A3",
"q%	c #BCB19C",
"r%	c #C5BAA5",
"s%	c #C7BCA6",
"t%	c #BFB39E",
"u%	c #B2A38E",
"v%	c #C9BCA6",
"w%	c #B3AB99",
"x%	c #A49987",
"y%	c #A1917C",
"z%	c #9F8F79",
"A%	c #A19784",
"B%	c #BEB19A",
"C%	c #B8AC96",
"D%	c #685B4C",
"E%	c #7B7263",
"F%	c #A9A08D",
"G%	c #9E9583",
"H%	c #978A78",
"I%	c #A89A85",
"J%	c #A89983",
"K%	c #BCAF99",
"L%	c #BEB198",
"M%	c #A29682",
"N%	c #A19682",
"O%	c #9C9280",
"P%	c #948B7C",
"Q%	c #9A8C79",
"R%	c #B9AE9A",
"S%	c #9E9382",
"T%	c #9C9281",
"U%	c #938A7C",
"V%	c #A69D8D",
"W%	c #A89F8E",
"X%	c #8E8679",
"Y%	c #BCB3A2",
"Z%	c #B7AE9C",
"`%	c #AEA493",
" &	c #C2B7A4",
".&	c #A69A89",
"+&	c #8B7D6B",
"@&	c #7B7468",
"#&	c #9C9383",
"$&	c #B1A794",
"%&	c #A19380",
"&&	c #908371",
"*&	c #B2A590",
"=&	c #A69883",
"-&	c #9D917E",
";&	c #BAB09B",
">&	c #B2A894",
",&	c #BAAE99",
"'&	c #A09685",
")&	c #A59C8B",
"!&	c #BDB09B",
"~&	c #AEA490",
"{&	c #A39783",
"]&	c #998D7A",
"^&	c #988B79",
"/&	c #B0A796",
"(&	c #BDB3A1",
"_&	c #C5BAA7",
":&	c #C0B6A3",
"<&	c #B2A591",
"[&	c #C2B8A4",
"}&	c #A19481",
"|&	c #645D52",
"1&	c #888072",
"2&	c #928B7C",
"3&	c #A29989",
"4&	c #B3A896",
"5&	c #AFA38F",
"6&	c #9F9787",
"7&	c #BFB4A0",
"8&	c #A09788",
"9&	c #9F907C",
"0&	c #B4AA98",
"a&	c #B1A896",
"b&	c #C1B59F",
"c&	c #7A6F60",
"d&	c #958B7C",
"e&	c #978E80",
"f&	c #A29380",
"g&	c #C1B6A2",
"h&	c #A79984",
"i&	c #B5AA95",
"j&	c #A79A86",
"k&	c #837564",
"l&	c #463D33",
"m&	c #8D8575",
"n&	c #837B6D",
"o&	c #8A8173",
"p&	c #908778",
"q&	c #A49B8B",
"r&	c #A29B8C",
"s&	c #A89985",
"t&	c #B5AC9C",
"u&	c #CDC1AC",
"v&	c #A1927F",
"w&	c #8D8171",
"x&	c #978C7C",
"y&	c #AC9F8B",
"z&	c #988A77",
"A&	c #7E7467",
"B&	c #AB9F8C",
"C&	c #B6AB99",
"D&	c #C1B6A3",
"E&	c #A29481",
"F&	c #897B6A",
"G&	c #9B9283",
"H&	c #A0927E",
"I&	c #A59985",
"J&	c #A89D8A",
"K&	c #C2B6A0",
"L&	c #B9AB94",
"M&	c #BCB29E",
"N&	c #A69A88",
"O&	c #B6AD9C",
"P&	c #B0A592",
"Q&	c #ADA492",
"R&	c #B9AB96",
"S&	c #BFB29D",
"T&	c #B8AA95",
"U&	c #AA9A84",
"V&	c #AEA08B",
"W&	c #BDB099",
"X&	c #BCB099",
"Y&	c #9E917C",
"Z&	c #3E3830",
"`&	c #7F7567",
" *	c #B3AA96",
".*	c #958B7A",
"+*	c #A19480",
"@*	c #A69A87",
"#*	c #9D8E79",
"$*	c #A89882",
"%*	c #B8AB94",
"&*	c #AB9D86",
"**	c #ACA08A",
"=*	c #A99D88",
"-*	c #AFA38E",
";*	c #918674",
">*	c #877E6F",
",*	c #9F927E",
"'*	c #A39784",
")*	c #AA9D88",
"!*	c #978F7F",
"~*	c #9B9282",
"{*	c #AFA694",
"]*	c #887E6F",
"^*	c #B4AC9A",
"/*	c #A1988A",
"(*	c #BFB7A5",
"_*	c #B3AB9B",
":*	c #B3A693",
"<*	c #C0B6A4",
"[*	c #696257",
"}*	c #7D7569",
"|*	c #A89B88",
"1*	c #BBB09B",
"2*	c #BCB09B",
"3*	c #AAA08D",
"4*	c #A79A85",
"5*	c #AA9F8B",
"6*	c #AFA28C",
"7*	c #AA9E89",
"8*	c #ADA18B",
"9*	c #A79D8A",
"0*	c #9D9483",
"a*	c #C2B8A3",
"b*	c #CAC0AB",
"c*	c #91826F",
"d*	c #B4A895",
"e*	c #A29A8A",
"f*	c #B6AC9B",
"g*	c #C3B8A4",
"h*	c #BCB09D",
"i*	c #AB9F8B",
"j*	c #3B352C",
"k*	c #898274",
"l*	c #928A7C",
"m*	c #9B9385",
"n*	c #C8BDA9",
"o*	c #ABA392",
"p*	c #AA9F8E",
"q*	c #ACA291",
"r*	c #A99E8C",
"s*	c #9E9687",
"t*	c #BAB2A1",
"u*	c #B3A592",
"v*	c #A59B8A",
"w*	c #807566",
"x*	c #918778",
"y*	c #A19889",
"z*	c #9D8F7B",
"A*	c #A09480",
"B*	c #807361",
"C*	c #908777",
"D*	c #8B8274",
"E*	c #938B7C",
"F*	c #AFA696",
"G*	c #BCB3A0",
"H*	c #8E8577",
"I*	c #CCC1AE",
"J*	c #A79884",
"K*	c #A99F8D",
"L*	c #A69E8F",
"M*	c #948675",
"N*	c #A19686",
"O*	c #A39380",
"P*	c #9A8A76",
"Q*	c #988C7C",
"R*	c #B1A694",
"S*	c #BBB3A1",
"T*	c #9C8F7D",
"U*	c #ABA08E",
"V*	c #998975",
"W*	c #AEA08D",
"X*	c #9A8C7A",
"Y*	c #968A7A",
"Z*	c #5A4E42",
"`*	c #776F63",
" =	c #9C8D7A",
".=	c #B4A994",
"+=	c #BAAC95",
"@=	c #A69984",
"#=	c #A39987",
"$=	c #8E8271",
"%=	c #BBAE9A",
"&=	c #C3B8A3",
"*=	c #B3A591",
"==	c #B7A994",
"-=	c #A89984",
";=	c #A89782",
">=	c #A79985",
",=	c #B2A48E",
"'=	c #9E907B",
")=	c #807768",
"!=	c #A79E8B",
"~=	c #A09683",
"{=	c #9F937F",
"]=	c #A09581",
"^=	c #A99983",
"/=	c #B7A992",
"(=	c #A49782",
"_=	c #AA9D87",
":=	c #A69A86",
"<=	c #A49985",
"[=	c #B4AA96",
"}=	c #A99B86",
"|=	c #A99A85",
"1=	c #9D9585",
"2=	c #9C9585",
"3=	c #ADA696",
"4=	c #B8AD9A",
"5=	c #9C9486",
"6=	c #B2A998",
"7=	c #C1B8A5",
"8=	c #ADA494",
"9=	c #B5AB9A",
"0=	c #C1B9A7",
"a=	c #A29A8C",
"b=	c #C9BFAD",
"c=	c #AB9E8C",
"d=	c #8E7F6D",
"e=	c #696157",
"f=	c #81796D",
"g=	c #ABA08D",
"h=	c #9C8F7B",
"i=	c #BEB29B",
"j=	c #B5A993",
"k=	c #AFA593",
"l=	c #C2B6A1",
"m=	c #AFA490",
"n=	c #A69B88",
"o=	c #8E8270",
"p=	c #978874",
"q=	c #C9BFAC",
"r=	c #AEA18E",
"s=	c #3C352C",
"t=	c #857E70",
"u=	c #ABA393",
"v=	c #AB9F8D",
"w=	c #AAA190",
"x=	c #C4B8A2",
"y=	c #C3B7A1",
"z=	c #A49A88",
"A=	c #928573",
"B=	c #CCC2AE",
"C=	c #B9AD9B",
"D=	c #C3B6A0",
"E=	c #938B7B",
"F=	c #8A8172",
"G=	c #918879",
"H=	c #92897B",
"I=	c #898173",
"J=	c #B4A998",
"K=	c #C7BDA9",
"L=	c #C2B9A6",
"M=	c #9D9383",
"N=	c #B4A692",
"O=	c #988E7E",
"P=	c #A79F8F",
"Q=	c #C0B39F",
"R=	c #A69783",
"S=	c #9F8F7B",
"T=	c #8F816F",
"U=	c #ACA290",
"V=	c #9B8D7B",
"W=	c #9E907E",
"X=	c #998D7D",
"Y=	c #8D7F6E",
"Z=	c #5A4F42",
"`=	c #787064",
" -	c #978774",
".-	c #988D7B",
"+-	c #B8AA93",
"@-	c #B5A790",
"#-	c #C7BAA3",
"$-	c #A89C89",
"%-	c #B8AD99",
"&-	c #C5B9A4",
"*-	c #A4947F",
"=-	c #B6A891",
"--	c #7F7667",
";-	c #ADA491",
">-	c #9F9684",
",-	c #948977",
"'-	c #988C79",
")-	c #AB9C86",
"!-	c #A79A84",
"~-	c #998C78",
"{-	c #A99D87",
"]-	c #9F9583",
"^-	c #A19988",
"/-	c #9E9380",
"(-	c #A59782",
"_-	c #B3A58E",
":-	c #9F9584",
"<-	c #A49C8C",
"[-	c #A9A292",
"}-	c #9D9587",
"|-	c #C6BCA8",
"1-	c #B0A491",
"2-	c #B9B09E",
"3-	c #CDC4B2",
"4-	c #BCAF9C",
"5-	c #8E7F6E",
"6-	c #7E766A",
"7-	c #A09786",
"8-	c #C1B8A4",
"9-	c #BAAD98",
"0-	c #A49884",
"a-	c #BBAF98",
"b-	c #AEA38E",
"c-	c #A59A88",
"d-	c #AEA38F",
"e-	c #AAA08E",
"f-	c #988C78",
"g-	c #9B8F7B",
"h-	c #A9A190",
"i-	c #C9C0AD",
"j-	c #ACA190",
"k-	c #B9B09F",
"l-	c #C3B9A5",
"m-	c #A39582",
"n-	c #9F927F",
"o-	c #665E53",
"p-	c #81796B",
"q-	c #847A6C",
"r-	c #BAB19E",
"s-	c #A79F90",
"t-	c #B7A995",
"u-	c #B8AC97",
"v-	c #B1A793",
"w-	c #998976",
"x-	c #A99C89",
"y-	c #A59884",
"z-	c #9A8D79",
"A-	c #585247",
"B-	c #928A7A",
"C-	c #92897A",
"D-	c #867B6B",
"E-	c #A9A091",
"F-	c #9C9587",
"G-	c #907F6B",
"H-	c #A59B8B",
"I-	c #C4B8A3",
"J-	c #A39886",
"K-	c #BFB6A4",
"L-	c #C8BCA7",
"M-	c #A49A8A",
"N-	c #8E8475",
"O-	c #928676",
"P-	c #BEB09B",
"Q-	c #9B8C79",
"R-	c #91806C",
"S-	c #978B7A",
"T-	c #BFB49F",
"U-	c #A29582",
"V-	c #A99A86",
"W-	c #7E7567",
"X-	c #968B7B",
"Y-	c #8C7D6C",
"Z-	c #5A4F43",
"`-	c #787065",
" ;	c #9A8B78",
".;	c #998E7D",
"+;	c #B6AC98",
"@;	c #AD9F89",
"#;	c #AA9D8A",
"$;	c #998F7F",
"%;	c #A2937E",
"&;	c #978D7D",
"*;	c #C5BBA7",
"=;	c #A69B8A",
"-;	c #ABA190",
";;	c #A49784",
">;	c #7E7566",
",;	c #A19785",
"';	c #8F8675",
");	c #8D816F",
"!;	c #AC9D87",
"~;	c #B4A690",
"{;	c #A29581",
"];	c #9C917E",
"^;	c #999181",
"/;	c #C0B5A0",
"(;	c #7C7263",
"_;	c #BFB5A2",
":;	c #978F82",
"<;	c #B7AF9F",
"[;	c #B3A795",
"};	c #A49B8C",
"|;	c #C2B9A7",
"1;	c #A99C8A",
"2;	c #918371",
"3;	c #A49988",
"4;	c #B2A592",
"5;	c #B4AB98",
"6;	c #B9AE99",
"7;	c #B4A995",
"8;	c #9B8D7A",
"9;	c #B3A791",
"0;	c #AFA38D",
"a;	c #B4A891",
"b;	c #C5BBA6",
"c;	c #AA9B86",
"d;	c #867763",
"e;	c #8B7C69",
"f;	c #C1B8A6",
"g;	c #A89E8D",
"h;	c #C1B7A3",
"i;	c #A09380",
"j;	c #A19582",
"k;	c #3C352D",
"l;	c #655D52",
"m;	c #8B8275",
"n;	c #958E80",
"o;	c #A59986",
"p;	c #AFA391",
"q;	c #C1B7A4",
"r;	c #B4AC9C",
"s;	c #BFB19C",
"t;	c #8C7B67",
"u;	c #AEA290",
"v;	c #827A6C",
"w;	c #877A68",
"x;	c #90887B",
"y;	c #B3AB9A",
"z;	c #978D7C",
"A;	c #ADA392",
"B;	c #A89D8C",
"C;	c #C8BEAB",
"D;	c #B3A998",
"E;	c #AAA292",
"F;	c #B7AD9C",
"G;	c #9D907F",
"H;	c #A59C8C",
"I;	c #A69885",
"J;	c #948370",
"K;	c #918677",
"L;	c #A79B88",
"M;	c #9E9280",
"N;	c #B2A895",
"O;	c #9B8B77",
"P;	c #B1A491",
"Q;	c #BEB5A3",
"R;	c #9D8F7D",
"S;	c #9E9180",
"T;	c #797165",
"U;	c #8B8375",
"V;	c #B1A48D",
"W;	c #AFA594",
"X;	c #BBB29F",
"Y;	c #BEB19B",
"Z;	c #BBAD98",
"`;	c #948672",
" >	c #9B8D78",
".>	c #7C7364",
"+>	c #ABA18D",
"@>	c #A39581",
"#>	c #A59680",
"$>	c #BEB098",
"%>	c #897C68",
"&>	c #958A78",
"*>	c #9C9382",
"=>	c #968A78",
"->	c #BEB5A2",
";>	c #9F9585",
">>	c #C8BFAC",
",>	c #B8AE9C",
"'>	c #CCC4B2",
")>	c #B1A390",
"!>	c #B6AB9A",
"~>	c #BAAF9E",
"{>	c #A59886",
"]>	c #726455",
"^>	c #A49A87",
"/>	c #B6AB95",
"(>	c #B2A792",
"_>	c #B5AB97",
":>	c #978975",
"<>	c #B5A895",
"[>	c #9F9381",
"}>	c #7E7161",
"|>	c #3D352D",
"1>	c #80786B",
"2>	c #AEA593",
"3>	c #BDB3A0",
"4>	c #A69D8E",
"5>	c #B4AC9B",
"6>	c #A0917D",
"7>	c #A0927F",
"8>	c #9A9181",
"9>	c #AA9B87",
"0>	c #9D9382",
"a>	c #9A8B77",
"b>	c #B9AE98",
"c>	c #887C69",
"d>	c #857D6F",
"e>	c #A09888",
"f>	c #938B7E",
"g>	c #ACA393",
"h>	c #9A8E7C",
"i>	c #B7AC9A",
"j>	c #C2B5A0",
"k>	c #8F8373",
"l>	c #AD9E8A",
"m>	c #A49581",
"n>	c #8A8070",
"o>	c #A29583",
"p>	c #9D917F",
"q>	c #B2AA9A",
"r>	c #A59885",
"s>	c #877F71",
"t>	c #9A907F",
"u>	c #A89D89",
"v>	c #BDB19D",
"w>	c #ADA18E",
"x>	c #998C79",
"y>	c #ACA18C",
"z>	c #BDB19B",
"A>	c #AEA591",
"B>	c #AFA18B",
"C>	c #A79882",
"D>	c #BBAD96",
"E>	c #B1A28B",
"F>	c #B0A58F",
"G>	c #988F7D",
"H>	c #978E7E",
"I>	c #B2A793",
"J>	c #B5AC9A",
"K>	c #A09787",
"L>	c #AEA696",
"M>	c #A99F8F",
"N>	c #AEA595",
"O>	c #CEC3AF",
"P>	c #978D7E",
"Q>	c #B9B1A2",
"R>	c #C0B7A6",
"S>	c #8C7D6B",
"T>	c #736656",
"U>	c #786F62",
"V>	c #B6AE9C",
"W>	c #B5AA94",
"X>	c #9A8F7E",
"Y>	c #9C8D78",
"Z>	c #AB9C85",
"`>	c #877864",
" ,	c #A79E8D",
".,	c #A59C8D",
"+,	c #B5A997",
"@,	c #AB9C89",
"#,	c #675F53",
"$,	c #8A8274",
"%,	c #968D7E",
"&,	c #C8BEAA",
"*,	c #A39989",
"=,	c #C1B5A2",
"-,	c #BBB19E",
";,	c #B3AA99",
">,	c #AA9C89",
",,	c #C0B39D",
"',	c #9F907B",
"),	c #585147",
"!,	c #857D6E",
"~,	c #8B8070",
"{,	c #9F9788",
"],	c #B8B0A0",
"^,	c #A39785",
"/,	c #B2AA98",
"(,	c #C6BBA7",
"_,	c #B9AF9E",
":,	c #A89C8A",
"<,	c #816F5B",
"[,	c #9E9686",
"},	c #9B8F7E",
"|,	c #A59784",
"1,	c #7F7568",
"2,	c #9E907D",
"3,	c #8A7C6B",
"4,	c #797266",
"5,	c #847C6F",
"6,	c #B9AE9C",
"7,	c #A29886",
"8,	c #B4A893",
"9,	c #B6AB96",
"0,	c #C4B9A5",
"a,	c #C3B6A1",
"b,	c #9E8E7A",
"c,	c #BEB099",
"d,	c #A0927D",
"e,	c #A79D89",
"f,	c #C1B59E",
"g,	c #A29480",
"h,	c #BDB098",
"i,	c #A39680",
"j,	c #A49883",
"k,	c #B8AD98",
"l,	c #989082",
"m,	c #C3B9A7",
"n,	c #BCB2A0",
"o,	c #BAAD9A",
"p,	c #C5BBAA",
"q,	c #8B7C6A",
"r,	c #7B7265",
"s,	c #9B8C78",
"t,	c #B9AD96",
"u,	c #A29987",
"v,	c #B7AD98",
"w,	c #958C7C",
"x,	c #9D907E",
"y,	c #978773",
"z,	c #877661",
"A,	c #968D7C",
"B,	c #AA9C88",
"C,	c #676054",
"D,	c #837B6E",
"E,	c #BEB39E",
"F,	c #A19584",
"G,	c #A69784",
"H,	c #B3A894",
"I,	c #C4B9A3",
"J,	c #8B7F6F",
"K,	c #968B7A",
"L,	c #C0B39E",
"M,	c #9B8A77",
"N,	c #A79E8E",
"O,	c #A79883",
"P,	c #81796A",
"Q,	c #887E6E",
"R,	c #968E80",
"S,	c #A59988",
"T,	c #ABA191",
"U,	c #A89A87",
"V,	c #BEB5A4",
"W,	c #C7BDAB",
"X,	c #B9AC97",
"Y,	c #867A6B",
"Z,	c #A49683",
"`,	c #83796B",
" '	c #4C473E",
".'	c #7B7367",
"+'	c #9F917D",
"@'	c #A99E8A",
"#'	c #AA9B85",
"$'	c #A09785",
"%'	c #B8AB95",
"&'	c #9E9484",
"*'	c #9D9484",
"='	c #ABA18E",
"-'	c #B6A992",
";'	c #A0927C",
">'	c #817768",
",'	c #BFB199",
"''	c #B9AD97",
")'	c #A39884",
"!'	c #B7AE9B",
"~'	c #A89F8D",
"{'	c #968F81",
"]'	c #C1B7A6",
"^'	c #CCC3B2",
"/'	c #A49785",
"('	c #736657",
"_'	c #AEA392",
":'	c #BEB4A0",
"<'	c #AC9F8A",
"['	c #B4A993",
"}'	c #B1A690",
"|'	c #B7AB95",
"1'	c #887763",
"2'	c #9A8A75",
"3'	c #B0A896",
"4'	c #BDB09C",
"5'	c #988A78",
"6'	c #7B6E5E",
"7'	c #675F54",
"8'	c #81796C",
"9'	c #968E7F",
"0'	c #A19685",
"a'	c #B6AD9D",
"b'	c #C2B6A2",
"c'	c #A49B89",
"d'	c #B8AB97",
"e'	c #AEA494",
"f'	c #575046",
"g'	c #867E6F",
"h'	c #9B9382",
"i'	c #A09686",
"j'	c #A1998A",
"k'	c #8D8374",
"l'	c #BFB6A5",
"m'	c #988976",
"n'	c #8F7E6A",
"o'	c #9F9685",
"p'	c #857665",
"q'	c #888073",
"r'	c #9C907D",
"s'	c #958B7B",
"t'	c #BDB4A1",
"u'	c #B8A992",
"v'	c #B3A995",
"w'	c #998F7D",
"x'	c #BAAC94",
"y'	c #B0A38C",
"z'	c #A39883",
"A'	c #A39985",
"B'	c #99907F",
"C'	c #B2A996",
"D'	c #C3B8A2",
"E'	c #9D9485",
"F'	c #A69C8C",
"G'	c #C2B8A6",
"H'	c #C7BBA7",
"I'	c #C2B6A3",
"J'	c #A39D8E",
"K'	c #D0C5B3",
"L'	c #BFB3A0",
"M'	c #6B6359",
"N'	c #978974",
"O'	c #B6AA94",
"P'	c #AFA693",
"Q'	c #968571",
"R'	c #AB9E89",
"S'	c #ADA594",
"T'	c #999284",
"U'	c #CCC1AD",
"V'	c #958875",
"W'	c #7A6D5C",
"X'	c #7D7568",
"Y'	c #9A8A77",
"Z'	c #A69E8E",
"`'	c #837664",
" )	c #7F7768",
".)	c #8E8575",
"+)	c #A29A8B",
"@)	c #B7A894",
"#)	c #C0B8A6",
"$)	c #938675",
"%)	c #BFB29E",
"&)	c #9E8F7C",
"*)	c #9E9281",
"=)	c #998C7B",
"-)	c #A49786",
";)	c #8C8070",
">)	c #847564",
",)	c #4C463E",
"')	c #978875",
"))	c #9A8F7C",
"!)	c #8A7E6D",
"~)	c #BBB09E",
"{)	c #B2A897",
"])	c #B5A893",
"^)	c #A1927D",
"/)	c #7F7566",
"()	c #B0A692",
"_)	c #8D8373",
":)	c #BFB49E",
"<)	c #BBAD95",
"[)	c #AA9C86",
"})	c #9E927D",
"|)	c #A69B86",
"1)	c #A19683",
"2)	c #B8AE9A",
"3)	c #877E70",
"4)	c #ACA392",
"5)	c #999183",
"6)	c #CAC1B0",
"7)	c #AA9D8B",
"8)	c #39332B",
"9)	c #686056",
"0)	c #7C7468",
"a)	c #BFB5A0",
"b)	c #B3AA97",
"c)	c #A2937F",
"d)	c #BFB49D",
"e)	c #BBAE96",
"f)	c #8B8272",
"g)	c #B8AD97",
"h)	c #958672",
"i)	c #928370",
"j)	c #ACA292",
"k)	c #ADA18F",
"l)	c #AC9E8A",
"m)	c #968875",
"n)	c #7D6F5F",
"o)	c #80796C",
"p)	c #C4BAA7",
"q)	c #A0917E",
"r)	c #C1B5A1",
"s)	c #C7BDAA",
"t)	c #70604F",
"u)	c #796C5B",
"v)	c #9F9382",
"w)	c #9E8F7B",
"x)	c #82796B",
"y)	c #988F80",
"z)	c #A9A191",
"A)	c #A69F90",
"B)	c #AAA192",
"C)	c #ABA293",
"D)	c #9A8B79",
"E)	c #BDAF9A",
"F)	c #8D8475",
"G)	c #948978",
"H)	c #847665",
"I)	c #4C463D",
"J)	c #9A9183",
"K)	c #A09684",
"L)	c #BCAE99",
"M)	c #B1A28C",
"N)	c #A69882",
"O)	c #ABA08B",
"P)	c #AFA591",
"Q)	c #A59883",
"R)	c #BAAE98",
"S)	c #BDAF98",
"T)	c #A59781",
"U)	c #877966",
"V)	c #A49986",
"W)	c #A89F8F",
"X)	c #B5AD9D",
"Y)	c #B7AF9D",
"Z)	c #B8AF9E",
"`)	c #AFA796",
" !	c #B6AE9E",
".!	c #C7BEAD",
"+!	c #7F786B",
"@!	c #C0B4A0",
"#!	c #AB9E88",
"$!	c #B0A590",
"%!	c #BDB19A",
"&!	c #C3B7A2",
"*!	c #9A9282",
"=!	c #C1B7A5",
"-!	c #B7AF9E",
";!	c #A39B8B",
">!	c #988D7D",
",!	c #BAB2A0",
"'!	c #C7BBA5",
")!	c #847868",
"!!	c #857969",
"~!	c #A69987",
"{!	c #9E907C",
"]!	c #B4A892",
"^!	c #897C6A",
"/!	c #C4BBA9",
"(!	c #9C8C78",
"_!	c #9B907F",
":!	c #9D8E7A",
"<!	c #998977",
"[!	c #9C8E7C",
"}!	c #928677",
"|!	c #837463",
"1!	c #999182",
"2!	c #887D6D",
"3!	c #B2AA99",
"4!	c #C9BFAB",
"5!	c #BDB29C",
"6!	c #A2947E",
"7!	c #695C4C",
"8!	c #786E5F",
"9!	c #BBB29E",
"0!	c #8E8474",
"a!	c #BFB29B",
"b!	c #A99E89",
"c!	c #A89E8A",
"d!	c #988E7D",
"e!	c #887966",
"f!	c #8F8372",
"g!	c #AFA898",
"h!	c #A7A091",
"i!	c #ABA394",
"j!	c #BDB4A2",
"k!	c #C6BCAA",
"l!	c #B4A896",
"m!	c #B6AFA0",
"n!	c #CFC5B3",
"o!	c #7D766A",
"p!	c #938571",
"q!	c #B9B09B",
"r!	c #BBB09A",
"s!	c #AEA18B",
"t!	c #BCB4A1",
"u!	c #84725D",
"v!	c #B1A48E",
"w!	c #B3AA9A",
"x!	c #C6BAA5",
"y!	c #998B78",
"z!	c #817564",
"A!	c #8A8275",
"B!	c #9F9687",
"C!	c #7C6F5F",
"D!	c #898071",
"E!	c #A19989",
"F!	c #A59984",
"G!	c #887B68",
"H!	c #898172",
"I!	c #8B8171",
"J!	c #A39A8A",
"K!	c #CDC2AD",
"L!	c #908779",
"M!	c #7A6D5D",
"N!	c #9F8F7D",
"O!	c #C6BAA6",
"P!	c #968876",
"Q!	c #968977",
"R!	c #968C7D",
"S!	c #918575",
"T!	c #837362",
"U!	c #787165",
"V!	c #A39481",
"W!	c #B4A58F",
"X!	c #988D7C",
"Y!	c #C4B9A4",
"Z!	c #C5B8A4",
"`!	c #A89883",
" ~	c #C0B6A1",
".~	c #9F907A",
"+~	c #695C4D",
"@~	c #7D7465",
"#~	c #9D9381",
"$~	c #B8AA92",
"%~	c #B8AC95",
"&~	c #AFA48F",
"*~	c #988E7C",
"=~	c #7C7161",
"-~	c #978B79",
";~	c #979082",
">~	c #C7BFAE",
",~	c #B8AF9F",
"'~	c #A89A88",
")~	c #887968",
"!~	c #746657",
"~~	c #999081",
"{~	c #A09584",
"]~	c #9A8C78",
"^~	c #9D907C",
"/~	c #C0B29A",
"(~	c #B0A28B",
"_~	c #847460",
":~	c #998F7E",
"<~	c #C7BBA6",
"[~	c #807363",
"}~	c #7E776A",
"|~	c #A29888",
"1~	c #C9C0AC",
"2~	c #BAAC97",
"3~	c #847867",
"4~	c #908677",
"5~	c #92826F",
"6~	c #8A8273",
"7~	c #8F8677",
"8~	c #988F7F",
"9~	c #B5AD9C",
"0~	c #ADA291",
"a~	c #968A79",
"b~	c #948472",
"c~	c #968C7C",
"d~	c #ABA292",
"e~	c #827261",
"f~	c #7A7367",
"g~	c #9F917E",
"h~	c #988F81",
"i~	c #BDB3A2",
"j~	c #9F9484",
"k~	c #9A8B76",
"l~	c #685C4D",
"m~	c #7F7666",
"n~	c #9F9481",
"o~	c #B1A38B",
"p~	c #A99F8B",
"q~	c #A29885",
"r~	c #938A7A",
"s~	c #A8A091",
"t~	c #CABFAC",
"u~	c #AAA394",
"v~	c #BAB3A3",
"w~	c #C5BBA9",
"x~	c #C1B6A4",
"y~	c #736556",
"z~	c #7E776B",
"A~	c #C1B49C",
"B~	c #877663",
"C~	c #B9B19F",
"D~	c #7D7160",
"E~	c #7E7669",
"F~	c #AC9E8B",
"G~	c #C8BCA6",
"H~	c #998A78",
"I~	c #9F8F7A",
"J~	c #968874",
"K~	c #897D6A",
"L~	c #8D8576",
"M~	c #7B7264",
"N~	c #958A79",
"O~	c #A09889",
"P~	c #AD9F8C",
"Q~	c #8D8170",
"R~	c #C5BCA9",
"S~	c #9A8F80",
"T~	c #968572",
"U~	c #998C7A",
"V~	c #9B9182",
"W~	c #C5B9A5",
"X~	c #9D9282",
"Y~	c #594D41",
"Z~	c #BDB5A3",
"`~	c #A89F8C",
" {	c #B3A58F",
".{	c #B8AE99",
"+{	c #C0B39B",
"@{	c #A39885",
"#{	c #9B8F7C",
"${	c #847866",
"%{	c #A79B87",
"&{	c #A29A89",
"*{	c #BFB7A6",
"={	c #BDB2A0",
"-{	c #C1B9A8",
";{	c #CCC3B1",
">{	c #C4BAA8",
",{	c #C1BAA9",
"'{	c #C7BFAD",
"){	c #B0A391",
"!{	c #867665",
"~{	c #746757",
"{{	c #BEB5A1",
"]{	c #988874",
"^{	c #A2998A",
"/{	c #C6BBA8",
"({	c #CAC0AC",
"_{	c #7F7262",
":{	c #8E8170",
"<{	c #9B8F7D",
"[{	c #B4A795",
"}{	c #998D7B",
"|{	c #A49783",
"1{	c #877B68",
"2{	c #857D70",
"3{	c #ABA493",
"4{	c #9F8F7C",
"5{	c #594D40",
"6{	c #988C7B",
"7{	c #9D9586",
"8{	c #988B78",
"9{	c #AE9F89",
"0{	c #9A8C77",
"a{	c #675B4C",
"b{	c #A69B87",
"c{	c #B9AF99",
"d{	c #A29A88",
"e{	c #A79E8C",
"f{	c #AAA290",
"g{	c #CAC1AE",
"h{	c #ADA393",
"i{	c #C2B9A8",
"j{	c #C0B8A7",
"k{	c #887967",
"l{	c #746758",
"m{	c #7F776B",
"n{	c #B2A690",
"o{	c #978D7B",
"p{	c #9C917F",
"q{	c #A39480",
"r{	c #9D9280",
"s{	c #B6AE9D",
"t{	c #8F8271",
"u{	c #958774",
"v{	c #A59580",
"w{	c #B0A38D",
"x{	c #888071",
"y{	c #B0A390",
"z{	c #C6BEAC",
"A{	c #AEA697",
"B{	c #958471",
"C{	c #AAA291",
"D{	c #BBAC98",
"E{	c #9A8D7B",
"F{	c #AFA798",
"G{	c #837462",
"H{	c #584D40",
"I{	c #787166",
"J{	c #968D7F",
"K{	c #A49582",
"L{	c #A09583",
"M{	c #AB9D8A",
"N{	c #BAAB95",
"O{	c #9C8D79",
"P{	c #BAAD96",
"Q{	c #BCB19B",
"R{	c #ACA28E",
"S{	c #C5BCAA",
"T{	c #B9B1A1",
"U{	c #877766",
"V{	c #756858",
"W{	c #9D8F7A",
"X{	c #A0917C",
"Y{	c #9B8B76",
"Z{	c #AD9E88",
"`{	c #9B8E7D",
" ]	c #7D7060",
".]	c #BBB1A0",
"+]	c #C0B29C",
"@]	c #AC9F89",
"#]	c #877A67",
"$]	c #575146",
"%]	c #796D5E",
"&]	c #B0A492",
"*]	c #BCAE9A",
"=]	c #C6BDAA",
"-]	c #A19482",
";]	c #A29685",
">]	c #ABA08F",
",]	c #B5A692",
"']	c #AB9C87",
")]	c #A79B8A",
"!]	c #998B77",
"~]	c #B2A893",
"{]	c #BAAE97",
"]]	c #B1A792",
"^]	c #958978",
"/]	c #BCB39F",
"(]	c #A39786",
"_]	c #C9C0AE",
":]	c #C6BDAB",
"<]	c #756757",
"[]	c #B2A68F",
"}]	c #8E8371",
"|]	c #948673",
"1]	c #7C6F5E",
"2]	c #A69E8D",
"3]	c #CAC0AD",
"4]	c #ACA390",
"5]	c #B6A894",
"6]	c #AAA393",
"7]	c #8E806D",
"8]	c #A79F8E",
"9]	c #A2927C",
"0]	c #A89B86",
"a]	c #867E70",
"b]	c #898072",
"c]	c #7D7365",
"d]	c #989182",
"e]	c #C3B7A3",
"f]	c #BEB6A5",
"g]	c #BCB4A4",
"h]	c #B7B09F",
"i]	c #90806D",
"j]	c #9E9485",
"k]	c #C0B29D",
"l]	c #958572",
"m]	c #C4B7A2",
"n]	c #847463",
"o]	c #A69782",
"p]	c #938776",
"q]	c #AE9F8B",
"r]	c #675B4B",
"s]	c #817869",
"t]	c #A69C89",
"u]	c #A19583",
"v]	c #999082",
"w]	c #A39A8B",
"x]	c #A09789",
"y]	c #CAC0AE",
"z]	c #B4A794",
"A]	c #686055",
"B]	c #A79983",
"C]	c #B5A992",
"D]	c #A79C87",
"E]	c #877D6D",
"F]	c #BCAE97",
"G]	c #C7BCA7",
"H]	c #807362",
"I]	c #7F776A",
"J]	c #827869",
"K]	c #8A7B67",
"L]	c #B3A48E",
"M]	c #988873",
"N]	c #463D32",
"O]	c #C3BAA6",
"P]	c #857867",
"Q]	c #C0B5A3",
"R]	c #B4A693",
"S]	c #AFA08B",
"T]	c #AE9F8A",
"U]	c #837B6C",
"V]	c #8A7D6B",
"W]	c #928674",
"X]	c #9A9281",
"Y]	c #A19886",
"Z]	c #8E826F",
"`]	c #968B7C",
" ^	c #A79E8F",
".^	c #BBAE9B",
"+^	c #897968",
"@^	c #CBC2AF",
"#^	c #A29580",
"$^	c #8E8473",
"%^	c #8E7C68",
"&^	c #3D362D",
"*^	c #7A7265",
"=^	c #9D9486",
"-^	c #928A7B",
";^	c #B1A997",
">^	c #A99A84",
",^	c #AEA18F",
"'^	c #867461",
")^	c #948878",
"!^	c #988A76",
"~^	c #897F70",
"{^	c #B6AA98",
"]^	c #B6A791",
"^^	c #A79782",
"/^	c #988B77",
"(^	c #ADA38F",
"_^	c #C0B59F",
":^	c #B8AE98",
"<^	c #8C8171",
"[^	c #877867",
"}^	c #7D7468",
"|^	c #8C8375",
"1^	c #8D8271",
"2^	c #94836E",
"3^	c #978F81",
"4^	c #A79D8E",
"5^	c #BEB4A3",
"6^	c #9B8E7B",
"7^	c #7F7362",
"8^	c #958D80",
"9^	c #B1A593",
"0^	c #7A6C5C",
"a^	c #8B7B68",
"b^	c #978672",
"c^	c #847C6E",
"d^	c #827A6D",
"e^	c #BDB5A4",
"f^	c #908270",
"g^	c #A0917F",
"h^	c #C2B5A1",
"i^	c #887C6D",
"j^	c #837361",
"k^	c #887965",
"l^	c #C7B9A3",
"m^	c #A3927E",
"n^	c #9D8D78",
"o^	c #B7AD97",
"p^	c #B4AA95",
"q^	c #C2B7A2",
"r^	c #938A7D",
"s^	c #C6BAA7",
"t^	c #857664",
"u^	c #746656",
"v^	c #A29783",
"w^	c #9F9582",
"x^	c #867460",
"y^	c #AEA694",
"z^	c #948774",
"A^	c #928B7E",
"B^	c #A3947F",
"C^	c #B0A18C",
"D^	c #B4A790",
"E^	c #453D32",
"F^	c #575147",
"G^	c #8C8475",
"H^	c #CDC3AF",
"I^	c #CAC2B0",
"J^	c #B8AA96",
"K^	c #8A7D6E",
"L^	c #948573",
"M^	c #877764",
"N^	c #B1A28D",
"O^	c #8F8474",
"P^	c #887D6E",
"Q^	c #AA9E8C",
"R^	c #948D7F",
"S^	c #928776",
"T^	c #8C8272",
"U^	c #A3937E",
"V^	c #9B8E7A",
"W^	c #B3A994",
"X^	c #BDB39D",
"Y^	c #BAAF99",
"Z^	c #8E8677",
"`^	c #BAB19D",
" /	c #958D7E",
"./	c #CBC1AE",
"+/	c #C5BAA8",
"@/	c #897A68",
"#/	c #908879",
"$/	c #A49A86",
"%/	c #8D8372",
"&/	c #968672",
"*/	c #635C51",
"=/	c #888175",
"-/	c #CBC1AD",
";/	c #867866",
">/	c #A99984",
",/	c #80786A",
"'/	c #CBC0AB",
")/	c #B2A593",
"!/	c #8E8272",
"~/	c #AFA18E",
"{/	c #837261",
"]/	c #AA9A85",
"^/	c #A0937F",
"//	c #B0A793",
"(/	c #BFB59F",
"_/	c #9C9483",
":/	c #958674",
"</	c #39322B",
"[/	c #928879",
"}/	c #968C7A",
"|/	c #938673",
"1/	c #938A7B",
"2/	c #878074",
"3/	c #C8BDA8",
"4/	c #847969",
"5/	c #867D6E",
"6/	c #847B6D",
"7/	c #C9BDA7",
"8/	c #C0B8A5",
"9/	c #B1A695",
"0/	c #877C6C",
"a/	c #827361",
"b/	c #756D62",
"c/	c #9E927F",
"d/	c #82796A",
"e/	c #9F9786",
"f/	c #AFA493",
"g/	c #CCC2AF",
"h/	c #968775",
"i/	c #7C7366",
"j/	c #A1937E",
"k/	c #9A907E",
"l/	c #B9AC99",
"m/	c #625B51",
"n/	c #857D71",
"o/	c #8F7E6B",
"p/	c #9A9081",
"q/	c #A2927D",
"r/	c #857865",
"s/	c #817160",
"t/	c #C3B69F",
"u/	c #7B6C5B",
"v/	c #897E6F",
"w/	c #C8BDAA",
"x/	c #C7BBA4",
"y/	c #AAA08C",
"z/	c #ABA28E",
"A/	c #B5AB95",
"B/	c #9B917F",
"C/	c #B0A898",
"D/	c #ADA394",
"E/	c #B5AD9E",
"F/	c #CAC1AF",
"G/	c #39322A",
"H/	c #7F7669",
"I/	c #C2B9A5",
"J/	c #8B8170",
"K/	c #BEB39D",
"L/	c #9D9380",
"M/	c #9B9281",
"N/	c #8D7F6D",
"O/	c #827564",
"P/	c #8D8272",
"Q/	c #887764",
"R/	c #B2A48D",
"S/	c #B2A38D",
"T/	c #A39681",
"U/	c #A1927C",
"V/	c #AAA293",
"W/	c #B7A996",
"X/	c #9C907E",
"Y/	c #958C7E",
"Z/	c #817260",
"`/	c #736B60",
" (	c #C0B39C",
".(	c #B4AB9B",
"+(	c #A1907B",
"@(	c #827A6B",
"#(	c #A39A88",
"$(	c #A69E8C",
"%(	c #948A7B",
"&(	c #827666",
"*(	c #C3B8A6",
"=(	c #C7BCAA",
"-(	c #948674",
";(	c #80776A",
">(	c #8E7D69",
",(	c #C9BDA9",
"'(	c #7E7060",
")(	c #7A7266",
"!(	c #B1A999",
"~(	c #BCB09E",
"{(	c #A69682",
"](	c #B0A18A",
"^(	c #C3B59E",
"/(	c #A4947E",
"((	c #847765",
"_(	c #B8B1A0",
":(	c #C1B8A7",
"<(	c #BEB3A1",
"[(	c #7F705F",
"}(	c #756D61",
"|(	c #8C8172",
"1(	c #B7AE9A",
"2(	c #B4AC9D",
"3(	c #ADA596",
"4(	c #8A8174",
"5(	c #938979",
"6(	c #8F8574",
"7(	c #817463",
"8(	c #635C52",
"9(	c #C2B49F",
"0(	c #8D806E",
"a(	c #837869",
"b(	c #A59581",
"c(	c #AC9D88",
"d(	c #A3957F",
"e(	c #B6A890",
"f(	c #B9B1A0",
"g(	c #7E6F5E",
"h(	c #746C60",
"i(	c #978C7B",
"j(	c #A0907B",
"k(	c #7B7365",
"l(	c #B9AF9A",
"m(	c #9C9283",
"n(	c #A9A192",
"o(	c #AB9F8E",
"p(	c #90816F",
"q(	c #938876",
"r(	c #978A77",
"s(	c #897D6C",
"t(	c #7F7466",
"u(	c #A2937D",
"v(	c #B9AB93",
"w(	c #7E7668",
"x(	c #C6BCA9",
"y(	c #B8B09E",
"z(	c #AC9F8D",
"A(	c #8C7E6D",
"B(	c #A79C8C",
"C(	c #9A8A78",
"D(	c #4C453C",
"E(	c #8D806F",
"F(	c #C4BBA7",
"G(	c #A0937E",
"H(	c #695D4E",
"I(	c #BBB19C",
"J(	c #8C8374",
"K(	c #BDAF99",
"L(	c #A89E8E",
"M(	c #C9BEAA",
"N(	c #938472",
"O(	c #A39580",
"P(	c #898175",
"Q(	c #8A7D6D",
"R(	c #A89982",
"S(	c #B8AE9D",
"T(	c #9D8E7C",
"U(	c #B2A492",
"V(	c #8D8577",
"W(	c #A09687",
"X(	c #B9AB97",
"Y(	c #807160",
"Z(	c #4B453C",
"`(	c #736A5E",
" _	c #C7BFAC",
"._	c #C3B7A4",
"+_	c #AB9B86",
"@_	c #B6AC97",
"#_	c #918878",
"$_	c #C2BAA8",
"%_	c #918270",
"&_	c #686054",
"*_	c #958A7A",
"=_	c #A89A84",
"-_	c #958773",
";_	c #B0A696",
">_	c #817464",
",_	c #978976",
"'_	c #82786A",
")_	c #958673",
"!_	c #9E8E79",
"~_	c #B0A897",
"{_	c #B9B2A2",
"]_	c #82725F",
"^_	c #BCB2A1",
"/_	c #9B9386",
"(_	c #9C9181",
"__	c #C5B8A3",
":_	c #746C5F",
"<_	c #C8BFAD",
"[_	c #C1B7A2",
"}_	c #A1917D",
"|_	c #9E917D",
"1_	c #BDB4A0",
"2_	c #978E7D",
"3_	c #998B79",
"4_	c #8E8578",
"5_	c #BBAE98",
"6_	c #988975",
"7_	c #857460",
"8_	c #CABEAA",
"9_	c #AEA38D",
"0_	c #968674",
"a_	c #9E9789",
"b_	c #736B5E",
"c_	c #B7AE9E",
"d_	c #9C8B77",
"e_	c #B5AB96",
"f_	c #BCB29C",
"g_	c #B3AC9C",
"h_	c #C9C1B0",
"i_	c #C7BEAC",
"j_	c #B7AB9A",
"k_	c #726454",
"l_	c #958772",
"m_	c #6D5C48",
"n_	c #928472",
"o_	c #B7AA97",
"p_	c #C0B49E",
"q_	c #7F715F",
"r_	c #A39C8E",
"s_	c #978A79",
"t_	c #9E917F",
"u_	c #584C3F",
"v_	c #746B5F",
"w_	c #CCC1AF",
"x_	c #B6A895",
"y_	c #978B78",
"z_	c #736555",
"A_	c #685F54",
"B_	c #8F806D",
"C_	c #877D6E",
"D_	c #8E806E",
"E_	c #B5AA99",
"F_	c #AEA089",
"G_	c #787063",
"H_	c #8B8376",
"I_	c #908678",
"J_	c #938A79",
"K_	c #928979",
"L_	c #8D8578",
"M_	c #877E71",
"N_	c #786B5B",
"O_	c #766E62",
"P_	c #C2B49D",
"Q_	c #A69A85",
"R_	c #7C7467",
"S_	c #817A6D",
"T_	c #ACA394",
"U_	c #B7AB99",
"V_	c #726A5D",
"W_	c #8A7E6E",
"X_	c #A8A193",
"Y_	c #90816D",
"Z_	c #BAAF98",
"`_	c #938877",
" :	c #918777",
".:	c #CBC0AC",
"+:	c #B0A999",
"@:	c #988977",
"#:	c #AB9D87",
"$:	c #8E7F6B",
"%:	c #C4B8A5",
"&:	c #918370",
"*:	c #7D7263",
"=:	c #918574",
"-:	c #A8A192",
";:	c #9D9180",
">:	c #94836F",
",:	c #827362",
"':	c #746B5E",
"):	c #B4A590",
"!:	c #CABEAB",
"~:	c #B2A796",
"{:	c #695C4E",
"]:	c #ACA492",
"^:	c #ABA391",
"/:	c #938572",
"(:	c #908170",
"_:	c #B6AD99",
"::	c #CABFAB",
"<:	c #8E877A",
"[:	c #C7BEAB",
"}:	c #9B8E7C",
"|:	c #A29889",
"1:	c #897966",
"2:	c #867662",
"3:	c #BDAF97",
"4:	c #8C7F6D",
"5:	c #7D7262",
"6:	c #BCB4A3",
"7:	c #A79F91",
"8:	c #8B7C68",
"9:	c #8F7D6A",
"0:	c #817261",
"a:	c #72695C",
"b:	c #CDC3B1",
"c:	c #A1927E",
"d:	c #9B8D79",
"e:	c #C5BDAA",
"f:	c #726554",
"g:	c #837A6D",
"h:	c #C1B6A1",
"i:	c #958775",
"j:	c #796855",
"k:	c #B0A08B",
"l:	c #8D816E",
"m:	c #756B5E",
"n:	c #857B6D",
"o:	c #8C8274",
"p:	c #C0B6A5",
"q:	c #CBC2B0",
"r:	c #CDC2AF",
"s:	c #786F61",
"t:	c #BBB3A0",
"u:	c #CBC0AD",
"v:	c #BCB19A",
"w:	c #A09887",
"x:	c #978671",
"y:	c #BCB29D",
"z:	c #A9A293",
"A:	c #BFB29F",
"B:	c #797265",
"C:	c #8E8779",
"D:	c #B8AB98",
"E:	c #C9BEA9",
"F:	c #8B7B67",
"G:	c #867764",
"H:	c #B5AD9B",
"I:	c #B6A792",
"J:	c #B2A38C",
"K:	c #BBAC95",
"L:	c #817769",
"M:	c #9A8F7F",
"N:	c #C6BDAC",
"O:	c #A49989",
"P:	c #968774",
"Q:	c #837563",
"R:	c #A59D8C",
"S:	c #BEB09C",
"T:	c #867E6E",
"U:	c #BBAD97",
"V:	c #A3998A",
"W:	c #B2A491",
"X:	c #BEB49F",
"Y:	c #887864",
"Z:	c #797166",
"`:	c #898275",
" <	c #B0A594",
".<	c #8E7E6A",
"+<	c #81705D",
"@<	c #B4A58E",
"#<	c #C2B59E",
"$<	c #8E816E",
"%<	c #B5AE9F",
"&<	c #8F8576",
"*<	c #817361",
"=<	c #B2AB9A",
"-<	c #B3A999",
";<	c #857C6D",
"><	c #C2B39C",
",<	c #8C8578",
"'<	c #BDB19F",
")<	c #978876",
"!<	c #8A7A69",
"~<	c #8D8476",
"{<	c #C8BEA9",
"]<	c #8A7B69",
"^<	c #BAAC98",
"/<	c #B9AB98",
"(<	c #8F826F",
"_<	c #8C806D",
":<	c #554E44",
"<<	c #7C7264",
"[<	c #BEB6A6",
"}<	c #A89E8F",
"|<	c #AEA28C",
"1<	c #A69B8B",
"2<	c #827969",
"3<	c #9E9482",
"4<	c #736554",
"5<	c #6C6357",
"6<	c #A4957F",
"7<	c #948C7D",
"8<	c #948877",
"9<	c #BCAE96",
"0<	c #8B7F6C",
"a<	c #7D7567",
"b<	c #BAB3A2",
"c<	c #C2BAA9",
"d<	c #9F907E",
"e<	c #877D70",
"f<	c #797063",
"g<	c #9F9281",
"h<	c #BCB3A3",
"i<	c #CFC6B4",
"j<	c #83796A",
"k<	c #BEB49E",
"l<	c #B2A28C",
"m<	c #8C7D6A",
"n<	c #736454",
"o<	c #857C6F",
"p<	c #877D6F",
"q<	c #A5957F",
"r<	c #9D927F",
"s<	c #928572",
"t<	c #9F917C",
"u<	c #9F927D",
"v<	c #8E8373",
"w<	c #847869",
"x<	c #8B7F6E",
"y<	c #8F8270",
"z<	c #AAA495",
"A<	c #776553",
"B<	c #BAAF9D",
"C<	c #584D3F",
"D<	c #4C463C",
"E<	c #AFA595",
"F<	c #C5B9A3",
"G<	c #695D4D",
"H<	c #B8AF9B",
"I<	c #9B907D",
"J<	c #91826E",
"K<	c #C2B7A1",
"L<	c #82796C",
"M<	c #928471",
"N<	c #918675",
"O<	c #9A8D7A",
"P<	c #8A8072",
"Q<	c #C5BAA4",
"R<	c #AF9F89",
"S<	c #887F71",
"T<	c #998E7E",
"U<	c #776E61",
"V<	c #968B79",
"W<	c #C4B9A7",
"X<	c #CBC3B1",
"Y<	c #C6BEAE",
"Z<	c #CAC2B1",
"`<	c #B4A897",
" [	c #CABDA7",
".[	c #9C8C77",
"+[	c #A49C8B",
"@[	c #38322B",
"#[	c #7F7769",
"$[	c #8A7E6C",
"%[	c #BAB09F",
"&[	c #ACA597",
"*[	c #C4BDAC",
"=[	c #C5BDAB",
"-[	c #928371",
";[	c #827463",
">[	c #8D8474",
",[	c #8F8676",
"'[	c #BDB4A4",
")[	c #B9B0A0",
"![	c #9E9688",
"~[	c #B8AD9C",
"{[	c #93826E",
"][	c #BBAF9D",
"^[	c #6B6357",
"/[	c #AFA18A",
"([	c #7B6E5D",
"_[	c #8F8679",
":[	c #9F9586",
"<[	c #C2B7A5",
"[[	c #AEA596",
"}[	c #B3A490",
"|[	c #BBAD99",
"1[	c #A59681",
"2[	c #857765",
"3[	c #B3AA9B",
"4[	c #A29C8F",
"5[	c #D4CCBA",
"6[	c #9B8A76",
"7[	c #6A5D4D",
"8[	c #3E3932",
"9[	c #BBB19B",
"0[	c #B0A895",
"a[	c #988974",
"b[	c #BCB4A2",
"c[	c #6C6458",
"d[	c #A69781",
"e[	c #A49680",
"f[	c #8F816D",
"g[	c #645D53",
"h[	c #958877",
"i[	c #AD9D87",
"j[	c #564F44",
"k[	c #AFA899",
"l[	c #C4BCAC",
"m[	c #A19280",
"n[	c #8D7E6C",
"o[	c #A69F92",
"p[	c #C7BBA8",
"q[	c #A69681",
"r[	c #958571",
"s[	c #6A5D4E",
"t[	c #90806B",
"u[	c #CDC3B0",
"v[	c #8C7E6C",
"w[	c #9D8E78",
"x[	c #958977",
"y[	c #9B8E79",
"z[	c #978A76",
"A[	c #897A66",
"B[	c #7D705F",
"C[	c #979081",
"D[	c #CEC4B0",
"E[	c #B0A18B",
"F[	c #B5A68F",
"G[	c #B9AA92",
"H[	c #8C7F6C",
"I[	c #5A544A",
"J[	c #928675",
"K[	c #9C9385",
"L[	c #877967",
"M[	c #574C3F",
"N[	c #C5B9A6",
"O[	c #BFB29C",
"P[	c #90816C",
"Q[	c #93846F",
"R[	c #847A6B",
"S[	c #BEB199",
"T[	c #918573",
"U[	c #8C8273",
"V[	c #877B6C",
"W[	c #8A7A66",
"X[	c #C6BEAD",
"Y[	c #B0A899",
"Z[	c #C7BCA9",
"`[	c #9C907F",
" }	c #A19687",
".}	c #8F806E",
"+}	c #C2B8A7",
"@}	c #ACA596",
"#}	c #BDB29B",
"$}	c #A19381",
"%}	c #8A7A68",
"&}	c #A89B85",
"*}	c #635D52",
"=}	c #D0C6B1",
"-}	c #897C6B",
";}	c #AE9F88",
">}	c #908472",
",}	c #585148",
"'}	c #BFB7A7",
")}	c #9D9283",
"!}	c #B5AC99",
"~}	c #CEC4B2",
"{}	c #6A5E4E",
"]}	c #6D655A",
"^}	c #8F8475",
"/}	c #A3947E",
"(}	c #988A74",
"_}	c #9D9384",
":}	c #B3A48F",
"<}	c #74624F",
"[}	c #7C6A57",
"}}	c #877662",
"|}	c #BCAD96",
"1}	c #564F45",
"2}	c #ACA08F",
"3}	c #B7AD9D",
"4}	c #AB9D8B",
"5}	c #9E9282",
"6}	c #857C70",
"7}	c #867867",
"8}	c #C8C0AE",
"9}	c #CDC5B3",
"0}	c #D5CCB9",
"a}	c #6A5D4F",
"b}	c #908573",
"c}	c #948B7A",
"d}	c #B6A790",
"e}	c #91816F",
"f}	c #6C6459",
"g}	c #8A8071",
"h}	c #9F9383",
"i}	c #A69680",
"j}	c #595349",
"k}	c #7C7365",
"l}	c #AFA08D",
"m}	c #857B6C",
"n}	c #B4AA9A",
"o}	c #B6AE9F",
"p}	c #B5AE9E",
"q}	c #A49480",
"r}	c #988875",
"s}	c #746655",
"t}	c #6B6458",
"u}	c #867D6F",
"v}	c #AFA089",
"w}	c #9A8E7B",
"x}	c #827665",
"y}	c #80786C",
"z}	c #837665",
"A}	c #817563",
"B}	c #8B7A67",
"C}	c #BFB39D",
"D}	c #746555",
"E}	c #857560",
"F}	c #948A79",
"G}	c #857A6B",
"H}	c #8C806F",
"I}	c #C9BDA8",
"J}	c #8C7F6E",
"K}	c #A29482",
"L}	c #8A7E6B",
"M}	c #453C32",
"N}	c #A0998B",
"O}	c #736453",
"P}	c #B5A896",
"Q}	c #A69886",
"R}	c #998C7C",
"S}	c #4B443C",
"T}	c #958D7D",
"U}	c #7A6F5F",
"V}	c #CFC6B3",
"W}	c #CABFAA",
"X}	c #C0B49D",
"Y}	c #C2B69E",
"Z}	c #BAB09A",
"`}	c #8B7F6D",
" |	c #8B7B69",
".|	c #726453",
"+|	c #38322A",
"@|	c #90816E",
"#|	c #AA9C85",
"$|	c #877C6D",
"%|	c #9B9080",
"&|	c #897D6D",
"*|	c #B3A48D",
"=|	c #575045",
"-|	c #776E60",
";|	c #ABA495",
">|	c #9C8C79",
",|	c #9E8F7D",
"'|	c #A49A8B",
")|	c #A89C8B",
"!|	c #9A8C7B",
"~|	c #564C3F",
"{|	c #4A443C",
"]|	c #7C7060",
"^|	c #C6BDA9",
"/|	c #B0A28F",
"(|	c #C4B7A0",
"_|	c #938978",
":|	c #70695D",
"<|	c #8F8371",
"[|	c #8E816F",
"}|	c #A49887",
"||	c #9B8C7A",
"1|	c #C5BDAC",
"2|	c #84796A",
"3|	c #B2AB9B",
"4|	c #A49D8E",
"5|	c #877E72",
"6|	c #867F70",
"7|	c #989080",
"8|	c #948572",
"9|	c #A79C88",
"0|	c #BFB29A",
"a|	c #C1B6A0",
"b|	c #C0B59E",
"c|	c #6A6256",
"d|	c #99907E",
"e|	c #7A7267",
"f|	c #867B6C",
"g|	c #ADA697",
"h|	c #898073",
"i|	c #9A8E7E",
"j|	c #847B6F",
"k|	c #A0907C",
"l|	c #807261",
"m|	c #564B3E",
"n|	c #4A443B",
"o|	c #CCC3B0",
"p|	c #CCC0AD",
"q|	c #C8BEAC",
"r|	c #807869",
"s|	c #6F675B",
"t|	c #C2B69F",
"u|	c #938672",
"v|	c #898070",
"w|	c #807262",
"x|	c #655E54",
"y|	c #837666",
"z|	c #BAAB94",
"A|	c #564E44",
"B|	c #766D5F",
"C|	c #958B7D",
"D|	c #9B9486",
"E|	c #C0B9A8",
"F|	c #898174",
"G|	c #A59E8F",
"H|	c #B0A794",
"I|	c #817767",
"J|	c #D4CAB8",
"K|	c #9D8D79",
"L|	c #C4B69F",
"M|	c #978873",
"N|	c #6E675B",
"O|	c #897F6E",
"P|	c #CCC3AF",
"Q|	c #786959",
"R|	c #8F8473",
"S|	c #938470",
"T|	c #574F45",
"U|	c #797164",
"V|	c #B2A38F",
"W|	c #564B3F",
"X|	c #BEB19E",
"Y|	c #BEB7A7",
"Z|	c #BAB1A1",
"`|	c #6E665B",
" 1	c #AEA18A",
".1	c #817363",
"+1	c #676055",
"@1	c #776F64",
"#1	c #B5A794",
"$1	c #897C6C",
"%1	c #8A7C6A",
"&1	c #A89F90",
"*1	c #968E81",
"=1	c #938573",
"-1	c #827462",
";1	c #8B8374",
">1	c #817666",
",1	c #AA9C8A",
"'1	c #A29787",
")1	c #988F82",
"!1	c #958C7F",
"~1	c #6D6559",
"{1	c #7F7161",
"]1	c #675F55",
"^1	c #7D7162",
"/1	c #473D32",
"(1	c #A0988A",
"_1	c #AB9C88",
":1	c #847664",
"<1	c #BDB39E",
"[1	c #CABEA9",
"}1	c #897967",
"|1	c #6B6358",
"11	c #847563",
"21	c #958A7B",
"31	c #817362",
"41	c #797064",
"51	c #A1998B",
"61	c #AA9E8D",
"71	c #908574",
"81	c #897E6D",
"91	c #CCC2B0",
"01	c #948A7C",
"a1	c #A69F8F",
"b1	c #CDC3AE",
"c1	c #A19A8A",
"d1	c #A29B8D",
"e1	c #8F7F6D",
"f1	c #A2947D",
"g1	c #AB9F89",
"h1	c #827768",
"i1	c #897C69",
"j1	c #463D31",
"k1	c #A09585",
"l1	c #706354",
"m1	c #766857",
"n1	c #A79886",
"o1	c #867664",
"p1	c #877F70",
"q1	c #877B6B",
"r1	c #CBC1AF",
"s1	c #A9A18F",
"t1	c #A5967F",
"u1	c #968975",
"v1	c #72695D",
"w1	c #C2B59F",
"x1	c #7F6F5C",
"y1	c #8B7D6A",
"z1	c #968F82",
"A1	c #938574",
"B1	c #988F7E",
"C1	c #B7AC9B",
"D1	c #CAC1AD",
"E1	c #A9A291",
"F1	c #948570",
"G1	c #9B8C77",
"H1	c #786854",
"I1	c #7B6B57",
"J1	c #786F63",
"K1	c #897864",
"L1	c #585146",
"M1	c #857B6B",
"N1	c #92897C",
"O1	c #8F7F6C",
"P1	c #C3BBAA",
"Q1	c #847462",
"R1	c #C7BEAA",
"S1	c #AD9E8B",
"T1	c #B6A893",
"U1	c #AA9E88",
"V1	c #AA9F8A",
"W1	c #91826D",
"X1	c #8F7E69",
"Y1	c #7B6B58",
"Z1	c #A39C8D",
"`1	c #907F6C",
" 2	c #82705C",
".2	c #585046",
"+2	c #C1BAAA",
"@2	c #9A8D7C",
"#2	c #A59B8C",
"$2	c #A29584",
"%2	c #B6AA99",
"&2	c #9E9587",
"*2	c #BBAD9A",
"=2	c #A79885",
"-2	c #9E9788",
";2	c #6A6358",
">2	c #AC9E87",
",2	c #978772",
"'2	c #998872",
")2	c #665F55",
"!2	c #91836F",
"~2	c #595247",
"{2	c #7F7160",
"]2	c #A39888",
"^2	c #796C5C",
"/2	c #847A6A",
"(2	c #A69E90",
"_2	c #BBB3A3",
":2	c #AEA393",
"<2	c #756C60",
"[2	c #B2A390",
"}2	c #5A5348",
"|2	c #988D7E",
"12	c #A89B89",
"22	c #938774",
"32	c #574C40",
"42	c #CBC3B2",
"52	c #867B6A",
"62	c #6C655A",
"72	c #96856F",
"82	c #9D9584",
"92	c #92826E",
"02	c #8A7C68",
"a2	c #473D33",
"b2	c #B1A28E",
"c2	c #877968",
"d2	c #A49684",
"e2	c #D1C7B4",
"f2	c #574D40",
"g2	c #978A7A",
"h2	c #C4B7A3",
"i2	c #6D665B",
"j2	c #918776",
"k2	c #655F54",
"l2	c #716353",
"m2	c #7E6F5D",
"n2	c #595147",
"o2	c #CBBFAA",
"p2	c #908475",
"q2	c #B1AA9B",
"r2	c #9B8F7F",
"s2	c #958876",
"t2	c #8F8272",
"u2	c #BDB6A6",
"v2	c #6C6559",
"w2	c #A0947F",
"x2	c #8A7F6E",
"y2	c #857C6E",
"z2	c #8F7F6B",
"A2	c #5C554A",
"B2	c #938C7E",
"C2	c #CEC5B2",
"D2	c #9B8D7C",
"E2	c #C0B8A8",
"F2	c #6B6459",
"G2	c #948571",
"H2	c #908674",
"I2	c #9E8E78",
"J2	c #857663",
"K2	c #B8AC9A",
"L2	c #7E7465",
"M2	c #9D8F7E",
"N2	c #8D8070",
"O2	c #918471",
"P2	c #8C7E6B",
"Q2	c #8F8370",
"R2	c #4B453D",
"S2	c #A19788",
"T2	c #A59A8A",
"U2	c #B2A898",
"V2	c #9B9485",
"W2	c #8B7D6C",
"X2	c #8B8477",
"Y2	c #B3A790",
"Z2	c #B6AA93",
"`2	c #7F7363",
" 3	c #C6B8A2",
".3	c #8D7D6A",
"+3	c #837A6B",
"@3	c #C5BCAB",
"#3	c #C4BAA9",
"$3	c #A49C8E",
"%3	c #AFA692",
"&3	c #A09280",
"*3	c #7A7164",
"=3	c #776C5D",
"-3	c #746B60",
";3	c #8D8477",
">3	c #6D5E4D",
",3	c #595249",
"'3	c #8A8171",
")3	c #BDAF9B",
"!3	c #817565",
"~3	c #B6A997",
"{3	c #A0998A",
"]3	c #776753",
"^3	c #887B6A",
"/3	c #B5AC98",
"(3	c #A0907A",
"_3	c #887661",
":3	c #8C8271",
"<3	c #B6AE9B",
"[3	c #8A7C69",
"}3	c #5F594F",
"|3	c #C9C1AF",
"13	c #B3A593",
"23	c #ACA595",
"33	c #8D7E6B",
"43	c #4B463D",
"53	c #9D927E",
"63	c #8F8170",
"73	c #6A6357",
"83	c #7B7366",
"93	c #BEB09A",
"03	c #928673",
"a3	c #7F7464",
"b3	c #666055",
"c3	c #7C6D5B",
"d3	c #5B544B",
"e3	c #7B7061",
"f3	c #9B9284",
"g3	c #8E7F6C",
"h3	c #7C7568",
"i3	c #81725F",
"j3	c #8D806D",
"k3	c #B9AE97",
"l3	c #968773",
"m3	c #807565",
"n3	c #918473",
"o3	c #BAAD9B",
"p3	c #998F81",
"q3	c #B0A595",
"r3	c #998A76",
"s3	c #ADA495",
"t3	c #726353",
"u3	c #6A6257",
"v3	c #B9AC94",
"w3	c #877B6A",
"x3	c #857A6A",
"y3	c #B7A893",
"z3	c #7D7161",
"A3	c #AEA798",
"B3	c #8F816E",
"C3	c #847C6D",
"D3	c #948471",
"E3	c #8C7D69",
"F3	c #9A8E7A",
"G3	c #958671",
"H3	c #827B6F",
"I3	c #7C6D5C",
"J3	c #705F4D",
"K3	c #A49583",
"L3	c #585248",
"M3	c #8B7F70",
"N3	c #958A77",
"O3	c #675A4B",
"P3	c #7B7467",
"Q3	c #CABDA6",
"R3	c #92836F",
"S3	c #7D756A",
"T3	c #C7BAA5",
"U3	c #908473",
"V3	c #8B7E6B",
"W3	c #483F34",
"X3	c #988E7F",
"Y3	c #8B7E6D",
"Z3	c #918779",
"`3	c #B1A492",
" 4	c #8C7C69",
".4	c #A59C8A",
"+4	c #B0A18D",
"@4	c #7A7264",
"#4	c #8F7F6A",
"$4	c #81705C",
"%4	c #AFA290",
"&4	c #BAB2A2",
"*4	c #ADA190",
"=4	c #91897C",
"-4	c #978E7C",
";4	c #9C8F7E",
">4	c #CEC5B1",
",4	c #C6BCA7",
"'4	c #A99B89",
")4	c #675A4C",
"!4	c #3C3730",
"~4	c #7A7163",
"{4	c #C8BDA7",
"]4	c #CCC0AC",
"^4	c #897965",
"/4	c #AFA48E",
"(4	c #9D9687",
"_4	c #989183",
":4	c #483E34",
"<4	c #776F62",
"[4	c #928A7E",
"}4	c #948C7F",
"|4	c #AEA08E",
"14	c #9C9586",
"24	c #665A4B",
"34	c #7A7162",
"44	c #716454",
"54	c #C1B49D",
"64	c #958570",
"74	c #B4A68F",
"84	c #968A76",
"94	c #93836F",
"04	c #A79F8D",
"a4	c #A59683",
"b4	c #8D8274",
"c4	c #B7AA98",
"d4	c #7D7264",
"e4	c #8A806F",
"f4	c #8D7F6C",
"g4	c #C5B8A2",
"h4	c #A89A83",
"i4	c #B4A68E",
"j4	c #A99D8C",
"k4	c #827464",
"l4	c #A89986",
"m4	c #776958",
"n4	c #534C42",
"o4	c #8B8173",
"p4	c #77695A",
"q4	c #574C3E",
"r4	c #8E8676",
"s4	c #877965",
"t4	c #BFB3A1",
"u4	c #C5B7A2",
"v4	c #A99F90",
"w4	c #3D3730",
"x4	c #B9B09C",
"y4	c #94846F",
"z4	c #8D7D68",
"A4	c #9C8D7B",
"B4	c #867968",
"C4	c #938471",
"D4	c #948C7B",
"E4	c #7F7465",
"F4	c #AEA291",
"G4	c #9B917E",
"H4	c #907F6A",
"I4	c #867868",
"J4	c #5D564C",
"K4	c #8E806F",
"L4	c #84786A",
"M4	c #A29381",
"N4	c #C3B9A8",
"O4	c #A79783",
"P4	c #847B6C",
"Q4	c #BCAE98",
"R4	c #8A7A67",
"S4	c #978C79",
"T4	c #998974",
"U4	c #8E7D68",
"V4	c #A39B8A",
"W4	c #887A67",
"X4	c #867F71",
"Y4	c #7E7364",
"Z4	c #4B443B",
"`4	c #847C6C",
" 5	c #999180",
".5	c #928574",
"+5	c #8D8273",
"@5	c #A39583",
"#5	c #ADA38E",
"$5	c #B3A892",
"%5	c #91816B",
"&5	c #A19987",
"*5	c #BBB4A3",
"=5	c #978B7B",
"-5	c #888070",
";5	c #887866",
">5	c #A69983",
",5	c #534B41",
"'5	c #7A7063",
")5	c #A59785",
"!5	c #BCB098",
"~5	c #9F9480",
"{5	c #847766",
"]5	c #B8A995",
"^5	c #786E60",
"/5	c #877E6E",
"(5	c #A69D8A",
"_5	c #8A7F6F",
":5	c #65594A",
"<5	c #897A67",
"[5	c #9E927E",
"}5	c #B6AB94",
"|5	c #625A4F",
"15	c #877A69",
"25	c #B5AB9B",
"35	c #A39482",
"45	c #4C453B",
"55	c #958B79",
"65	c #C3B5A0",
"75	c #B3A58D",
"85	c #A39782",
"95	c #887F6F",
"05	c #A29B8B",
"a5	c #65594B",
"b5	c #7A7365",
"c5	c #7E6F5C",
"d5	c #3D362E",
"e5	c #AEA698",
"f5	c #93826F",
"g5	c #776D5F",
"h5	c #8A7B68",
"i5	c #4B453B",
"j5	c #A59C89",
"k5	c #9C9381",
"l5	c #3C372F",
"m5	c #BDAE98",
"n5	c #9D9181",
"o5	c #756857",
"p5	c #B6A991",
"q5	c #7B6F60",
"r5	c #766D61",
"s5	c #716758",
"t5	c #968978",
"u5	c #3B362F",
"v5	c #C3B59F",
"w5	c #887D6C",
"x5	c #807465",
"y5	c #8E8477",
"z5	c #5B554A",
"A5	c #6E6254",
"B5	c #797062",
"C5	c #8B8372",
"D5	c #736B5F",
"E5	c #C1B39D",
"F5	c #8F8472",
"G5	c #8D8579",
"H5	c #C6B9A4",
"I5	c #8D7E6A",
"J5	c #999184",
"K5	c #837A6A",
"L5	c #A89F8B",
"M5	c #A69C88",
"N5	c #968E7E",
"O5	c #66594B",
"P5	c #93836E",
"Q5	c #B7AA92",
"R5	c #AEA48F",
"S5	c #C8BBA6",
"T5	c #8F8577",
"U5	c #B1A99A",
"V5	c #B2AA9B",
"W5	c #B3AB9D",
"X5	c #83725E",
"Y5	c #584C3E",
"Z5	c #A59D8F",
"`5	c #B3A694",
" 6	c #BBB099",
".6	c #9D9689",
"+6	c #ABA395",
"@6	c #847B6B",
"#6	c #7D7668",
"$6	c #968976",
"%6	c #6E6050",
"&6	c #948D80",
"*6	c #B1A899",
"=6	c #918470",
"-6	c #86796A",
";6	c #867D6D",
">6	c #8D7D6B",
",6	c #837565",
"'6	c #645C52",
")6	c #AAA294",
"!6	c #B3AB9C",
"~6	c #A9A294",
"{6	c #8D7C68",
"]6	c #7B6D5D",
"^6	c #908370",
"/6	c #4D463C",
"(6	c #857C6C",
"_6	c #AFA590",
":6	c #7A6E5D",
"<6	c #8D826F",
"[6	c #756D60",
"}6	c #958976",
"|6	c #8E7E6C",
"16	c #3C342C",
"26	c #625B50",
"36	c #8F806C",
"46	c #635B50",
"56	c #958979",
"66	c #91806D",
"76	c #8F8777",
"86	c #AC9E8C",
"96	c #B0A691",
"06	c #787163",
"a6	c #C2B49E",
"b6	c #90806C",
"c6	c #ACA28D",
"d6	c #AEA28B",
"e6	c #BCAF97",
"f6	c #645C51",
"g6	c #7F766A",
"h6	c #A99A87",
"i6	c #494035",
"j6	c #594D3F",
"k6	c #4E473E",
"l6	c #877F6F",
"m6	c #B1AA9A",
"n6	c #766F62",
"o6	c #3B342B",
"p6	c #7E705F",
"q6	c #AA9B88",
"r6	c #C8BEAD",
"s6	c #9C927F",
"t6	c #BAAD95",
"u6	c #7B7266",
"v6	c #ACA495",
"w6	c #574B3E",
"x6	c #807767",
"y6	c #65584A",
"z6	c #6A6155",
"A6	c #C1B39B",
"B6	c #948875",
"C6	c #958C7B",
"D6	c #938674",
"E6	c #888074",
"F6	c #574B3D",
"G6	c #4B443A",
"H6	c #857D6D",
"I6	c #C8BCA8",
"J6	c #776F61",
"K6	c #696054",
"L6	c #887C6A",
"M6	c #564A3D",
"N6	c #B6AC96",
"O6	c #766E60",
"P6	c #A99A83",
"Q6	c #C2B59D",
"R6	c #857868",
"S6	c #82715E",
"T6	c #897B68",
"U6	c #827A6A",
"V6	c #A59C88",
"W6	c #6C6457",
"X6	c #81786B",
"Y6	c #B5A78F",
"Z6	c #9A917F",
"`6	c #B6AC9C",
" 7	c #AAA08B",
".7	c #3B372F",
"+7	c #766E61",
"@7	c #6D6558",
"#7	c #A0917B",
"$7	c #B8AB93",
"%7	c #968A77",
"&7	c #635C50",
"*7	c #938777",
"=7	c #867C6C",
"-7	c #ADA28C",
";7	c #71695C",
">7	c #A39A87",
",7	c #70675B",
"'7	c #A1917B",
")7	c #B0A690",
"!7	c #5A5247",
"~7	c #796C5D",
"{7	c #908373",
"]7	c #4A433A",
"^7	c #867C6B",
"/7	c #8C7C6A",
"(7	c #696053",
"_7	c #766D60",
":7	c #655D51",
"<7	c #C3BBA8",
"[7	c #928876",
"}7	c #A49C8A",
"|7	c #C6BFAD",
"17	c #9B8B75",
"27	c #AD9F88",
"37	c #7F705C",
"47	c #C0B3A0",
"57	c #A99A88",
"67	c #A69C8D",
"77	c #C5B8A1",
"87	c #C1B9A9",
"97	c #BDAF9C",
"07	c #887E70",
"a7	c #998F7C",
"b7	c #A49B8D",
"c7	c #C8C0AF",
"d7	c #736C5E",
"e7	c #6E665A",
"f7	c #696155",
"g7	c #9E8E7B",
"h7	c #9F9688",
"i7	c #564B3D",
"j7	c #8B816F",
"k7	c #BFB5A5",
"l7	c #9E937F",
"m7	c #B7AB94",
"n7	c #483E33",
"o7	c #595348",
"p7	c #64584A",
"q7	c #796E60",
"r7	c #B5AA93",
"s7	c #645C50",
"t7	c #BCAE9B",
"u7	c #746654",
"v7	c #5E574C",
"w7	c #6C5C4A",
"x7	c #756D5F",
"y7	c #A19885",
"z7	c #A49B88",
"A7	c #A69780",
"B7	c #BFB39B",
"C7	c #BAB0A0",
"D7	c #645849",
"E7	c #6D665A",
"F7	c #665E52",
"G7	c #8F8374",
"H7	c #C0B7A3",
"I7	c #CFC5B2",
"J7	c #736B5D",
"K7	c #8E8372",
"L7	c #71695D",
"M7	c #9D917D",
"N7	c #C0B29B",
"O7	c #655E52",
"P7	c #C1B5A3",
"Q7	c #CFC4B0",
"R7	c #8A8170",
"S7	c #70685C",
"T7	c #776C5E",
"U7	c #AD9F87",
"V7	c #A09580",
"W7	c #948976",
"X7	c #A2937C",
"Y7	c #81776A",
"Z7	c #B4AD9E",
"`7	c #B9AE9D",
" 8	c #827769",
".8	c #807260",
"+8	c #B8A994",
"@8	c #645749",
"#8	c #746C5E",
"$8	c #6F665A",
"%8	c #AC9D86",
"&8	c #807669",
"*8	c #8D7F6B",
"=8	c #8E8675",
"-8	c #A89D8D",
";8	c #3B362E",
">8	c #A19580",
",8	c #BEB39C",
"'8	c #BEAF99",
")8	c #7B6D5C",
"!8	c #9E8F79",
"~8	c #8C8372",
"{8	c #8B806F",
"]8	c #AA9F8F",
"^8	c #A29681",
"/8	c #978B77",
"(8	c #827767",
"_8	c #B2A58D",
":8	c #BEB29A",
"<8	c #A6967F",
"[8	c #92836E",
"}8	c #7A7165",
"|8	c #998D79",
"18	c #787061",
"28	c #B3A993",
"38	c #928978",
"48	c #BFB39C",
"58	c #635748",
"68	c #3C362E",
"78	c #786F60",
"88	c #B8AB99",
"98	c #887B6B",
"08	c #8F826E",
"a8	c #3C362F",
"b8	c #756C5E",
"c8	c #A29884",
"d8	c #7A6C5A",
"e8	c #736C61",
"f8	c #B8AC94",
"g8	c #928571",
"h8	c #3D372F",
"i8	c #766D5E",
"j8	c #807668",
"k8	c #807564",
"l8	c #807463",
"m8	c #827667",
"n8	c #A79987",
"o8	c #655849",
"p8	c #AB9E87",
"q8	c #7E705E",
"r8	c #6E675C",
"s8	c #595146",
"t8	c #847767",
"u8	c #B3A891",
"v8	c #948773",
"w8	c #655949",
"x8	c #938977",
"y8	c #BFB7A4",
"z8	c #9B8B78",
"A8	c #8E8574",
"B8	c #BAAE96",
"C8	c #665949",
"D8	c #797061",
"E8	c #968B78",
"F8	c #665E54",
"G8	c #574B3F",
"H8	c #988A79",
"I8	c #90836F",
"J8	c #998C77",
"K8	c #B4AC99",
"L8	c #766C5E",
"M8	c #AFA38C",
"N8	c #948470",
"O8	c #AE9E88",
"P8	c #C3BAA9",
"Q8	c #B2A99A",
"R8	c #675A4A",
"S8	c #938A78",
"T8	c #B7A891",
"U8	c #8C8170",
"V8	c #6F675C",
"W8	c #8E8171",
"X8	c #9E917B",
"Y8	c #645748",
"Z8	c #72695B",
"`8	c #AC9F88",
" 9	c #827563",
".9	c #837868",
"+9	c #6F685C",
"@9	c #837768",
"#9	c #B4AD9D",
"$9	c #A69988",
"%9	c #94897A",
"&9	c #4A433B",
"*9	c #90826E",
"=9	c #746B5D",
"-9	c #817462",
";9	c #C2B5A2",
">9	c #948775",
",9	c #908576",
"'9	c #958874",
")9	c #B7A991",
"!9	c #928775",
"~9	c #796C5A",
"{9	c #9C8E79",
"]9	c #C5BCA8",
"^9	c #B5A68E",
"/9	c #A59780",
"(9	c #988D7A",
"_9	c #8F877A",
":9	c #776959",
"<9	c #5A5248",
"[9	c #7F715E",
"}9	c #8D7E6D",
"|9	c #716A5E",
"19	c #7A7062",
"29	c #8A7D6A",
"39	c #918572",
"49	c #968873",
"59	c #6C5B49",
"69	c #A09483",
"79	c #C7BAA4",
"89	c #A39A8C",
"99	c #AFA18F",
"09	c #797163",
"a9	c #B9AD95",
"b9	c #8B7D69",
"c9	c #988B76",
"d9	c #857662",
"e9	c #B0A18E",
"f9	c #A1947E",
"g9	c #9D9688",
"h9	c #49433A",
"i9	c #9A8D78",
"j9	c #8D8270",
"k9	c #81715D",
"l9	c #BEB6A4",
"m9	c #BAAD94",
"n9	c #92846F",
"o9	c #837461",
"p9	c #857561",
"q9	c #7F6F5A",
"r9	c #817668",
"s9	c #A99E8E",
"t9	c #80715F",
"u9	c #9F927C",
"v9	c #948671",
"w9	c #A49781",
"x9	c #80715E",
"y9	c #82725E",
"z9	c #70695E",
"A9	c #B8AD96",
"B9	c #8D7D69",
"C9	c #7C7466",
"D9	c #857A69",
"E9	c #AA9B84",
"F9	c #A59882",
"G9	c #BAAC93",
"H9	c #B4AA94",
"I9	c #7E7569",
"J9	c #8F806F",
"K9	c #C3B9A3",
"L9	c #7E7667",
"M9	c #A89C86",
"N9	c #A09382",
"O9	c #A39B8D",
"P9	c #877C6B",
"Q9	c #998B75",
"R9	c #665A4A",
"S9	c #85745F",
"T9	c #867A69",
"U9	c #AEA797",
"V9	c #706252",
"W9	c #3D3831",
"X9	c #B8A991",
"Y9	c #B0A48D",
"Z9	c #A69A84",
"`9	c #C8BBA5",
" 0	c #C3B7A0",
".0	c #8E806C",
"+0	c #AD9E87",
"@0	c #A69881",
"#0	c #BEAF97",
"$0	c #7C7061",
"%0	c #B8B1A1",
"&0	c #84735F",
"*0	c #B4A78F",
"=0	c #8B7E6E",
"-0	c #A59B87",
";0	c #ADA089",
">0	c #ACA496",
",0	c #8F806B",
"'0	c #998B76",
")0	c #AFA189",
"!0	c #B2A790",
"~0	c #A59A85",
"{0	c #A0937D",
"]0	c #9E907A",
"^0	c #837766",
"/0	c #716455",
"(0	c #ADA698",
"_0	c #887F72",
":0	c #857766",
"<0	c #A2957F",
"[0	c #7C6E5D",
"}0	c #7C6C5A",
"|0	c #B6A78F",
"10	c #BBAE9C",
"20	c #D0C8B6",
"30	c #716150",
"40	c #867765",
"50	c #6F685D",
"60	c #584C40",
"70	c #B7A890",
"80	c #B7A990",
"90	c #A1937D",
"00	c #B0A798",
"a0	c #CAC1AC",
"b0	c #9F9079",
"c0	c #BAAB93",
"d0	c #BBAC94",
"e0	c #CDC1AB",
"f0	c #B1A58E",
"g0	c #B8AA91",
"h0	c #8C8373",
"i0	c #AFA088",
"j0	c #796D5D",
"k0	c #716252",
"l0	c #867B6D",
"m0	c #5A5449",
"n0	c #C9BFAA",
"o0	c #A1927B",
"p0	c #978A75",
"q0	c #B1A28A",
"r0	c #807567",
"s0	c #A4957E",
"t0	c #9B8C76",
"u0	c #A49984",
"v0	c #B0A189",
"w0	c #938B7A",
"x0	c #B1A791",
"y0	c #C9BCA7",
"z0	c #83735F",
"A0	c #9A8B75",
"B0	c #988872",
"C0	c #B2A38B",
"D0	c #7E6E5C",
"E0	c #7B7060",
"F0	c #BBAF97",
"G0	c #BFB198",
"H0	c #AC9C85",
"I0	c #696256",
"J0	c #888174",
"K0	c #C5BEAD",
"L0	c #A99B84",
"M0	c #AF9F87",
"N0	c #BDB6A5",
"O0	c #A5967E",
"P0	c #8A8375",
"Q0	c #BCB5A4",
"R0	c #BBB2A2",
"S0	c #847662",
"T0	c #8F887A",
"U0	c #C0B9A9",
"V0	c #7C7465",
"W0	c #C4B8A1",
"X0	c #AFA99A",
"Y0	c #ACA191",
"Z0	c #7B6B59",
"`0	c #584D41",
" a	c #B3A48C",
".a	c #AE9F87",
"+a	c #AEA48E",
"@a	c #BFB8A6",
"#a	c #92816E",
"$a	c #726B5F",
"%a	c #92816B",
"&a	c #A09784",
"*a	c #ACA594",
"=a	c #90806E",
"-a	c #8D7C67",
";a	c #AA9B83",
">a	c #847B6E",
",a	c #CBC1AC",
"'a	c #B4A591",
")a	c #7B7062",
"!a	c #807667",
"~a	c #A3937C",
"{a	c #AFA28B",
"]a	c #B8A990",
"^a	c #A0917A",
"/a	c #C6B9A3",
"(a	c #C3B6A2",
"_a	c #7A7366",
":a	c #746452",
"<a	c #8E8476",
"[a	c #A89E89",
"}a	c #8C7F6F",
"|a	c #877D6C",
"1a	c #B5A991",
"2a	c #635B51",
"3a	c #7E7464",
"4a	c #CBC3B0",
"5a	c #3D352C",
"6a	c #968772",
"7a	c #B1A894",
"8a	c #B4A58D",
"9a	c #B0A28A",
"0a	c #847968",
"aa	c #CEC3B0",
"ba	c #988B7A",
"ca	c #827360",
"da	c #7D7669",
"ea	c #A59E8E",
"fa	c #BBAC96",
"ga	c #746A5C",
"ha	c #C1B39E",
"ia	c #7C6E5E",
"ja	c #827B6D",
"ka	c #A49D8D",
"la	c #9B9280",
"ma	c #B7AB93",
"na	c #C6BBA5",
"oa	c #837867",
"pa	c #938879",
"qa	c #706353",
"ra	c #CCC0AA",
"sa	c #665A4C",
"ta	c #C1B7A1",
"ua	c #ADA490",
"va	c #958C7A",
"wa	c #7D6E5D",
"xa	c #787062",
"ya	c #9F988A",
"za	c #837360",
"Aa	c #A4947D",
"Ba	c #9D8D77",
"Ca	c #9E9481",
"Da	c #C1B69F",
"Ea	c #BDB5A2",
"Fa	c #B7B0A0",
"Ga	c #7D6D5A",
"Ha	c #9C8C76",
"Ia	c #9B8D77",
"Ja	c #ABA494",
"Ka	c #625A50",
"La	c #8F8776",
"Ma	c #4D473E",
"Na	c #B1A18B",
"Oa	c #908776",
"Pa	c #C1B59D",
"Qa	c #7D6F5E",
"Ra	c #999283",
"Sa	c #7E7363",
"Ta	c #716555",
"Ua	c #998A75",
"Va	c #847D6F",
"Wa	c #726656",
"Xa	c #C5B9A2",
"Ya	c #95856F",
"Za	c #BAB19C",
"`a	c #3A332B",
" b	c #988876",
".b	c #9F9785",
"+b	c #968573",
"@b	c #7C7569",
"#b	c #3C3830",
"$b	c #958573",
"%b	c #B9AA94",
"&b	c #38332B",
"*b	c #8A8272",
"=b	c #B2A28B",
"-b	c #C9C1AE",
";b	c #B5AE9D",
">b	c #675B4D",
",b	c #92816D",
"'b	c #ACA38F",
")b	c #91816C",
"!b	c #7B7466",
"~b	c #7C6D59",
"{b	c #3A342B",
"]b	c #928A79",
"^b	c #8C8478",
"/b	c #796B5B",
"(b	c #8B8377",
"_b	c #746C61",
":b	c #979083",
"<b	c #978F7E",
"[b	c #766859",
"}b	c #3A332C",
"|b	c #988772",
"1b	c #766858",
"2b	c #968D7B",
"3b	c #B0A493",
"4b	c #756E62",
"5b	c #837C6F",
"6b	c #746D61",
"7b	c #847C70",
"8b	c #C4BCA9",
"9b	c #786A5A",
"0b	c #AA9A83",
"ab	c #9A9285",
"bb	c #C2B7A0",
"cb	c #3A342C",
"db	c #B9AA93",
"eb	c #B5A890",
"fb	c #766959",
"gb	c #675C4D",
"hb	c #9C9080",
"ib	c #C1B8A3",
"jb	c #C0B299",
"kb	c #70685D",
"lb	c #90887C",
"mb	c #A8A08E",
"nb	c #685C4E",
"ob	c #8A7D6C",
"pb	c #756758",
"qb	c #797267",
"rb	c #A7A090",
"sb	c #756E63",
"tb	c #C2BAA7",
"ub	c #80796B",
"vb	c #807666",
"wb	c #988E80",
"xb	c #594F42",
"yb	c #726A5F",
"zb	c #867E72",
"Ab	c #9D8D7A",
"Bb	c #7A7061",
"Cb	c #BCB39E",
"Db	c #827B6E",
"Eb	c #8C806E",
"Fb	c #C1B9A6",
"Gb	c #B7AC95",
"Hb	c #7D7363",
"Ib	c #958D7C",
"Jb	c #A9A08C",
"Kb	c #716A5F",
"Lb	c #827A6E",
"Mb	c #BBB4A2",
"Nb	c #918877",
"Ob	c #8B7A66",
"Pb	c #837C6D",
"Qb	c #C9BEAB",
"Rb	c #71695E",
"Sb	c #968570",
"Tb	c #726B60",
"Ub	c #787164",
"Vb	c #BDB199",
"Wb	c #ACA491",
"Xb	c #99917F",
"Yb	c #968C7E",
"Zb	c #857666",
"`b	c #92806C",
" c	c #8E8778",
".c	c #90897C",
"+c	c #8B8476",
"@c	c #CBBEA9",
"#c	c #A19585",
"$c	c #B4AB97",
"%c	c #837464",
"&c	c #BDAE97",
"*c	c #938773",
"=c	c #A19A8B",
"-c	c #736757",
";c	c #7C7162",
">c	c #BEAF98",
",c	c #676155",
"'c	c #B1A996",
")c	c #94836D",
"!c	c #726352",
"~c	c #9C8B76",
"{c	c #B8B09D",
"]c	c #BEB6A3",
"^c	c #988E7B",
"/c	c #948776",
"(c	c #897F71",
"_c	c #685C4C",
":c	c #8E8273",
"<c	c #BEB5A5",
"[c	c #918A7A",
"}c	c #9D8F79",
"|c	c #837969",
"1c	c #867F72",
"2c	c #A89D88",
"3c	c #8D8678",
"4c	c #958878",
"5c	c #B0A99A",
"6c	c #766C5D",
"7c	c #898171",
"8c	c #928778",
"9c	c #B8A996",
"0c	c #A3937D",
"  . + @ # $ % & * = - ; > , ' ) ! ~ { ] ^ / ( _ : < [ } { | 1 2 3 4 5 : 6 7 8 9 0 a b c d e f g h i j k l m n o p q r s t u v w x y z A B C D E F G H I J K L M N O P $ Q R S c T U V W X Y Z `  ...O +.@.#.O $.%.&.*.=.-.T l ;.>.,.'.).!.~.{.].^.l /.(._.:.<.[.}.|.1.2.3.4.5.6.7.8.9.0.7.a.~ b.c.d.e.f.g.h.i.j.k.l.m.n.o.p.q.r.s.t.u.v.w.x.y.z.A.B.C.D.[.E.F.G.H.I.J.K.L.M.N.G O.P.E Q.R.S.j.T.U.V.W.X.Y.Z.`. +.+++@+#+$+%+&+*+=+-+8.I.;+>+,+1.'+)+!+4.~+A.[ {+]+^+/+W (+_+h.:+<+[+]+}+|+8.1+D.2+C.I.3+4+5+G 6+.+7+P A 8+9+0+a+",
"I.b+f N.c+d+e+f+g+h+% i+j+, k+l+m+n+o+p+q+r+s+t+u+v+w+&+x+y+8 z+A+C 3 6+B+C+D+E+F+G+H+I+J+K+L+M+N+O+P+& [.Q+R+o $.S+T+U+e V+W+X+Y+Z+`+ @3 .@e++@W.@@#@$@= %@&@*@=@-@;@f >@,@'@D+++)@@+!@D C ~@{@]@^@+ /@+ (@8._@7+:@<@[@_@}@|@1@2@3@4@5@6@g+7@l+8@9@0@a@b@c@d@e@f@g@h@i@j@k@I l@3 m@7.n@o@p@q@r@s@V |+{.t@u@v@w@x@y@z@A@B@C@A+D@y+E@F@G@H@x.y.I@J@K@L@0._@7.L+  M@N@O@P@Q@R@S@8.T@U@V@W@X@J+Y@Z@`@ #0@.#+#@###$#%#&#0+*#=#t+-#9 X ;#>#,#,@F '#)#'+)+!#~#{#o+l@]#^#/#(#_#:#<#[#}#|#1#2#3#D.4#5#[.6#7#8#9#0#a#b#: y+c#G@)@d#e#f#Y ",
"g#h#i#I. .j#P _ k#l#e+m#n#o#p#q#!.r#s#l@t#u#v#k#w#x#y#h+j z#A#B#b.C#D#[+E#F#w+G#H#Q+I#J#$.K#L#M#O _+t@(@N#v+O#P#Q#q.R#W S#T#U#X+x Z+(#V#R#e k#N.X.(.N+W#X#Y#O@Z#(+T `# $.$+ +$@$#$[+e.4 5#N@y#H $$;.%$&$*$=$^#C -$;$>$,$O+'$)$!$$@~${$]$^$/$i.($($_$R+:$<$[$}$|$1$2$3$4$5$6$m#l@8.7$N.8$[.}+~@9$1#r+0$4.a$b$c$q.d$A@e$f$g$A h$i$*#j$k$l$m$n$y.I@o$(+p$t@q m U+5#q$e v+r$s$t$u$:$v$w$x$F y$z$A$D.B$b# .C$D$E$9@F$G$| t@g$H$I$f#J$K$j.P+L$a@*@_ M$N$)+!#O$^ P$E+)@C$3 Q$D.R$S$J@=$_$T$+ U$D.V$Y.8 3 U+_ =@W$X$Y$Z$`$9 #$ %Z#.%+%Y ",
"k#]@@%#%'#a@r@$%j#8$%%&%*%=%-%;%>%,%'%)%!%~%{%_#b$]%^%/%(%G@T._%8 :%[+@+$.<%[%}%|%k 1%2%C 9@3%=$h b.4%5%9#6%7%P#a+G@S+8%9%0%a%X+x b%$#c%O+M+d%e%f%$ & g%h%i%+#j%k%3#l%m%=@K$T.n%o%z@p%V$q%+ c#r%s%t%u%v%V &$I.i.w%x%y%z%A%f+@%B%C%3@D%).E%F%Y#>@G%0@H%q I%J%K%f@L%M%N%8$O%P%Q%R%@.< J.`.A$,@~@S%=@%@T%U%V%N+W%F@X%Y%Z%[+| 1#S$h$`% &u#.&+&x.y.I@@&#&c$$&:+I.: R#+.r+%&P@&&G%*&_$=&-&P.;&>&,&'&)&8 i.!&~&{&8$]&^&)&/&(&`%+%_&]#:&<&[&4 E#Z#8.+@}&'+)+|&1&2&P$3&C 4&5&6&7&R$C@Z$ .K%8&9&X 0&H#v+a&b&$ & B X@c&d&e&0&8 1#f&&&&##$g&",
"Y  . .4#& =$r@h&*@i&j&k&l&, m&`@n&o&p&4+q&=+r&W l$s&X@t&q.R%H.(#H.u&R 4&@ w+8&W%!&v&9&w&G@ %x&n%E+C@R 2#8 y&z&A&B&C&f#D&E&T%F&X+x b%G&W%c#.@H&I&J&}+K&L&K d.h&:#t$A+M&N&m%N+O&P&F@:+B$r%+$*&Q&g + b$R&S&[ T&c+N+}&)&5%U&=@>.V&W&X&Y&{$Z&`&;% *.*K 3$+*@*#*$*<.%*&***=*-*;*>*,*R#'*)*{&v@* ;@: y$!*~*{*]*^*:+P&X@/*(*h$l._*F@:*!@`%<*u+h w.n$y.[*}*Q <*D.|*M&1*2*h !@0@Y.&&3*4*5*6*7*8*9*_@I&>&0*a*Y#b*D.c*t$M+d*e*Q f*0&l@g*G@h*3#Z@3#W.i*E#F @.N$j*|&k*l*m*n*P W$k#o*p*q*r*s*g R#t*u*y&1+0@R&v*}+j.J.q$w*x*s+y*(#e $ L$(#a$j.}+",
"C v+L$H _$1+]@>#z*j#A*B*n#=%C*i.D*,%E*k.F*G*H*^#I*J*q*o%m%K*P&L*[+E+V S$h#M*N*i$|%O*P*Q*R*^@h+M&-$S*T*[.U*I.V*A&:+U*W*0+X*Y*W+Z*x `*P$Q&!@K# =u$.=e%g%+=K*)&@=#=$= +q.9%% U+#$u#T %=D#r+ $R#2+v*&=/#*=& L$==9@;#6#-+-=;=|+>=,=B%D$'={$Z&)=!=-$n+~={=Q+]=c@^=/=(=_=:=-&<=l+p$+*[=N@}=|=$&a.r+t@y#1=0$2=G&3=C 4==@5=6=7=8=9=0=P *+a=b=T+c=d=x.y.e=f=3&e r+U*e r@H#A#g=#@*.h=R.G.i*_$i=j=3*,@_$ $k=q c.l=o@m=n=o=p=y*p%++q=(&A+r=8   0$O (@u$E U L N$s=|&t=A.u= $v=R#,#k.b.w=9$V%3 t%++N@S+x=K+ .Y#y==$==z=A=c&c$#&B=+$U+C=&+K#P C ",
"@+}=c+U k#q%$.D=,.- m@m#j+, E=F=G=#$H=s*#+W$I==+3 U d+J=K=L=M+M=q.S&a$&$N=O=P=F@Q=R=S=T=U=N+V=t+N&O e+T&C.$.5#A&%=4 %+S$W=X=Y=Z=x `={%E+:+|+ -.-S+)*+-@-.=.*#-$-:#S%%-&-V+{*S+V#f#2#h.a+j %=}%Y#!@=@  t%*=z$N&M%O+M+Q+*-i*M%@%+==-3@4@Z&--f%;->-,-4*##'-<.)-,=!-~-{-2$X.]-^-L L+/-(-_-:-D x%<-&.i.c#w=E*[-U+/ %#}-9+I$o.|-g$1-2-8+3-4-@$5-x.y.e=6-M+h n=7-8-9-N+2++ 5#`.I J&}=0-j#a-b-c-r%d-%#e-H 8@}+L+H f-g-X=h-i-j-k-f*^+,#l-7&~%=$m-N@^#r@n-'+s=o-p-q-`+R*~%:*% k.: k=r-s-t-[.1#0+C Y 5&2*M#O M+u-v-z#q@k=Z$:+C$w-x-H$g N+3 ",
"  O#< r@[ l=H Q+3$y-z-m#n#A-B--%C-p&D-( E-0&F-G-H-I-J-*+S$`%@+8=K-L-M-N#c=N-O-% P-Q-R-:- #R&S-T-%.r q.p@'&U-V-W-+.g k f#W=X-Y-Z-x `-s#G*;#v= ;.;+;F 1$@;#;$;%;n=&;b#K*I-t@V / _#6#g&1#*;*$^@=;-;D.P+Y A+*&C$;;}&P+r+< $*I-2.:$2@/=z*{$Z&>;d+c#,;';$@}=);!;)-}.~;{;m@:=];t$^;/ >&7 ,+S@M+j.q./;m=#=(+0*(;7#_;y+a$:;<;S$B@p.r [;Z%};|;a+1;2;n$y.e=f=3;4;C$5;/ 9-R 6;7;K$H#8;0.S@:$9;0;a;,;q%6;^;M# $`%b;C c;d;e;-;`+*;.+f;g;4&e h;3 7.n*y&-*i;J.j;'+k;l;!.m;n;t+^@o;[+.+p;~%q;r;<&q k=X <&R%s;_$[ j.R#S&;@H$^;r*p%U+` t;u;e#1#8 C ",
"G@E#e%n%G@N+Q#y=W.-.7*; n#=%v;!*4$w;~#x;2 y;z;A;q*==B;C;h*i$D;E;7=L-F;A+G;W%H;L@!&I;J;x*K;T&L;Y M;l-i.-.N;%+O;W-P;M-0 Q;R;S;W+Z-x T;U;+$f%.@n y$8$@=V;h#0.[=a.B&P&}@R ++=$K=f -@W;~%3#X;o._$=@%-7&6+Y;S.Z;|*(@`;y$K$E#*-l S@& K%+- >{$Z&.>+>E.}@a@@>$%I.1$#>$>/=%>=*0-&>*>C*c.T-=>P@_$2./ V#->g=5;P ;>p#>@)&f $;( >>6+,>'>6+)> @!>~>4;{>5-]>y.[*6-D@:*L+Q O *=#$M&L+8$$.h=^>G.}=/>e@(>;->#_>5;C.U+b#3  .!;:>%@$#! T 6=x+D;e <>[>,#U+N@L$>#m-N@u$}>|>o-1>s#~ B V$!@3#2>:&3>4>5>6>7>8>8%h*U+F.9>R%L+$ O 0&_%~@0>b.V$a>P  $#+j 4=v.",
"A+,+_ 5&%-N;=&,=j&b>g@c>n#=%d>>*8@o&e>f>g>F*h>=$C@i>X 7.a$E++%l@}#j>H.^#k>G#7+N&l>m>G+n>o>h#U+,&p>j.^%I-&$U-}=A&K#A#@ q>r>u;F&Z-x T;s>C M+j& ;t>A+C$0;u>5;/#@*;$k#O=2+l-t@H.%-v>U%w>4&+$J$w#m%j-2#Z%J.}+X 9&(@x>K*_>5&a Q+y>$@z>=-h&{$Z&.>l#Z i@A>B>5#.#C>3@D>E>F>f+2.G>H>=@/#@*7 *&z$I>-$O+J>g&Z@[ K>{%L>* b$M>] |;l$N>p.C;O>P>Q>R>P;L;S>T>y.I@U>S-]#V>8>J-/.% T.#;(@D _.I>{;j&:$W>(>e-~.N+_>K*>&c#X>Y>Z>`> ,#&[#3&.,V>E;+,K+o;C d+!&@,1-f+y&M%N$s=#,1>$,%,=;S$5&K+S%&,0+(#H$*={;*,=,y&/ -,,+W$7.K&'+S-P%7#f#a&W;S=V%;,V%]#>,}%",
";+m>@%,,-.+ k#',g@r@%%m#*%),!,8>~,c%{,f>],^,/,(,k-~%W*_,->;,6#++=+D f#:,;$+.G@'#z*<,@ [,},9-1+L+[>E+U=t@/ |,5%1,J-q;8%2->+2,3,Z-x 4,5,6,M+y&p=7,8,9,|@R.9#H$A$4$T%U=_+g&c-:,N@0,%,B&0+0++ Y X@L+0,9#X b;a,2#` ~%`@R q b,c,}+< W@/=d,{$Z&--g=Z b#e,< f,_=g,{&h,i,|$j,g@G%>@h>i;x-k,$%(@d+;.g q.t@:@M+Q&n;P=/&N#s*l,|;m,q>n,h*o,Z$=#p,` r>q,T>y.e=r,N>8 T$4$N@+@b$%-+ f :,s,7,8.:$9.t,-*u,8$S.v,Q N;w,x,y,z,A,#&U=%#,>V>E+g>1-B,g=m V%j>G.P $.1-n-N$s=C,D,O$e>y#a$` E,F,4=8%2-V G,8.o.(,c+H,m% -C M#I,v*J,K,7+L,e.i M,i y+N,=+8#P+",
"A+O,-.J+,&;.:$<.j;2.=*&%n#=%P,Q,.;i.s*x;R,=@S,A#T,U,8#V,S*W,k=K@u#X,C@I .;w#.%V$@$9>m>Y,P>u-d+<+f#i$$-t@8 Z,s&`,l$U*G.g*S%E&F&Z- '.'$,=@q.@>+'C*@'r@#'6;$'B$%'O+&'i$_+: W [ g :&*'W$+.A#L-N@-,K$M#%.N@%-k#1-< +./#='C.v++=K.(@f@-';'{$Z&>'u>f%Z @'z$'*=&+'8$,'''f@3$)'~.p&!'~',#5#h&:$O+-.#&@+{+a$S+`%Q !'i>: g>{'9+3#E;]'1+o.L>^'3-C#/'S>('y.z.6-_'C@[&R#x>:'_@X H,E$q%3@,@j#<'['}'|'K*e+j#m%M@_>:-}&1'2'A,3' $a$6=P=:'l,g V$L+h A;4'N=c#N+8#5'6's=7'8'9'~*q.r*7.2+0'X@j &.o%6>t%a']#X |+G@D 7,B&b'c.X@c'w#d'w@`.U+!'a&e'[&;+f#",
"R#5#*.>=2@v>E X.5#j#7*; n#f'g'h'i'}@j's*k'N,l'P+(#,#$.++T 6=_*l@g*%=S,M;x*[>d&^+m'n'v&o'=;Y + S+w>v>C&a.S$8#V&!%D&L#!&R*X>>+p'X+ '.'q'L+%-m-s,x*H,e+=-r'g=H.!&:-s'!'=#T.^@-,q;t'%#f#g E+@$k#3#S+t@X@@*,&U+8,:+:#J>0&B ^#u'X 1*8,)$p={$Z&--@'v'y$w'<$h=P@l 8.x'|.y'z'A'B'k'C'-;Z.N.i*D'@@P&c#%-t+%#$ %@Q,Q$-@f#V%E'F'G'k-H'I'++J'l'K'L'@*w.('y.M'T;E+y#<&;#0&$./.<'I.[+|+a>;@v-N'0.L&i=7,8,O'P'e.)&@*  Q'R'7,#=V%j'.%S'1#T'8 1+[+q s U'$.}+*@< V'W's=7'X'U%W%n,J.H 4&0$[+a&w@C@Y'=@/&8%E+2*:+%=>@% M-(+r-O&f P+R*2,Z'{*=@g>0,R#}#",
"=$+'H#j#D K$N.T#j&V@d@`'*%f' ).)k.{.{,k.+)o%M-e.D&@) %<--,q;#)~#R#1+g ]%d&$)o+K+%)N=&)$;*)t%E&b'^%6+b$&$A;6>t-.$=)D.k -);)I >)X+,)4,d.,>r y-')S%@@#@!$U#W')){;[>!)%@e*u@,>h.6#A#9==+P+9#~)(@-#d'c-u;L+0 D E+m=-@{)|-;#@>])f@y$h&-'^){$Z&/)k#()_@_)J%I&@;i=:)<)[)})|)1)k@7-h+'$9.M&== .M@m%f#H,2): _$0'3)4)q*4)5)H$7#C&/+8 t+{*8+}#6))@7)q,('8)9)0)f#x*3#t$a)W.(@;.8.b)U+c)|+H  >d)e)h,f)K%g)p$o')&'$h)i)+@#=D*:-H;*#V j){,W N=k)-$7#Q#  r%8.l)m)n)s=C,o)U;e>6=B, .w>*'g*d*#$p)q)r)`$s){+<&r)k 3#,&t)u)S%M&%-8 e+v)P+q&$#0$C;%-q.",
"I$w)V&P&z=X 3$K y&v$%%; n#),x)K>y)Q&z)x@A)j 6=u;n*d'd*#$u;/ 0=$+t@U t+2,B)D;C)@>%=m>D)^,c._$o@&-q.7+S+u#L+<%E)F) $U+e%K#G)2,H)X+I)4,J)w=e g,g,K)8$r@Q.r@= j;a@,;B;9'.+R%f {)!'3#b'T+C l$V l#8 X K*U=7+1-L)` :'U+d+-+>#(@M)8,#@#%}.N){$Z&/)O)P)[=&>Q)8,Q)%$R)S)T)2.<=~.z;Y$R.U)V)])}=%.g=D.W)b.|+#$7&A;q@X)Y)Z)R,`){)[;{ 8%D&A# ! !.!:*v=a%('8)[*+!0&@!n%M=O (.:$N@_ -,$ (->#r@3@8*I%#!j%$!%!A%$&H.&!E#p=5#O=*!r*2>H$=!6=-!7&c)<&a&N#h;1+I>d*|,Q%N$s=!+.'U;;!++B&:+% G=S+b$>!,!]%7+C@3>r='!  z$f K*)!!!:-j.!@`%4;~!5;: ~ N,3#$.g&",
">,{!}={;%$-.L$l ##]!g@^!*%),!,*'V.$#s*>!~#O&H$U+^+v+l)S*/!6#a@H;D.u;3 (!B._!S%t+p@:!<!6#@+ $A+#$S+m%+  $T.[!u%8>C#: *=)@}!< |!w I)`-1!/&N+}$I%%@K$N+M _ 2!9@w>k=@+3!C.m%P+%.5;D Z,t@S$_,[&4!S$##r>c-X@l$j>T#$ K$a)-,|+$ M)y-5!R=L&6!7!Z&8!@=='9!0!!;t,I&C%5!$%a!l b!c!d!';*@e!v*5&H 9@c#/;E;A#V>-,-,j-A./&f!g!h!i!T ->j!k!l!K-m!n!B@S$M#a%('8)[*o!~ u#[+R.N@$ (@B,p!@+d'H&%-r@|.q!!$O@V)r!s!d!y#t!n-z*u!v!,;G&z Z%F*R 3!w!^%W*x!B$R.g&p@=$|+,#y!z!s=!#}*A!B!/&O 1-v>c#q;7+*,K-E#k#h.0,>,U R#y&;#/@t$C!D-D!@+-$i>9 ,#[+E!A 3#5&n%",
"a+v+V-S)|'#%y,R'd,r@F!G!*%),H!.$I!J!a&p+P$8=8 w#K!i#u;Z)D&W;*,L!=$4'G*X,M!X*_!C Q#b$N!N@ #U*8, +O!M+w#C 3#P!Q!R!l=T+t+ @S!U,T!w I)U!K@7+i*# V!w'#=B&W!(@X!U=N+=@:-.*a&Y!_;c#=;f Z!i'~%v*g*b$D#G.*@q$d.A+f 5#R b;D.:@p)n%`!8, ~9&~;.~+~Z&@~X.P)U=#~s!8,>.Y@5!_>$~%~&~0.*~=~L.c.T -$j;% j.:+r-:'T%a$-~z#i'g ++e.;~;, @n,W;A#6+h.8+>~,~'~b$)~!~8)e=}*~~I-,>{~K$u-^#]~$&0$.@^~;&<'/.9;/~i*A%(~|']-^.{ _@ >_~/=:~D*4)z _%A+`%/%p;m-g*3#y#3 d*<~8 x-z&[~k;!#}~z |~W)N@S+4=q$a$<#V# $V-:+y#1~G.z$H.2~e-!&P&z!3~4~ #l@W;A+')++)&F*3#0+C ",
"~!,+W.L&J+*&5~<.8.#@7*^!l&),6~7~8~J@g>e*^..%l@{*&-$.M+L*9~K#,!B!g;h$j.i#0~a~(#4'@ y&b~d'c~T L+d~=$,>3#;+[&M*C$>@4'P+{@R k>|,e~w I)f~p+->A#g~2.M;@@K h&#@7,J-y#[ j'3!h~~'l=T c.L#|*v@i~ @=$%-4&L$P N#j~:+O++ f K#n%0'N+f !;e+_@|=''k~l~Z&m~'$P)3*m=6*$%>.H,r!n~o~s!b-p~q~r~1)p#/ + c;B&V#S N C y#*,O+K*(#M@A s~V%1#2-g$t*t~J$u~v~w~x~` ;+v y~8)e=z~~ ]#g&L#H.^+I L;~%W%t@b@T-_>7*l A~A$n=<.W.R.~~g H B~e@b+.$r#y)l*C~6=+%y; $;+&-3 ^%&=9-R%$-k#D)D~s=l;E~s+~ h.D.=+[.B.h$_;.+z#R=H#2 )@F~I.G~d*A+T&U=$;P%#$r*[#@+R%H~4=^%g.u+0+G@",
"U,I~5&k#J~N.^)j#0;W.7*K~l&),L~M~N~x@0$};~ O~$+B@j>P~8 Q~{)R~<*>!_#p>U+'#9%0'S~u#O#;+T~@!.,a$w>c%P+N=$ ==n%U~<#V~W~_+$ 0,X~g#e~Y~I)U!e&.@|*z*^~L;.=9.[)@@C*e-O !'5>Z~;>;>:$z=G)p>m i',> @T+I.M#I%*)-+;>N;&$%-e+i;L+9@e.t@[@$._ #%N.k~D%Z&--'*`~A>A% {B>0@H,Y#.{+{$>e@@{#{${c.: ^*%{#%N&8@/ #$R%&{6#J-}%3&.@Z'*{O&V k-={-{;{>{,{'{n.J$P;){!{~{8)I@o!3&t@V$-@B.])J~L#k={{9$y-P)8,+'g@%~y>Z.W#h@q F)S+#%]{$%v$]-! ^.^{[ +%r.V ,>o@g : /{r b'({K+y&V=_{s=!#}*O$U=C&8%^@/.#&e t'3!6=Q+.@.%u+G.E#f ])C Y!w=x,:{<{%@w=]#@+[{3>6+s*{++ J.",
"o@*-N.j#}{h&|{O'@=i&**1{l&),g'2{#&~*K#3{[#g><*n,E)S&g&`%w!q=z#D;1#h m%'#& F$;>W l)P&4{a. ,8&3>T%q;X,|%2~d*X*p>~#P+-;~%` G#E&T!5{I)Z+B!M&u## R)i@&@P'/.e-~*~@M+W; ,,@o'U=B,f 6{|*b$!%k=7{[;U ^%9>|%='9#7+K*I;^#8{O (*B.-.9{q%6>#%e%0{a{Z&>;b{G t$&@s!P.''c{d{A$i=!$D$+>X.^!:@e{W%I.,+'*b#;#`)7+f{0&e-&.Z.x+m*g{+%^.h{g.i{g.y+V,j{R>E@h*v=k{l{y.z.m{a$l=q.C q*d'i&d*P&p%-,(@5&% (=h@S)n{o{v!1.3*G=p{D$q{P@r{*>8~R!9'W)#$s{4)}#@.H#=$4=W;a+R%N@7$y!N$k;!#E~^{J))@d#3#S+H;u+$ 1!-!L$/#0&K=H#^#U*j>v>S t@<&i+t{8>K@o.a&0-u{,@J)+%f !&",
"9-v{-.S)@@b@8.w{S@#@=*; l&),x{o c%w=p%d~f>V%a'y{a+8%f z{A{f$R*t*K-R%A;}+Q!|~1#H,U,u;B{g&k=C{f%V+d#L-K=D{,#z&E{1=/;6#L$^%F{0+G{H{I)I{J{n-^%K{w{w'e+L{p>r+w,: (#y)O&N#v*t$5&g=S-=$T$J=]#$+J>G@;$M{N=@+d*G#L@3 H#,&-,4)F@5#N{z>X,%'#%O{a{Z&^$M%G _>8$h&-'g)>##=_@%*P{Q{i&R{a@0*^.;%/.S.K }%U=B.%.w@0>B&E.=@n%P=A &,-;5)2-g A W;Q;S{T{S+=+t U{V{y.I@0)d.@!^%C  $-.}$:*M&E$3#N+m=8,W{]!V;)'r{$%n=8$>@-&X{Y{Z{+@B'9'K@E'( E+u@Q;D.<>4 t@2+B$`{r+% 4#m) ]k;!+1>e&%#I$.]7+D d.r)t+y*Q; %R#g=C@I..@3#B,,@R#K#4$~*z#N,i'F@c-#;M%&. #l-<&I.",
"<+y%])+]I%I%C%@]8,r@d@#]l&$]I=1&%]k.:'i.s*J!g.&]*]7.f#: a&l.J$q*~%b$=]j--])%u;T#$.e ]{_#z=;]~%e*>],];%']W$J;^&%,  3 p;)]b.E&T!5{I)y $+y+K$&)R+o;k#b{* N+N~o'~@w,V c-$ %#7.c#-]^%'*p{c#B.8 7+L+%+a.U=L+0&B&e U'S&H.K#C;+@J%R%'#h#S@!]D%Z& ))'='[=~]|$e)Q{Y@!)d-['{]R)]] *^]c-3&M#y- {N#J&G*!'T -$;>/]*'D.!%e.6=j)R m*M-o.(]z# !_]:]8%<>` k{<]8)I@m{(#..9=D.8,H#I.>#O+U+u-j;[.6;)*]![]b!}]B>m=0>Y$I&]%P*<.%{' x@~*Z'H;6+y+H$W :+W t@/@O&<&0+0@/.|]1]|>!#X'~+2]e H-q%k#3&3>S+s-Y)D U-y&3]g#4]R#5]U=q%6;g;@{R$x{F@6]*@7]R$6#8]#$e $ ",
"/@9]G.F 2@W#0]1$g)F d@G!l&f'a]b]c]q*->4)d]8~7{H,5]2#e]f]g]h]g$`%H;%-g e o>/&z#0&t+8 i]U+[+'&<*j]_+:%0,k]d l]o@^ m]J$f Y W  %n]5{I)`-d&=+<&g,o]o@r@X.P ='&'V$2-C-,>d+L;9#>]0+U*B$Q!p]B;6=[ r+C X Y y#}@{ ,;0+(.h&x-+ /&q]c;_@ .,+l)m)r]Z&s]r{t]_>/>8,/=R)6;3.>&C%D$/>6; #~'t$,;Q N+b+u]Q g;d+&.5&e-Z.=':-v]{,r.y#S*w]q@n,4&++x]y]~)q=z]b )~~{8)A].'-;R#u#D.&,*=/.w>K+o;N+.@''/-<'B]C]b!D]D$I>]!E]j%,+V-F]=*w,2]o+l,2]w##$`%[+o@G]w#K=: V$;#%- =u{H]|>!#I]A!3&]#A;[.|*3&K$D.r#h$L,q]f @$]%q.M&N@$&3#5;J]T |~7~J>^%n K]e n,;!K#B,L$",
"Y L]o@5#i=,+X{M]6;8,3$G!N]f'g'6@U; #}#Z$( t@$;m U q.:*8=#)s{(&: -!O]2+D.X P]a~(#;+P I;^%R#i.Z'/%&+R#w#g*z]m-p{J@.@Q]d*|%+ M{T!5{I)y d~}#R]v&|=* 5#I>M$Q M@P&Q d&y#8$X!.@C.M{>]G&b.l@0$N,Y)9 V!V$g Y#q*K#.@d'K$S]f q;j Z,T]|'& l)<&Q%D%Z&U]n~0.+;>#2.x$z>;.V]W]%%9;'';&X]e-N@q$U.^#q{7 ='[ R.6#7;Y]Z]2%`%k=x@-;[+Z%o+`](&u=o% ^f;i>.^T+S#+^~{8)z.6-Z.J&@^a&:+b$#@M+% :#8,p$q q%3$#^9;1)@'D$d-l $^X-w{Y{%^$!s>x@A.$+G$M#9=F@w>;;&-I$:$K+k=f#p@@>|]H]&^l;*^=^B!f#i f M+E!z#}#9'8%q]p@;.-,G.I>Z; %y#Q#[ {,b# ,-^;^-+% z*Y@q.{ f q ;.",
"4=5%h#7>>^+*R+6*C%v$8*w;N]f'x{x@8'&'[.!%o+@+y)% M+O!,^9=K-K-0&r C@*;S$_#`.O=:&w=<#i]'^: 6+N>f*G*p+8 :*,]r s&)^F=B;L=[;%)7&8.G{5{I)`-5=}#A+g,_$j.S@c#!^~^c-t>r+_!}@ $V>f H.|%U=t*/'}@i'O=| C@K$4;{^k=g & q B&$&]^I>w>c-a.^^o]:$@>R'/^D%Z&!,b{(^;&6;n{P{5!b>I>o{q%r!_^:^H>~.i+*'M#y-:$|+<&U+7;C.P+a@c#<^i.H.K@^%R#F;J!P%}&j),~};_&T$P+-#R;[^!~8)I@}^|^2+i>@+*@K#N@7&m #@+@.@%$y-4#9.<'N%O)V&R%>.#~1^I%2'2^1)7~o'3^j K>`%4^5^#$|+V$H.h$P'+%4=U (@6^7^&^|&`*8^)&9^P=Y % 8=r+4)P=[+]+v>;+E+@ J-<+P 5;:'Q&0^v)W)~@g*k#V'a^8 C c#g <&D.",
"O#~;])_-c@V&b^Q.2.,&=*w;N]$]c^`+d^a$9-y#Z$%,q$r+8%D&H#C@e^B@-,(*B@S*-.4&f^8&<*o%G@g^B+/+0+c g>S$F'h^K+a.v>E&k>i^9^}#b.4;I.# j^5{I)Z+8&q;e+##R+H y&8@k^.*g z=T l)9#[ 4)&$n%X @+-!D#D#*)8>9=,>u;A#S+0&j q u]% R.l^C~b$Q&3#m^n^J.j&:$h=D%Z&x{U.0.().=-.b>o^Q{|+&@{=d@p^H,~*`@d+R$K+@.& r*[ @+N@R$q^K#w%Z$l,$#d&R~U$W;r^/&R*w!q>_*>{A s^=+W=t^u^8)I@X'y)t@H.8=3 q;I>P&]%S@l)U=7;M$##N.N.v^n@v!/#%$w^3~G.R+x^a@s>7#V.: F*-#H$Y%C&A+% % _;H.y^k#9-2,z^_{|>|&T;A^}@:&i v>!@&#_;G*e#C@1+|%s (&$.P&T&@*v-r*`#<].;M=)%6#D./.;+N#_+D;%-I;E+",
"B^C^}=F]@%[)2'D^/>n{=*w;E^F^E~G^J@c#/@[ K*y)g;:+W;h$H^Y)=]Q;i I^K-9~4'b$J^K^u;D;I.L^M^a$$ 5=s.w#c#/@T.N^=+@.O^P^Q^/{S#P a.c+j^5{I)I{R^8%q E#C^:~0.@{6^S^3%T^g;]):#c#.;d*S d u]g A#t.U+g>k-_;d'v>N+6#E+T+X *@q.<+K*'*=$I;v{U^& B,6*V^{$Z&x)t]W^v'X^Y^X&A$%$p^_@@'6;[=_>Z^}@3$<{O =&$@R%u,U+p;W$m%Q&`^ / /g;`%i ]#:&B!n,b.B@],*{./]#+/I$L^@/u^8)I@E~#/n,V%g;g r-a*g&C%S !&8$%'@{c+''b>$/%/j#=$S@L{k%&/b+2^v^1&{~ +X@d#(&B@x+g&y{u*C C&3>_;%&*&&)x>_{|>*/`==/r A .%[+-/*+.%1#U%h+4'%=]#1#<&T.p@.@{*r+9$]%;/F#D-p#*;R#0+N&A;K#G@;+r%",
"]{y&>/B>,=y-*-K%R)['3$w;N]),,/#/x*v*A+E+T%r#K,j { [ j f;C@(#B@}#=!V %='/9@>)^&o%2+)/P~`%P+Z$H;: d.v>-,z$8 |*!/Y,g&g&@!+ r@~/{/5{I)b%J!7+%+g,z$L{H,7,$%o=()c#^.J.c$L@d.r)H.`%H.H$F.j-o>R!N,z@v>/.v>3>-+H#R%C b'Y;8 ;;r+1-M ]/U '#|=^/{$Z&s]y$@@.{.{|'C%5$k,v,//_>(/_>>&_/p#y&'*Z z$B,>#4=-,t>u]3 v@y#:@F)=@#$@+[ >>;,7+%#-;t&X)g.9 G'){:/S>y~</9)E~[/^%+%+ $ :&^+j#V&D.,+B&,,,&b@R'9./-}/P{$&_^@#h>|/z$R-@#1/c %,g>.%U+h.F'm%@!;#O!0+Q&*+T.I.d%V'[~k;*/`*2/: e / D;&,7={ [&q@B H 3/3 ]#D K#<&P y^g&g*0 ^!4/#&5/2 :'K*x-J!N ;#r>R.",
"%;A+*.+=7*]!^)''q%V@h@w;N]),6/a]N>;>7/}#r&~*S,-$M@d*7.8/X@_*e#t.: [+|%A#p;g~9/*#M+){R#x-W~,!k--/p+}#|-v=b's&M.0/4;(,Q#g&G.>,a/5{I)b/h~P g,g,>.J-c/_@!$z;y#8@$#K&X;T%#&7.R M+x+8+Q^8%d%c `%F@8 %&A+:+P&d*T-%-r 2*[&:&]#+ L]U&B,@>|=I {$Z&d/G g)I>g=8,b>H />:^m=v,7;j.7@4]e/.=,#9#>=}=O N;M+|+;#R#3&{*b.1=v@9~f/N,g/y@4&s{s{t&w!i-z@C; &h/q,T></z.i/7~b.#=P+k#3;K+a.T-#@D$5.9{4*j/o@V@k/%/M -@ .V)K,u>_ G-A=#/r*K@ #.%)@9=.%3#l/!@d g*I>l-|,  2,<#}>|>m/T;n/W%4=P&t@9 0,.+Y%j!W;h$w#^+{^2#b$C 6%-;P&a.B,N#[#H$6&&.^,e;o/p/v@e++ !'",
"q/& ;;<.*&5#1$Q{C%O'A$r/N]$]p-I]D*:-S&E+Z$H;0'p*M+u#N;p%q.Z)`)6=F'+%2*W$]#@*B r*-$8.4;` Y y;l'&,U%R%f#N&$ K{O^O- +^+F+^@d*>,s/H{I)b%$#U-c)7$']5*'*&@t/p{u/t$v/& W%~@C-/&p)w#c#{ O!w/:+s'6{y#T+7.$ ,>A#R#N#D.3>x/e-t@C@Q#4#^^h#@>b@{!D%Z&,/y/.=z/>#j=%$Y^o^.{A/B/P)y/7,W%G >#^]'*< Y;P&T%C [.I>;.p#m%L+c.q$c#} 6#d i _'-!C/D/E/F/_&1#6,L^S>T>G/A]H/w,l-4&I/r++;n%_$K$r@])#~B>i*E#9.8*y>J/6*K+K/L/~=M;@%,$U-b]M/8&A;d#h$H.{)u#S+I$&-K+D.[ |* %m-N/H]|>*/d^{%(+e ;%4=S+: w]-;/&e$K+t+X,8%2+9   Y.N;_ I>:%O/P/}@V.m%%-o@Q/j!9#e e l-",
"%;0.e%R/S/T/U/Q{k,i&=*#]N]),>%v;s+8~(,w@:'*,%@6]t*M#6#`$Z~=#i.V/9=R*q.f#+,W/a~1;X/3#P i>W*X)o%+$J{$ g*K+[&s&S^J Y/b'm]< |*U,Z/H{I)`/#&d*$.(-,+n=^#%- (J&#~[ 2 *$ ,*!B.V 2-P&N E!S+q;[.i .(6+<>r)H G*7&+ M=%'4$^@X@4&-+$-<&+(#%Y.##2,D%Z&@(='.=>&>#u-Y^Y^>#g)W^G ()N+#($(~*R%Q@d-g,b+* ,;q I>N@.@%(X@V &(T*$#*(F;z@6=]#Z$+%,~F{=(D&^%t'-(w.y~G/A];(J@-@Z$N;$-;#2)_$q%i&V&O+~;M;5*6;0]+>I!<.7;0@,;*~e+#>>(;%7~c.^.D#E',((&H.0&n,@!=,+$f#w@w>w>M{+&'(|>*/)({%U*T.e @+4;Q^$#++!(^,&,,>2~~('#M+v+Q#7#% a.<&k>p+C-%,-@| R#i)C@R$3 d*y#",
"{(W@M ](^({!/(i&Y^H 3$((N]$]^$s>0!p&*$_(/&*>X=u=r R% @1=+%:(3!$+ ^<(2+r d*+.:@g$H.4&_;L#c+;,h d*%,D&U+0&K+l)%,)^;>|%l){>$ E&[(H{I)}(:@[.l)B,e%v^$-{{R)p$=@T Q M+U=v*K@e.t@;+0$6=(% &4;-!|(3&B;@![&Z%+ q%{~K$S+Y;2+2>5;t@N^[@N.v+>=#^l~Z& )v-O'f%>#i&5$g)>#5!]]3*1(O t>b#^;f%I$G#P@b+O+x-U D.N&7-7,,@<-t@X-F@]#B$n.!( ,.+,~2(3(t~T+j!b.<%d=n$G/A]i/4(a$`%M#k#[+H#R%;@I.:$5(J+H 0]|{|.i@6(>.|+R%/-*&-~]^X{R.7~$;p+_'(&:&9=j!W h$/@T$h$[ B$e ]+f&-(7(k;8(b%'%%.i &=: i>4=/&Z%*++.=+f#9(Z)G.f ^@^@ +R%;@m%0(N~a(L!e.7.m-q)O+e.N@v)y#",
"b(X c(}=8#d(e(5$5$g)g@&%N]F^P#a]y)!*:@,>[+H.*,N>K-=+O&8&f(T$ ^J)p)[;b;u#e #;i'S$3>Q@B;+.C 2-l@K$q@_#t%P 9#s&K>z+q&U$]%4;I.K{g(H{I)h(*,;.h&:$~;g=:+a)-.Z '-0>z+y&C.w=i(K>g.5&| 3!/+4!C#N>Y%i'C@$ O 0,R#q.z=3;/@u-^@6#E+e.c(j(_$S&##Y&+~Z&k(='S.>&Y@g)&@>#l(- >&i&~-'-0!Y$8~M@:'u#_ P@u-J-I>n%9%:-t$%.P%i w@m(t+!@i$H;n.n(t&B@d#z@<>: o(V=p(n$G/A];(U;3;b.+.q P /# $f *&+@n+v+{!(>- !-a@q(@%&'j#K,,=z^b+-*+'*!z=E!z#J>r+-/j)w#R 2#$$$&c-=!;$a+m'r(7(k;8(`=$,G@e.M+e-u#v>4)+)=#m,r>9 7/3]l/V$s 2*T U*3#d'k=s(t(P/;]P+5&l]i;G*(@.@w>",
"B^@.#@^~z&u(v(b>9,]!f+&%N]f'w(U;h%w+`%t*x(%.x@j!+%: j 7{e^i-y(Y%F'z(h;^+9=m>A(M$P+(#[+B(C(t*k-N@~~7+ .P&: l>Q k>p+U q]&!I.m>[(5{D(y P%#@O;,+<'k#/.|+,,Y]u$E(v@Y.K>3&U*M-y;K$f#;![+J$9=J-y+F;++R]7&F([ w>B -+T&u-S&S$8 i.##S=,+h#8.G(H(Z&W-g=X&v-r!S.k,Y@b>6;p^b>I(Z.]-T^J(>&~@A+h&K(R#w>]-2),&g&/&L(J>6#&'%#4=M(g.C&j i$n(A{5^0~@$|*L#P!N(n$G/A]o '%X@D&O&;.i*;. $F.9,v+H>e%c/n=&~O($!5.H >&N+q~~;f+-.+*}&}&7+[#g;N,f#F*/+S$o.4 $$Y#t@P+w>q H&f^[~s=8(+!P(K#N,b$B!:'7&6#z)={_;L'n%I-3]/. $U*Q#$$K#C <&3 7(Q(>%=$%-%&d%A;/ +$M+@{",
"c(0@<.|{W{U^R((>5$F>f+m#N]F^c^*^~*a$j]x+1#3 ~ j o%g$V/i &#C/S( ,]#r>I$w#D@^+T(1 N#b.T{r U(B@;,q)V(S+L,W;X@8.m(7 W(X(p@S&&);;Y(5{Z(`(V+Q^c)v+>.G%i&P&2*x%>#)%l@]@Y#q&d.l@Z)f C&j':&R.`. _`$A@d#._| h$f%K$j;N&#@R#r)!'7.e-+_`!J*v&I%,*H(Z&!.G t,~&b>b>W^i&r!Q{@_Y@()2)7-w,#_#=f%/.,+(@;#k=K).@_$C{f{r+P+u;k.8&{~&]9=-;!($_,~o%.__#C#U+$-6^%_]>G/&_X'r#P=r=*_G@,#=$S++@,&])K*h&5#,+i*|.$!]=Y^e+9#.#-&=_:=j/-_+'q$J@~@X;C#;_H$% 8 W A#B u#:'A+>+y!T=>_j*|&U!l,p${ ~*x@7=b.1#W)S*_#7+Q]!&n.>=-@L+2*Y K='!l>Y!,_s('_U+f%)_')p(p*H,W 0'",
"~;(@J+@.0@!_1$]!O'H <'&%N]F^v;*^m%}@y#f*-{:+F*n.R%x(N>~_g&,~w#s{{_` +%0&k=0+^#]_1 4)-!-;m-_#^_K{/_<>u;b$P+T](_7.!%;+z]__H#>,k&5{Z(:_d&[=#%Y>>^#_,@R.0 e-h+)&a@k N ~~P=y;y+n-i$8&r>Q^&]<_f(L(k-4;p)%-R ^#-]b.|*[_!@H,T T-2@}_a>H#c+|_+~Z&)=y$|'_>S.Y^(>H 9,r!A/b>P'1__+2_].p$_>#.P@/@a.T.-,B $ [ Y#A;g&4=f.$#N#D R a&/&t*a'e$A#z@:,1#r=3_q,n$G/A]p-4_F*Y ,>[.X ,@;#0@n{5_='P@l((>*@b>b>y$- O =${&L |$Z 6_8{7_'&[#w@+)0,F@M- &g>K+(&t@T.=+8#I.P!T=_{)+o-b%5)a&A k)i 6+!@&,E;D#[+t@K#8_0&~/K=0'&,(,O 0,Q+3 X!+&`,g._+=$t '~t$S$N@/ ",
"N^i*l $ j&)-/=-.8,Y^9_w;l&$]v;E~v@5(h+ ,K-F@k.=$P+j!n.=]y#l.2+`$k-6+H.^@|~L'g#v]/%e#A;U~0_U*h*P;a_d*1# $N;b^^,R.4~J*<&L$Q+@.H)H{Z(b_B'U-&/C^M)/$F a.P _@r*#&p>u-K#i j /&o%E@J$&+p)1#M+f*c_N&~%k)S+=$!' %B;M#b. $S&t@H.|+b+d_s,$ 4#,*+~Z&!.d-''e_Y^r!5$p^b>f_['e_K)3*`@.$5(S%~'8;i*m R%q%i.B k#N#b$a.q.=$Z''&J>~)7=@+ @g_,{h_i_j_/!G@k):/k{k_</A]H/l*/&!@u#^+U-%-8,+ ;#S@='w{d-`~9,6;@'B/-*k,B >.u{#{+@l_m_}/&;&.j-E'h$j ~%8%r U+<*v*+$$ f 1+:/n_N$)+!#`*7{r J)$ 5>L=8 p)B#,>E+o_r;<&G@r>E =;|%<>8 1#<+9-X#f!L~C.D.#;g~%&o%2)g=0+",
"<+F.z$y$i;O,~;p_/>6;$@; l&F^n&~+0!q_*,g*/%2+~@0&S%z#s{j r.2-=]r_y+/&3/&] ,g#s_X-{)$+6=#$<!g.5>U Y/2+7&$ l=b^t_q&&;p@R&O,q{q)k&u_D(v_P%_ J*@-#'H>E#%'4=f k'^.t$N&@+i'{,9=(_<{a+T,k)g q=g>l'w_}# &x_  J>C |~M#q*r+M+]%z#2~@%V-6>$.g,>++~Z&P,d-R)v-1*''b>k,R)9,Q{.=y_O%;%d!p#-+2>-&.@2+h+r>U*O K$c-^@_+r k)V d.N,g&=,:-)&8]Z'F@#$s)*$P }&m)Y-z_G/A_H/`+A;t@[ g $.9!-.X r@j&$-W#_@Y@e+r@o@a@N.a.n=j=B_3%B]N'B~w,C_ ,~@s+n,#$@$D.p%j-;#^.{)B=b$[.z&D_H]j*!#}(J{l@{%3 =#<_k)2-7{p**;E_T$P~&]m@% .@r) $&$%./.2#D*w]|^>!J>r=m'-]e-K#n% $",
"}_W.>=I($%V*F_]!n{F d@w;l&$]G_H_Q ;>w+f#k-K$9~v=U+:]y#{ g_e^Q]e.k=A#[&A#A;D !/+.v)g>Y%R*i]f/f*r=O&T+:'E,b.b^T*[#I_Q+$ & ']{!>)u_D(v_8~8.#%@%<.Q a@b#@@W$.+r+f#U*g;t@o'_;g;g&+,W;e$f/D&_;F/o.6=E+2#:*:+)@=@j!g R 4;v>-,p f c(R+7$i)m@+~Z&m+d-]!:^g)r!k,C%Q{5$W^;&u,J_P'-@K_3*%-N#+_0 A${;m=N;t@+;S%^%w=|~V#L_ @_&]#N,F@^{;,Z)E@x~:(d*;+y!5-k_G/7'x)M_;,<&w#>#P&H,(.9@D 4%n-_@,&j#R)j=A*{&_ ])H,<.Q+N_}=#%O{{.X$W)r+s+;>F@_;t@)@f#N@[ J>3#6,j&U-f^}>s=!#O_L_9'.,q;f*=!6#F*s*d#8 K#h*N.:*[.8.h+0 C@&$B;K+_$X$M=b]'&k=n-p=!]y#_;  k=",
"'][_Q+7.W#W#P_>.W>j#Q_i+l&f'R_S_$ L@V+}#s.I$g.q.C&i 2-V>5>o%C#T{F*h$^+/@%@Q-T_p)2-T{L>E&0+n(}%U_i{b'3#: c-J;6>A.q@q]U [.. m@k&u_Z(V_W_o@Y.*&+#T%L d+p{O&^*-,;.r*X@<-| s 8#D#J$H-.^X_k$/+=!l.7=!'f#)@M&Y h;r A;3&|*1-[ ,&+ {(',##Y_{;+~Z&m+~&{]p^Q{5$b>Z_Q{Y^9,;&`_: C'U. :3*m=z*Y>9@v@+*G f e-m%f#y#/&c 7{{,H.>]s).:d#+:A{;{F/T$k!u#r>@:Y-n$G/A_;(L_w=)@O :+K#m%P+H#J.M+c+p_|+R%l#r@R'=*5&C%K$f+#:h=d,+*$:%#X#V#;#.${ 1#[ P&%:M#6#q=:'t+g g#2,&:[~s=!#`=~+U%2 f#D;Q;M>9 +)D;f#d*;>s S+C / ^%H#6#5]v=@@>=*:=:3)j~++N@Z,S#D.k=@!:,",
"(-$ &=j.V&%'A~}.Y@A$$@w;N]),i/c^j.V#%(N#/&R%;,6,0+g!<*-:q>_,@^9 .+b.a.S$p*;:3;w>:&E;C@d%^_Z)G@F/E/d'&!P L{>:R.V%!%s&0 .@'#|_,:u_D(':<^e ):+@+@K)I>='q$R 2+g=[.U=J-6=u={+f/i q. @'~s~i-K- !i_!:~:| r)=$t+r |-D.(#r)f#K##%b,<+',v+z*+*{:Z&s]P)R)|+,&@_(>S.5!W^W^Y^.)]:M@v,k%i*,*)*8#,@&{:$R$P+6#4$>&/ ^:%#>@Q;q&F;f#1#F*`$_*g/m.m,W,S$r=/:(:n$G/&_W-2{Q A#/&-.R =$^@<&H `.z$_:*&y-+@F @]'$0-z$&@{;X.}$h&])%+$#k@s*h$~~)&g;B 4&::z]K$m,f n,7&f `.|/_{)+o-O_<:~ +%(*#+e$6,[:J>:&z]#$-,C&;+}:2+p;/ / &$r)0,&]|:A;K@;;K#1:2:S(%.O K#X/",
",+7.1@X.e@M 3:!$g)Y@g@4:l&),i/5:>!q$V+%-4)p)B$e.g 8=6:d#_*q;f(d#7:w#Q#l=R* ]Y%:*6#F$8:+,D&w#p*p)<;U+S&f }@9:>!W)c /@2*l)p@Q%0:u_Z(a:*_e+T]h#D$u>y$=$ $t@&=;;C X@1#%#t${;P =+r=&&r 3!/%R>X_b:b'R~Y%8#E+<&`%->4'g;!&7;N+3,s P-c:-=s,+*H(5@d/>&r@Y@''Y^]]W^r!k,.=K)~*7-d-@..@u>#%d:n{u-~'+@(> #r@{~f #$ ,q@$#e:L(N>4!/%Z)Z)X)m,/{<*T$1-2,[!-(f:G/&_g:D*%#i$i.H h:3 ^@]%9,y$<'f%v!6;*&,@9.= b-,++*|_f+2$,=W.M$^;[/s*M&q;%,[+6]:&W C ` :&D o.% o@M$i:}>)+7'T;H_%#W;[:;!:&U=1~2-]#f;8 a.7.B+:#+%W !&{ v>{+B.} 0$j X/a>j:8;H.O&N,=@%+L;",
"*&K+k:5&h#}=_-3:r!Y@(@l:*%f'm:n::~X@o:q.9+p:A;: [&N>K*:(9~q:S{e^|:f#+ R&S^P^r e]~%X!I;-:z]9~c_!@d~r:#@r)W$Q'V~W)*_5&+ [.B,H&,:u_Z(s:d!S@~;=__=c#`@7,i.t:,&U=G]S%/#j f])@u#M(-#B(]#k-@^.%4>u:8 Z$u#u*G@T+&=3/C z#O Q#S+1@P~0 I%@ 6>z*H(5@x)Z ''Y^R)''v:9,I>c{Y@m%w: #d-H h O%=&x:z$x/e.#@o;2>t+#=y:$;M&3&;>n,0&B#6#};8+*#z:|;z@x(A:#;g^g~N/k_G/&_E~r#*'w@]#/.7+(@:'B,8$2.0@W.<$-.|$&~d@0@i;-**@.=()'*<.8:T%`@F) /d+A#`@Y%0$j-4']#T+9 4;_&A+5&M$-(}>)+!+B:C:p+q@b$/&4&A;_;R~A;Y -,H#h$D:y{r+q l=w=R%R$y+T E:L;n_F:G:C@6+H:k=;;g&T*",
"J.I:L];#M%J:K:3:Y@5$g@&%N]f'^$L:='D@!%3 g>8%++q=l-!(A+i_f]j{g_g{C@d*;;%&M: ^G'E&o;^&A;f]T+N:x+f] @@!d'|*k{]{*'z#O:;$d*R#E#P:Q:u_D(U>i(_$z$w{%%!=b]M+V#R:7&v*!(*_Z@/&0&3#D;=!0+:,u#J>u+B@a'[{s)T,q=2#A#/;7=/&7&M+@$S:W~^@l#$.k (!g,+'H(5@T:7,8,c{;.S.Q{5!-.9,Y@b{%/k%v!y&v'b#C^<.}&H g U:>#M&R%w@r+A;#&#&u x+(,m*#$V:s{i'Z)^_A#K+W:@$g^2,S>k_G/A_$,L!1=g=w>o@2)T#;#/.]~j.@%q :$|'*&=&|.r'x>@'X:(^v'6^k~Y:#(~'1/H=b$P+3 d#Z%c#^%S$g*.^ &=$q 7$:,L.N$)+!+Z:`:*'w+:@1#f/ <q.0$5>  %-f#n%W:y&k=%-.:o.P/W%L#t@y-+'.<+<~__;-@8%:@u#p)R%",
"!&@<#<1@)*=_[$v(5!Y^(>$<N]),3)x)c }@1/>]W;4=B@f]i>g_/ %<j!_*F; &f(n,2~&<~~w]k)%&%+9~9~i{,>-!V,g -;` %=v+G.Q'L!F@:@L;U i#R=P:*<u_I)U>K,w{[)d-T/ #~ k=0$)&t%=;=<;>t'-;N;n.g$z#t_A r B(z@t&-;i>k--<W;a+M+{+n.,>;#X@b'J^+ R.P-L$<&)-y-+'H(5@;<#=h@r!5!Y@,&q%Q{|+g)(^-%Q ><N;y$W%z$>^@=M%_>1)r+$-Y!U+#$G*W%2>8>l@K+,<r q>i .(-!V,'<@$<>i>y{)<!<k_G/#,c^~<D,P+b.,#2+W$2.t@q @#$%X.D>u$I%j#~-@{u>I>E,w']&(-h&(@ +*'H>x@q*>]E+Q&/&g;(#Q;G@G@{<&]C d%N+M$3+)+!+O_P(e.v*Z%N>j!W)*+9=`$x-A#N+5&3 x,a$g*Y a$p!]<n%~%,(^<|*/<W;;$^%P+_;` S+v>",
"Y;S/U:5_d:@%F]F]>#/>(<_<N]:<H/<<0>g 9'7-M#J$L@7=4='{1#[<@^],/+g]Z)S$W*O:B.i$}&E&')}<d#9~z@X)V,q=|~W:v+5# %]{9'w#g;E&{+6%R=u{,:u_D(U>Y$$%o]|<+@^.e/9@}@7+r+W$,!6,r e>6{6+A#g$6#A C@M>+,l'1<r G'n._#S+Y T+({i [+l@K#]%p@+.Y.1+D y%@>g,+~5@2<3*S.5!Q{5$r!g)Q{>#Y@3<E=R@*@L+E,+ v{>++*_ V)@;@*Z#S@Q  #Q %#4&I=5=M+3^U=/&E-q>#$4&F@~%<>C w>m'q,4<G/5<I=a]>%0'K*y&% 7+I&K+*&m@#@&@L]0-$@n~6<Z.M%r!O+1)D$B^S.n *>~'%,[#j R*D&7<F*S$P |~C#W~8 6#Y >=,#P!_{)+o-`*t#J!g>=#B$o.)@};J)^{j&w@D&:+l!w>i j._+&$-,[%!'7&3#}=Y_]{8<_>M#(&7+f ~%])",
"M *.@%a!E#B>](9<5!H n@0<l&),a<>%X>y$(#d.W f]1#={P+b<k-Z);{A{c<5^| ~%U*6,q&w#-#;+d<^{x(q>9#e'0&h*o%._R&P-8#9&e<A;k-$-Q#i#g,i)Q:H{D(f<0!$.h&X.W> /^;E.o*N@0&x%f;)&8]v@7.0&:&R g<n(O&9=-#F;h<i<W,~)-,W q=% | (&v>h$N#g~8.l)y{1-P;Y{4*y-+~5@j<+;8,1*Q{k<Q{C%Y^6;r!b#X#Q J.W@W@:#l<u$N+*&K$@%L{+.f@[,c.,;4$3&|^l@7;~+g;w=J!u@D#k=T+.]/{3 m z&m<n<G/5<c^o<p<D;n@r=a.L+7&h;[.8,-+='q</-:$Y@<$r<$%J+O J+s<t<0-u<v<R 4~p+4)r d'W%6&+%++Z%A#n*3#m%=+ ;i*&:D~)+|&)(,<~ q@j!D@w#E+L>y(w=S+`)u#l)%&,#K>3 V (#_;w<{~C@w#O#% (!u]o.,;g>L=!@ $K+",
"Q+K.P_L&:$]@L&+{K/5$x<y<l&f';(!.R.N+W%q$6#x(:&*;#$f(o*z<y]B#_*B@n.j!V-A<~,_#h x-8.q*:(s~W,s.K-B<Q;J$4'e E#2,3)K*2-M+Y.9&B,M$*<C<D<U>J >=z$j;L{o&M.h>~@Y y+ $c%N;W%/ *#J$2-W;[;F*o.i!E<F{*#W,k!E_A;E&e]L=$_n,F<W$S%0+q%W$K$H#]%]{h&E&G<]$!.Z %'1*S.q%K/b>/>(^p^H<#&i.%',&>.I<J<k#e+9.i;H,m%k=K<T G$ ,(*H:f.~_U, ^;%/!_%K-C@;,-,y+=$s)y{N(%_k_</#,L<L<o:: #$f^-.m%R%R#1*M<u$7.!$J-v+O'@-*@=_8#L+,.T)h=(=(@N<5;)%e>1#P%4'6#s{6,^+<(J$$ F~H.@!+'O<^&'+)+|&`=d$-;~~j C;R*K+=#F'n,r)B@l@u# %>=8>J$y$p/-,P<4)B$y#*&W*<>o;r+%.K*`@h$T.% ",
"Q<<.h#R<E %*J:=-Y^j=%.l:N]),,/S<T<U+~*F'-;i_z{>>W,B@V#o%q.5=k$s)m,++F.Q(3;q;$-8;B_Q!T$l'*;(#F@F@l.9^ ._$q)M$Y/q&E'K#v>s&I;L^>)u_D(U<_)y&,+X.V<F=v<n-%#m%H$*$V%C.(&M@g>W<X<<;r;t.*#A T$Y<e$-#Z<`<,>Z,g*%->>=]P-4'w@3  []#^@p@G.]{6>2,G<]$!.3*|'r!r!K/:)>#/>9,G ~=p#' z&f%u%g=.[.#8,H * .#9@/ %.m%'&+[2-(#[#y+R.;!K*@+s-@+>]C.z]E@u;o.8.m)]<k_@[&_#[k+6$H$i(2,4;y#g=6;0@M$*@$&S/1)>=t<-'*~]!%%@'}.>.a>g@T/X!$&&;H;a&/ P A;Z%q.k-g&_#&$v>`%A#x-E -('+)+*/`*G&4&v@q=O&8%w#N,L*8=%-n.0$X,U,% $#3 !@~@+$=@N/v<C$]+h*d [;m%w#e-B$% $&#@",
"}+#%r$@-#@R/@<9<%!5$q~$[l&),8'4.V+g=:@[ R z#T$%[=!l' @s{[:&[*[H.4=:&w)z+-,0&z]i;7>|~}#z# &:(=[1#a'h S&H& %-~3^f/.,C^P--=7>-[;[u_D<;<>['*0]M%h+*!,[J& ,A+L=`#B$c-D.C.U_g&-;'[-{F/)[O&f*![B)~:i_~)~[m s^f n.u@J.t%a&N#},P!=;g~#%]{h&7>+~]$!.4$8,X^Y@z>I(6;.=m=q~V<R@_>X.7;,='${[4$H C%B/*@@@Z@H$W%Z%C{++@+x; ,P& ^h+A;;!~){ 3>][f*% F@,#:/@/k_@[^[L~m+k';%H;C :'q;8#f c+k#i*e-^)7,g,##/[#{<'%{N;0-o= >}$1*s :@x*O]A ,@W 4&,>c#U_r-F~{+e 0&^#m@%{-(([)+8(T;_[:[~~y(@+P&7&O&W)h*::0,+%F+U,5#y+W;^+Z'*$r G&d.t'L;x>F.{!+ =!Z@C'4=S+..",
"-.,&P@>^K.r$Z>x'%!C%3*_<N]F^R_|^p#h k=t@u+8%g.H$z#0=l.u@R~V/g{s)s{k)O#a/v@C@=$i;m'g!<[c_#$B)h.H.[[u+b'l)s M;1!i'&+}[|[1[m)p(2[u_D<C_M.u>d@h+! &{}@$&7#-.@+H.W%=$U-K>i D <*t&X<i{j-.]3[4[5[./m,9 ./U,T+B 0$$_B,q.B D.c/L;/;b&V-6[}&,*7[8[p-v-9;>#b>;&9[f_e_~&l+0[^; $d-5#Y>a[& (#6;1@O%H,W;*;C{#=7+<-b[`@v#V%%-5>5>l,6]F@f;q.O&i$4=C@E&%_S>k_@[c[a]x*m(Q&w=f v={*5*i;u-c-g=z=d[q~$@g,e[@#2.f[J-0]C%f@`.`;2%3<~^*$A;g*R o*[+y+M;/,L+1-@$z)$.Q-T#D_1])+g[.'V(G&B.G#0&R.{+2-};7+d**;8+'#^#v> $)@t+A.3!6#e#q*T.N.h[j.%+$-}#-@*'-.% E,",
"R%e+$@c@|+L&i[g%i=>#K*A=N]j[R_~<5(.@:@e @+q*g$d#y#+%k[<_w!`$l[W,J>u#m[v]p{9 G@F~g~8+:&.]D;#$-!n,A =+S+X S%S-;~;%W)V-..c;U-n[&%u_D(;<K_&@@{x<y_M/c.:+[#f#a&~%3#3#d.L{V G@e$(%n.B@=!f;:(o[V,o%q;%[q=p[S$*$G*6# %^+F.%&L;h$$ M$q[r[/.+'s[8[n&4$r@1*5!v:Y@5!Y@A%9*~&G=i*h#7>t[$ q^;@-*D=0>M+_@x!/#r*++_+P=h*:&.+q;H;C& ^O~u[u@#;S*^%F@p%E&y!v[f:@[c[8'D*o:j./%E,U$j.N+*&y&N w>7;]/%@7$h&w[x[$<y[I>X.5&!^z[A[p#@#6$S+u@w#X@ @M&C@: J>/;3 g{S*a+7>I.n_B[)+8(}~M_C-~#;_&]q=-,s{w@>]8%4'3>_$A+=$t+0'Q=C[D[k=O=B$!@@>1 h u{P+h;0,P%Y N=z]",
"R#2*R'=-W@E[F[G[B%Y^H[${l&I[o D*&<s 9#v*0~3;|;F@g;9~g_[;k-*#>>g{g.w#3_J[}@M#b$P;)>[+9=Z%Z)f][ 3#/!8%f#'#:#6{K[;>B(C^d*  I &:L[M[D(D!K_k,$!.#0!' X@;%;%r%6#Y +$ &x%C~2(N[=]=! !F;w/<(1#y*R>|:k!p)/{/{@!_;o%&]p;w#g =$D@% d*~!c((!y&g~+~8[x)%.C%Q{b>#@e_5!j.O+~.K B'8$R)i*Z{K$O[I>M 5_R$o;p_|+5;c#`%/&.%,>i ->1#8+7+W)W)L( $B;M&p.d#Y 7>h/n[f:@[c[d^r#R! ##$I.K$Z@[.[.M;i&x,d-Y.* 3$#^Y{&:P[g@: k#@.:>Q[V),[i*s'8#X;p*k=s'W  &A+W)P;%=_&C~r=$ m-i:}>)+8(}*c %,`+O:C&y+=,K-o.f#g r)|;I.;+S+f#t>(.5=!@R[w@[ x!:*%.X(9#f H.b'7#d';.q.",
"|+7;O@S.]^B>@<$~S[g)v,T[N]F^6$G^U[e%S%q*a$P&-!H$1#l'/&>{'>T,O&$_e^6+J^V[h+x(9^#;W[X[]#H$A#Y[d#z@g.Z[n%< `[:@ }G&7 X,k#d'`..}2[M[D(k+>*-$f $!>@E=G 9$&./;J!z#E+3*& .%q>e]2-H$,>C@W;#$+}@}j h{Q;_;C;n,u#Y%W;T-=+q;p;*@p*C$-.K$q[]{@>+'s[8[v;3*%'E,f_K/l(#}u>J&~.y$C*R.J+J&',*&5&% *&<&R.*@1*n%M&N#y#q*Z)p* ,0&[ b#N&o+V X@]#$&T.R~#$h;$}h/%}k_@[c[1>~<~#T<$-@'p@;#X 8#K*l(T*O +-7.)*&}#>_ #:];].=>0{5__=j&w'%-,%U=r.%-h+=#q.0$q.9+)@w>U+k=N@n%E&-(B[)+*}m{)& +P%8+W$*$[+-!j!i>q.@+2-2#E&i>;#A;=}W)7+a&-}n@_$k=K$,(P~G#F@]#D.,#2#R%",
"^@_ w>r%;})*9]/=B%|'$&>}N],}`,s>Y$==(_#$H.<&`$E+O&'}i-p.i~g>],e$t*4&S>p) &#$ %#;g<R>u#=;w#R~#)Q;m,9^$ P~S%D+)}o<^]R& .y&M<#.2[M[D(>*r~()n~X/#=B-L+[.: g*!}*#3&R%1+A #$._I$Z$u;/+T$_]%[A)f#V,S(:&~} &Z%:+@+6,_;=!k)x(8,L@f@e ]/}_+'g~{}8[#[P)''1*E,K/d-1*Q{5.w^@#,%O H _ -=%$O+;.H >.,&d+,@:++;B.f#B$c#C@-;7.+[2-~!.+t'0&:&b.Q;Y%V W #;|]]<4<@[]}I]!%K*^}|+x%])y#9.^#M$g+-&;&r$O+Q)(=/},.(}8,L{B/R)t<L.Y:].2]C*/ `$[ *,7{: 7&d*&#:*f#3>R%T#1-y&,_B[)+8(d^G&L*_}W;~%C#3#w]F@o_L=*,l.:}f&d*S+P&M(=#7&};s.h.L,2;<}[}}}G$o.K#t+3>#;[+",
"O[):5&$ J+_ |}D>3:Q{Q i+N]1}<<Z^X!e@O=U%R &!4)h{2}m!*;i$3}g>6=R>s.} 4}L.N#0+.@l$>]z{T+b.r { B<>>e')@b$]%Z#5}b.6}=)t+& $ T(M<7}M[Z(n&F)b#u$N;i.G=2+r*`@j.[+z#3&;@r q>8}7+D&C@3/q;9}0}5^P^L+9+8+h*z@N[U+S$/&(&A#i$C#R#R*t@;+B&']O{+'^~a}8[6@()r@q%T-5!1*.=:)O)b}{&c}$&y=h#(.d}'*8,,&j#d+r'y&7;t'c#7+(#X@N&/&0$d~`%=$6&[ )/6,g : k=H-,>e y!e}k_@[f}P#H-i'3,;%9@E{H.% E * g+#;3*M)g+##}=9{ {+#-*V)z[r<v$Q)G{g}K>F)g;[#[&k-%#H.;,w>n,F~f#%-G@r>$.X P:C!)+|&d^E'{ J@e.J>D#u+l,R%=+w=q*>{I:k#u@+ ;#+$r#5&6$M$r*&$[.X D:h}2>i.]#9@g&u#=+",
"=+0  .O+T]0@i}S/g%6;n~s$N]j}k}Z^@*I>}@N-4=d d~i$w!<;o.[:r H-B!&+i{={l}<{2,++ &}%/'/&C=D.S*:@9=h.-!/{M(F.~!^{&]V(h[S&i#C Q%#.L[M[Z(d>V.: P):=O/m}c/;%!%*;V#v*:@,>-+Y%(%P&f r 6+*$F/n}o}`+^%p}j!m,q=6,H,d#~_6=+ [:+ %)8 2-J^9%^^q} =z*a}]$s]v-;.W@K/:)q%@_r!K/N<];K_G $ 0-@=M)T-U-q n-h%h#K*W)7..%;![ /#C.-;h;;,z#9#$#V+{*=]w>|-K-0$K+;+r}.}s}@[t}u}}@_)G#N~N@;;n~R%u-7.'$I ;%J+t]< T/v}#>#:B/@{{&M%w}X.j;x}Y]E]3#h.| r+R E+*;S$K-+ Y ,>#$%-j#y&z*}>)+8(y}J@2-J!~*-,++T+M-0+:,;,V g;y{2#m 7&8 e]i$,#7-z}]&% p;a+=,u*R% &o.8 9@I$+ ",
"<&X,H#P V&C !;J:3:C%W.A}N]f'>*D!-.g=&;1/r+3#B.z#A@f([:9 h.#+X~W%z#q>%)B}G#N~}#q;Y%d*S$L#F;5^O:d#K-Z[F.K+ %V+v=s#'~I$  -@M$S>H@M[Z(d>#/8@2)8$)%>'i(U.p#f#V W;A;~_D#x+y+f*D#q.T._,G'!(<_[,t+(#6#*(_]D#f U*(&y+@!H'Y &-`%8 d':,c(o]8;H&s[]$s]G i&C},&p_X^W@[=5!$<w}-^e-R.m y-|=J+Q{y-]-Y]r{5(i'N;~_e.p$q;,>8 I-+)p+K*w=7{H$+,4=S$4=<{K#D 9&@/D}@[]}x)C.v<U*^,L+S@c-D._ 2)C$W.z=M r{{!w{!;J%E}@'W.P{=*n-#~R'y-F}G}=$l@-,9 J>W$w~u#{ h$H#L{c-(@K$G, = ])+8(m{z { :@H}#$g&;,p%A#u;J>{ B(o_g&5#8 [&I}i S+P+J}s*X;4=S+<+|,K}g*g>F@.@:+W$",
"2#t+}++ %-5&9{E>$>.=-*L}M}F^D! :[>q p#%,~)n,F'o%N}*{>>b=[+],:]X!h.x(h*]%;[O}p$~:Q]P}I;:,N>T+0&a$B)r+  0,Q}!%R}{#6%3/!&o@)<7];/M[S}c^T}~'7;5#z^U}'-7;8~H$J>t'r*H;7&-,7=z#z]U+K#*,3>p)V};,V$.;;_'[ &<>h;(#U_=#h$e$2-W}H.-,g*N+|=z$)_{!s[]$d/Z 1*W@X}Y}5!f_v,Q{Z}`}O^3<e+;._ L]e@F =>7;=$L{M@0$:&4){~j  $`%F,;#=@Z$g=J!=@p*1#_;=;G@7 8%[.6> |.|+|f}^$U=c$K#$-@|X n-r{u-j#n%j..#S@j;d:H #>!;#|L{.{j&p!A*J&0@v'p{$|M+7+H$f#A#p)n.p;,>W$2#w@M+o;q V&<#C!)+|&0)v#[ K>%|v@r T+8=8 l$w@6=z#,#l$V$f 7;W z#k X@K#&|S-T.!@U :*z(Z%&#-;7.w=t@",
"S+8,w>u-X,0 *|L&h,R)(>^!M}=|-|5(z;w>#=P>6#U*/&n(N>r ~_e$={;|,~S'g$n,4'>|(]v<N>6=}%m ,|H-t*x(8%[!'|E@v>4;)|x]!|s#k I$  q @:n[U#~|{|c^#&O+O H  ~]|2%S^M/Z.)&]#R v@^|0&/!o.1-d*a,F'k-G'%[3]0,K@M=W;:&/|-@L,,>.%->&.i>,#)@-+!^E#V-R=8;H&s[]$^$R.u-O[(|t/(.q%E,X^Q{#_;%P&-.e@/=y&~;8#@*N+r+_|V#W)3>S'H-y#M+a$b.B<B$Z~'*j'Z%8=z#+ i  %:,v@;+K{]<n<@[:|6@b)0':+1-h _$g~j.B&N.O L.<|V).=9&>.6<C]C]'$@'o@y[b@:==:[|p$G}}|@+l-}@g&;,l$=+6#x%I.h$H$A+R.@ ||'+)+!+.'~~7+O~K>=;}@u#g;8 +.{) ,1|$.+ W:b.=$q A;*=F@!@F#2|}@[+Y [.7+E&0$b.3#i.|+",
"<&[.7.X, {8,q<+=3:S.8,Z]M}f'x)&<:#3.G=>@a$~%3|4|!(9=X)(&w#g.e^%,5=.%+%S=;])%k'a=<*-#~/B;#$i{~)6#%#0,U >>d*+)[>5|. D#9@;;8;@/;/~|{|6|7|>&&@@>/;$^5+&>j.P&~@5&L=q>P+8 K#K-Y ~/S$q*l@n.k-i$~)R d*F/B<T+g -#J=B;Q;H.T+G@I$j.w>h&c:U^z&8|s[8[w(R.1*9|0|#<W@1*a|;#b|0*p$4$,&r@Q#K.I~h#@@K<T%J-V%j'++`$o.:@U*l@w#=;(#a$S#1!H$D@;,C#e$h*&]y+[.,|.}k_+|c|>%R:J-K#c#M#y&K*m%X.L+|+*@K#S.i*c*v$=&J%/[n@r@O@|.0.'=d|g==>j<3<P+`%{ ,>U=U$P;u+M#I.w#H.g ;#d'|| ])+!#e|J@q*A;l@e.#$_;w=h Q^v]1-V, &Y 2#^,+ w>o.a+]#C ^!f|M=H.Y 7&[.#;k-6#3#6#@+",
"<&F~y& .:$ {1$L&h,Y^-*w;M}1}'_6$%@7#:@Y/:-_'|~g|e^[:Z)]#(*A e$V ;,.%w#l>P~V[h|f>K-){%&i|q;z{(&={M=X@W J$M{V,u;j|k|g P;w>n-f^l|m|n|n&p&n=r@y-(.c#v<x*K)X@2]_#/&#&A#F,|]^_x-2,z#O:4)o|M>1#f#4&p*.(^_p|C;p)q|}#(,7&u#A+w>9@N=l>y&X{y!|]s[8[r|d+[=C%P{#<C};#:)q%f,#(N~L{%{K.Z{''']j%Z k=M/}+q*~ *$k=_@=;;%`%+ F'_;y;r* /j!@+S({+f#q.D#k-i*Z,e;k_+|s|5/1#8~k#M#0+R.6#.@g,7,B #;k#N@[.z*|{ >d[&}w^&@t|/-e,F!9|u|X>v|K*A;;%`%T+P+#$G@_&B r=3>r W _@*=@:w|)+x|U! +`%,>N,2>b$z#Z%w#C v](#e$C R%C R$M&W a&#;3>2)y| :: 6=%)}:~-g#h$R#j.j.U+",
"G.X R%2.J+']/=>$z|f@- ; l&A|B|t>K L#[ C|d&~)M>D|E|_;s{:&:]g.:&y;{ *,y#. P;E@g(F|*,3>)@y{E_G|J$=]q>M#L'h;1;_*1;![a >]R.=$`.-[H@H{{|a]U.R{;#+'H|j.I|.;%(g;/]_#++~*O&C&d*/!8.<&C/9/D;J|l.S$: r=L(n(S(D&6,8 p)Q;*+6+S+n,A+y#I$*&R+K|2,-(H(8[^$I>R%&~W@L|z>:)X^>&5!z;X#V)L  . {@%M|0-a&|+{.>&N;o+->W;2>H.7+s*A#B F@0$S$8~h. $i$!@g*_&(,,>D 8#q,z_+|N|>%r q$N.F@i*5&~@r+()0.N+,_r'q j.g,,+#>S[r$O%*&D$O|i*R'd!O+_|*:v@W$i$P|r -,6,G'Y f#Z,G#M#|*f :*i;w|)+!+U!K>D&X@W%0'e W;K>@$8 n(.%n,/|9-G@K+c#M-a$C 2+@*^]Q|R|b)H'H.)_S|K+G@3>7+b$",
"o@P ^+:$'#,+#%U&$~{]&~^!l&T|U|3.@.t$-+ @v*f #$j'/&=!A@x+Z)W;6#b[>{q&L;V|q)b.!!F-2(q;v.;+6,=#C#++s.@+:&P+K#w=X=m;V-[ C$1->+%_2[W|{|x{:#-++ H&N+;#C_c#v@c%V M+{)g;X;-@o>o.2#X|,>W~d~./a'p*d.:*;,Y|_;Z|S(l.R~p){)x()@=,q d*U-x--=_.#;/:H(8[)=g=3 H K# (%$E,(.Y@:)3<^;N+h$K&/.b@',|'e-N;/#7;r**,4): G&g J-x@Y b$j.5>3#|^W R*-,h$d*N;=+b$$ i;%}z_@[`|1&g s'/;_$L;y&~-;#f-L;u-%$%{(.q~,+O(Z{-' 1;*e@P@%/f-n{[=q.r=R[7#@+r 9 (]X@f#B<6,x(F~i.&.w#P+l)2,.1)++1@1K>,>(#U=[#-;} f#U+8 m*q@_;#1F.[+-,q*w@E+3 4=B&z^$1#&Q;g*%-U,f&}#%=`%-+M+",
"~%8#/@% h:i#I.v}C>a-F %1N]=|i/a(M;x%0>W;C.=+`%s-B$g C),>O&o%z@;{q>M=P Z;$.w>`,s+&1h.e U,A+9~,>: N,6#{)T+:@M-.&*1b+-;w>B&=1S>-1m|Z(;17-n=b#j#@@l+>1q(q$k.X>t@u@^%U*A U=<(C@,1F*D#F@T{.!W;'1W~c-)1n,j)[+1#w#t@4)4=K$h$J.(@j&z&c:k y&|]H(8[^$@@I(P)u-5_W&K/ ~v'i&T%E![ 7;E,_ h V&9.B,J!l=1+%.8]V  $g>E+y#!1@!6#x+b[/{Y/x++%u@8%<>S$#$r=/#E&H+T>@[~1L<I/c~y{r=,_o;L;b$L+9*@>9-'-^/[>Q)4*t<#'+#}{0-f@1)O.N)<=E{z*U[{~7#k=Z%S+=@q;d#W Z)R#0&q* $%-_ z&{1)+]1O_%#z# ,3 S(X@9=B =$D;q@J!i L$N=D#C&P+}#7=R#,>2+E,^1>@g;q.3#~/6,m[U b.2+2+",
"%-y&x-M&N@Z;<'Z{#'K%])U#/1=|R_&;3%c~8~T,K#g*q;(1H-n,/!{)V,0=l.q.r;f;g;_1S+,#=^};d.[+4&P:B<n(J$S${ B<E<C#{)L({~X%I;q.I$W=<%q,:1m|Z(H! #'*7;i;9@J&n=d.~*1#7+7-w#y#E;F@N#k#^,;;};d*(&r;Q]~:%#A#V#_,U_.((&k=:+,>*,C@S$0 &!l$  o>e+c)m@|]l~]$#[g=f _@])*&%*X:<1;#_>U[E!#&S+f K('$<+{;O+;>R%g; $S'-;#$<-R v*^{[1T$2 P&8.7<H$C&p%w#e]3 C&,#| z&}1z_@[|1i/I>f%m%[.$-j&o;@*j#O%j#O[v+L &@##M|v}U/e@a@-*^~I!&&z^#('-u{1121p{H.V d*[ -;/{W g.o_S+Z%%-`@G,u{31)+]141E!f#S+!&e /&&+P A#+++)2-j{h$i#U f#q.t$%#7=[&r+7;W$i^q&q&t$(@<>I;N@S$R q*",
"K#c+,#S$O 0 :$|.B>W&O'V]/1f'.'Y$S% :7#C&}@g$f($+w=6#a'A{-;f(Q;[+u=F@3>9>)@%&H/51T,d*=$>+C;5^][4&H$*,d#T+l@6161Y/%+K$g=.@[!%_*<~|Z(g'8@:=7;)*='71810/q&M-G#~'5&X@C{q;K=T$d B&-{C;,>L>91i$01g*K*h{<(B<3#w>M#: q@4&)@t-K+w>r=C g,,+m-M<l~]$E~v'M+,&J&O ~;2)l(q~Z k++[x%2@R#~;8$_$I&K#e-U='&H,V o*E+a17. ,s-n.b1o>#=={c1d1p.B@V,6+H'N@R%N;U-e1z_+|I@U>[#3>;#q;F@[ Y#H.G]4$)*/@K&:'I&6_a>f1!-O(g1@-B]X/%{@@d!5&<'h1k%r U=A;d*0$q.S,r>8 8#M+-/f L{_$%_'+)+!+`*w+^@L+/ _;a$3;A+M-8=w]w!l'D:b+=$^%L;s.P+H.7;3%(@N*z)q&O& $n-F~Q/  #$M#=$",
"y$@ 2*3'H,I-&$<'e%/=P@i1j1=%M~q(4~0'&;S+k1r./&a$/&9=3(E+z#G@n.:]T<y#r+T&T+$-l1m1^&u#W n1w!5^h*q.q*;,i A#&#/'e p+@ M{9@r>7]o1q_~|Z(p1P'J&4]8,&@7.q181p$(+K*y)0$!}W)6+d*M(f*{^=!H${)=^r1_;B;U=J$r+o.u.k$M#+$=$Z$r 4=]+7+P q b$. S=d%M<l~]$a<>&<1& H,S.@%I(k<8$%.O^s1^.q%D @%[.q 2.>#b#6#e-V u#1!+%N;: =#2 C#r)[ E+0+g;.%4&8%F@n*w#=+O h*K}S>u^+||16-J!f L#2*|+|+K#% S&[/& _$2@*@g,t<0-w[t1H -'<'3@n=]~b@u1M<D_D*B$:&w=H$M{2+~%P =+R*%+*+3#r>:+2#q,l|)+]1v1~<2#w1=$s.X@:#:*8&x+f.4)A 4;J.Z,i;A;=!: B&+,5&B<m(/+s{O<$-m'x1|*R#z#N;j.",
"e-(@C H.D & ])z>@;+=<.y1/1f'!.#&A,z+*_q$L@.%B@{ S$o.y*j{f#6,R%-!W, $R%]%3_:{z1G|4&@*Z,A1 !/+t~}|Z$(_I*$ 8&s ;+d$_ I.*@@.N(e!`'~|Z(H!%.n@* 4$1.B1X!]-;>w=w=H;D.v@u= &l!#$k$C1<*N>d#F@<(_,j-f#|%o>*_9/~},>o%L=q=V,D1U 1-R#H#,#%;I%##V'D%8[w(9,v'r*|+y:>./#9$^>f *!o'7#P&-.I%(@9.O'&-e{q^2 e.H.q&r%o%G@E1v*m%N@u];_{+#$[/++v><*+%(,: % M#V=2;u^+|N|`:7#0@@#-.G]S.n=7;j#z-D.S+I>a@n Y_^/F1G1j=@]%%O(b-,.#:H1I1~~#&~@,>T a&+ 8%l$U$d*M+_,s{m%I>$.q{q,31s=|&J13^/@I.i',&x>~%v>g&g.m*d#E_|%a>E&Y%K>{*P;Z#J>C@s.^{E+m (@%&K1v=z]E+0,r*$&",
"f%q :+4=$.:'O@7>>.%'<.U~n#L1M1~,&;O-M:9^=@u=~)W%n,^_{ !(K-y]C@D#)@Y Q^8.E&V:N1(1:,A+O1B$P1*{/{y&;,d#M(g g>U*[;B!o,H#i;`.3_Q10(~|Z(d>$&9*T%=@*&7|c~r<k=U*V%Q R1'&w=I$A=f#U*h>#$_,9+}#f#~:}%}@0+E+S%J=^_+ e^V `%+%p)S1w>L#g#E&>=c(5%r(l~8[I]9,g;_@a@/;*.9$v*].C_ :0*]-O+K%L&Q+''P@1-M#=$B$C@a&j h$D;K+x+y+y+<>u@2-d*o.q&C&-#b:e$-,f#g=s<}&m$T>+|I@E~Q T1-+f@t%h 6#U+N@w@J-y$ .j%,.h)'=C>%*]!%{S@U1V1W1X1Y1~ r#|^%#`%w=H;N#=:9=9%T+o.k)q.i>/.;#7$N/;[s=g[r,J!=$ $j.5~A+z#I$*+Z1{ : _#k `1A#9/ #+.e n,8=-:#)#)0,M+l] 2H#y;4;h.x-d*G*",
"M@k#y{[+'$}+S@<+}.D^E[8{N].2_!P%u [/c-X@M#_*-;i.B;++/%F*+2i Y%9+_&A+@2>+#2h<d1Z$T*5' ;i$<_r.x~K$|~T,=+-,^*$2%2&2U Z,K}U-g~Q1A=M[Z(p1%.Z ]._!t] /*'-&+$:'V%J>Z#V(8&@*X/+.P!c_`%9+*#C&u;]#j-d~%-_#s{_#W,*2A *#4>Q]9 =2% D.T+,#(!Q+O#i:+~]$I]P&Z i*d+N;N.X:2*-$w^#={*[ !'y=h#T&[=,,-;m%j./ /&;!-2-,i X;K>:@#$  #$9=b.H$R :-=+F@B&u;P   2+$}v[T>+|;2R_w,+*s F d}8#U+^#>=='.+d-h&z-H&}$d;B%%'S.I&X/>20],2'2T[c~4.!%C.N@J>a&1#v@E_7.h*-,:&:&]#/' &f&.}H]s=)2O_c%#@_'.@<+N,{)-;p*l*`$<(9/'#9&;$<&'&P ^+}%[/~ Z#0&{;@*1%&/H^z#6+C@9@t [+",
"A;;$(.P+f ~;_$l=i##%Y_!2l&~20!8>5(c p$~%=$6=3;#$9@n.E;x+c_y#)&b.p;0+N@~/{2=>N-w!B<=+U,O&(&)[C@1-j-*#l!3>o+t ]2|~u;f&N+P;n-S>5.~|Z(G^v-.=O%v-q(^2/2z;U+&+w=Z%8%#&Z'h b.d'9^.(S((2_2A d'9= $F*e #;w@c=:2C  $`$W):]^%J*I;#{$.<&#%|=:$8{{:]$,/g=H,u$0@-.& _>&@p^1^d!b#1*7.a!k,:}_$(>@{%.L+R.{ G$i._+t'Q& ,C&M@<&y+o.y+T i.~@*#({L+-+7+C#_@8;N/T>+|[*.'p$@*_$k#D><&6;(@<+r*N;O+6_4*2,h)#%e@S@C%9|I&/}s!+(U/6(81F)Q H>u#j!k=v.V%i'%->!o.H.5;g r=I$%+i){2s=x|<2U;7+C.D & w=g.9 Z$}-o+:+6,Y.J*M#  q&| P+ $c~].U~1=3 y&Z,[2I$;!P 5>g&X@v=",
"M#o>+ 3>j;0 <1#%D$#:)-e;n#}2R[4~&;c.F,M#i'1!v*`%C&4)-!<;S(q*K>3;d'y&B,W*|2'&}-,!J$W 12._D#8}I$d*M#S%~%R T'f#k1|:I-&)$-r=,_e;2232Z(H!N;Y@u,^>x>I! #F#h j j ~_:&c1e>U-G#8.E+42F@/%z#5>|[x+A#8&:&I;B.8 (&*$0&]#M-V/0+J^D:  8 H#+_1[T]x>+~]$d^~'t%#@>&q^Q.k=[ N+52T^r+t>0 K%q%b+F<5&/ Y#v*+$%#1#,!8/h$i { m%N#7&{ j!K=++M-c#-;({@+0+N;$ %->+q,T>@[62)(.;9@S.y&a!*&a@y-']0.N+y$/@=*2.6_(=O'c,/>)*w}P@n{!;7282H>s'$&~#R#4)T W$;%q.l-r r+U+%-M#N+0&>=n[l|k;x|O_`+R*9^H#l=-;0~3>e.k-++#$: ]%O{e #;5>7= $L=s+8>o%R*P :=#;92f#K-A#l@,^7+K=",
"P&p@:+C :+I>`@I.S@<.(~02a2, 3)A,&'t>R$M:;>=#C/-;#$a$}#t&S$ @0$ $*=%)b22+]2c2G}*{S$L'd2g&)[e2s^H#v=Z$u#(&r;Q^W;j)S H&1-0+X*n[A=f2Z(b]()v'3*R{-~>'O=z;_@[,4)w%j e><-z(g28#w~j$q.A@>>T_@,j g&8>*$u]:-(#<(0&U*i ;,y*T$h2r=E,0,J*K|_$N.i:+~]$n&K*|+Q<;@%-S)Q b)9*T}>*M=0%{@D=k#J+F<0.I>*'7+L+Q 3&i.@+g==#o*T#u=W~i$~%X;/&K*q*{~P D@ $(+b$8%I Y-u^+|i20)K)3_z>R'Q)1@e{:#D r*_ &@J&i;3$0{0]|'}.W>+*)'V@=&9]9]j282D!9#d&U+N,)&2,g=g; $&]N;R#I/y#o>0,L$/:'+k;k2O_s#n%:+c: .P&E+t+o%H$W)>{D#l)9-(,E+;^p%E;p*l2%(:  $I$t@V'92H.F@7)@!G@7.I/",
"q; .R.7&8#I.%._ /.<$l m2a2n2E]5(#_T%O=V+V%7{H$E<(,H$l-k-9#:[k=(#%)o2< I$t p2r#i~^%){R;A#q2+/I$ %y{s+q.&1X)r2{)6#6%B,f#A+5'q,0(M[Z(x{~&v'v,G s2U}';c.3*O~V O&-,j'_%x-t2  z&u2J=G'M(A@R]g;R%i.f#i>N~g;<*[{i #23!F**;4-H#H#;+R=y,h&h#|/4@5@E~U+9,h:m%9#8$]:W%u$}@w,y#b#K/1@^@Y;h + P ~@I--+n.M&P=H$C'C;-{-> ,z*6+D#,>f;&.e$4)9 -,q;y+1-r )<+&T>+|v2d^]-f 8.D.==% I&y$2*B&I.>&i;C 7$H&4*]!F]{]2.)'$@2.B>v{w2)=x2T%y29^:@y+m g;3>g 9 |-g 3 h*I;h$(@c*'+s=)2}(I=]#=$x!^#g;,>U+J!d~e.p)+,p@:$f#Z$E'-;o.g=O-H;G*Z@#;g @|z27=a&J$t@$ :@r-",
"3>F.j.C@ %])T[J.X <.g=f^n#A2/)N-F#c$N@v@,!B2B.>]]#W;a$.%q*z#J>-;*=|[l=*$h[V/r_C2O&-]D2(&.,r;C1` -#A.E@E;+:P>v.{)'#q)j._@;;n_0(32Z(H!(^.{y:O Q~z;T%v@q%q&V%+)| n.R!q.|~V$8#E21#6+u&-<.^>{^+ @S$V$S%E+6==+i$~@F*Z)::2+D T1` N.',:$']6^7!5@p-4$f@h:.=J&Q.2)/ 0.Y#U]5*X/$ Q+g L]J.5*P )%T c#2>7+e.4)9$j'_,~%`%*=w#D;j-^|P+q.M#A;2#g +$r+-+Q-v[z_+|F2F|s'5#|{:,c@b{O+L{&@_@8 K i:8{+'G2|.]!S[W&}.H2_=r(/}I2u$c}}{#~5/'&i$a&2,(__;j!_#-,C&X;L+7&1-9&%_[~s=)2}(I=R -#y&*=4=C@`%F'Z$F*D&B&s,N@=+P=e>T w@h+$=X=+$q.[.9@J2K#H.*#K2@+z@l%+$",
"N#U W 8 h <+R K&D !^K$^!n#),k}L2D*&;b$y#Z$L>N*g;G@M>=#F;++r=F@y+M2  ]%N2(2o%z:r>=)]_-;W<W(n.q=r=B<A)<(~)Z~V+7)++M{>+t_O2P2q,Q2f2R2x{>&p^v,@_0*K*R@x*y#7-d~O~,>f(S2v.T2g#%&V,0~/%j.A@B<w#6,q@~)I$S(j!_#+ 4)M>L>U2f I'  {@u]L$m>F.B>=1{$).k(z=>.#=H,d+z$;#2.V)~&p#N+n=+ O@e]e%,+r@_@R.W 4&;,2+a&c#E+V2q;D#N;T+H;R 1-8+J>e-W$o_&]H,9#9#h ')W2s}@[i2X2M=*@c$y$F]$.E.a@N@7;W.6^#{M$|_y[}=Y2,'{]Z21^T/n{I%h#2$`2.-:+4~|~e.U=z&g;.(W /&C&o.Z@U+$ &=V!p({1j*)2h(x@W;A;W  3r+6,r g>8+y*h*|*.3E,P f;2 [ p)v*1 1#r P P {;M$h.->6=D&=$#;V#q.",
"+;m%)@M+i;_>:,u-j#h).#7]n#=%+3k',%8~b#!%W)Z~&+t@W T+@+K>u#G#O+q.q.@ g#X!7#;>E'@3~)z(#3_&i!m,i_,#1-w]{^$3M>:-12<; .E&L;u$L.S>O.M[R2x{%3l(9[#_ :,;#_5(m%q&0$O=`$8%r*&36#>,~%P12+g$x!e.M#u#i>y#w#E< @0&t@:*D;f/s{A : u# %']#;I%O(}&}=d=4@).*3U*2.z=]-j;}.u,;#W.5;H>@#m=r*r$T.:$K.@.a.7;N X@{*!':-N#g s*t@g #$^+,>^%:+r C~T$}%9^v=% y#M#H,g~D_z_G/F2S_/&X L H d,+*;%:+R%R%$@-_:#u$R'(-s!''x'a;%'W]^~O)c@c;-&=3O^-+T^7#0&A;#;>]@+$ &.K#g;-,u;H,r@8;N(H]s=x|-3;3q$z#|%w@0+I$g.q@4>j'.@ %m>r+$ e.,!y+&]^,>3G}u$e m u{>+~_P+n-~%1#C /#i.",
"|+n=C D H.u$M;]%[.(@0-P2n#,3'3%(#/C.y$H*W$g>->-+R*4=`[},=+r*i a$4')3}+f/!3p//&.!w#~3'<r1{3r.p.;+@.a$w#/+T2f*s .(k E&F~r>>+S>$<M[R2a]-$l(y:]3=~^3d!z+~@c.K,.%X#% 8&d*f/<>u+e$v>3 K+t&p*^%j!H.D#9%j;N#f h$n,/!9+};J=={@ ==u#']O#F O,#.{$Z&X'a&7;,@E.W@f@e+w{/3 *p{3%J&}+f@+ S]v+z=[ h r 0&q&y(q$h:E+A.n,R~I$s [+N /&y#z)U$x!}@M(O 8]g ;#y-)~z_G/F2P#5(q[r>h ;..=J&A$J&O r$L N;o;z*6_.=|'f@P{8,T/{=@{(3_3<{:3:3p{6$t>q*V#8.@+W;: }@M&C&8 ,#5&=+j&u{'+j*x|O_H_c%&+u%r%Y R*!@a&z)H;1;r=%+G.W g>-{3&W)e z}P<g={ H.S$n%C$P+8 W;y#h -@<3",
"Q&Y ]#^#U*h:N;$ N.L;z^[3n#}3>%7~4~c$r*G&;>Z'h.w>i'@$r*z)#$W L@v=U r)]%9^K^H*Z$|3W=13<[C@A ~)i>4;B&#)x+23U*B)@$*{8#Z,v=8;&:330(M[433)f%_>I(53D!o{D!_)d&-+U+W;+%q.(#$}w~r>b'%[n*g W;:&o(l@S{8 q*B @+A+P;Z[++F* ^{)1#&,>=-=l$V*:!j&0@)_{$).*^>-[ v*Y#b&B%d-1*7;N e.z=9#=@*.C +=^+K$c-R%~_V o._;t$r+G*k.L'&,R%z]F@W$a$,>/&{+8 G&,(:*}@u]B&8;634<G/7383g=J*J.N@F<93K),&S.>#r@-+>=-&N'w$6*)$n{h,2.%{D]03]('].@S^a3W]6$^,0>o+8#z#{*D.^&*@X;M&B&M+u$Z,3_H]j*b3h(`+(#%|X,(,S&_#R H;A;9#` D;. 1;:@&1=]G's.: U=|^}:7<M+:,M+|,t@++D;7++._+A#",
"(+])7.(@P&7&W$m 3$g@!2c3n#d3R[O$z#)%N&)&s+ ^0&1+`% &U=k1!@K+ ,c-/|#;$-p*5)(2],0&d2Z,4;~:q:E@|;r=<>g D;D|D+D;][*#O#y&~%}&L.e;H[32Z(n&;%_@1*/-e3O+.)3.c$L+-.e.|~K#]2w>i{5^0+b'u@:+3#y{}#<&u+H.i$t&[:v>L$_;} O&f3L>A+j!F~%;K$R+|=-&{;g34@).h37-b$e{H;X g%a@>#h;M@3&.-T%@+#@(,J+<+>#K+|+;%t@B.R 0&t%(#8=s.D&2+g~R J>D;{ u#f#k)q&:+|%X@=@E&U-N/4<G/;2~+G&N.1-R.i3{!X/E _@j. .j3e_o@h)M|&}k3D$s!O@g@M%/-(=B]l3g+m3a~[%`_M-1!L.r t@+ l$R #$^%Z,U+N+r=Q%'+)+b3y J@3&#&I..@0 8 o.4>{,|+a+]#V!%+F@H=1#8_b$|-5+P%a$-;S$7=v=P;f#6#l$_;x,w#r+",
"6#I>h (@3#[ / ])U-@=3$u1n#=%P%Z^(#s'R$w@e>8+J>3>-+n%k#L@=;|%n3M*c+<&i_n.H]G=E-V,+/o3I$B<*#./n,o3d*k)@+e#p3i q3-,r3{;r{,_n-S>f^M[Z(x{!=H,v,Q }@7;F) :N#e--;4=-;M+<#P:7>33a,P;3>::w#8%~:W;w#[;i~q.S{e]y&u@n.s3K-#+z])@=+L$c+|{z$/; .B_{$Z&E~H>='a&{ H,_ @*U.Z R@:'D.C.R <&f W@(|I(/ R*-$-,%#*#D.3>T w=V/k=a$f 3>&#9 R~4=^%8_M-C1^@j 9~A+$}N/t3G/u3d^M/< }&])$%$-9*R'K/e+d-E c/5*|$1$Q){]v3v!%~N+w3G(&:H&,*#~c.x3X#&;K**'|*V#S$b$$ n.a&3 7>+ R#g,3_N$j*)2o!|^U*7-@!B;y3&,q;o.y*%-;#l-@ W u#2 A (,%-T+P=J)q&{,D.h*K$b +._;b$M#F.H.q.",
"7&|,B,Z,8 _#L+_$4#R'f+11n#,3)%I=V ;%J w@~<j'C&M+@+b$N=7,:@0+N@d'I;-+=++}0~z3U%W;e$~(~!,>k!c_q3y{I$G;S%7{#+A3D;;+q)E&J&N+U-B3B3~|Z(C3!=+;+;g;T^H|]._)!'|~}@G'.;@![;A+}#P&1+!@:]A#_&  C&U=3 K+k!X~R   J._#{^],,~Q;R*w#|*v+T1|=}=@@J+D34@).E~7@3* $-,_ I&9@9.`@!'Q&h+8>G$r>:+2@& $&w#m%k1l-^{L=W;++.+[ J!R#6#=$e]++K#C&-@o,%=Y/Y V$3 :##;n-2;n<</t}D*M+y&Y.3#:$5&k,  S.  u{(.4#*@E3z,d(R)-'}.2.X.F3#^{;r(J~G3n+v/h+K y#7+9@$#A+r M(M@-;K$m-,&g=7$U-{1s=!+H3v#U*7.M+E+2+_;@!j!w@I.q.U$<&[;W 4)D;<*[+1+j.I3J3P^C.n..@v=K3A;{~k=F.P+*$",
"&,$.B,8#;+k)V)k#',N.f+s<n#L3F|g:(#u#(+8>V#H;4=H,-$A+4 q.8 L#W 6%X/p$u#Q;*{M3Y,V%w/k$m,,^k$3(={<(>,h )%%,=^*#i<v=w)y-L{2,i;B_B3W|Z(>*t]p^v,N3X#Y]^.m}#(Q L@g=e.=$C l$5^P&g&f 6=~%P-b'f#q@W;m,;,o%9#-.  C=q;*#L=_*u#B@|,N^Y c(d,2@0@@|O3).P3B J-/#$&E,9*9.u-a@;%h-C.O+N;s l=>#Q3N+q%G]|~;@7+R a$H$G$H.3|)@,>P&7&,>3>T o.:+_#p*_'q f W$[+Z,.}k_</u3h3(.p@u-@#&@'**&:#u$9-k,<{4*%{W{+-+@{]%~l V@v$F>F3+@l_R3U-t>X>c$N~C.g K+J>S+A;g a$w@[.|{U 5#=2;;'+s=x|S3v#:@%,2+R I-5>T$f;A;T3W;  H#W:l!y)3!#$0+4'+$B!U3;!Z'{*^,<%v&U*F@w@l=;^0+",
"Z@y&+@e l-1-U~^#-=:$0@V3W3),83O=p/j B G&Q j': v=X@K#C L+(+ %R _1r*z#9~U*X3Y3Z3d~l'l$`3 4C@v*i$A#Z,)@q@q+J)A@C@U,9&H&u]y!z&7]B3~|Z(!,Z $&7;.4^.(^q#>[3*m(F'w#q@6#&]L#e i$=;#$/+<*9=Q=w~C&F*[+S(&]N;^@9@e 9+w!=#i!R%R>U,+4J..[0@G.I%B_D%).@4p{g;O (.%-@@H |'F%2> #,@@+3&B&p 7&r$f#G@l=f#H|v*^+r+_%.%C@Z$6#n%1--# <[+J!J>e M#a$f#0&o.2+{),|m<u^</|183W$K#9-$-j%j.#<@'^@8#1-c.-*e+6_(~B]j=%~C]9;(>];b-_=#4$47,0><^K*~^=;%[=+M+A#8 %[B<`%U X N.2+@>i:B[s=!+4,F|7{=;l$g S+*,Q;0&R*t+F;t+P;d%=$G&2 8+R F.F@I=&|C.C/-;N@%4W*U+^%},[+r+5&",
"*+8,N@_ N,%-[.P&D$##F +&a2),T;d.:@R%Q^Y/1!y)g;n%++X,|[9-:@h^v=& H%[ ]#u@#+;]p2,~&44&>|P:*4^_l.b$%&.@m*=4W(l.9=Z,O{d:I&8;I B3g3~|Z(x{Z k,q%p~-4j.82J_K C.U%`%u=w#;4G:v=q$a$>4U25^::]#f#-,&4->`%{^D;g*,4'4/+g>y+++E+3>%+O#e%X{5#Y;N+g3)4!4~4/-L+v-#@/#:$-*Y.T V V(%.b)L{r@t-G c,{47=S+K#-$c-f#r+P%0$F@C/C r=V 8 g -,{*r+9=]4v=f#6+h*-,L@`. |y~</|1m{t$E#N+2*X/_$f+5#X ;..@'$S@T/^4L&(-/4D>S)Z27*,.)#1$U/5~y$>@:~:~3)X@b'y$6#8 T W q.%#/.8#8.k#m-z&{1s=x|e|V(O~[ )&)@4'i n,<*V ^+: K$;;w-(,(42-F@D#` _;p+_4p+Z$/+M$[+C(z*I$*#C&Z K+",
"P+M{I>~!0&=+a|O='])*)*V]:4f'<4~*V+B$P K>h~g>;,e-N;e%j.d*^]:*e+w>N+k#A#g.{)i|[4/+C2D&c=l!=!)[T$e >,A+f>}4M-i-S$f&V-Z,5&j&z&33f[~|Z(p1t]k,%%V<O%@#.$v|p>k%y)g;D;W$L+x-|4~@+$~),>D;_&r)n,X;s~T$e'x~M#X S+m ~@2 -,14p%z)u+L$O#5%7$8.h#n[24).34n~x&C.])[_8,''c;k=)&!*$'L>N#U+|%^@M W@r-t'0&a&q%E+:+ ,e.r+8+L+w>y#0+(,0&.%D.W)u;T2K=3>*$->f#t_ |44G/t}U|s'7&h&)*K*K$54d-V&H :$c-^/r(64D^w{|'749<V184n=t>d[%;947,:~z;047#}@r+{~/& &:&n,=+N;c+<&L,N+I o>'+s=x|6-K@z)j~W;r=j>Y)B$w=M#R#~%<&Y a4h$C-8 r--+D:y+|^]*f!c~z)|;0$f&` h$(#k)j.g ",
"O]>=7&< Q&W.$%o;d,@>e%+&:4:<':^ &'J&@@|~8&.,g.|+1#T1% p@1  %%=U E&5.W;s*8&k)b4a=e$]#c41;6+h.i_A#>,,>d4o<f>(&f*q)O#< X.;;i;S>B3M[Z() Z 7;,&4+e4M;c#~^S^$-n+Z%r _;D#o|)>A;v>k$]4 <e]k$x(S(o}w#5=B<P ;;/ b$N>D&3}9~g.:(F.` b,Q+%'@'<$f424).34r<a@;&*&1(& X,g4_ {*{*N#%,8%V$a.Y.r$f S 4&/ 6#X@Y g q@r _;H;f##@c#~)I$T.j 6=q$c#B L'D@B<D.7.[!n[u^G/F2E~*'8,,&/@J[$ @=h+i*k#(@o;j/i;n^74h4%~i4$~7*.=f+x[#:6*$4u,,[h%k=o&0>7+j4#=K+R#=;$ 3#l>a.-.N+>+8;k4s=g[T;v]e^4&-,h F.2>U*`%-,&'F.Y P;l4q.8>/#,>h$6+^%K_N_m4<{$;*$q:g#|*A#t@N W M+",
"A#g,;.D R*9-c/e+d%H&E#v[W3n4r,o4(+c-N;V~e*4)t@1- $J*@*_ v)n-$.^#{+]<F,~ -:i [;p4|~<*-#m-p;k-s)R#%+0+/&o<m*E_b$a4S=B,x-{;n-337]q4Z(r44]~];#s40!*~]-k@k%q v]X@N>J-`%B<t4[ D#9=O>/!u4<[6+=]F/=]v4K+<&8;d+,#d~4)d~m*s{n.a+F.c(m> .&=e%B_24w4s]p{n~2)n%x42*Y;''O[2>~'[ g;2>:+d'#:[$e+M&d-k=l@U=8 q;{,W$W$e#0+=,H.~%8%k=i r (#~%v*p*/#b.p%-;^#e!n$</v2$,1=E @ /@X!v'S@J&S++@J&A*M$J~d[d}&}%'9<R/_=Q_I&w^y4z4}}B-$#t>5&T%c$l$W ($A4)@K#x(+ X,X,|+e+N+|]B4k;g[)(%,+) <{~[.R&k=H.(#l-M>2#Y _#G.6#.+i h.R#T$0+H$d.R$P^D*;,4=$ g3U-}#q*,>K#",
"9#Z,&$2#/#  R.Y % b@>=H@W3:<U<g:p{e-4$w= /e>&#e }@9>t *&9#K#I$  #;[>8%%#f3(#G#L:}-T+p;C4 2z#9=x-g~R `+l*J{6#|*4#q{a,K$#; ;q,#.u_n|D4P'p^1*d)E4z;b#7~3<:#H;D.G$N&o.g.P;D.D#P&%[6+=+C&D;M(F//&}#z]w#F4y#D&`%<*f;q&_'V})@` c;D ]^M v+B_24w4+3* 8$%-J.{{8,J&9-7;Z 7,/;;>g&h T--.c(Y;^@'$t$~*4$q g>_%:'U=s-N@:,=@r :&*+V#A#g>d#{~E@` ]#d*9={> |n$</|1.'#(m'K<])p{9*@%:#k#|{,&X.!]3$)-Q.#:''e)$%d@n{W.G46<H4h=r~>@F}'@U=%|;4k)y)s Q^.@)@a.l)F.$&[.m -[I4k;!#)(U[.,6#T u;#%D&R*[+h$[#N=$ ,>g#,_V%L(Z%:&u#d+5> &H;J)3^o%n,Z,X* =b.[>r+G*",
"d*5#e 3#A#9-K*j#9$,+}=P2W3J42{D,#.@@h+N;q@x@Z%g & c)c#& w>r*y&5&u#k1B;W%4>]2K4L4s'G@h*` y{z#-,p;M4f 7{J!D|M#;+j&s&Y.k##;%&f4#.u_n|;<3*Y@e_g)^1(^u,e-]-4$y)K*z) @6,G#y{X ;;e R*N4B<B@k1z#=]_&Y =;r)P I w>q*K>n.#$H.V,){4-O48#S@X.R'3324!4P4t>u$9,Q#;%2*T&i*x/_@K*P+'&=;C !@Q4K.<'H,U*t@$#A#& r /%%-~%s.|*Q^W%r;-@B$V _;u=Y%:@p;#$S{P&+%.@R4n$</|1c^#(N+|'4#T#(.@%0.q =&c,e+p=%%B]@]_=a;+#x'9.O'w}S4T4U4m=V4#(,;m=8>_!>![+U+P Q^K#b$7.N=E S+j#q 8{k4k;!#*^1/p+6=J$0'k { W w!W;_#J.% j&7$H$Z$z#G*g P;Z~3!v<8=h%-{z#v];+E&` N,:@#;H$",
"i*8#[+:,P&R&i.H#@@Q)I%W4:4o#X45(x%[.)%y#`+1!e.t+0+Q+u-5&k#+. %P *$#+.;1 +)O&F,Y4k1j 0+P;7)C..&Z,,#U+o+x]] ,>v.>=6>c;|*T#c*@/B3C<Z4`4='~]v-() 5$'8@#_R.t$y#V#Z)S%A .5~/s K>w@6,]# &X<f#-,=!(&%=<_7&O>8 9^b[r.k->{*+i_P~a4|=7>@;x%(@7]24w4W-B15.9@-*Y#0]3$#@@@J-D.;#+5L;1-D 0@L]H %-|+-@{.I>r@4){)r+T Z$$.A+U=z#-$P= $e s.S(R :&A+S$1-6#@51:k_G/u31&)%n%9-h u$(>}+j#P@$ 1$S@Q)@]#'V@[)C]R')$/>#@#5$5i}%5&~&5:-]-E.K*t>'&2+/&b.D.P&Q^=+8#c+_@A+% <%H]k;!#}(6&6=w@u+>] .:&C N>: g;*=B&4;V!7+*5x(+%a+h*S*w!=:.+#&Z)i$v*m-a^<{h!/ 2+i ",
"P;,_9$5&c#r@-+%-5#0],+%1W3),$,b]s'.**>D.P$V%G*i#0 /.K$u]X n@S%U*]#{~W)8&L>=!H-=5e#Q;2-w>F.,^o%{>|,8 Z$w]};F@I;>=6>G.y&;;>+f4#.C<Z4-5+>p^k,3.Y#r<Z B1.;p$9#`$M#0&A+E(D)A;K*t@(#N49=@$k)S*k-F@C;E@5#f#)@4&P1g.Q;`%W;j!G.f&]+m-N^n-}&D_24!4k}d!&>N~+.u-8#j=8,%{B P&L+X!U+b$X,i*r$Y.,&F(8 v@R.-.v@/&b[F@n(N@4=^%N;P+m%: J.i$W;w#_&9-v=7.,>i;;5T>G/f}{#&;$!m=q x<L s2])+@O@|}%$< _@y%<.>5R)X.0;u>h@|$z^(-V&=&>1#_&<4]x%C-%@^%x@9%F@Q#r 0+ .1++%3$@.r(([k;g[J1J!C)=;0'}#d'3>:+s'R#p+X,:,z]S1g.i ++S*/&F@l@`$s(S^e*B;q*f]F~1;}%K@0&|;$;",
",#'*M+L#8 H#t$5#m=>+[)v[W3,5'5H/`@M=g=.;%#;!8 g, %@ L,8 8#K)>!K$-,q;*'L!i o.{>1 0'7+7.y!)5d#i$/'g#[.~ B! ^B<%+L$g,& E&c/|{f4#.u_Z4>*~&~]k,/-= '&{.T%'*#=,>%(P+c-]#q*~([+r+Z%g;n.&1N:<[{)Z%q;a$]#C#,^r+)@s{++S(O&x+|;@ ~/V&Q% .8#n-$<24!4W-@#4$ #H,z=8, .n{K(8,q _+n=#&_@r%S.M 5_K+8 [ %.n=[.H$E'q;3>q&k#<(N,X@;%A#g;@!7{l@8=I'Q#(#~%I$t R4y~G/F2>*M/f * N;M&r'#~+@6^|'D>D$O(2$!;,+6*Z_-*d@8,- !5~5`;A$I.@*{5F}p&U*j.d!@+1/P W}/.Q&D.@ + r+(@%{-(7(k;*/*^J{{ ~:y#7+]52+7&L@$ h%5&;$a+N=K#b.@+y#]#6,:&E;8#^1|(f|w+g.<>4;% z(e-S$@+",
"A+,#:':@g&D.x%:$O }$5#V]W31}^5P#u]b#C._!K@<-)&h G@L$D q$N+-+!%$ + ++V+;~w]a$G;_!8=e$+%i>l!a+G'D+8#/ `%7{(_R*%&g,:$d'|{o@X.d=#.u_Z4/5(5;&c{A%_5R.>*J&J-t$M+i.3!J!R.i$J$Y j.g> ,t~8=-#-#|;{+f#d#(#D&w#k=C#h<9~e$ ^F@(%^<W:e%m E&T#}&v[:5!4k(I<S%]-% e{8,z>r@D k,X!K#G#M+v>o@M 2@S)g=f R*9@(]N@|~6#z@6+>@h*w!W;8@: 4=o%{+8>g;x*9^v>-;L+|+;;<5T>G/`|n+r~O (.I(,@p>X#y&:=~;|'9|z*[5J%W##!t,j=}5f+e,D^'$#^g@T/@>=>z!B'O=&@F#i$T #=+.a+;%% x-R#c-3*5&<%.1&^|5>%l,V%: 4!(]+ &,I$0&n%C.y&P&=$d i'&]^%3!R*q*F@r b$:-t3 ]P<(#_&w#r=(+=;w#w>",
"1-+'h$6#q 8 N~B,/ +'%{15j+=%6/>%U3* w}V#~*a&h{|*;#1+F.-,%.e-b$u#=+*,h~%#~~u@)|`[W_y#25G@` 35>] %M{K$7#E!1<U=;+U _$K$Z,@*u{]<y1u_45`4G H,Y^55]-l+!*t>1-K*7.K>W%M@n%f%,# %~% $7#U_/!5^n,({r)S$i$f#K=65l@a+Z$f*2-{ U+O&4 Y V-x-R#r R.0(:5!4f<p{e{## #H>p$W.n%O@g@j%t%m%h+V$2**&_$%'.@!}K,$;C.:&H;%#z@P+k=U+d+O [ ++3>A g&0&6=0&u;I.v*6+t@/'33u^G/t}4.Q X@%{m%y$o;8@b{<'K%v!9,h)j/N)|__=''|'o^.=q~<$75_-<'85-@8;*>k/:#B&L{G#W;X@8#4 d+w>B,>#;#+ N+n_H]&^*/*3,</&y)3 d*x-Y 6,e'I-$&@*K$0+w>8+w>H$d#W$3>W)P+2+6=]|8&o:4^K+=;V!},u],>>,",
"<&+'q^4=  =$X/L$& g,*@^!> , C36/G#5(p{9'1/g>-;o@^@N.4'#$B T.X,_;G@,>W)9~j]C@g#W_.(n. <E@ %6^b$#;=+$ %#=4!%D#E&m i#~!{;@.f4G:33u_4595g=v,6;T[j2.{x)@#^,M+&![,05->B&j3g#P+: *+V+[+.!M+c-q;} w#.%++% Y 1#3]n,6#i_j~N##$L$t+C^t F (@,*+&a5!4b5K T%z$o@:-k#L+N+X/D$7.j.y#e-S+q%W!v>h#j#3#N;'&: ;@i.q$G*e$i$q.| 3#[&P+F@P=2+P=H.y#v= %++S$}#}&6 u^G/u3P%~~-$L;/ j.{;3'5*b@F O 0@g,j=/}4*,=F i&n{$5@#B]>.w{)#]&c5B_5(^;,;b#J&9#B.b.P&|%;$U+F~>#Y@X D x>[~d5*/d>{3Z$y)d L=1-f 7&q.p@Q^w>R.p;b'H-9^k)M#w#r+N>+%x-}%e&T_e55>K$-]f5x-r 9#u+",
"v>g=8 6{&$u#`[/-:$6_0]V]> j[g5U[t_G#2>~~^.H.J ]~#;X,y&3 8 K$D.r+t@h%P>)&z)n,^%'%l..(z#9^Q-{>4;,# %D@L!Y/y+)@d<o>< &$r>i;8;h57]u_i595j5k,q%k58@f%' *~d+Y r%&;_!,>p;@$B&_#J>r ,>J${)b$f*S+S(_,J=u@q.%4F.<[Q]0~g$w=W #$m e q[o.W 0@r>V]a5l5R_g+y$@>D.U=Y@L C%*@'$k#x%}%x%O 9-m5q.F[= g b&k=#$1-^ *,H._;7=l#4=R M#-$0&H;C w=9 n5K#7.{ 2+n%W=H+o5G/t}I=c.e- ,[=R%$@t@7.-*>=_ N+4*<.#:n{|@a;C%S.Q_g)p5D^B]P[1)G#.3q5}/T%T-w>D.%#R*(+n%B&r+7>3*I.2.Y u{[~d5|&r5t#A3a$:'Z)&$K$T+l@i#(+T#x%y{K#y;h D;2-:-O+6=O&E+K>(1x+(2B@U-.@J;_;q*q=W,",
"'#r*;#b.l=X,T#y-7*')$@i+W3A|s5!.q.p>2]e.M=R e <&'$  Q^2+W y-;%g 4=Q^15:@J!_;e'K;t5W$4)E@+,-]j4,#0+N;y)F|v@P E&o@5&0 k#Z,`.c*B3u_i5/5+>~]6;K o'7,]*`_M/c-g*7#c~A J=A#d*8%{ q*M+h$F@0,W$T$_;}#R ]#D&1 % /{B<1#Z%.,M#W v=k u%Y D j&,*+&:5u5b_t>}@& [..@)*m%-*$.l#5_H $-8>L;J+v5/@m>j;u#L+(+6;E+7< ,t@% :&1-4=U+h;P F*J@=+o%s-4&} 4=S$$ W$&3B_u^G/f}$,c'->f{K$F 9.C 2.W&S+R.I>{!I%640;<.9;n{Q{.=]]@-|@w{x$w5O+N+k&a#* P ^#-+M-t',>/.[._;B, #_ 9@/.c*>_&^g[U|=40='&8 i a,r)k#U*Q+K$/.!)n%{~*+0+#$[+r*4&r*O&u#~)x5J y54)#1C C P;->*+*2",
"l4r+Y g=4'. 8#k#m=m'9.4:j+z5A5B5B ~!U=;%#& #6##;7.% #;D#}@3#v*r+a$]#s.E;*#b$4)d&L(g.L@9%>+r{k$r=[.8 q&e&[##;M$q   9-+*>+I u1#.u_45C5G I>R{:#^.(^Z^z= #;#X,6&8>s G@R;&3m,o.6#f#D#^%T+W%l.o.i>H$7=T+2,P+Z[t.k)1#j'f#7&l$N=_  %K$% I&i+:5!4D5B/c}d@J&a@|$>#%'C%L{Q+R'W$&'M+93b&E5]^ .^@Q##=4$@+c#o* $:,T b.7)Y C@R 8%.++ :-*,@*+%*+W 7&H-V= 4l2G/v2D,o':-a&j.Y %-q%>#M 5_k,'$d:W#6<4*/=P{b-%$(^$5+=P.@*:=F5f%R3Q:^;X>P U U*4)L+7.2#-+4&5#t@w>d+[>/:7(k;|&G_G5A{q.  _;H5,#b'4=<+7&y&}@4=[>w!{>L@C@^|m%U+n,b.: V%r#&2=^b$*$$ '4F@e^w#",
"=2U*q.@.X,e%C$2.0@@=-*F&n#o#d>u}I5[3q(#&V%3&N; $$ W=y&4=l@;#c#;+e-%[.+Z$d.S#a~J5j{:]W$;$6 1-_#8#d*4;w=q&`]r=2,k##@% 5#2,~-z^7]u_45K5L5@@~]V<O%M5N5t> #B',#y#$#0$m ^&g~f;6+b$b'm%]#,>V%T2A M+M-_;0,G.n.}%O>I$]#E'~:D&W $.2#r>[.8;C$%1O5!4<4i%55z*'-_ _ ;.f@[.=':=0]B.4$r@''7;p M V&I>-.q$R.f Y#V#=$C$^%d*i$L+g k=]#)&K+8%q@1#2-g$w#3 ^%T*u{z_G/t}s>[ Q X@U-S+j#(.v'#@r$r@I&l3T@P5]!Q5-*R5Y^c!F>+=%*O'P@N~'$^~B48>0*J&#@/.~%M#:,e B&H,7, $% u$u]|][~k;|&T;}4;|4=@!(&S58 f U*E)7;S@3!W :&T55#=;@!f(J!M@D.W;h.A)U5g|h{n[N/5~s h!B.|*",
"m-;#q.1*2*h#2)9.K$}$@=^!l&=%m33+-~'$-;y)B!H$l@X a>P N&~%j-Z,@*E;u~o%:[h>y<]2V5W5u]%}X5.31<y{J-r>R%-@|~3^k-0+I;X i#E Z#/:|]M<f4Y545d/L5(^M/4$[=e/[/b#K*h P (#E'A+n-p>;+Z53 ;>N@a$6+M#,>A;_**,h.Q;K+X(W,j![+{ S$K>F*j.q.`5b+4;k#8;%{+&a5!4G_r{N<h&L{d+s!H#,=L{P x-,=K__@O @'m%'!74C}n=x=7.g R%l@N,W 1-}@S$<*x%g* & ,/&K+<*^{W j L=L'*;{ {>n[u^G/f}D!e-f%5&:@X@u#-@-+$ O'O[z$^)|/n^]!(~ 6|<9[R5A$+=@]b{[)|/,_[3e-*!K_y$L$y<h;m%k=:*7&!@f $&h N+M;-(7(k;g[)(.6V5M+b&K#v>5&A+}%o,#1y&8 S$^#U[P =!r d~W%/ f*_;+6*#Z){):/M^x1A+9 g=r.,^",
"F~B&7;G@g*R=u-8#5&)_m@V<l&=%i%* v<c$J!^;<-/&$&B&u-f ,>[+D@#@4)8~6# @*,1;`,J,X!7+o_4}&]#$3;~%x-e  @v>`$l,C.|,U,X,%.8,8.,*2,Q%#.Y545@69*#(;->&v' #]. 50** -+U+&<g3r3<#(,.(_#d.A+N#W;4&[+3>F@o%s{9 W:V$_,4&q;C~2-l*o.=+u+0+_1 %B&g~z&+&a5!4#6a@$6h&b#$&R'P'D>C%g=e+==M/$&q%f E,b&Q+l O -$b.n%l$w@V 4$8#q*N#c-h+$ A+f#y#-,0+j-M+j F@w>h$`%X*e;%6G/t}B-=@c-r+O m%-@@_e-R)<._ R'B^R+R(C%B>k3O'Q{]]|'9<)*1.l '-6.f!1=:-Y]K @;S%3>K*0'5#H#K#3#Q&|+9.g=<%7(k;*/T;&6G|^@n%K$&$1+$ j~ &J$H#O&+.X s+F;*61#0&i>A.|~d1M=*#^%)|r=Y'o%^_J$H^<;}#",
"U ~%:'S$t+Q-/;< <&')=6&&l&J4E=|+{~k%X@H*q@J!M&u-e+R.3%(#y#I.R 9'f;q&W;g X~-6&<A 8%;+){g >]D.x-d*[&K#O=L!X@I;##J.f%q]y-m)I |_&:q445;6B/.*#=~&p~c~G=w,].O+*)@*M-L#)]}#S$V,j-e-u#c#5^4!a$r+g; @J>C;R#@!` D@./~_8 8&F{]#({C & M{X j#V's2a5!483^>0-x$Z I>=&U.:#x%t%i*/.~*d*7.P F<e@^^c+7;H.7.X/7+2)k=N@E) $c$9@j.e 8 -,;,[&t+12:+q@#$`%[+`%U~>6n$+|c[#/n@[#+$O m=H.q%w=T&~;>.:$6_6<9{Q.(~C%$!v:(>%~9<8*g-b@:>^4z;e/p$p#p{@*L{'&y&D#A+&=t'N@O+S+.@*@$6,6k;'6`=<:/&1-q U$P-1+4'p*C (,>,_'%+j-w=;,_]i$3>*$=#(&)6!6~6Q*0~Q-{6M>Z)&)#$9+G@",
"+ ;+-@4&b$+'f 4#K+M<%{;/n#, 0!j%0>3;C.K@c%e{%.[.C y{e- $P S+g&F,9#E't~n.l.]6G&Q*J$Z[r=} p*R*}&[.{+J-!/o&c$P;y{-.1-5%/.8#+*g~^6q4/6(6_6:6<6y$M53<H>c N;[ : A+*'`.8.v)A+91I$N*_&L+p*K+Z'D#Q;@+F;O:t+:&D#.]I'/&0&w=;,M+l@^@k N+c+|{*@4:a5!4[6/-7$3$h+9|:=g+0.:#w@^#9@B/4$D.8$}+0 E[< }@3#a$L#2+=$4)B m]9 -+x-}6,@(.7=V~n*K+w#g h.3#X;k=g;U-|6y~G/~1*^O+%,A$8,N+U*>&g 8#~;O'_ :![)F_]!<$A/b-O@/>}./=w{^/u<H ;;A%f%M/C*v)/.@#L@8.R.4;r*N@-.7;F ;#<&=1z}1626T;t#6: .K$t+@!h*7&B;k=g*U,R#t@9/:&n.h.-,Z%Z%u@W_8>L>F*L#L(<#P~H;2-` X;s-K+",
"A+g N+P&n%n%I,{!w>!^+@Q2n#=%8>].U=K*N;U=`+k.f /@_$|+H,c-p;Y @+R 0>.$[+1#^,9%0^-+`[i{:]'~,^l$ %n%g;T+M#|(+./.>,'$0 2#{;h |{^~$<u_D(;6_@~=b},;e_%.q$:~y$a&+%s  +A+F;~!E+&1*;-;t.=$S$l-*#j-f]i~<-7+g&9^S$A;p)a$*+j ;,%  &e]d'd'<&z*U-|/a5l5b_w}5&R)u$9;R)Z r@-+[ ''_$-&=@k=v-|#Y.#'D$q$k=K#L@B&Z%E+c#S+c#h+L;K#0+K# #)&;,[&`)}#d~g=f#4=a$g~@|!~+|c[E~: &.f b#U+2)%-9#k#K%>.,&36N'(~P{>.g)['R)['v!)$l x>R'S@m)z^O%*>*'q%2+==C$o@9^L;#;  -.e+-*7.D.2;,6)+461>/_X)T&e U=[+v>R%=;d.!@P N+x-:@W)7+g.#$l!j!:&|~=556.,w!E<q.66[:Q;` r #+a+",
"u#[&P Y N=]%;@I;u-P:7*%1j+f'76r*M/*>k,M@~~#$B&h + 1+8 r*9@)@V#@+W(c-j ;,Z)e o&F'Z$a$g&86){D@B&X t>.@N#4_% K$t_X/o@O,|{g~r>I j3Y5D((696c!k%/-j54$G=K_+ X@q*!@%($ 4&y{t@*#o_1#a' &0$x(i!q.-,:[A#E@w~]#4'w#_;%-F@^{s{q;x(0,I$9>5#8;B3|/:5l506R{I&I&u$-*@#J&[.E s M S)x%G*q._@a6T&<@g,e-3#e *,%-N;6=D.,&M#W $ 9#l@B.M@*,w#9 j [&H:K=+$E+A;x-q,n$</c|X'&.H>6^-$[.4$-.v,x%%' {0]b6#!d}B%-'c6- u-5$d6e6%'8$1[-'g3q#7-:-=@i*r+C w>f#;$P;;%K+B&=$%&O+q.n_k4)+f6g63^;|j>}+O&A+v>r):-a$u#<&|,W 7=)&B;h.^_(&V>y+;:7#k-O^`$+,K}h6Z'T$z(<*5>e ",
"C n,_@&$2#@ X:G@&$8|9.4:i6),r4^~M.z=$&*'-^: B&N+T*@.7.y#C >]@+[ T.>_R$Z$->n%;:h%X#G=C;o_v&A#u;7+(#[.i>R!T$_&=+K$h$I}R#+ y&L &&j6k6l6/$_>S^55d+n=G=@*$-A+D.g ~<X@7+2,{~ !}#/&-{K-F@b'm6r)S$z#Z%:&3#T$|%T$@^L= <4)w]3 {+P;@2c+8#8.g3y<:5l5n6z=r<:=2$p]L{v-_^8<].Y;,=o;K=X@y$& ~;w)]~:-d+e y#+ C&W)D.-$q*b.L+@{1#_#B$(+E+P&p*f#)&)@_#*;U+U-p(('</^[v;X> #L+2)~&v-()A$Y :$I%E b6^/9<|@O'%$(>5$5$|'W#@%8{<.5*9@*@>[t@#&@ 0+;#;$2+K$;;i)$-;>g&K$d+k,n_,6o6*/X'F|D|G.H.: e g&S D.D;K##;;+r* &0>6=S{B<6#(&9 d*p6g>V%S2o|e q6p;7+` S{E!#1",
"y{u-O /#8._ 2*/.}+!^e+4:n#),Z^E{k@L#0>$& #=@o@i;O+P~<&w@g&3 H.'1%.G&v*a&0&G@S!7{o.q>E+0+W:o,g*u@*#+,]#+)_,b'4 & $&'!/;O *@i;&&q4/6.)96[=.{x2n@3<3)V)j;;$ @j _%'&k--#0~o%;+&#<*o.w!r:m*F.K=q&q>3>^+:]C#r6F@m,+ e'K[T+<*h*h d%$ +'M<s<:5u5:_w'#%2$-~s6~=8~'')*K :$S/a@M+-$A+*.T][$0{S-* M;X@5&=@^./#D._%X;y$E+*$:+h-M-g&n%[;S+ @D&T.4=4=Q}S>y~8)c[v;w,Q |+1*+;M/$&'&;#>.7$d:a[D>F]t6D$S.5$]!o^Z2P{e@%%@=#^&:+'K)#(D*T*N#V$D.m%v>d'w),-%.m%o@N;r>|]O/o6f6u6l,G|I$=$w#1#2#;#v@e$y{$.n%W _;'|A@W;<(;, ,!@n.p][%%(D|C@d*o,d2~%;+&,v6R]",
"l)d*3#X@_ O(g*L$N&]~-*V]W3L1H!8.0>7,p$_>n+;!h;y&b.D @.->E!<&#&B!G@G&$#q&u#,>W=|(K-J!8%;+` P;v>E+n,K+[:Z1g;d*N@D k#s%I.q ^/P:$<w645x6W^m=l(4%;-$&s@c.R.a@-$0> @k-v@Y'N#g$#;;_6,_&(14!*#D&g&9=<;-,}#C;~/d#8%P|7&9=e#3#_&R*N@0@8./.-[s<y6u5<42_9.<=F#@'3<C*@.74V18$j&o;U*#$0'])/.:$>=a@i(>}x*|+X@~@K*~%l@K+,*&@b$9#V#*,<>}#]#h$H$l!P+8-W A+]<x.8)z66/s'X@`@[ I>D.#=@@A$O@8.)*'=74)$e)Z2k3- R)$5R)A6W&V@t<Y&$ B6C6z;L~X!X@  B;y&s e]Q#D6R*b.B&U+;+%_>_1646<4E6L(f |%1#F,d 4;L@~%:,]%]%[ D#0&51: p)-;k=R*P+a$L*$3@}#$!@]#~%b$<><*H$h2",
"D U+M+3 Y.h#% L+l$l3+*V]n#f'p#A* :t$V+:-;1c ;%2*k=>,;:i 6#L$8>->:'z A;E'P K+s I3:#2>M+` ._>,h$X@W;M+u]K>z#n%;;I>Q4!&W.i*,_y!L[F6G6H696F>U.()`@M@_/9*1)r>j.q*!%R.n[.}C#::_#z#G'n.s3z@w@N=I6i$k-]#p*C#k$V}q;&,h$g.$+p;n.9^<&< )*E /:Q@a5u5J6k%{=7*k%0-u,{.<'R/o@:~E[q 0>t$9@a.*-S@}:0-N;* p#a~X>7-{*3>N>R%y$% T 4%q$*,w#P : 4=3&g X;F@u#h }1('8)K6<482l+M#.=7.H,K#U*1)|':=4*=&e6|'L&[]/>.=a-b>]!@;D$u<V^v+y<z*8@.*:#@{K d-6;K$M-I$e B N %.{;D.g=-(7(16f6U>( ;,9=E,r;(&v>Y 9#`%j49-]+M#(+q&H$*#F@S$f#G'n.E'T_i!A3L#}&:/&&|;f#6,0~l=",
"(@u;V $  .7;O+m-K%g,Q_L6n#f'k+'*X>]-4~Z 7~0>[=f M@j&~!Q&{*D &'P+C@z) <g;I$1;s M=/&$+r>,## 8#L+~@J>l@%-a${ @.K$S+e v+o@-.,_y!H[M6G6;63*i&e{N6y/82C-_@&@t]r w=B!Q%E@,>b.n.@$9~p;p))[_&w@v>3 W;y;9 n,-#(&{),>e$[ ++} F;6,I;n%N.E#:=c*&&:5l5O60>g=*@#~:=o@#_e%M))'0* {7.o'K V&0@B^%{M$@=%{0>},h+_!t$Q&T e.A+|+i*b)u-m%g;u#0&R*D.a$:&#$q;[;c=%}T>8)^[@(Y]k=y$U-='9,@*e->#8,f+r([)P6D^+-g@['(>%$-*1.g%Q68*:==*%{N+J((^c'I>y#i*;$n%g P&@+K$o%M&j&B h m)R616f6U|F|w]f*K+g.9 D M+^+w>=+l=E#/.++e.J>K-g =$A#6#w!8=(1Q>t*: /.@>N;:&[.n,4&C#",
"}#W e-:'])a.X 8.i#8|i&&>W3T|E]i@(<u]p& $%,:@u-f@h+% v=q&-$7>.$r+w!S{y;^%E{N/M-_2A#}{S6v=&]2,N+~@X;e.g*q=N#I @+C &=e%< H,{!:>T6w6D(U6$5V6g+5*8$c.' _$g@K* $Z$O~f#U*a$@$r.C=N>(]6#*{7=l,9@7&2 /&_,]#0+L'/!u#j.M+r.!>X@+,,#;;v+=&d+M<s<:5l5[6G%7@$@F}i&3* :z$E[-&* v+G.$&/ $%/@< >.u$*&x-t$L+X!%@s'f%7#l@E,Y#S+k=/#a&f#F;q*t+B$D;4&q;#$4;.@]<T>8)W6X64)[.9#u$N;q o;B'R.% #@^~G1i4-'Y6j=8$(>R)C%C%S[!$R)K%+'(=h #=Z6q$5##&d+B&a$R%7;N,o@ ,% ;;d./ -(>_s=*/<4'%5>;,V$|~D#J.|%W D#f*v+# m=`%y*F'b.u#A;e l$B(`$=^`6F@{) % ;N}B&q;B=i-f#",
"U,q -$@*i#H y&$.B,|{W]i+l&T|C*f%3.d!,%!'o&;$y&S@A;W ,#'&9@R#^.5>y;C@A#A+-[1!!6C@P!k{j.8 r=e+b$P+L(3!t%%-C$;+r+F.X,e%@=R.-_z[k{M6Z4(6n{M5n=$! 7~.K_0@3$U[3 d.l*: S$o.j-D;Q^k-*4/+@}D#}-u#W}6=d~&1h.=+T$;$l@C O j)8%q;%)8.y&S|< O+u{|/:5.7+7,;Z65*A,u$n~f!+*|$n{2_O@;.q$A+;.N^5#l#j&L 3$h+|+}:s'K,K c-N;K#t$X 1*|+V>W%F,6,_;*+{ s)2-k=z]N&S>y~8)@7U|M@P&&@n%='f+n~p$;#k#& d@#7@-$7%*9;/4Z_b>%$/>S)>.%7O((@R404H|0>>&D.w@c <&i'$&t+ :r>3&$ N@y#@@)<>_s=&7U>X%*#F@r)O&B<G@8#3  #4& .U,B&z#.%/!g  &=;9 l-<;P<o%G'*,P!u{B_G&h j{o,z@#1",
")@K+<&X _$I%q%k#0@E&G)B*n#=%r47.[.u}w,U=]*e+m@I.-;8#o@z=;#7)%#P% ,v@G* $Q~~,L>;%Q^d*{+Y + P&l![;*7e-7&N@C.N#T.;#*.,=|{8,8#u{y1w6Z4=7-7v$s6O)e,t$].$!V<X>+$3;p/4)/'%+R*g.@!d#L#q*U5{^#+::h;~)5^Z'F@=+9 /%j D&8 e.o_q.r=]%4#|={;|+m)z^:5l5;7>7J-F d!R.,;,;|+8,F]F=#@-.$;j.@=v+w)5#u$+*v!g=O y&3&9#K,9#}%B&~@D.N@R e.l@`%n%3 r W%F*X;}#+ ~!q,T>8),7P3^;5*m=+@,@8$B&:-&@W.-*g1y4'7|'Q.)7n{b>Q{Y^b>x'A~g=;'V;c+#(z=y#v'-+&.:--.g;0*:$V#%{g&;#e+i.%.z&[~s=f6r5o<5)r.}#l.W R#..g >]W$e%,#1*S+W)3>I$E+9^i @$x3&;X@3&*+s)o_.&&+0+8+J$u:` ",
"N@[;y{1*H#*&H X Y $-b{r/n#!7n+/-i(k+&;V).;[>i#5#g;b$<& ,y#U %,V+L+7+~%-,W ~7a#{7S$w~u+3#2+[>3 #$v@S%2+g*7+f#q.I>''v+3@G X./:T6w6]7^7g@b!(<m@m=#~B10.9*M#A;w# ,t@ &m'U_P+I.6,y#M#A{{)L>O!K+:]P+8=_]-#,>A@b.Z[7&^%j-;+;+V&4#8.(@h m)|/y6l5b_O%K)U)i.J-_>:~%.w{<'K)7,3$K)< 0@[.O{E#@*l# .U*-+K$.4|+U*K@D.O+^.P+L+e{y#J!T2W;7&J>3'G&t'j!n%7)/7u^8)(7_7#_;#S+N+k#~.g+V+g@i@,&8,6<#'Q.g%(>['g)''#5Y^g%W&);R'L]6^t]W%N+U+9#B$-.% $-2_$-%#% g {;N;@+x-8{z!s=:7*3m;~@N>>{S{*+^@!&U+~%g.9>=+1-w#8&~ @+y+C&x(T+2(9+P1z)N#}: -w=-;<7j!Q]k$K+",
"% Y E#N&K$b&1+d:;.o@m=((n#A|A,R.3.s'q$_+d!H,>,Y.$#8 8,7#V+I.9'v@q.;%R (&P+D*K@`%~%d*n%F~P U [ 4)V%-+M+[+9%e  ,;.0 G.*@5&/.d:y1w6Z4[7-*$5j=#!96}7R{f+k/@'d!@{=;z#V'9#K26=v>/&^{H$i$_,G|E+u#;,T+q>g.K+<*|7K-u@ $0,4 :*8#:$h*J*x-o@m)v[y6l5:_G%I&$!K_3<k%#=R.7$e@G J&o;]-A+W.P;K|;;d-u$(@;$X e-.+y#z=M==@R#B.D.7.<&q *'a$O&4&D#;![,2-T$~%,#S>T>8)W6R_C-;#9.v'Z i*H,0>B/U-:$9;17)-+-9<}']!#@W>_6|'b{S)X.[52737f{ #.4:~;%N I>  f#[/0&>[(@h   f g P+X*>_o6l;o ;>P%l@/!j!d  %+ $&P+@+6>r H g&e>s*r+J>T,o.-$V%P% $d~S{4757/!S%C;r X|u+@!",
"a+C#H&T#7;a,3 H Y@^/O2L[j+, w,g=x&C-4$y#X>=@2@T1;>U*r=-;!}U q@l@X@Q&p;@$9^C|w,D.G#G@:&/.$.;+C =$_[9~1~N+w>$)#$H$r)5%:$8$:=i)h5F6Z4/2v$9;/>V@A>8~_@-*3.I<;$q$c.V'M< ,)]C&S$H;67}%6,f*_*K+:&3!7=A@+}^+_#_*S{r-U$B<-.%=k F.q.& |{o@s2s<y6!4[6G%R{5&k%%%@_,[O (-g=7,f%d-a~77|+m'I%u$i*f+& '*M$%#B$6==$K>,!P+Q&+.K#  c-r k){ k=r*6= $4)0$8%)5 |T>8)W6P#D*[.P %. ~{&W.&@y$A$2._ '7I2e6-'}59.F 5$(>- l #%9,d:R+(<7~$&O%X!g=P&*&% 7&M/H#w@o@3;}&k=N+q [!O/o6:7u6^.P%8=/!87]+c(N@q.7&R~R=R%N+U+5)N>&1++R | h$$|7{P=r u#T$4}9^!(y+j!97W~D&",
"0+&]5&  N@K$S+D 2*5'h=c2j+=%6(d-c$B1d+a&0'c->.o@A 8 '#=@&.8 d&g>q;d#^,B 074>'&u#n-*@7+1-[.V!^%t@O$M-3>H#e I>[ w#f@R&(@:$R'O{a^w6Z4a7]!l v$l V)7@Z j;N+M;L+p$K#|]Q%q&_#a$0+e$_}d._;n, ^Y L-y+_;b7c7._c_Y%n,*;)@=$J.t%E#d''*Z,@>%{y!s<:5!4d7]-<=q w'#@o;7->&v$w}G ;%4$4:T*@=^/+'^/t]R'z-g,O+: Z'E+O 6=:-;@G 7.{~f 4$m%X;[+0+~%r f#r#0'k)E& |u^8)e7;(C68#z>c#O f+7.d-[.9*% n{~$I2i4+=h@F>h@k,b>1.O@l u<d+$%}$~'a)K)[& #!@Y@X@1+B1@@p{ ;-$% M#v'u]u{[~o6f741>%7~8==[Q^!&9-g=X@L,W%g7Y L-$.7{C{z#/&r /{T+h7/*9+r }#%}S6n.v*x+f#~)J^^%",
".@S$N@u#6,w#+ 5#5&7>L m#n#, :~_@#=t$$';@j%#=n%K+c$N+& +[e-4$d.a${)T P R.)%G&{*:+| D.U+Y 8#8.q$o.c~D+F@S+M+K#: @+<&z$F N+4#O{1:i7]7j78*)$&~8*#=(5i;e4c/y<V)3&t>8|b#e*B;q.I$&1z#$#e.k=;|M+X@2-L'^_k7b:Y%m,f/g&[.N@e 3 1+l-/ q/g,]~u{D6y6l5+7#~l7H,K ~5^.{*$!y_x%t]Z@5&:=R.368#d:d:7.V&/-(-3%K,R$H;d-0&3%}:f U=3;H,K*X@{ u#P&B;K-N ~~6#w#;;n[T>8)~1^5*_k,$.A$H +'3*+*r<H,#@v$+'P6@-Q.m79;Q{Y^5!g)@]>.9,z-Y>c5n=;%8@d,c.Z W@8 r@;>G@.4y&L+q %-r+$ p(w|)+l;)(>%;>Y)0&_,Y;u%K#_'3#o%g7R%3 $-B.j]Y%(&W)8%G#{~V~$;Q;}%359^Z).&5>]#/+L$.]",
"+ h$y&%|L+|+h$y- .(@P2w;n7o7}]m=z;:~C6~'J&.* %N;r*4&r@y#Q % .%[ ,>(#{)k$;/[~c-.@7+L#T+k#F.#;t'Z$.+H$:]A#E,|+:+-$  8,N@& )*O{ 4w6]7S^v!H =*F y/7~o;p{0-H%d+~~9#i]0&A;j-u# %E-C@)&A e'x]C#t@j!~%][3]d~g.2+Z)L'K$^@R#7&e]3;D h#,*z&|_z^p7l5O67,7;m=J-0-c!1^c!h>* #~.->&j=k%g=2#4#$68@V&t>1[%{z=W%G@(+:@1-q%:+B&%.k#4%[,n,H.E+%.V y(y(j o_t m$D}8)~1q7>@f+f+i*g=E _>V)2$K X.W{T)'7+=P{|'r7/>e_9[]]2$b!3@F}F:O+= T-&.9|y#.;5&y#L;-$d'Q o;:$v=m=~'^+.}.1s=s7T;k'H>4)Z)6#J.a6/ [;y{Z)]%,&K+q +);,h$f/h{7=g*N-q&v*D@Z%O!C=(+k-q*0$h.t7!(",
"$ $&X | k)C g&(@9-r=T6u7/1v7k%&@.)A,.)m%d!3;0@e*^,l#U=v*p$9@4)x[X!q$0&o.;+w7G)S%8/p;=$L+y&^,Q;9#4)Z%e-k)l$W f#K*X,:$-.+*j/X{e;m|]7_))$b-5$9_+>X]$-[77.t>c 0>0'2,H;o*=$Y + t&U*`$.%w=o%+%n.4&][,>.(i{0&I$8%<>=+M&P 3>r)y&>=X X u{V^y<:5l5x7y7|)A$P)))z7d+@#-+I>_!q#9*8,h+A=}$##j&*>r>v@R'n@3<:&#& ,J!@*[=$-L.B M+U=W;)@r)a$/ p%w/6=,>0+9%5-y~8)`|M~q$2.@'d-*@L;(>0-/-r{9;W{6<A7-'B7W>k,Z_q!q%@@v$Q%0|@.M]Z@c#1)Q$:#+$L;1@n%c#C.g=8~{>L#X@<&-$d-B37(k;f6`*D*G#q*n*n%j44 1#h g U=h6q%7&$.z)W;F;0,9 P|[+: f|u]q*/%G'B&=+B@J$l'B<L'>>",
">,K$<&0$j.8 g&% -.r>m@w;/1=%w'o;h+K,B'8@u$i(M$ ,1-L w>V#j R$^.r*R|F'H-_#[+y|x@L+r+7&:+)@N@$-[&%.S%E+:'K+~!4&@!e-K$2~$.0@%;^)m<i7]7;6C]9.n{8*5*].%{$-$!m=p%~@'$l)E!P+X;%)4=S*d.F*D;d#e#f*/&e.n.E<C7s t*-#Q=% ,#r+w@$ ;.+ O(F 8;m)i;^6D7l5b_^>~]$!d+s6($.-C$#=_@g+v<-$2)c#R.Q-g@8,c#y!c-|=T#[ w% $7;=@r*[.j%r-b.r+:@.+y#-,3;_%j Q=T p*=$U-%1~{y.E7w(K):=n~- 8$~.7;+@{&~]##(=)-E>P{c,['''S.;#>#)#M%@%{;:$3@='1*%.w=L{7.t>l N@h:;>J-$&z&y$@*S+%-4#|].1d5F7`=X#%(g;0+9=3 5##&T1Y#{+9-5;K+K$&1J!W;+,r r 2-D;G7p+{~C-Q;Q]_;W*=]s3M>I6T$",
"  4;D 3&S++ 8,='D G.~-H@n7n2.*z-* @{P)J>X .@:+)&<&y$,#]-w>m%U=L@8={*0'}%K#w@};h.r+<&I$Y v>K+H76#3!`$l-X -$@+&,N;_!w1+@c;)-%;g3i7n|R[O'%'X&i*y/:-i@G(y&U J-e.a~C4)&k=++u;4=o%` F@: 7=V/| E<J>u;:2.(a'P1k!I78 P~.@E+}&M+R%<'@'r@}$L.&&D7l5J7:#(^y>U.k/@#C-n%_@L+u>f%M#d+0>d:f4>+6^K7]~.-c+J-9|p$k={* $M#3 x%h$e-|+[#/&3&u#J-J>f#!@Q;R : W=S>T>y.L7`&v@u-F W.(^_>1*,.Q~u$M7b@B]D>t6N7W&h@C%k,q%r<M%+=;*K/O'>=.- $B$% }+Y@j#2#M+&.5&3 X.9@=$^%q$g#m)O/d5O7T;H>$;d~,>(&@!4'7+}:A#q.U-q.+ /.H$Z'D;D.q*/ %=k)V% @P=g.I'6#S$P7J$8&n.::Q7",
":*l-S+o.M+a)k#v-S&g,8|L[n7L1.*'*%@o;D*e.e@h+p$V%7$y#r=c- #r+H-U*B4J-U=-;M+t U3+.r y{x-X F~t+(#M+H>r K+  =$Y t+6#X/,=N.=&k~c:33m|n|R7r@|'1$**u>o{@'0;$-^,r*&;L;&3C{<*E+K+X@{*h$r%V C{y*o.h.:&K2k=J)8=*{o,w/p)K{n%X@v+;#$.q{1*+*z-L.$6D7u5x75*u$1.g+]&l76(y/y>!=O%~&U.;&H|D p!{&h=^>0@ #,=M<%.T%i'K>0'Q!2>:+A+K#>&(#M@K#J${~!'/&C&[&h:q.%+a%x.y.S7T79*(@^/e+0.W.N;k#'*0-<'0]/[(~U7Q.j=F g)b>Y^i@4*v+M$g@=*0.G._@%.B&#@@'8,l {+~~N+E+<&~%+;a@2>5#M<;[d5f6`=X#0>N,D#g V$+ 6#|*;#u#o.6+y$W {)M-6#:*{)S$2#H#f*R!*7J!J=w#q;_;@,Z)s)N,Q7",
"e x-_&++J$U+H#L;4#8.z&U#n7~22%~&t$.#w:3&B>j.<{v@G.K*b#,;f%B&m%f#%@3;g;~*% W$*'M=q$M+>,u-/|U+d~[+0>j!=+g&K+S$ &=+O%#%C%V&b,c:@|m|S}Y$n{X&}.g@$!M5R{s!R%s'l#J-7,P -^{)W;G@(+++e]D:6=Z'P=w~5>={h*F;*,X=0*v>q.W f&h A+K.;+%&_ d-/.n ^/V'D7u5J7y/V75$9|%%W7v^a@p~@'3*+[3*/;K)8#S|P&>=U=E,#(',Z.c.S^V+s'=:3<q$1*N@8,r*/ J!D@3>|+e.*$g*o.y{z#7>+&T>y.S7D!$'.@(>^#b-a@u$Q)w^U+S.(-Z>X7e)K%i&b>.{v,>#r!O'A*N<L R{R'Z#i.i.[|:#_>b&]@K#m%R.w@e+0*K#: %.]%n[;[&^l;U!Y7&<<-w/T+2#t+m%/@b$_;N:+$N+]): c.6#L@W;B<2*)@O~T_6=Z7#$C17+@.,#C&D#`7^<",
"R#r S+F@0,9$<'S+2*U->+; :4~2G>g= #X>^.w@q j=K*S%@ O+$-Z.;:e+W%B$P+W]d!a$O H-N2 8(+K#  <&D O -;i.9+%#R%g*->h$t'r)%-2*F.5__.@>#.m|Z(v|#@O'1$j=_6~=.#d,O%t>e+.8$-|*3&q.V q*:,;,4;>]t@H$O~V,j!<[u+}#E/]#5>|-0+4=l>w>k#+88,:$g,j#8.8;,*8{@8u5#8y/I&.=m=a@|).*=@H,.#0.8@0.]&'-+'`.j#I>b)8,;-W!}@)&f%c1M@$',>3&y& ,[.C W%3&_;-,R%<-h$q*1#f#A#;;q,n$y.$8h%w>|'Y.5*3$(^.#y-!)|+R'_=6<%8h,{]a-Q{Q{1*f_]!j#^~n-O@= `>M%v@;%H@0.g&%'_$e s)q%g @.1#U+Q&r*D p(H]&^O7`=&88~Z)}#`3=$c(7&^@M-A+R D 3#N@D;w=b$R ^{Z[]#9/U[W)-!/+1#j-&3~!47#$q=D&r)",
"W 0+g#9 h$R#$ $&S@+':>V]:4~2<^L Y$C6c~#(;.>=_!8 #;e 3 U=n@@.(#w@[.W)'&}%d'5>1-W+U[k=< b$K+.@1#i w]V q.!@,>r=G@2+[&m=I%.=}=I *8m|Z(=8A$['$7%!<=6;y/a!z;b#L{6{R*u]M@r 7.k=3;S$u+%4z#G&V%~)d#^_<((_-8q;-,q;=+N@k r)(@9-8,==^/C$r>z&j,r(D7;8J7M%1.1.j#@']-O%- {=x4v-`@9#{;!)S6W.F i*3*Q{Q&G1:~q@J&K>H>3.{~='y&a&a.l@6&-;i>+$[=g>r C//!j-S,;;]<n$y.e7Z^F w{5_O)1.P)o;I&g+G j#>8;}u'%' (X^c{,8K/>&f+j=Z{,-#'w}Y:5#M@O+];i'f#'82~L,;,<&;#W.$&V -,R G.v[7(&^l;J1>%}@$+(#,>B,J.m%^%D ^,F(..%-;;!@r U*3&;,=! <E+'_j]s*8=b$s)Q}h6E@n}i-i-C;",
"W*#;r@7+I$U K$2)9@g@!]W+j+.23.R{k%O=B.! T1v+%@J- %D D#j.U*9#J!{*D.^}L{N*&=H$5#)8Q~S%$.o;4;r-C@t'1!#$f j.3#o,=,N+:+R&F1{!I%I +&m|Z(6~<={]P.D^b!)'@#$%O%*>y$w}:-d%%# <R*0+:,E+L@R#]#z)e.1#c_e$v>O&D+,>U+3#5&e]e%8 .@B,f@I%B,a@,*{;2$|/D7;8x7y>b>M5$!&~}/`_A%t>K_9|#& #{=u>+'I>P)I>Z N;r+$*:-)%* q*F}8<2)=@_@-+W.)&/,V%q*a$j.6=B=g$4!7.M>&3@/n$y.e7#_o;S/r$&@u$L{/^'-g+(.*&T/!8G[O'a-g).=$55!9*M5{!;'0]P@M74*+>g=J[h+&'=$%$F]t@q 2*_>R.h a&$&H.r>n[}>&^:7o 3)C-q+^{Y%k u-K+Y t+m%[+-;S+% I'e-x%0&o%8 6=y{x5S!m(<-*(j-r=g F'T,<(6,L'",
")@:+C 4&3 w>8,K#X.{;:>; j+),~8m=))k'1=a$Q4v+<&N+o;D g=R$W$P U+u#r+G&@+{~U+l@Q%Y$s q*m@q #@T T.q;L>*+!@0+{+.@;#8 ^@Q#e@,+8#I 0(M[Z(+3b{m7w{@%h@.#&@^/{8N~'$@*Q U-w@C&f#D#=;G@q*!@l@W)]8<_n,e$)>s~H;Q}e$._d*}#X,% *&.@1@@-z*g@]~z*^8/8@8;8B|0.9;/-(>V11^1^c/'-(8o;O=N+%{d-,_j&R.T Q&6;g&^=_)g}:=N,#_q$9@H,K#p$P&e.]:}@R r b$Z%=!S'3 u##$z&@/y~y.]}p&[>e@%'5*L |_y$F e+o@$@$@_8Q5:81.r!Y^Q{p^w^y${=:=4*<8[8Y^B&g M@C$w,~%&@f@@*0 q^Q^Q!;#H;R [=>=D__{d5l;}8D!*'s3&1D.% x-_'I-$ h>E@3 e+)@h*-,k=P+B!O!C22*d4:[ @V%i~]# $W:A;1<w#Q;N[",
"y{e 0+R%L;o@;.r<.-y&u{[|n#f'0#i*<|5(8@y#H Q+$;X 0-[.&'c-t$L+j~*;^%u=g*P W$0&T<L(1-F,@.b$X T 3;&#!'q*!@U=9%D.p)@!%=q%e%V&7$z*v[M[{|U]5*6*C]_-]!+>^>%;V);%<{J&;%9%:@C&C + X@B;3;C@w=2 M#i>Q;5^c=P=H;C&M(M+C #$8.4#p@n%_ -*@>r@:=g,y-|8@8;818V1|<j=289;/-q(I&L/_|R.R@d-R.L;$.N.5#-$M@:'A$J%'&C.j.M#$#b)9*4$_>#=q$c'B : [+-@H.h{u#D&q^s)g;i;k{n$y.i2C-h+v!1[c-J&{=b{w}p{T#}'g1-'x'g%-*''%$9[d)y$i&1)d:z>*|B&y/{*E.U.K,7-_>j.y&|+J.q%;#,@<&V o%2)2#p(>_d5O7}8S<[#Z$h.B;b$C J>^+h$_&o%3#!&=+d'+$R#h$l,s)S(A#w]/%r;u=}#A#N&J*p*_}J$F@0+",
"9^)@R#6+w>+'T#Y@.-[.!]B4j+),38=*I+z=B 2>d'Q+8>n-7;I>j%t$q*->:-3>H,;,+%J-a$U+k&e.`_d+<&u#N@~'/&a14)4>+  ,S+/ 6+g 5#y$J.O#/.!^+&M[{|P,y>|<48e(k3d-g+<.R.z=}@3#)&S$-+M+/ %.N#3>e-^%e.{ R s)i>w@a+f(J!G#/.=!K+a$5&']!&b.#%v!}$2.|_+',*84586878&@k3-'&@=*3$T[-&8{.-H.C.1)e+@*n-R'|_]-=@P+N+U&Y$R$_$.@!}[ 5*9@_@V4M@r*j.C{z#g&U=d#z#k$F;A#9 >+]<n$y.t}6/h+g,c(5*%.-*{&{&&@M5I&V;3:<)3:S.r!W>p^k3&@W^l (@S@:.h5b{q#;%g;J&c $ q%j#h$z$k#G@q.M&M#~_7.n-N/z!&^o-41,%E'%#&1o.}+u#$+t%t t$]#L++]P g*X@j p*N,o.}+D#A.B@y;`%1-g;^#88N>p/~(g.{^",
"P H#g#p;.@8.P&H,.@6;8;B4n#=%T^+ O^ #H*Q&q^N.8&j&H,+ '&L{~%[ ^.g*6#b$)&y{7+P 98N/d!-+$.D.[.q&o.y*W%J>D.L+g&A+s):+|*D.p_G.g=,*H@w6S}95i@j#['1$j=#5&@R/0>p$-+:@:@3&s_z#i*:'=@t@0&2>w=5)q;g&z@C&2+4&X/5+^+,>$.0 V&c(2*y&%'5_ =&~d:^/Q)0858a8b8u>/4/[c8|<{&r(=>2.A%'$].O+j#,_{;7$c+o'g+N;.@J%s'O=C$^]9#d8%7N+w> #c#7.S$#$e.: T w=0&J$ $R#L+3_@/n$y.e8m+:@m@%%N+~.##R'1)v-@#>8|@h,$>l A$/>f8A$%'5*X.m={=<.u(G29.7;2+!}/.P%%-J.M;O 8#8#I>=1s_: ,>% R;=1>_&^!#`=&<a$u=u=(&x-g*A;J.<#/ W f _ 4'U 8 ^%a&D@3>m,p*3)q*i$=]r*@+12w#{)j) &n,h*",
"h =$0+p*u#;;H.m=5&m=O2^!n#~2T}q O%=@z;N;-./@C{o@-@>=;%t$C'f%c%Z%a&$;#&^%E+o;H}<{d!B;C -+j#C- , @W%U=(,o.t+7)q*8#d'q^Q+E#[&5#H@m|S}>%@@&~7*#>>.f+~]r'G)8<<{2!w,n=P]d+* K$e-D;+$a&{)[#2+%[U'H.S$r+: 9+B@W$[.x=G.< c-R%9{%&d: $j#{!z-g858h8i8V6W>/=W>)*<'>.b{(=71`_G%X.Z 7;@.j#F G <12)O c(u]2%U~p{'$n=p{$ O `@P'=@w#w=`%F(m%F'q*6+h$R#A#V=]<n$y.l;j8_@,+y&T/[ j#V@N%$<k8+*a-}.,'|@2.9;%~R)Z_A/5*R{l#|$z$:!'$8 4)y:L+c%g=U * O _ m%g n%7.)&3>=$@*/:l8&^o-T;s'B$N>3&i>K*N#{ t%B&0'r h:1;q^8 _%J$v*I$z@G'4)m2[(m8<-[:9=[;n82+a$w#O&P ",
"` ,#% (+P&*@2)e+U-q z&-}n#!7].()a@*!$#c#R%h$N#,#K#:$7;r{X@%#-^2>[+n,w=Q^c#9%N*8=/&b./.u]#;M-G*a'o%Q;*;c$n-G@8+F.r)i&J+$.:+g~H@m|S}U]0.0-T/e[,*Z -*w{03@|0(y<-(H%X>v@d&d-!'7&=$H.4=J{: I$<[3>G@ $[#/%*+7&$.;+R+S]d+g@~;^#J~t]]~|_V^|]o8l578~.V@i4p8j&$%@%@{A*T[Y$4$U.u>h=u1Y_X/.*Q&1-i*<@R..;M$c.N#z&q8[>#@Y]$# #X@H;=+S+D;d~P+-,:+r==+Q%]<]>y.r8*:Z#z*|=%{v'+@R),.8$A'^~%*6*Y6O'C%Z_^8@@Q{9,q~}6&@d@$!j#^&[=+[#=X@$#R.^@W$g u#D#%-r@k=`$H.P T*P2>_&^!#`=F=(+o.r&0+#$P&t+F.b.<**;A#;$^%F+*#_;w=a$1#=!h;G#E'Y/v]F*n.z@#1}#F*4=N>` ",
"g*7+N+q;y{X @*f+g=5#Q%J}n#s8J_J&j.0*3&L+P (.!@D q*c+7#d-k=F' /A#q&Z%0$^]~_F'C|=1[+_@I.n%8 G@e*{,6=@$F.W$I$T+e^[.k#Q#f $@L+I V]m|n|>%1.i*#@/[V@5*f+Y&(<A*03|{I5M=V+R.T%^%a&w=g=:'W;K>w#C@S$g;S+Z%Z1N;3 y$,#-+@>5&q$/.#:9@##>&}$7$y-u{o8l5^5c8O'A6<.v$|@)$w}b{W]C_G 4$U.j.o@E ]-w,t$#=V&#:8 K)R%~*-+&=H.+.a.D*N N,_;i.0'*@Q&-;7+(&b.v>q.Z,@/n$8)E7`&1)Y&C>t]k,*&E j,m@f+b!>.}.M ,'l 5$=*>#|'#}t]@@F @{X.0 a>k#>-6#_>M/;#O F _$M+f#:+<+V<>@m%F.-+z&H]&^o-`=n+e.z)~_-> @[. .]+:,B;R.;#d*@+l=C;(&/{: ]#x!:+%@Y/H=r_t&n,R. -K}K[w#Z)` ",
"*$P~5&v>j&E O {;T#%{I ^3n#!7K_z[P s' ,@#L+K$X,_ 8>*&;>H,>@=$y*3#3^F@6=9@[&k)t8<%3*2+8#5& $X@]*.,E+0&>{U+F((,o.M(>=k,-*y&W.V^H@m|S}C3(>1*|'1$7*u8n{5$h=I&-&%75#$#O=f%r*w>V#8/j.N,w#3&f#0~x(=$U+Z)E'~%2+1;>,P&s&#;7,z=o]N+E&3$p!h=G(v8w8l578b{C%Y6)$f@}./=v^U19,J(#=)%:=<|g34*Z O+X@;#:$<.N;J&[|:#g=9,^%g <&i.O+M=o.E+(#,#r*a&K$P+G*P;1-E&[^k_8)E7c]J-v+Z>q~4$s!$@'${=''V<v$$>a;p5n{Y^]!9.j=~]8$-*R5x8~=c!:$5#~'2)$ #&s ==d'U*q.x![+i#=@y8,>'*=>/:B[&^!#8')%1!`$3!w#C@R.<&2#h m%}%m 3 f W~+ C&u=A;-;C#R G#m(V/[[A @+T.z89^F*=$Z~_&",
"P~^++ D g#C $ 7.|{0.z&; n#s8A8N@K)'&W%b#k#D C ^# ,$.{.M+$;v'c#P =:K*5;R l@=+H*`.f%K#5&#;a.S$K@[%g*N;I$N@ ${+j!I$]%2+-*{!2.I p'm|n|@(k,q%W@B8g@Y^Q{K/7*1)9$N.r>#$q$='D.N#2>o'b.G$P+;,Q]S$j!N,C&c_p+E;U+y{7$.@j(m@N<I>R'X ,*9|{!^/d@,_C8l5D8l7v$/=e6C]{]v!|<6^7,#_#=#=j;)'E3]~9*.#f &@B>##Y@Z a@c$:@C [+C&K#0.;#=@t++%k=2+4)y#n%H.d#G@d*+ S>]></E7>*_@'')$@@S@g@(=)*j#Y@e+/4P{''V;g)Q{i&&~9,_6p~R.o@>#E8~&Q)%{K*}@g=1=O%&-F.=$T-@!+$& -+Z'M&+;w>p(6'd5F8I]X#o+e>N>_;w#X@^@7;7&k=Y%L$&$/|n%({f#++S$f/8%H$i'!/H=Q;L*~%j{q6x%B!q._* <",
"86t+S$K+])9,C$D X i*z&^!n#A2k%a@;%O%~**'f+'#x>x>y$L$=' .9'r*-;[ =;J[-;y#9 g*f!m#c$w>;#q^o.N l@q&R*h$I$Z[J>p)@+3#g#U+ .j&|_h=v G8n|a<R{R%p_i=t,Z_S.:)F I>2*w}N+5;;%$-U=e-*'m%D.~@W;S q*: #$Z@a+H8^&6{9#` Y.$.-=0-b{y$o@8.y&>&T/9.8*I8C8l5B|r<$%+--'w{>.C]|<m@u|~^<={.Q)r@$.S.>&T%~@:==&F[4$=@p{O-f|L.3,:#* P+-@l$(,i C.L#y+h$:++,r+7;x-E a%T>@[]}n:P (=%*;&f+]]])%%O)V1Q_J8v!|@!$#@/>b!9|Q{k,#=-*k%d-T}@@k#H&u,V t_;^B 7/2#/ 6+M(H.N^-$O/n@h X.)_[~d5o-#[,[W)L*H$E+G*+$4  $w#7)}&,#|*v>h;&+4=<*9^r 3>-;_#|^5)z)y+*#W;S1[ s*k=j r=",
"~/,#Y r>])2#^#%-$.0] =T6n#L1F}b{[>i(q&K8R#*&#@c/* E#X@S+~@^%T 0+1#* c.h n.b$w@T=~^;%9$>#,&s{{ X@-;K=1+]#l@/;V>S$w>H,])G.L$y!,:m|n|H!y$I(W@''C%Z_|'@@e@8~$&u>.;-+q*z=1-e-7#y#y#^.[ /##$d#y#/.`%N#^%=;%.y{N=$-V&@*F}O^7*g,2$M7}$H&#^=6C8l5L8w}M8~;F]0],+0]^/D$O%u,3._|@=O'8#N8I(s@5;@{Q+O8H,k=H,r{ #Q&v*'&m=0&C' @2+j q$[ l@A#M(t@Z%h m V&v[T></]}6/9*_$7*c![=X.k,,*2.b-g)#{D^%!|@n{/>r!P).=R{R{& t$9.3.L;N@36~*J-y18]Z q^U+f%3#r)!@9{Y A#$=1)l#y! ]&^F8,/]*4)F*3&y{8 7+h#]#U*P;9/7.[.D&4=q.<*S29^z#L@<*o%3&C|Z$P8Q8g{F~k).%4=g>P;",
"p@%=t+7> ~E u${;$.L.d:H@a2~2I+(>D$X#>@i.D.b++@m P/y&r*9@0*L@P%D.B$P+M:+.$; $q$r>d4p]K#}+T.2-<-X;: E+I$g*K$%-R*!@D.O _$/.+ y-H@m|n|D!g+;%e@P{|<[](>&~_-T^*@r'r's B L@b.7+c#U=$&u#M+H${*1#(&2+U=L;G'B 4&E+'#t-2,8.f%'$i;!]#@(@##]~|{=6R8l5-|0-V@@-|@+*s!>.u<<.,-S8j%0>b{%%v!O#q$k5f%@#|{T8K*G ,@t$U8x2a#_|:=W;E.N;&'t@h$K#4) &C&e$~_4&r>G.%1T></V8k+x[e%:=S.j#-*b-:=5*g)#@|$|<v$_8F W>Q{I&]!W.c!@@d!0@7,L 8,k#o;+[4=H;0'P Q^q.g t+U$']R%W V#O+X@@|B[&^!+W-o&q;2 _}*=(#i$,#!'/;n%L@:+j;-;S$@+B<T$W~a$(#p)~_U%s*F{A;*,9#,#h j )}/%C ",
"I.k#~%&)[.j#i*b$*@Q% ;;//1~2%/5*t_U33>#&b$W.+ t+{.u-t$O H>S%L!:*2+0&d!,#H>$-W8q)^1W;: 8 _;p%0&~  $R*|-w#|{S+B$8%g#&=o@c+0.#{$<m|n|D!3*@@|'D^R/p8X8W>3:S^7;5*p{[ i.p#}@g=;#z=-+j.K*[#_,e-3#f#H$'*C 4$3;i*y&2#m@X Y@|{g@W.+@x>!^##^/f4Y8l5Z8Q2,*`8(==&_=_=0{36 9($.9h>I(d@]~7_M/H,;@1)7$}.g=P&U+n%5(+.x<L{}{ $-@o;g;Z%t%r+0$[+A;n,5>-,#;@>v[x.@[+9x)%@W#X.1.2.|<9|<'$!r!5$x${;|@Q59|j=N60.(>7@g+U.%-!=='p{6*7$r'c-d+e*_!X@7.9#C b'K+<&+$1+X/c-|*@| ]k;!+U>%,V%C@)&%-h$v>x!3> .G'%@B&:$T t+7+g*6,j C@y+o%A#h1@9r*q&#9o.S1$9,> <s-o,",
"t+F.+.8.|+N+H 8 x-7>9&L[/1=%G)&@*~%@n=N5N+q ^#:#P>0.U.H, #B r#/;T+H.%9L#T%m=^&') +}#g=^%1#;,F@ @n.h.1#D#^%S$C@3 B,[ N@@>5&7]H@m|&9@(7,j#r!J+)$$7%!8,<'E 9,r{#_b.C.4&%.g;P&t>` }%].K@R*w=9$~%0&1-f!#=%@L#[.H#Q+2.Z X 7*- *@{&*9e;36y1R8h8=9+*0]>.f+[)9.w{}.J8-9v|>7l+v^b-f+#%'$-$L;.*H J+8,c K)L@t]n%G)4+;%J>I>4&w,E+C {*{ y*c$_;#$g ;+&)+&y~@[s|b]-+=__>0.:#j/O)^/''Q{9,P.=*%*-'W>9;.=.{q%^>U.#=;%.4m=b#d@-*l#,;W%`%7.X@U+Q&v>g&3#h;S+@!=>v@T#B_'+&^!+*^B.~ ;,:&E:K#/ +4m%/|4&6,N+J.z@&$1#S$ $n.!@8&Z)6#N,a(p*i>i>1#;9 %4&r.V/K2",
"h*6+{*;+U F r@n=7.a@:!L[n#~20!y&81K *'K@<{% @>J w@Z 7,T-s'|~~*%-V#[+6&L+.;h$>90',9%-7+v>1~a$f;g>6+}#E+@*W v>D#S+< :+w#F.-$)_V]m|&9n&K*u-5!Z29;9<$5r@Z{8*R{0-p&9#(@V%:#N;p;8>m%N -$:@X@i P+-;q*r*a$3>=$a+p@I&|{8$m=}&R%I(=*w$36G:J8'9{$w4s:4*n{)9)$%!|<W>O@f@!9j2~9q(8,|) >M]N~B u,* c+!$F.c~K f &@[&k=z m%R V y#3>q;J-T 8&D:j 3#w#F@w>G,T=('</L7;(U.9{r@j;j;g,k,V@- q%v$@-b-<)v$9_$%(>&~$!5*v$c~0.0>l+9@f@{9'9T#q&C@H.c#R% $}+B<% R%=+K+/-Z @.e}N$&^!#41! l*s.4=2@w>q$Q#U$$.,>P;C.F K$H#[+q;H.o.K+y*n,t@q&51t*V5 ^h+}&%}2-b.4>0+",
"y{r=g;m@k#;#>#e =$&@d,H@/1}271W@r't$1/^.j;&!y&t5n~R.K*n=8>7-H=Z  ,3#[#<{w&d#s_-[P^x[Z#W$[&u=]9F*g$9 3>2+7>|%:+q.,&7.q R'D.8|H@m|n|P,e-1*d)n{x$^9 7-*^)$@/-I&n+}&}{}@o@H,#=o'M+x%$& $e.b$: y#n.>]i'r+/#C#R=#;@>O+.#K =''*+@<'#!{90]d:{$w4B|0-C]P{a-Q.%~e@!$/9];u,$'r~&}W]n{G3(9O%$&i;o;@-K.|+p{v=~@+[Q a$=@A;-;W @+-,O+*>E'u+D#2-)@M#@.# H@('8)`|Z^X!#:y&k/@#W{9.(@Y@Q{9;V;A$)9{]H w{o^b>d-&~X.^>7;u>*>j;N'2:W$l#B/{*X;r-Q^:@U$t%w>3 N+}+c-t$8.|]H]&^o-T;{%7{w!0&[.^@e-2~M#X,0$y#S+_@e.)@R ,>H.t@r _9}@4&N-:9G;&'x+B<F~7>=!#$Y/I$",
",#+ {**@$ R%% l)v>h {!H@n#<9e4b>W.d!l@_!q .=8.@.r{ .t$r{;@W$c%%-4)y#:@P a#@+C+t P%h./ ~%H.*;-;y*q.b[-,+ R#N#b$U*8#P |+##U.>+#]m|&9a<!=>#C%+@$~x'8*2$c@D]2$L U*F1_@=$y$@@7;:-% 9$0&e-a$t@r b.l@h>c$I>=$9#|=% !]_@:=L+}+0-#^,*I%>5U1!]{$w4-|%{h@|@ (f,Q.V@}.+-[9`'(($[2.9*m=*@8.b#U=$&|+g%Q.Z R.+;h:^]I!8{X!E!%-G#q&H.M#`@z)@!h$O Y %-I;d%}9~{8)|919@{v!N.9,f+=&t<i&5$H %~6*j#@-O@}'9;q~5$Y^j.:=~&v-@_B11*<.Q)- c#u,q._+R:S+=@1+I$g g$,#P s2E.&)x>[~d5+1T;H_~ t*w=2#;.q 0 M+M &#I$O+K#r 8 ,>: r 3>w@w%R Z[w=`,q1:&Z' &o_u*/+,>w~,#",
"U F+D.5&U m%;#s&y&E#4*29n#<9_5N@X.#_w@c$:#6;>=8.7 (@9@k,V+3*&'r=N;~@p]+.a#j @*U-o4* r*q.q;U=C.c~H#3&K$S+m g U$R*g~:+_$##U.u{+&m|&9o }@r!6;|$=-D>}5b!W#T/@{L;R*Q'*@5&* [.R%p$j.G#M+R*-$/&e r+i$q*+&,@c.L+O#v+{;().@*@#@$639G(:>497*6.R8w4D8:=W>C]W&48X&a-P{Y;%{O/s($^0-g@@'w$G3v<~';&)*S.e%K#@{D.y&O &|59!35(69@!{.M#1#e.8=$$ @@$G@M#[.>+w.T>y.+9z;+;*&<'Q{b@R'$@- #@8,a;#^$%P{|@y>/>L/&~r!O%- `~o@p$>-9*5$H 8./#M@A `$S'=$%-7.U D#h$P G@|*X>G.O<_{&^7'83l*(  !4=]%&!1-q^b.79r 6#_;5&8 U_L=z@q;J>++j'm%A#[[}-89&18=D&99|,i D#d#w#",
"U &]L+(.` +;_ ^)'##:R'H@n#~2m}d-R$t$q$4$0.>#y-P&z;$.:#c-v@[  #0+f r q$5;N22+E&-~&'q$R*H7k=R 3;6=]#m(0+d*m N;v>r@I;;.U c+g+,_U#m|&909b#Y^b>l )$<.a9A$H @;W.@'B F.Q4& $;B&4$f%I>M+y#_}r+e.~%f%v@b.8{h$T#D.b+f@;;b#&@~.|'~=T/)#!-b9c9~${$w4B|g@f+{]%!a!z>f,%!v$^/2%I<b{.{u<)*d936U8L{;%X.C}O#f #=Q&v+e ;>w&8=e*K#8 W;R!8 !'i.I}8={ f %-=$ ;]<T>y.v2i(+*z>u-r@f+j,y[G |'O)V@g@|'C]m7y>A$V)|'~]7@g)z=P)M/^>d-1.+@;/C'9$w=Y)a$Y R.{<[:P+I.[_q;y$S%B,6^B[&^u35,_9( u=^%7&O[{@!&B&R&L@,>L+N./ E@x+){4!W)M(J!$&Z%4)P%$#A `%&,.^e9s.o>L>l!",
"P~4=%-O 8.;#F g~_ #%$@U#n#=%U[M7{..4)&k=[>#@y&4#t$8,I>-+O%}@(#w>: K#=>0>&||~-(e3m#=@g i$3>[+}@g>[+:@e$;;|-6#8%m@E 1-E#l)|+|]U#m|&9U<:-W.#@>.S.e)%*A$.{9;I&* $&K$!;b+x%o@R.=@U=.@b#D@d*~@L+K#,;U*&:T*R B;):c(B& ~8,_$F!u$>5j,@]#^f9{97!w4B|<=j=e6Q.%'}.O'S[r!9|,;>-F3N%n{<$I5f4=@#(!}/.I.M);.>&E*}+R%w=1!k-Z%I;q.;,J!8%K#l@h^-;_#J$t@4;A4+&T>y.|1 :2.R'5#I&j#|$5$p~Y^R)a;85+=R/{-$58,^>W>N6P)%{w'd+c' #$@9.F1.;L+ $j K>N;/ r*q^3>M+/;K#S$4$r+8.8{ ]&^l;6-3^~#W)e.J.f !&H#;]2@6#f*4;(-e-Q;[ p%q;L>G'B$1#t@W%g9=#O&>]u;4=a46=.]V,W ",
"R#n,0+q E&$&W.D6R=y-6*+&n#~2f)9|G^Q&G=g=F.%$< $.m@H $.o;K)0>B.g : T R$*_=:)%Y3 :N-.;r*q**+-@>]X~K$W;G@A#U 7.(.d*|{@@@.h 2.d:N/m|h9k}j2m%H Y^O'/=)$_6.=]!{;33&;W]R+e@.*N+;#K*O+V)c# +w@#&e F@V#Z%%-x+)@'*2*#:3$P)-*R)f+#^{=v$R'!^;'M|{$w4B5@#v$W&%$)$%$48D>R)F 5.>}x>n~D$j/i9&:,;X>,@R'@*E[O K*~@U $&.$~*4+r U ,>U=;:-,C'x@H'2-`%W~ $G@U-m$T>y.|1)%N+b@j=X.##@=9.@'g)''>.0]s!P{)$t,_6j9r@~]y/(>5*A%#=H> >k9C4X.y1o+P+E!s.K*N#6#,#P=v>K++ B   ,&x>N$d5!#o! #M-f;F*,,k,A+,&K# .1<E+9-C Z@0+W)3]Y)O&-,,>3>w#P#`+_#C@6=p)S$n d~^%l9l!",
"z]_&F.9@|,E+'#q{O;h&R'H@n#=%J_d-C3{*V.c-P&z$N@S@$-H _@I&^,&<c#v*%.M+9#n3o=J,=1-}w&H$0$-+j!q;^%k-8 l@7+4;{!U=b./.y&:+H#<'j&^/%1m|n|,/^;>&8,h&~]v3m9#5f+|'*&_@H}s T]I%E K%U*k,-$#=X@q$=$H$M+~%v@(#k=z@0+3 *&>.+*0.w$.{R'X.n9(=(-Y&!-3@D%h8~4u>]!{]J+$%z>K%9;g)@#p~m=f+2$Q)o9p9>9L{j%U=E 5#*&0.z=N</ k#D*%@~<&'<&y#v>U*~_G*_%n*B;,!1+r+I;T(v[T>y.+9.)y&$%9,]=U1W{_^b>i&&}b-]!a-v3L&Y2A$5*#5d-A$H,3<k#(5Z.`;q9>&<57+e*8 3&S'L#L+U+y&k=g %  $a$k N@<%N$d5o-z~Q w+/+z)K._@%-j.u#0+w+|*[&e .%[&V#f;7=`%3 3>@!U+31r96#`%C@o.o.)>o%E+T{6,",
"T+H'q.8.5#O @ z$O{O#E L[n#<90!H s>#=F}e+%.J.H#+@k,;#9@,&g=p&&;9$e 1--+N*5.N<#.W'K,K*X@V#7=d#9#s9K$m%e$n-@!D#U+8.5#@@>#D 3$j&+&W|n|k(7~$-1*#!v,v(V;[',.j,t9$-'*s<O(B&@>A+H,K$B v-4$D.c-g=X@W R i R#M&o.W e+=&d@/.j=a@u$Q_W{u9v9i9w9(=s[w4@48$+@)$5_X&,&]!;.5$-~u$H,x$8{x9y98:@'d!d+R{E c-N.9,$;L _$c-q@C~q@a$h; ,7+C&: ++o%f# $3>h$L=K#/'m$]>8)z9v<#%#!9.F3@=W@9.Y^/>A9}5s!t6=-9.|.C%|'960.p~~]K)a@)#r<B90;)'R.T.7{t@~#{*H,v*+ ])_;% n%.@f#D +'O21]&^l;m{B.p<9+Y/S&g&w=K$t+I$T R*k=U=^%=+@+::t'P+q@r i>i>w=*1%#e'p*w=M+&)v=n,A =+",
"C q^f q r@_>}=s,H&I%V@+&n#~2T^H,a]K*%#n%x%e%  N@h;_>+@9.H,&<$;O g;v*N;0>6{j%i:-^V~V 5&*!y8t@8&{)x(/ F@z@7. ,q.y&U,P&!@4#K$7$^!G8n|C9$#5*S@B>>&t6s!&~G(k,R.0*3$-_y!0.Q+<&,;%.:@J-;#&<v*Q&++*$o%T{3#v>E+J.T]#*>9j;m=+@+*u<W#{9n{]! 1]~{$w4k}i@y'j=m7C%5!z>%$D9&~&~_=E9}$F9#%9,]-B14$x-+'P)9;%$C-M;H,q$7~y#N#q*R%Q&_;=;N &#0&%-0&V%t+q;I.(]5-448)[*w,o@,+Q_b!d-h@5$Y@b>b-n{/=)9P.G9C%a;$5j#H9+>q @#c}d@[.$:L+3 n@D.V4r+ /S'-,6#|{d'p)=+t@!^O @ ^/>+7^d5l;I9$#s'^{V#Q#N#w=P&+.U+9+(,t w>=+o;r-.]y+k)a.R R L'N-518}8%U+f/w>6>n.h>/+U_",
"#;#$d'+.X O R= =##V&*&^3n#<9_)P) +b#_|m@$&U:C 0@l#])(.2*D.#(*>u#p$r>4>Z#}{N~B3.9H=2+U=M@K=r g]&#w#U g d*I$w@P;>=c+g&-.y&2.>+4:M[S}X'N5x4%{%$]],'>.r!K/2*K*_5n==&k q$+@x%z=L+R$y$s c &'W%T c$i'M@;.[.c#!&Q+#'l#^/n{$@4*h)m7d(f+2.D^ >r]w4k(n~6*$%e@;.&$_^9,k@n{=&:>$>a;Q.',~]8$I<N#N&-~O+*.x%,%q Z T 9'0%7+*';#p$@*X@g;y)V 3##$3&d*N@K$h J9n$@[|1B/0@J%N.H,(>i& 6]]r!|{(- 175-'@<|<C]A$O'A$*@V)X.w'z$e+|]I>K96#(.e._@Q$d~h$V#h U 0=&]K$}%-.}+^/-( ]&^|&#[ +-^G#.%i#P&.%0,W;F'{)5&X@N@T.3#w%~_x+2+{+f#M+z@p<3(6+O!C#E{i;v&#$z=i!W ",
"S$x+F+K$/.N@Y.@>}$B>>.^!n#=%,[H|o&-+0%U+@{@;+ u-K*f B,0@O v@C.k=;+M++5S!t5_5P!V#b]2+C&@+W$s 6#[+`%0 @.k=d*M;R%&)F.$ W$y&j#I i+M[{|E~H>_>r@|.4$)$-'[]j=9.6(b#]~G3b+C <''&q L+8>:#d+7;W)&'|+8&i 7=K$:,6#V&i#.~8#.#5*<'S|36S|49b!~]!$N'D%).L9b{V@O@O@N+R%E,_>G%5&)*R/(~N).~17M9B/,;Q&L+R'g+])P&:-=';$X!E=98;:1-$-:#l#y)f%8]P&V ++q*U+4=h  %w.n$@[v2i(h#_.H s<'']]k3()|'R'%*-'e(p5i4w{C%#5''i&7*m=0.o'I%!28<N@j;P'b$~@7.V#H:+$T<l-F.i S$I$c-4=l)I m)W'&^|&L: /U;J!%#B,Q&r+D@ $N9o_b'4 m%0,-$`%d~:@u;n.,>#;P+^ 5>3>g&v>i>|*I;u[O&O9e$",
"b$u#4 q y-5&K|,++@#!]!; n#=%;1>&I=j. :k=@'Y;R%b$-+u-R'N@8$0>#=D.;$J&_).5E{@#}@y)1&Z A+9@z#+)9 ,>H#G;7;l@P;Y o@w>I.$.N;<&< 2.0(M[S}+7C*Z H e@I& {e)''S.1*P9n~_$L$c;_ 5_S%@*T#Z 9*.;h _>M+$&0%i$Q;I>L;3#<+S@n^-&:=j.d:S|O(Q90;Y@}'=_i9R9).x)a@O'a!z>W@2*T-5(C*b{<.&*i4B]S9_3W>q~;%N#D |{x%v+.#K@_@%-W)9#t$a$U=[ r+H:G$y^y+t@X;6#6+W O w>u]]<n$@[62z;X,|@8,+@f+m=5!p^Z2v3P.(~P.-'9<g@%~p^O'96F>M5/>T9j=E,R%y#P&f%d-P$m%A;l9f U=& K+i$N;j.$=1-R#+*5'_{&^|&`,4(9':-[+Y.z#d#w#9=_*K*<&P+l!<&:@L=h.r*<&p*D.V z} 8J!U9h$d*9/|*H$I$_29+l.",
">]7&|%8.X 2*I~#%@=+@s!^!n#~2p1(^';}]-^Y#o@_ E#l#j.6;5#i&L+n@P%K#e-u]p#z&6^V)s$x*>!8 H. @0'K)O&=#S$$-$.D+y&e$;+J&[.U k#  <&,#7}M[Z(E~D!y$+;])N@P.@-j=j#y$#~}@T-h=M]H M)B1k#6{r*q$=$x%K+b.$&p/C@: #;K G.T]8,#'(@6^V10]j/6*>.+@N6C%V;]~O3).a<@#|<i=K&I,_^K/1*V9!^t6F_3:D^9{!8f+H,].:~%-[.g=+#.*M/U*h ~'x4O-l$ @4%-,+%a$o*Z%w=l-7&p%v>+ g~8;q,]>@[62j2C%&@b-!]X.96Z_c{m71$`8B>1${]0|Y2v!p^.=&~r@Z G4x>85:$^~u,Q^#=!}[,U*x@h-b.w=w#` 6=~!r+m)b$.@h=P!'+&^x|0!H=o'W$,>+ q*V 0$q*F,|%K$R#H.'# $7=C/W$H#%-M+y#q$6@W%z)U+W h+e}L#g$2-h<@^",
"I$<>:+X K{P ^)+#4#S.:$L6n#=%5/e_)%M#! K*F K%G.:=V)<&a@D.*@M/{~g;q*R#2 t{O< ,%(O=~~:&W;U*v@;]F@z#e+9@(--+t@n%|+.@R%#@N&2.7$w>)~M[Z(c^5/q$W.t<9,(~>.}'''d-Y#7,9$i#N^@./=L+9#c~K*#=+ 0'X@=@t$c [>='$.X>G.*&5#W#*&y-y>Q)@=)*=_|$]!6*%~y[r]W9X'1)3$/>K&D'E,E,u-u/`;d,27X9%*>2,23@j=&<b#X.T=Y@$%j%3;O ='{.P =5h+^%r+`[M;z=o':@2>~%0&A;D:D.D |*q,n$@[F20>*@Z.5#O(h@g)C%O x$i4=-1$Y9X&$7Z9P.&@ 6_6- - V)i@9;o@D #=I(e+%@f%Z@m*{*C; ,t@'#A j-4=N~U+N=2,X*z}&^F8>[K@z : 8%$.: ~@6=y*u;S+`9M+N;+@f#4&o%9/p;4=v*N#N<D*u=P=E >,U-i]W; $x+Z|Q;",
"r=W W I;{!2#B^<.c+g)s!H)n#),H!m%K)]-i.0>N+S@>.j#J-=$h&P)5*K*c r*m%:,)%H)m -;a(%#~^C@h.T.D.M;$#`@h:g*==K*X/X;W /.1-c+B&S@E,/.c2M[Z(p-,%c~{;D$9--'C]C%W.@#Y#A>{&p!2^X{=-0>h%p{0&g=O+d&d*X@C.g;M>N % p{5*y&%{)-{;+>f+j/,.>5&}&}O'b>e@^/r]).@49|9.C% 0_^K/1*:+^2.0m@P.*.+0'7@0]!_@f)G %{J-8@27v*7<N+e{T%8# $: f 8 %@|+:- /.+^.:&~'#+R#$ N+U-p(]>8)i2h+j#f+C%N'Y^K/#}k,-'L&;}[)6*!5#0U1Z2A$k,.=g)P)3$i@X.@@E w@w>4$o'4=B$3^{ h$q u#:,_;3 ])=@|+z$O<$6O/&^!+C*K_y#a$:@_ A E!-!_}5& %t+  2+d'k=7+-;^%P&O!R*f%$0m+W;., %+,8;m-O&}:%0X).]",
"S$U O G.S@h#_.,=S@r!N.; n#=%--P)`~Y]P%-$x[e@B>;.J&}@+@y$;$r*b]-+K#X: +Q@k%%@K )%K@w=a@E+(#H$f]6#G@U-##K*S$r*% g#D.B,G d+q^;#W+M[S},/#&_|*&S@>#P{O'}'**-*K*a@y!&0t[8.)*x[n%R**,5&O<d*(++;i(V#f(;@X.O<M+d-;.@;0-=*g@w$~$|.|.U1D$8,V@|_D%w483@'<'C%54K&_^/;K$&;f+9;@;v!!;*|_.|.d+) _>-@g==@@%7,w=q%v)15X 9#e 2,h>;%k#3*$#V q$9@h.T /.G#r=@.5'448)f}w'T1l f+497*~]k,R)*0e(N)w{8*V@P{#!6*7*1.b-- &@*@<|w}n=H+0*I>!2[#q.Z%'%G*3#U,-+^#6,r=}+=0e+])x-6^7(d5+1G=u}P%q$U=:$y;B!j M>R h K*!&{*O+2+G@#$z@~%R#=$S+L!b]d.L@t+9%;+8 s{Y%B@&4q:",
":,g#q E m>_ ^)y&_$,&6*; n#),k+[=U3v@p$@#'*X c;K$J&_@d-A+N@>@P%h+:~P&g>[!V+<|A;O=s*n%(+H^B.n.w]M+:+$ P &;$ A+b$$.T-|+g;I>d'e H@32Z(v;s*)&_ u$N+|@5_$5D^(>z=r'!]F z$(~+-|/7.H%8~n=L;[/U*r B.A;g;X;###@d+r@#%%;@@e+v+j,0@#%#:*@n{W>$%u<l~h8C9-09.X&,&S.:)I,_@n~L l E>4*e(P6B]|$G G%%-$&U=t$9;n%t@H|;$&;u-B;T#f :--;u]&'q&V#y^=$t@ ,g#8>u$U--&448)]}~^}=J:I%T/(>.{Y@|'27Y6P6;0@]j#S[P{@]|)V15*A95*h@53K D.m)B-f H,7-8@h-P$4&=$F.g 1-C.f&S+!)/ ==J&c/.1d5+1*'6/'&w,#&G.X@p%2-H.;)I.* R#'@#;q^3>A#K$D&2+)@N@*_( M-k=r=A+B&99i =!.!>0x+",
"M+1-@*7$z*/.-=c((@e@$@m#n#),;<B/S^4/ +v-#@M i#z>X.;#;$P&S *'>@B P&9~;,')5(691-E'C-w=I$f N,#$W$+.;+:!8 V%$.=+C % :+># $f#_;^/>)32Z(U|~*#=H 5#X,w{h,&~#:1)t]N+,0,=j/T/#{^~@':-,;X.j%V+q H|X>e.[ B N@O(J-7;j=])(@I&+'d:T/'0~$c9V@Y@O@T@l~h883b{u>R)u-%$a|R)O r'M;1$>2x$6!R(=_#:9,C*d+k#s 7,D$O+ ,w=n%.$]:,>|*O+x%0&G= #H;9#:-_;E+{*@.:-U-^#r(44</`|K_e@<.s!,+9,>#7;1.)0v}v3D^!0v$)9(~0;O)(>@@R)P)9_%{p{9|+*S-L;0-%.N;G$^ 0'u;x-w#X ` '#N;h>v=K+e+`.'(&^f}z x)k=q$Z@r=W$x%y;:-S+0,g*t@&$&=#@E+y@!@V$_+/#@{~#h!m6g;g#}:i)x-B@{ j{:]m,",
"&]g#e-$.F.% c;l N.P@V@m#j+f',%J&0*0!w,j.O@Z{C^Y@X,J&3 }+j#3*V#$#L;r+6#:>h%c+.%|^8~C.T.>]U=7+$-J&8.7;k#k#P~O |,m%u-B&@@ $9$I H)32Z(G_0!.-%-:=9-L]B%j#B6S^n=*9*@|_3%,_T#O(j&T<r{M$v/%(J&K>};h-w@D.< #%4#|{+-_ :$Q_@>r3~0G({0W^j=c!|@u1a{l5*3+>@'%$K&5_K&8,E,[,O+B>v(6*_-P6d@]0(>6/9*N+X@I(M 5*K>o'e+^0q~W H$>9S-}{U8P^0'd!P>k=:+c#*@:#u$;+2;/0</]}z;& R/w{=&Y@|+e_9,751$ 1@]C]v$R/27+#g@O'&@['v$1.0!*~N3I5&;i&n-(+ $S';!B R.X@$-L;=$X M+U='#h$e+^61]d5;2x@q-P&d.X@|*d+o%e*K-..#$h$~%*=R*b&%-V%4=O!C@X@W%;,V2;!s2332[`.f;f]l.(0I^q.",
"C& %7+L$:$_ c(>.y-~;2.; n#),76V)8~]-p#|+K<< ,=k,|'8$P&_:o@g;i.R K#~@7.6_1!N+y+_0U*7+:@H;{*7,$-4=1%;]r@7;Y W$k#8 [.@*j.4=-$>+:032Z(*^T^=>I>+*- )*x$''<0~5~.z[^/U3Q-j&93#%$.k'@{l#>!:-U+^.O=4~A;:+c+V&0@Z#c@$%h=N%v!u<%{j/'=R)F v'P{{!l~h8R_~=W.8$b&:)$@&=M+[0}06<!;v!a!/[N.>2.=,[w=_@K)+@_>y&K*p&D B Z.-+B$f x&M;%#,;}@%@v*7-=$~@o@2+.@L;m$n$</`|C_5&F]& b@S@~]@_/>R/|0h4!-V@f+t6s!B]1.2.O)0.r@I>x}9|O E 7-^:c/y)~'B$8=4&R.:+;#1-U*L;6=:'4' .x-|]H]&^u3)&'5K+%#v*y{[+C/}-P+[;<~P+~%N@'#l)K$Z%1#e )@O~W)p$M=~*/'F.10Z%,~_2#9q2204=",
"w#y{k#0 +@e%y%& i*S)2.i+n#),! 7.q#8~M/0@f N;K(h$$%o@ $+$''P%V.U r i'r*6_ /Q!r*n+'&y+p%i'D#b.v=c-g,F.J&;$8#&]q ;+N@2+D#/ h$2,c2H{Z(*^M=.-(9N@.=B>d()#<.b{K)D u-N;G.G.W.1[!^c~B&u]X!T%J&G)3040P]j%@>*&V&$%Z{J&$@.=[',+>#j=v+6;9.&@@]z-a{h8#[A%r@2.A$Q{j#M&=$N#&@+#$7U1=->2!01$+@B'b)#~o'8#-.1)c${.<+y#; U*[+@*#=c~p<8>B;X!7#6=]#'&1--@-]e f^x.@[50 +:##:W#S@Y^v,~&R)(~Y6_=}.**-*$7-'d({&n{$/- />&@Q~]]q Q~,%%.p{[ H>j ;!M#3>1+P;y{,# %B@  O=U %&z&N$&^733&B5|+q&O~1-3>P>69|%W h$Y P+I.3#$-n%J=@+4'Y {%U*;%%#y#h R]2}6=s--<@}x+f]_;",
"1-,#n%;.1+]+i#<+|=B%j#4:n#=%G^!'X@o{^-C'1*J+_$I-^@v+ $H.,&^.J@i V %#D +'4>L.B [#X#;$e o43>Q;q.`.v+B N@,&4;c#5&% I.v*N#l-G*g~2[60Z(O_e{c-~*[.j.K%+-0.,=F!&>K]J~Y]m@T4v!|{*&4~n%h+t$!*m%0'$={;T%[>< _ B>$-%'E#9.W.n~0;D$@=_=-*V@9|#%z*a{h8a<,;r@9*r@;#y&2+[>5&7,H[-'y[[)70r7%*0{w,=@o@=@>=E y-K)m%;+m%V#L@;+;+:+V[)%H;N l@$;m*[.e-` C l$+ v[/0</r8~<-+#'[):=['@@:^O'e(8090$7M7_ v3|@#|y>5$(^g)2*~&O^L{y_o;k.r+^,v@r~d!2]r+q*h:N@k s;G]r'` d+1;,#m)H]&^+1%#6@d+W$>]w> $y)r*R*P [.K#4=|#N@:$N;p)6#f ,&s'X!X-&<J>0+d'X/e$00g]#99 p)u@",
"w>;+D p@F.])I%N.-=*.3$w;n#1}k+v-@#%.82J>'*u%X.2.b&<&R a0m%Z'z : ,>y*B E#N<* u]p+J ,#g 5>I$6#g&5&8.Q#U K$u$!@y&0+&@3 W%Q&t+n-v H{R283a&Y `_9@$!@=_-^/2$>.k,I(R'j.9.H4R=>=r>C_w>|{7#G=f#p{Z'n,e>3<E +@#'5&l z$@'#@Q)|'j#_ &}>8W@-*{]i9O3w4C9c'i&9#])8$:=V)&@F ^]$!|$C%|@J:|.b090#_#(M$g+c+O<*@4~G%g=&.%@7.L+N@)@f|w,p{g;e..$J)]#D@:#  2+F.D_n$8)i2H*g+R+l 0]R)p^k,a;c0d0B]V;g1f+W#e)X7- c{i&,8Y^r!3.J_^/|{T%o;N&G ! v@;!6+3 e0-,U 8 0,U+/:9@$.L;d:x}k;o-M@g:J-~%f/6,U+q$O-C m-u]: b.e e W L+L'<*S$^+-+'+{~&;4):,,#R$#$4>O&e^.(l.E_",
" %W g&*$L$d'@%1*o]M 3$V]n#A-W-F%f%9@e{:+9@+@U+V)R#Q+ ${{8 Y#~*X@;,C.t :'{~<{e]E' +j&y$ ,p;j-7&W p@R%2*{>!@!}<&N#% J-: E+S$5'[^H{R2`*X@;&-$c#y&E e[j,E8''.=v'$@t$b-z$h)S]g=K*J-< k={.P+c-B&8:`2a@k#0]L]R'R)j&<'q =**&R'S@s!|_]!9,6*O(24w4w(F%- R.X.8,:=h+3*O y#L )$f0|@g0I%_-0{h0V+L M/8#9,()#(0*:#7|0>8 5&{;b$H$J>d~z=D.p/m*:&U*:,h$<&;#Y-n$8)N|1/-$J%B>!-C%5*A$j=70<))9****|<-'$~i00-c{~]|'I&g))*j0V<N@* e-7.r=p#:@z e:=]&=$$R#8 g*_;<&i%k#<&Q%H]k;!#e-I]s'J!E+D&L+A;:#H%9#@+R.;#^@1-X D.Q;9=f#^@W;h k0l0R!u]E@q;W<p}6=![A s) &",
"w>8%H W V-Y @%,&O, .5#m#l&m0>%i(O%e 8@,@k#$%H r@y&6;n0;.D.L+{.=$%#O]`>A=L{d*K]O=;!F(t+C&S!M-K#q.V$::w1E:B 9=L$T-2#E,[#| q;}&;/H{R2`=e>N@c-Z#r*K$C>J&O)C%Z @_F k/-${!i]c@j.%@k#N@a.J(D./.2],#e>='L+*&>.l O+}$3$y-u>5!j#W{G(1.,8**z$W{O3w4X'.4(>d+i*]);.%.r>:$@+y&m7{]=-i0=_o0u<d!>-0-c.S@5*$;Y#='='d&V#h+G#.=P;u 7 L(e{6+)&q&t'x%R%T-f K#D_448)V8n+v@!;B>0]R'p^.=%~G9v(v(p085m7Z2v3q0_=9,r!|'9,H @]].O%p$1-W$'*Z,`)E!8&j f#h &$/.0&0&6#(@:{;#M;I  ]k;!+8@E*9*d+#$i$e ;%e i;v)K-{;D@[ V$j&k=F@D;9$G]!'@*$=r0O^;]^%o.K-i~d#7:B@9=8%",
"8 I.q #@/.0 N^>.O,1[m@((l&),;<!=_)j@L{P&'*b@0@r@2@m=P&  f 7.1/: 8@R*;+0')&h 7;%,[#e]q :&Z$N,h:&!E)[.U O k)s I.k#S+!}K>B.4=i;p'H{Z(`=K@C R.%.d+M$1%]&S4n{c!A$O s2O $ 8#5%n=8$r'U:k=u}m=I>d!-16'= N&S@##N.m T#c+O g@k,S.6_T/]~3$$%t,< 24).X'b#b>a@@'(.J*Z@j#S@d+0-1$w{$7e(s0t0u0#=c.S@B1H @'* $;H|M+)%J&},R o@K#>]d.X3.;6=i$<-t+|;i>7&` [.2;/08)i2w,0>|=0@F 5$96b>'')9t6D>**0--'t,x'v02$A/S.@_>#r!K/w0c.].;$_!k=[.w=*'3&o*D#b'1+4#a&r*1+M{j.R%@.y!B[k;;2w@O$D!w@w=T- %9@m%/.#;{ l-V$m,4']+-+J>7&H.F.g=:,l#g}#&4&k=w=}|M#6=w!s-m,P+",
"b$V$+ [.N@,,!&,,9{o]y-&%l&),k+K)R@G)4:j;b@0@K%2)O M+:+f % d+q&`@6#o.` #$q;=$v*h%n+&]L+L;: B$N;5_& $ H#R#R%'*g,8#w>;@E!.+=+^#;/H{R2O_V#t%*@d-L+P&+#r',.|@$!9;* O.#~!^G:9]u$r*y$B&@@D*R%j.r'r{K*3&  8.)*a@o@5#@'%-y:u$,.#^a[(=j=+=6*#^O3W9C9#=5&&@5&}+$@2.*@4]< ])P{%~-'@<70_-0-p$(5-*c'H f%l#>@+;P&s+@+1-#&*&^@P&z+j~]-(#R H;,>1#%-%=$ /'}9/08)`|7<I>y&]!6*$!i&r!''/=Q5e)l70;m7!$|@#>x05$R)W._^b#G K)$=O%w>*)4$K*R {*%#B$x( &3>U z#T%v>% n%r'<{{!}>k;F2M/F|k'K*^|R#X,P g .@r(L(y0k=6+m R&P&f#!'r+d'K=U*G@I!#&6,M-n./ g$8 3(g$k$L>",
"A+$.R r%y&e% {T]W!B^^~w;l&=%p1d|-5@{d+2.O[x=w1t$b.3#&!;.K#;@B.V.D@Q;u];]S${+G# ,W(w>Z#Q^f(r; $@.#% ;R.2*E#[># I.f K*e>t>_@N(;[32Z(`*,[$-|+$.2-y&*.-.j#(=l7:=I1:=_@+*W[,+;@Y@* '$n%&'M+p{'&3&U+P'e+V&D>=@_>y!2$j&.=^/o9z0y-H j#J+O@4*O3W9C9=@&@@#(>>#:$8$@@S^$.e+r@R)F_17A0B0f+*>e-z*g=c/N+M%w,U=t+U3J-{>->W.*@C.a$M>w@$#-@J{n,:&W$U+C 1-n[/08)N|H=n=o@E[0;H 2.-*Z2)$e)p59.v$R')9x'C09.W^C}6;3*p~m=c'x3,-6(Q%7.i.C/`)z)F*l.9 7&H#D.~)O!U B T x[Q-N$s=7'B.`+c.q$J$'#-.e+/#Y .;O~r+k-6+[;2~n=b$1-=;+.k=[.)@[%o4u;1#`%K#w#x(g.c<<_[+",
"C=<&l-+ U P-y=J+c,-=Q_; l&=%g'82y$b{y$7*0 1@u-l=9$R%:&g*P c#K>C~W$l-R$_!E+$ 3>(+R$@.;;j'j!:&i*y&:![.2*G]8%@.H&% _+`@=#r+n%%&:1H{R20)#&u-8#9#~%7.9;C%F ^)D]y-@#}&&@D0A[M</ $-}+c-z=i'd-8$V<)%3>f%%{,+])_!J&o@Q)(>$@!^!2f[Y^9;W^ .f@(-R8W9w(;%A%r{m=v-8,k,R%E0%{)*f@X&t617h46!g@C*U.)** j;@#N+1/v''$#&B&j.;@,+q c-K>a&x+e*$#]2K#J!%.K#/;R.p(/08)i2~*p{^#J% >b>2.g)e@$~e)<)f+g18*F0G0H0Y&]]i&[=X.t,_@~.p$v,V3y#5*h>2 4)z e.Q;V>&,W:d#({!@B&h>* B&v&z!j*I0o+J0=@;%A#2*Y;P&N;{) &.!b=a'Z)P+q [.4&A;f#l-Z@I$F'%#.%,>.%U*n%2,F/_2K0c<w/",
"K$<&3 }+K+__t+!&Q+z$E V]N]~2~4Y](.L/@@1)t$p_+ |+2+R%*$&$;.X3C@<-[+d~W H-]#++L>c u]Z,B;V#D&6#1*p@;+0 2*0+K$K*>=f%@@*!V%L+|*U->)H{R2.'0*7._>V<;#v@~;Q{#!f@<$+'*~$!M%6^='*&t]W.0@p>c'X3K#$-x&H>U -$8.B>7*z=o;8,}$_@S@|{E3J<W>j=N@Q{5_3@O3).E~u,O+k/@@t%W._@[=a#e+X{7*6*@;L0s03@-*K_)%)*N+:=#=j#t$;#u]K*>=f/ $V&n,B;V%m%(#>!b#V+$ .%D.P++$$-M</0</F2].{~D Z{(=8,y:''a;c0<)!0 6)$9.Q5](M0=*@'q%_>'&_@q%7,2_a@{=b)2>Q&S'C/V/o.Q;B<+,v>}#h;0,4;;#X/ $2,O/)+r83^H_m%d.A N=a,w@C''&f#N0*(],n,h$;...a$&#({I$M&[+A;q&U=;+L#W$j&[;B@.(.!S{<*",
"e ~/7;$ $.i#&$Y@<.1[7*; N]),w(l+e+r'U.k%9-3#T-K(..g=0,g*g  ,2> @Q;B!+ U=t@<-y#1 p]m'g}T 6#1-0-E 0@j>$-G.+ u]I;<&q k=x@4;y-b p'H{I)T;B1:=$&&|L;@'e[w{e@#'l 4#O+- 4$N.j;*.k# ~]!n=c'y#I>p>~, :$-j%U +-e@:#u$]!3$;&##3*z$R'j=N+y:a|_-^)O3w4@4c'g=C6:$y#_$j%n~C_D.0@b>>. 1t1/}l - z=;%5.v-m=z=8#0>.4'$`@E#i>6#@=a&`)V%1=H;_%.$d~r)%#| r +$$-N(]>@[E7#&h>(@T4_ ''(.r!D$}.@-b{S.m7t,D^X9O0|._6k,H,<=v'Y^.;*>I5i./&: 3>q&q$_*&#Q;&,d K+)@3/C#p%$.K X.C47()+73P03^8@b#o.9-J.i'&!5(q;Q0o.C/~)@+_ 9-#$B$!@u;:=[ p+R! @z(p;/'+&D@8=w!R0G'R~",
"!>W*=$a.C U t%;.-=^)(@m#N]),W-Z6~.@*_@8@}+%-@*% 3 ++r+;#^+M&z#a&f;Y/4&$;w#G#Z~^]c$:*t 1 V B<b$ =G@v>h Z;4$A+[./.)&o.k.W$7+O<:1H{R2O_~<7.:#B.-+L+b@%*Q)J:Q{S0%{;%h>N@n%Z{P X@o@9|d.p>7;R$|/Y4%&L .@v}D$n~:=@=b{W^)*n=C45!g)@@b-P{_-3@O3w483'&z;t>5!X@(@y$*>3+4*e@6;f@Y2Z>&*]!['n=^-i*/ .=()5##=.$U+^.<&Q#m%j.f%x%[%:@f;,>M>t&[ d~H.g=/ |*2,/0</i2B.w>u$^)N.K/q%Z_m7t6]!A*t,%!]!w{q0^9-'9|Y@b{j;@@p^#=:@X.U=c#7.9$w=.+h!e.y;s{::l/q.4=*;U$Z#*@w>p(l|o6z.T03^R:* d.R.h a&x%(#4=U0*{V/ &S5q]K%-;p)R#0+#;R f|V+*'k#B ` q@n.4>c_c_@3|;",
"/ ~/!@g&v>x=h$'')-X{%%&%N]$]V0B1t]<5>[p>W0!}$&[.x=->H.S$&=2)T$H$j `)>{]2=$7&{~J[:{# w+@+8 N+g#8;2++.:-i#n=A+r>*@x%g S%7;8;r(,:32R2<4n+_!d&7#y#J&w{(=0]S)0@< 1_j2P+5&m-(-@{N;R)9.@+7+1)-+n 6$C$K$J&@<@%k/n=;&5#|+:=9|!^|'b>@@X.f@|''=O3w4k(u,7.O+9|_@m>f%8>k@}+9-C}v!@=u(.~7*v$x%.4u$q^i*v--(7-R|J&[ l#f $-T%X@f/m%~!9#L@!({ g n,r+7.: W=8;n$</]}~ k#Q+:$6*k,A9m7%~%~E>{&7*9;j#F]c0$~|'8,d-(.''3*N.q(a@d+X#P+B$D.T 2 s~/&3!g*I}v>P  &% f#8{y-I>N/31o6!#d>S'2>T%R t%*;2>W%P+P+e$X0j{D&0 1+):d+r+K+7&F R T5(+{*o>T#;$~@]#Y0e$7:<_l.",
":'V$3>;#F.5]T.N.c;6_m@`'N],  )~=I&{=k%i*+  *a)-.93h;7&t'[&!@p%G&}@8=j!0'q*$ G#E(Z0k)X@h+$;r>@.'*'&4;O+z$:@D.z*< g+K*v@0-$-E{7}`0I)G_3)^,3*K>;^=+N.Q.&@d@%{|/9@c'e++'J<|=I&j;s!u]o'^,e-'${;5/M;O+,@-=S/p{:=G(-*(>y[84S|(=Q)R{i&]!o@{!D%w4M~#(y$L{y>~'=&v*J_^3)')*0;5_)$v3j=2.O'4$4]d+>&9,;#< ~*R.5.i.&$d='*-+r G*-+E{T<R$g>M>&'++_+R~_;b %_n$@[u36&L+h#b+0@(5''%~}.Q6|@5.3$*@Q.+- a.a+a$5(^|+k,P)P)o;j%@@.$Y#^.f :@d~z)2-@aI$j>3 d'n.,(8%~!#@$ .}k&)+!#a]i l@d+P+7;9$;^:'U$B.j{#9[&I6T1r@T&v=-#-@h*k,f *'q&l@[!n-%#6#(*T,B)X)r.L=",
"w#U + L;w>S&C e@,+Y>0-m#N]),)=B/#{V'i(o@a@Q$G]&=u-:&P+h$7&[&[&T X@a${<=;_+<&C@S-}|-&'$h+/^>+$-L{h+t C.=&c-N#c+8#5&g;D.h y-z&Q:H{I)r5j8(#0!]*&&+ (-k,h V&^4#{P&l#@*B,< |$S@@*])#@k'S%},X>#aJ]X!X.;.:$)*>&I>*&6*u$g@R#m'&}K<0.R59.H ^~{$w4@~g+z=K%D g=k#P&7.Y$.#5#r@j=<.D^:)h)O'k5n+@@J&2.;#2$~*c#T# ,$ 8.{~U.L@^.=@U=J!@+l, ^k$H-F@U=1_,#.}n$@[$a +J&I%5#]!W^>#Z2Z_Q.e)s65!48=*V;17%af-_6+;b>A$4$v'}&.-B';%=@R !&g&a&{,8 A@S$Y @!!&~_b'v>0+t+E,f4{2)+g[L<Z%K#='W$L-/ V%3#C#/&i{*;8%u#% L;]+{*F.->S$R%M@q&U%9#V=v=s-U+|;g>P8(&T_F/",
"0+/|$ R%|+S+k#%'+@#%Q%&%l&f' )&al#j%:~*&o;Y#b./;Q#g&D13 2#q*| C{D+g.#$` K#7&g.W*3;% 2+Y#[ R#I-3>c-4=0$>=|~G'P~v>r+h-x+|+4;g~[^w ,)*^! y#u=*a7-7./.2._@1[>5 ~+;n@@=G.j&N.~.N.2.m=Z %@X/x%>:(;j8< L;,==-+>*~d,#^#^u-O+.0@=W@6;O)5*j#(=D%w4V00.0>O'2.=@N.7;v']&*~|{O'a-P.#}R)|'8*^>,@g=/#'*^>{;s'K*0@ #^+>=7,U3g=g;N&9#c$*,q&H=n%W$r*1-u##;=a/0@[v28~_|b@j##%$&O'''2.$%@=@@z>''9.+#-a;aw2b->&8,(>P)&@v-,-{.L{;%h+-.t@,;5)$_u@3>t%S w11#R&4=H,0@@>f4p6s=*/>aw@W%='r p;'*K$&!R W)o%:  $-#65N+y3d*` P+[.0@J!c$M@7.{>_!Z'a.c<++i_F*9 A@",
"0+V-,#/#d*U J+i#G.X ,*`'l&),r|z;j;g=b}5##=_+4%h;C G*+%v>,a6=*;i y)p.`%&3:&&,_#7)v)d*g= #W;W~g*y+r d $ 'ag;l!m-(@w@~ H.8 b$2,W2w ,))(E*H:98(#}{U-X @]5.%*e%[=3 @*$%/.8.s!q(c@+@f@g=h+(#L+r[)a!aI%Z#l v+v'f o@4*v$-*N+T/O'C}~&u>W.e_A*4@w4x)>&g+g@g=d+<'}+E,_!K7*&r@f@''Q{Q{a;>5A%u,t]}+N++*W#07U=_ @+%+B,y#G : R %@:#u }@l@_[[;t@u@f O]e -[]>@[c|~*C$>=_ ]@v'5*)$V@!$g@=*j=|'['{=~a(~N%$!m=Y@&@R{y$i&k'K)o;e.M# .9 s{a_L==!q;X S&Y.7;S5q*U y&m@7]p6s=*/1>K@{,b.j 6#N#7;O z#N>r.0$R!+ E)X K.V&a.0,<&F 4$:,[ (+L;W(;,f#j!i >{x+V,K-",
"n%*=p;7&,& .M 0 g~z*Q%`'l&),D8}/Q_W.x3o@y_c.4% $I-g*6#t+T.q;,>O~W)A =@w>D q.6#E#M.% u#T 7#&!3#^*/#7&d*i#6+G@|,_ 4);!-;2+3 8;3,w ,)83*!V~: !)L+|/+*n-}{4*Q)/;*&)*T/E z*C>'',_(@& 7,9|3;w@z&k@,/,+G K/n{n~,;|{##@=t$O<(@_ Y;I>@@g)i&6^{$).~4H,~.h>_=O+d-[.j.0*Z :$|'m7D$e@j=t<_ k/w^~'b)/>:#e@ :P%}%P&7$[.q.y$z==;w@_!$#G&:&5=.&+ E+C u#D |6/0@[I@T}L+4#u$546;y>|'P{W&N.{a1.]!''N)]a^a851.9,F - o{J&7.F)q$m=z;g;2*J>~@a1C/3|_]x!/a==<*v>0,X D.y&#.'(s=*/1&I=[,M:D.Y h>&@u#.%V /&[:.;G@L)J+,,a.+ X@S+k,[ e-J W$e K-h7z#_]B!n.l':(<_",
"T+d'D.K$e   T1J.<'< +*&%l&A-+3F55#j%S.j29*V4y^[&..q.:&1-2-=]1#r.;,C-(# $-#X~R~y&>!W*y${*q._$8#9 A;(aW~9-A#}%M{e++[s*d#w#R%6^A(w ,)_a$,+[]9}&71r@,_j&N~j=$@g@ .:$(-|{I%%;_=^/L.I.c.[=Q:t9H@Z/b8^/9#:$v^q$Z 8,])5#@_9|n g,%*/;]&1.I>F3{$).k}u$].'$d@X>O'/.7.H>M<,+r@%!D^#:O(z${]k%/-%.}@+*k/7$:- #h+B d%W$a&3*r@D@-+#=p&.%V,m*)]g F@i$/#l/n[l1@[u3C-}&v!X,f@(.j={])$m7|$-'M%])#@C]d}F[|<y>5$6;#@^>J-q#]*]-'&B./ 3#2-W%j'N,9~A 3#D=(am%2~,&K$F.e+f4l|s=46y2%,e{s'd*R#/ p{:  ^_;V#6,b#Y i#y&C 9-S+e % _>>#C$o4v){~d.f*@+q;&1f;N>:(s)",
"]#>,D.4=]+..X,H#c+y&,.`'l&),-555K F `.5(C$R:E!-@S g&s)M(/!g$9 +%<-[,Z$:+4=:,s)X M:4#f#H$t@@!L+t'2-j>7&'#<>* m /.i.8+O&S+K$}&)~w ,)}~V(r+N y{.+2.j&:a1^j&j=}&J.9-$@}&<'h&}=@-|_+@8~}@,;K#u1_@i/#@c-;.>.,;M5@='-{;R{i&A[,0*.H _>Y@Y@[5{$).~4m=7,*&@=G H,0@P)n+-.c+M%K%V;6*!-|<j#_|b{[=h%d:L[N+ /*'O H,E3g=K+P&;.r <a=;K>d~i$9+e]M#U*u#3>m@|6/0@[|18~W -.8,*.@'T/'')$t6/[D>-*D$[')$%8(~{][a5$A$m=N~q#F}>*5(%$.4J-B -@o+/%-$#)-,Q=R&!&t+2*% Q+I.g~7]31s=m/U;k'~@{~4=#$B;S+3#e#L=M#b.N&O T] .g=/@v*P&[.[.[ A+C-G)b$6+D#<-:(j)-<Y%G'a'",
",#y{n%F.$.b+  Q#B^$@z*((l&A-5/A%j;1)2./5a@1=V4-,}+$ l.4=T$L=w#&#`%B!H$J$!'b[<&7>L[m ,>T.r (ab._;i T1B<..U }a/.|%1!&#i <&K$`.;/w ,)}*2{V _+I.U8D E#L;|ao;N)@{8,%!5&#=< e%b@J+4*C}$;z=X/b.z*P&*3m>h+:)0@*@:#,*]~#!a@/:y9Y@_=f+Z v-7*{=s[Z&6@O<^>j=b>;.o@e%C%#~H,S@V&9;P@l t,$@g)_!_@U.:~a>H&3_'&i.% ,@{!S+=@!',@l$l,L+.+H$(&d#_#r $&q.8%P;p(n$@[62D*)_E,/@r@[.Q{%~f@W&]!S[S.Q{C}-'<8271ah@7;r!e_j%p~#~c}X#r@R.h+O+c-.%9+p)y+_&x!__/@Q#9 l$c+U i*y1p6s=2aG^G=8>{~Y!+ y#R%++i o%A+g T]d.:}T1#@q%,>U+<&,&D.e-}@{ L#z#e$V%D;4>K-q=Y%/!",
":*F.7;C ]+` 0 z$}=d:z*`'l&),3an=@#[55.K)7,3&8]l$A#Q#K-W U'4a6,*$9=J!v*h$E@7+H. =-;r)H.E+1-a.M#O T %=`%q],>E(r>S+7<Z'S(K=:*8;7}w ,).'5,;,m%;$C.<&4#N+Y$8$B>P'(>-'@'X#H&{9'=)$)#.#~'g=U3r{6^,@s:S@w>l#N.5*:#@=a>u9O)'*d:- e@y:F}4$N+[524).--5*c$S@r'.@H,S@$ *>'$Q)Q)|<P@W@2@|'j=T^&@{*N<:!m@L.j.^%=$n=e+U*4=6#r-W$W%D&$#q*o%*,K$Z%;#e -$1-Y-/0@[[*O$L g T-W@>=@]m7j#+=&}:8p_R)e@T)A7e)8*/496Y^.=()@*e{ :n~j#,&T%c$h$Z$] 9 4)0$z@4'7&r=S+ $` .@r>&:p65a|&I=P>~@0>&]g#K*% 4$+)o%  $   ~%*=8#@%Z,0&h:K$v>^@[=].u#b.E'i_R F@z#E-1<g$J$",
"~/)>+ 3 U 4;p_;.,=< r3((l&),P4w}.-w{$-38{~w@/,:'[ 7;:+C#m,y+k=U=}@E-M>f# $q*,>G,N*n*: 9=~)m]=+g V #$y#V-:&b |*S+~~V%t't+I$I :0w ,)h3A!Y)/,y$M<q E#y-V],=0.(@])O[@%}@t<W.##s!0]3$,%O+.;M;=*>&M~[5t>* 0;7;m=N+Q)Y>d+$-6ai@|$y:8@7a7*`.+~).c](^@'[.i*/ d*i*K<:~.#u{o;O'<.Q_<'d,Y&.*Z o;8@_.)*Q_t>K*[|v@h;2+N#++E.4=c-Y*0!(+{~B;_'0+N&}:0&/'w.44@[F2O$G@7.W.2@F N.#!i*@<@>J+2@p_-.Z28a9a7*]!(>g)k,3<e,J]0>0aH z>y#~%b$1#e#H.y;C;I-i#0+5_C@L.Z,1-%&n[l|s=z.I=P%X@w>$ X D+K$l$H.A D.$ X,X@k]l Y;N^J>=$7.N.f 4=n+w#(+w]4)W;]'r.`6H$aah*",
"-#/.W q +$H C F.^^m>l3k&l&A-C*'$M;y&c/ :g=;%/&#$% 7&X;M(9~S*y#W z#T,d#k#@+{ _'Z,7 {+9 E+^+Z;I$B L+D#3 5]U'bao>g=`)8+7&O 9@`.7}w ,).'1&w=2]e]M;I E ;;A,}:Y@I&e%S)<.I<,+:'P@M)w{%{b]$-3%z^6^v'>'y!^>u>#@t$L{4*j=j/38o;49F C%X^p#^>.={=D%h8.>[=%{5#n@0';@0-6;d-caV'|]b>D$b|6;O'J+j%3*[=,&h=6^*@F=&.r+=@T.H#q;W%f%0&q;*#^{Z$e$K-&]A#p%d*g;` 63/0@[v2daM&$-;#O'|<n{%'d-D>%$J+p_''v!d6X975Y2V@m=A$>#4$6;t]d|N<{~X.:#M=1+ea{)D.(#k=P&==2#w1D#q *&[.< 2;{25aI0d>7<d.n=l=:'J-k)-+L@-@Q#(@]@w#k s&6;J+~@f#c-7$:+/#s+q*_;7{@+.(_&a$A A -<6,",
"C#:*2#D G~R#q^S+M)j&t<`'l&f'/5b{1)o@*@2<o'X#B$0&R%L-_;^+++G*)@,>-;!1[:K$:+j'c<u*v]e 8 K+C ==0,3>2 -;S$O#B$H%T++$1=P=S$S+C V=)~w I).'{%#+&.4&2*8$>=@@C!G(F3;-D faf@C 8#k#'7F[+=y-7~m=e+H]h=k%&<y1<^j#m@}/w'N.v!I%g)d-$@4#;#g T%M%2$A*:5l5gam=_@S@(^n>D.@]e+(^@#Z.+@_^K%i=m=j/v!_|T%B N@z$@>%&p&c v@_@y$d'^@X@=$B!W%q&H=N,2-g>e [+|+b[(+k#D_/0@[E7$,{&y+o@b+b@r'&@v$0]|$/>:)|'i=v$%8e)a;=*Y^j=|+A>u-{.*>j%Z.K%X!R$+ .%2-t'8=W;!@Y.!&N{9^|,'#2#q{y!N$s=z.2{o&8@{~t%3>4$/'b'M;C M{])O[X@%=0 9-R#H.=$y$E#7;4$2>4=q*B!q.x(*+W)/{&2b=`%",
"b'+ )>K$U J^a.,&T1G._.{5l&),';E87*a@0@.$n+ /e*W%4=S&%-S+g.7=4!f;h$8&d#l/{+y*q;g#Y3l$s.=$L-W l-: z):+f/V$0&>=-]G*S'A q.m-+ X*L[w ,)_a~+e*$-y+[.[+y-T#.4A,2)>-(@d}u'Q+.#9,'2>/h&8#p&m=8$i;|_8~3)^/}&o;*@0.y/8$7]/:'$m@E t<q%e+V)>&i&{=24w4B5:#y/j/t>:+K#j/u-c.0]x2X W.|@f,k,K/''I<7,;%N@v+H&<{X#v@/#M+R ]+;.(#7;$#-;x*K@3&V+S$R 8%H,4=4$;$;/n$@[62D,r@W$p@O@7*N.i=6*g%z>t,,82.6*P.L0v3t6f+g)b>W^=@q~G #=a@c-K.d+%|l-2 y+W$`$8+,>haI}}[Q#& E#-]w)33ias=f6ja|^B-L{w=8 N+x*H,R.|#& K&y3p*+ b+K%2+g*7;@{$-;%x%:@}%W;B.G'l.r.k-N>s.L'D#",
"K+<>z]U A+2*K+  P@B^6a((l&=%-4K~Q~*@*@B1O^q@E;q;9 Z;=$:+C@r+q.!@b'{~P>` P+7{T_a+j]~%s.0&g*7&q=J>>>f ^%T]r)8;C$P+kah.r)n%q.n-%1w ,)83 +x@5&y(4&d:Q!M;L{I!^/2]X ,=Z{@-9./-*-t<,=5#z;K#- /-V1^.7~Q%9|*@$.z;lab-#.4*u$M%:>z0<=8{c.u,2)x>a{).<4u>:$S|#=4$3*R'S@N@j.#=*&9,%*>.Y^r!_ k/:-l+1)Y@@>L;7~=@-$R%o@T&G@w>O t>Q&1!=#a$l@._Q;(#u#P&0'C A(l1@[625,_@;#W.2@3$*&p~w{0-**a-O[O'X&{]@-max'n{k,Y@k,,;h+k/~'@#X>#@r';+F<;,d#Z@V#z)d* [S&/@q e@R=5&m>P:ias=!#2{r#q$m=E+v*9@{~A+=$nad'@!J+K*^%V-f a*N r>P y-n%-+$#g;#$9=w@*{%0w!h{d~w~x~",
"}#I.F.3 & :+9-q%:}-=y,&%l&),G>:=g@oaV<n+*>4(s- ,(&j>:+b+o%q;{ -#;,d~C.M;c#8&F;~/paf#;,Z)w#W~8%S$l.g&Y r) %f&D;9 V#!(p)<>3#n-2[w ,))(D,;>t@h$P )*s,f^[|R|Y>L29.M)}._$,&*&}=W&_-])X>-;W.3<:=]-p{c+o@.#F O+t$F!v8_=3*V) >m@F 7*)%z=@@%724w4':y$2.(='&M@q#N@X.[=e T%S.X&{]|'3$y[{9* ,;>-f%o@##;$#=f%0&9@j&w#|+-,9*e-#)V%o+-$V b'9=/ e f#=@f#n_qa@[62a]>=H,a|~;<'g1-*|@F[j/b-{]%$t,%~#|$~Q5]!p^2.k,b#[=Y#7,n>K,O[L{/'q^&#W%0$z)-;x! .m]& v+k#'#]%c:)_p65a|&t=J!^.p$K#s E&_!U+U*7&A+a.!&u#}+N.j.1@U+F 9*0]B y$~*P+q&z#3>y+8=9 ~:A;k$)@",
"f*E&b$4;#%g 7;_$V&#*T4((l&),-4O)j#3%x<H>V.8+8~0&X@L,^+V&V%K-1#=!l'Z$l!m =5R,J$0+0'X@h.->0,w#L=A#Z~o.6#raE+|,-;8 3&F@3]P;'*U-H)`0,)832{q&3 3#/'<&8;>!u]71d-95m=v{)$A$a.8.=&d,#%9{J 7,.='*a@K_'&`.L{'*7$ *;%4*=*F9Z.t>J~'=I&:${.@@f+)#sa!4O69|-*@]H,z=y&8,i;_>;#J&J.K%O@{]S._=z$@{p~U./-##7$L #(q$(#n-7&]#W$A#/ X@d#~~{ W%(#X q@j.;+t@N;U*q,x.@[;2r#g=U /;M @=-7$%j#/=0;7*W>5_S.|$s!/[p5=*P)S.m=$'j&71c'X!X!K<U=n=&!`)6+6#Z@V%L)=+'#Q+i#s;R=_1 ;g3p6s=f6I]*_8&c$ $J$ %c~c$;@A+R#s P-%-b$6>S+!&e e+O+8.-+b#H;K#M@G&_#%[o.:;i K-F@z@",
"g*M{=]y{==C K#T&c;'],2&%l&F^383$8,1)j25(~<%,(+W%i*1+'!X,.%F@[:t+9+w!L@S+c#$,.(4&p*: k-0+J!b$6+L'E;s)N;2**;m-T x-7{:&i>]#|,[!p'w I))(z N5M&$ D C$#@[ P&c ta$#5&V&D$@>#:H&:.i}G3)*;$W$H ^~b{C6n+y!T^j&|'ua0>~-2.(-- 9,J<4*.=j#)&M@R.#{sa!4<4o@O'-.`~J(j#,&8.i&;;*@H O@X&a-J+0;|'F #~c.c.0]E#,&A,w,Z C N@[&N#d#7&~%V#B. /V <-$-4>2>e+d*j.v=U#('@[+91&z;z*^+j#7*R'O@0@ {}=^/&@C%J+}.)9x't6a;_@A$_@c.F c#].s'S^+;C.d+2+w%6=K#e.,>4 h*X 9>N^Q#9>7>6_%}n)s=!+$,q@H;0>M=;#n i'v@/#+.R#N@1@t@R%q{5&9-D&Z,|+X N#3*5;4=v*#&j [ i *6;_j!k$P}",
"I'I.` l$]),&K$2@I%I~92((l&),vab{e+o; :76*'^*8&V#j :*_;R&J>T2z@S$B$`%n.: *{g9Y[~:3_G)wah n,1#[+%-O~y+:&Y *;x-}@0'R^F;x+0+K}X*2[w I).'F|#&6#r@M+D H i'o;:-@@! C4:$& )-X{c/J~z%S|p_.)h 0.@{_@7-#(%-J&R'(>b#~.|{3$8*V@s<d9B/G(l(@+~'i*[5a{!4xa@']!-./3-^,+^@b{='b#|+7;D$6*a-=&u<<'e+R$#=K*@=l3c'C*].{*q ;;b;u#R  $M:S(P%$&^*j T+K@D+8 L#X@q +&T>@[`|p-3*N+W$e%+@W>:=)$w{{;j%*@D$O@X&D$&*i4b-- r!+>.);&I<3<s'<^m=v's'/#^|N@0,6#o.A#I$F~[1Y;a.}=X,>=n[B[s=m/U;%#X)y#q*&,S1%,Z.-;,&_#L+9-[&2*:$$.Y.:+#;9,n=5&-$G$D#H$r#/&6:v6U2N,+/T$Y ",
"X|n%m@W:|=J.4;_$L$O;[8`'l&$]S89|F 9|k%o'J(@*y+W)D;f )&&$d#`%o.[&a&J>c_L(g>yaB@^,i:za-+7=3>l-|;/!3=n,d~-;=+ ;y#U+q+;,A#+ #;b :0w I)}~1!%,H;:+8.(@T-U=T =@.4'&1%}.V&$%^)H&~$Aah&W@$;R%[ -*o@C_.4>&z*=&R'g=5*}6'=8*V^11e_j#i&9!c#~&X.`.a{!4<4i*@=T-#&,; .C m=~@-$9,=*,+B]O(N.d:q%_|0!=@&$@>g@j/.$`@-@z*0,q.w#H-c#6=,!9 W%:&0$g*v*h+H.T+[.D.2;44@[i2d>'&z&U+o]$@t]4*{&_=V&^)r'>.J+X&A~v(271.e,v:()K__>G = j%O^z=t$t$}@T.t+U+w#^|+$h*p@e]Z;R&O#1@5#S>{2s=268'0% ,3;C{9 ]%5)Q^C_=$H.3;2+3#+ 8,(.$%+.&.% _@q k=u,$ 3>~ -;l.4|C@=!n..(l/",
"J$,#M{I>p@!&R%/ g,M]'0&%*%f'S8^>9..-95&;G=`+++Y)&.K#t@0+4!g;0,.:[+9+p}D#Z@8=]#k)C4c$H$P +%=]#$C@/&1#b[7=p@&)H;g l,l.f#v= %;;;/w ,))(~#l*_!7;J&1-3#:-z=N@d-$&$@-=y&_=j&@=c*BaK&8,0*G)H,^~0.C-K CaQ),+R'v-Y#*@^)h@{=S|b>6^(>7ac#r*@.-&24!4U|b-F 6;O=%@x%H 2*r~d+Q)u$,=%'@]%$$@>#~.h+d!N@j&}$:$^.5;`^k#f I>u#L@e-^.&;D@H;t$Z'g*C@c$g 1-2)E&%1x.@[r8G^.4[.F.p_< g)0@c+G(@]~;u$ {Daa-{]<)B]{]g+b>G :~7;D.Y]G %@0>v>R V+f S&&$C.q;H.3#,]U @% .H#@ {!S>N$16*/d^! Z$`@7{w!Q^K@_$u}D.I$q*3#H,& ;.C *&:#R#H ='__7+)&O +[)&-;E!^_-,7=9 y+d*",
"C#D R%8.D'w1Y D./.a>J~w;l&L1f)e,9.j%1).4{.c%P=S'Ea3#N@P+8 h._$#$y;q>Fa0,R*B!D;8<Ga3;l@F@u@x+}#w~s-: V/Q;f&U,( M+^ u=8%k=I;@.v w ,)`=1&N,0'K+H ,_|*p$n@O<:>M@m>b@5&*&@=z$z2HaW@2@;>r*%-R'2+[,n=;%i*>=<'x[8$(=Iaf0-*@'7*0]6;O+B/[.&@j;sa!4U|I>S@W.5(f%0.2.m%1/k#@*O+s!J+d,O@>.:)()@{K_c/u{c:])w@8~b]&@^#F.G@i -;S%L@/&Z%~%F*D&C@d+w%-,='F.d=n$@[f}F|`@w>P&|=o@g@%*#!|'<'J+_$}.b&X&z>Y6|@0;W^b>Y@*>t@e+Q &{-$~@I&d!a$d'=$S+C.*;0&r)9-Y;t-y=v&h&+'n[[0s=26E~o&H$n+w=d#b$&'p@s'J t$f%L$G@!&:$X h <&-*8#r@% @+ #M#q@: {)r.d#d~O&V,M-o_",
"S$M4H,>,@ ;.  7&m y, ;w;l&L1>[i@i@55%{.$8~^ 6&K-C/2>$ ^@~%q&Q#6=H.Jal'p)%#c_L$P:$}k==<g ,>8%k$3>O~G' !p%,#g#h{N;q@Z)~)=+#;M$7}X+,)R_M_t>J A#5&` I>q(7~]@E#_>&@b@d-!$B]'=X{L&485_,[@#L+S@D.3&Z q z>%%f+U.n= *',@=I(2.>#:)_^O+8>=''$c/24!4xa~&p_I>2_b#$-k#f%N~i+^!7*8,%~48])8,;.))i(*>y!L{=&|'>@f%E=w>V$:+!&}@j.L@t$W$^.8&Z%_;d~;] $P+ $g=d=448)9)U;c#[.4'B>9.)*)*<)v}o@&~@-D$,8P{9<P@j=f0_65$W^0>O P&h0!.`_ #/.;%p*&-q.y=M+H.L+v>k]2~& S&E#]%y&n[B[s=KaR_1&: t>q&F;o@%(}=%(0%U ='3#:+% m@$&B,i#P T1S@='.$0>v@A;p+1#z#e'S(^_.%Q;._",
"S$E&M+#;S+e 9-D.}$}$##w;*%),LaM5CaY$3.a#t>,%m*[:N>;@D#% g.i <#A q.p+9 e$u#+%P:5&V|D*t*]#C@r _;V,(%R~0=&.y{%+D#o@( L=]#Q^,#3_c2w Ma*^!.J-$#@!L@$-8,#=.;x-y-H<D <'K.g~k~(-Nag% (g)k'h U+R'P >@c#<'q~F :=A%>#9|l_#!0-l_W>9.u-;@{*:+O L.a{!4@4n=z>+@j%$&[=k#7.J-x[8@_@*&>.%'%$a.W *_R$|+N@X!d:'*X@K# +0.d-R 3>3> +H::@C.K*q*W;I/k-0+,>l$/#;+.}x.8)!+A!M&L+V&v+:$@]!$X}u(D$s!,=<${]h,B%<)d6m7.=W^v,:-K*U=3)L~8@ /8.-+3 t@R%t%R*g w=o,U ]@2~P&D B,G.q,1]s=26p-S<q*K)J{e-3>s'x,4~1 k#=@u;W$Y;(@C$/ B,6;e@-.-$F,T%;,/ m;]#g;9=o%{ : w]_&",
")@|*u;U,q C$,&0+B,g,r3H@*%),OaM5I<38t]c.x@~#y*U*->0+D.U C@1#=$a&[ u=T$:]W;G'2#n,5%I_i>3>b.q*#$2-i![:g]+%V-E#:@9@q@<(=,z]|*V=;/w MaI=k't$p+M#^#o@R%/]3;}=q 6;T1o@S)V&+#G1Ba48Par'T^|+X m@o;$;|+n%0 ,*{;q(n=m@k~d,g1F!u$u-Q{ *{.- _@L 24!4xat]f,|$c D.k#C V)2*c.@#- :)t,@]n{$@b#_!.*S+(@w'g,-*u,O+y^N+R;+$h$@$2>5(|~J>B$-,r | z#g j 6=t@O n[44y.+13)* h X,!^m@4*f,l v!@%2.R/[)%*/~|@F]f+Z2H9W^Y@C*%3y#4.g},;6&J+{.&$C@@!]+;#7&p+^+$.P-Q+k#B,']_ d=Qas=461> #`$#_Rav* %*7b+&'_!S+*,+ -,u%O @+H R=m=z$D$0.P&V#/# #P$T+d#A#N>#$H-O&D[",
"W %&B >,  g=N+U c+I;O{L[*%),,[$!L/C6~.$<5(5)<-8+2-r)S+ .R 4=K$:@3!H$++6+W$h{ ;a$Y.(+F@T.C@,#l@o.s~3>f;4=!@G,R*k=8~O&N[D:%&5':0w MaO$I=M=l*1#2+E{$-B `_3$@@j#l $ += .R+k~z%@< (a!{8k#a@{;T*.*P&Y@x%}&@#m=|+f+B]2.0;C%r!a)r@>&Y]R.j;l#sa!4G_d+Y;z$&;U=f%0@;%.=SaO<d@''%!K%D$1*i;C6c~9@|'^]X X.>@N;'&z=X/f U+ &0&(+%#i.0>%#[,p%r P&i' $&._@v[Tay.7'd>w=|+& S|M7q 9*O[1$y&0.@%e@Q.T8P{74e6%*i&W^;@7-K#6;&<7-0..$n=q$-,W)w#j>$-0+k=w#9(L,h#i#m>q{V&B3p616*/h3~*8+v@A ;] %D#>=k'j%I>X@S+t+@%8 * q.c) .L$,=[.b#H;f%l@l*@*'|q.l@3>R*Z)<*",
"A#T(h*x-%=C :#Q+])##UaL[*%A-z;^>R{#~C*2%n:H_O&s{0&  h$r)/#c$Z;y+U+L@K+w#]#p%U ^%H#W;4&d*S'S${ 6,)&6+p)h.h^=2D@i'_9{)[+f x-V=H@w MaVas>w@j'i.[;m-|*71N~D.P D.h#R)+]<+#:Y>z|U^54/~c3J&o>w)Z#3<Q+K)4#3@I&~]r!2$d,W{T@0@O'y:>#I(z=0.K$j;a{!4@4.@X&,&8@T%H,^,0@c/=7k#d+O'S.v!w{Y@h5M/z;^@K.#{7$8#,;()^.Z o*[.P&8-Z~-$}%>@[,w@2 4&P+r+&.q.C@%+S>Way.z.2{1(9$l)b9}/O+>-C%<@3$|'L&|'+==-(~J:R/-'d-N6>&{.()/#8@= .-#//#U*W%.+*;&$G#d'1#!@C^Q+Q+-.^@9>}+.}p6o6f6E~U%l@y#D.d*S#:#b+P>1 t_p*{~d ==B;A+T.V&< B>T&-+v*x%a&q* ,)@W%0+h{z]A  <*(",
"w#y{h ^#;@e M:U Y.&),2L[n#A-k%&@&>~87@e-V(1!(1{31#Y R q 1-L+2~T `[M=i>%-N s{S$G@K+_#X@b$6#a&w].%N>r.:]%[d*&)D $#8^~[y+g*#;8;[^w Mam{x@`+o*+$_##;E3[~T[* E+>#j=8$Xa_$c@Ba;'Yad[g%M1_ '*:=K)S^K(d+A*d:n~*@- r'd,V@E,d)$!2+_>Za%3^>O @*sa!409y/*&l B.K*9@y&O+a@3.F ~&2@X&D$.=- y-c.O%c.< '$+'5#K)f%^.$&T+4$  I- ,/&1#Y#8~M+x@9#D@N;!}y{: 0+R;x.8)7's#T @+r>a>w^3%='l l z>w{}.]!P@D><)a-75m7W>]]_@9#Q ;@&.s'c#p#-+}{1#*#2+:*1+3;v*<[9- .c+$ x-a>$.M<[0`aO7E~|^H$8>d.(@m |~|=o:n@X>X3-+8 /@D.c-3#])3%y&*&8@f '&=$H;H;u-W% $W;M#2>B)G'",
"w#4#-@X 2#_ j-h 9>z*r[k{n#),K_960.E0#_R@{%~#`$23q.=$S+v>y#p;,#: {+$;4=R*R e>M(G.S10+:@3#Y%f#g>2-h!6=i-D@D& b6=#&f>Z|^%z@)5N(7}w Ma}*e>%,N>d.P g,9@M=a@U88 3$u$j#p  .M)^=W&K.M) (H]u<u>e%n+5*{;n~|/O(*@z=3*r{j/R);&{]K<Q{q%A*];-*O r'sa!4_7b{w{T#)&h+F}m>T%_|s'!]y$v!f,a-6;2)8#r'+;j.{;j%c)X %#r>G=e.g&B E+t+w,c d*[,*'6#B$T u#C@j w#f#7.S>/08)z.2{y^S$`.S@P':$8@|@])=-f@D$f,+0<)v3)$R/h4i&A$f%>-c'N#0>)&-${.O++ ~ Z$I$  b$G#/ f#d'!&H&:+0@$.E#&:B[`al;P#v;l@C.$+]%(@q$h#].8<w,Q^8~v>T&0,K#+ % p] .(@B'o@G&m=/ V%A+:@8%T${ i F* !",
"j-a+8 Y K$!&q$;.i#B,Y{k{*%=%J_y/~]2_.b82 /K@/%+:8%[ g {+'/K*g :&0+M>S(S*p*Z$-;%+z$~)f#T+q.R*=#h.q>%[c<P&U*+br J!L_[:9 )@b u{L[w Ma@bk=s+.+/{9@8#:!4:6(J U3% V&u$z>h#J%D>1$#*B]'7P/^6@'r<T}O+_$2._ }$$!'&Z I&(-0@#@k,&=K/(.O ,;'$% r'24#bxaK %'K$@+:+,;3@V)c~S+c-;%])d)X&g)R%6^* 8$%.c;R|`;+'}@q a@N@+.S+X !'R a~K*c !%T g;0&m=K#U=M&|+g .}x.@[+1_0c#7+(!#%//0-#=r@j=(~N7|$5$ {1$/~w{v(+-V1p^k,U.4$i*i.p$t>5(;%I.^..%g  .Q4;%S$=,)@t%@>%.l)c)4#&:1]`a46X'7|q&P'C/k U,C$k v@6{P%R...f#8.q^y{$ l=-&e+e% :K*I>;##&4$n*T,S$i$z){ z)E@",
"%[W*n%%+@ D y#I.` %&B^W4l&j}#_y/0.V<h0*>6&14V/s{A#6#g R%T&G~}@8 =@^{K>: v@r 0&X,9^ &_#x+V -,.%e 9+3]e^l!Y $bQ;O~`:Y[J$_&^#p(;/w ,)T;P=H_z)q;=;+ @ 4:x}2|I>r@`!c/#@t%%b@%S@O8T8<.,-'$|{k#5;:#;.j&n{,*p^7@9,5.=&C%g1f+q%]!|+E,_>T#6;{=a{!4w(K,f+-*6#r*,;C4f+%{a.d8n~#%''i=9..@d-];Y .$M]=>d::$8~$.7<A+w#u-x%k=X~%[P+W%$#3&E!j!^%J>j!Z)3 r>!<x.&b|15,k#A;s&b@9,*@Z v+j&E[#%L&F l q0v!%*)9c0(>b>+>C*,@.{+;c.d!O+[/,;;>J!|%==B,&'{)3 R%l>&)=$U c:E#@|[0`al;E~~<>@>@%#X %+U*4#0,a$z+9#|+K$:})@K$V$d'Q!%'j&b#W^'&m%V#R w>N*j)F@F'.%g>q*",
"D&]%3#Z,k]2#-;I.v++'O(U#l&=%>[96v-g+>[:-k.E-T{z#^*:+U+k=@50,V#R 6#B.K*R#b#:@3;N=4=h l$C#:]H$Z~<*H$O&-;^%=+b~W;f3( Q;b$h*;;L^[^w ,)Z:.(t#Z$6+%#I.g#o@J}w*U=;#T]J-(@R)F[N)(@9{W#!;f+0.~'O N;C.q%B%K$0@96;%e{ >&}Y^R),*/>3$.=%$[=d+%--&a{!4#[.*(>c/-$D.`%c+.@F}F $6-~b@|'Y^1*X.D$w5[.z=T4<{h)0@H>4$q*h$2)B&:@Y#{~#$4)_}N,g;%#t@+;4=6#<*1-M+n[V{@[|11>#&c#4#T/8$d!$'0-2.|})-+-%{ {e()${at6L&n{#}v't$-$a)K*^;S%f!0%x%&'C@d'Z;V&f/G@+,R%X(# =;z]# c)33)8`al;w(p-z U=g.'#l)X-p@&=R#]*t_n=N;k U 8 @.R'L -=$.g=0.L{L+8]7<j%(#)&J!V%z#-!9=",
"0+<>U=8#  $ C&< ])|{p=U#l&=%*b.=P)p$_)C-e/~~*#g.Z)w#D&=+R&_#<;H.j 0&R e d#%-~:I..@m D.[ A#[+E;-!y+_*s-1#R#g~7=L>L_f/w/L'|*%_;/w ,)`*=!X%w!r=r=N@c+P&@#p&X;_>m>P R#7&=b#:m=+-s!6<`_=&I._@r+Z S.s!@{3$n=R{V){9w)0]}$L 8*9.>#>#a)8@|+L l~W9@42_k,e+7.O+L;l)'*F}N+S%))v!z>C%]! $R)f!g+B'8|]& ;K%T%'&T &$P&8.m%8>l@%,X@:~r*3>`%P&T.U+H;7=A+@+%_V{8);2n&$#V#O{j&V)b{,;V@e+d}V&e)9.w{$~{aD^!-,']!''()n@4$%-X@4%^.&;K t$p$A;q T15&e-(#4 #;N+V-g;*& ={!m<W'`af6a<m+r#$&N*#%9&&'0 R%j.g}X!k#y$:,  C #;q{r'e%H,}{f%J-m%f%a$4=C&F'D;S'#$B)s-",
"p))>5&n-B,S@[>]%]%e+l3H@n#=%,%- P)7,^-N5 ,G&C/-by;/!9}i_T31#l9|-;bE+[&P U=x%e$$.%=7$[ L+-@t'&+_*i!>~r. <Q=V!6=E;E6|~q.T+d2X*H@w ,)Z+7=A!9+T+;$R%b$f {~ /A#N@',/;;.S@;}J%0@T/E[(-n@|{F}9,H M&5_o@/-<'5*z=i*0]{!0;s!F 3$N+l(A$9$9$@_'$>b).X'B1%'A$e-_@&'+@j#O+|{c'd+7$%$%'#@a@|_h>%-z;N/V&^/e@ :}@%#4=2);+y$c#(#|;t@p$h$Q g&U*w>[ :-#$n%r*.}<]y.`|d>{*h;V&,b|{U.2_W.+@*.(=|{2@F[Y66*@]e6L&)*/>'bd|;@I>e-'&c#o;'*3&$;B.#@l)J.`%3#12% K+T]P&F.>=c:e;]6`al;!.M~J(}@K*N@s&s'v>O!@*4(:#Y ` X,l/F.E&B,U8q{q e+>@J&-+&'1#9#J)d# $++F@![P=",
"Z~  $.7>8,M+N##%G.E#O{%1n#=%n+d-v-d!M1B' +`+h!T.s-N;f]w~j>M+K-J>e.8 q*e h{0+b.  & [;q*b.n,Q;x(C~B<L=-,0&|%%&$+51o$(&U_]#12-[7}w MaT;++5).(3#0,% I.w>h+o'2)U X,(.k#>=;'#:@])b(3*@c~0-z=Y#y:i&E,4$@#3$-@9*%{d:s,*97*%$f+;&1*T-3#@_,@b{l~W9!bY]|'D6J&T#;>9-O Y@L+[,>.i*])v+W.V'~b8>l#h ^&@={!Q)o{8$9'=+8{J<5>3!F*m%y((#u#k-~:6#m%~%I$>>7&k=q,M!y.+11>&.-$O#O;E q$.4$&f+l >.+=E c@J:W#V@e(<.'=_6$'Z6X@R%K*^*/#D.z=c P>*'0 F.j.[#: a.g*a.q{q.d'_1O{q,Qa{bo-7~v;S<:@3>;.b(c~9@}:D.~#Z#9-n%C V$B,|,S+<{S]K)k=P'$-!@j F~D@U=z#0~%#4)4|23",
"B@y{e %&7+])W N=X <  =@/n#=%]by>~]b#f)F=!*q'r&6,j'D&:]7&3#i X;;,l@^%e](&[&@+T+3 V$1-M#k=6=a&o.Z$,>V/[:(&% I;C/Z)^bp;h*>>Z,5'L[w ,)Z+^{_4[:g*u#z@'#v>8 K_[=R.S&L$U+=&X{r$Q)c*J%e@55@=%@Y#9.-*2@;.e+o@{.7;f+*@^~n{z>W{5$v-1*5!E,v,% L >bW9_ac}y&c.)#G)$#>=Q{8~[=H>}=>.)*|',+k~#=A,h b#i:$@n-8;0>|+6#x-r<;%2-u=F@r-h *,3>R 8&.&X@;%Z~++4&K#L^/by.+12{o'*)g,2'Y^$&c'%.5!](w{=-u>%;E9V@s!#|6<-*9,(5+>P&H,[&C{M+:#0>*,>@B.1+d-M+v@d*k .^Y 6%N;@ t<s,q,1]`al;p<>*07='J-V&X{K#5&,#w=$,-]C}6#;@C#(@n%J.f!E#R.t$%.% :@J!d*#$i$8=>]C/*#s-=#",
"_#k j&#;$ V$+.N@R#@*!]H@n#=%r~I>H,7,I+#_w,[,e##$*#*$<*9 0,y+,!O&l-1#D#q._,-,y@3#& o>4;T+R |;a$.( ^9+<;+%$ a4w@A (bR*0+*;W=z&W+w ,)_b.%:b*#P;g&K$I.K+d!B.q.H#5&:$&$O(3@B>>.3@ {~;h>O'4]2>e++ @%F * %{<b_@M%d:+'!]i=0]v,v'.=|+,&6;6;L >bW9*^38p^$@'$'&6#S@T1y)Z@h I%@]g)a-9;H,38h0N;)%;+V&I.[)X#G#w@K$[ X.F*p&Z$7&3;@+<*0&k=P&C.F;B@,>;;E+%_[b}b+183C.e =&|bB6O+X@f+]]l @-6*O@>^u'x'>.75v(V@~]b#u,z7+;K#~@x%n=i(}%w+h-u-f#^@a$$ a.4 q %'N#6_:!:!S>1]{bs7N-y2u}3.L;K+G+(_|_@>r+P0k#_@l- $3 J.:$r=W]8.%.W$K*R.;%P=<&a${*~)6#A;7{.%3(",
"=,~/y{#;U+  r+q][.5#!]T6n#=%-%.{(>.*G).)p#`+#+@+2-e j!r={+R b.#$S$-;f#B<;,q.-,G@/@C$ %0+}#r y;3!f;0$t*Z%$.8.c i '%={E@q;I Q%)~w ,)b/M-:;-bu#0,U $.B&i(I|U=]%O,-.(>,+j#Q+*&#!!;m=O=|_d+e{o;4$F v'|{2$*>#@X.m=F ])48e@f_- R)%$b>>#[=L >bW9G_#~z>5&%{M.7,@><'P]V)n@+'v!b|z>K<2*($]-q%z;c)0@i*{;n+U=r~0 _>S-Y#2!)&3#&$p*#$:+^%t+h H$!'e>M#K#q,1b}b62y}]-k#c:J%k,-$ #='k5|$B>_-<.>^@<Q5@]!8P{D$/>B/y#C*8@f%H.;@D.c.a&C-A;K$D.0+4~k)d*e P&]+I #%e%Q-u{1]o6l;F=p$L<:- %%-E[X E (+n0{%k#$ :&;@y{b+H#g=Z#S@L{Y!c.8@4$H$H#/ z#_,n,(#f;5>_*",
"-#W/i*n C H#|+ .G.X.I [3n#=%C*e_@_2b^>X#1&( i D;y+R$_;u;q.V 3>->h.`%B;:*i$h*{+Q=a.i>P )@,>N q;y+s{g.>{=!~/]%F4s3n/E<3]3bQ%X*[^X+,)4bf>D|/!K$8#S+I.% s<V{$[8.K%e%$.T*#;j&(.:)5_3 =@:$=@='L;t%Y@+;z*8.C6q%>#j#S@t<X}R)''R)a-''>#f_A$)'a{W9+7:-F C%,&J&*~p=i;&&{2g=6>''%!C}h:g@A%U[r*c-z$$%z*|/K)7+M/:+#@-~v*~*'&` t+3&V 0,0&P S$G@0$(&4=L+@:V{}bi2D,=@U k|C>z$p$>&m=$-+#_-)$+-e[+0p5Z2J:P{}.$5G%_> #>'k,^>c#d+ :4$;>l$B v>:+M=k)B<W K#u-g,R=l)B,8{6'o6f64~.)L!b.1-d*<+9-J.8~(# #!&d*z#+$R]<+ .=@u-'$() %-+e.p<a&Y =+(#Z)9=++0&d~f(",
"_&N=P~I.P ;#g *&D m |_W4n#=%767;.=&ak@w3b]1!~~j)k-i.n, &-@q*u@r+E+q;@+Y q=V 3#r>3/9/d*d*6+7.@+9 ;,E;;,S(&)s&)]C/(b(&J$G'$}P!W+w ,)b/5b=#q|;+8#;@P;R.^#k+x%9$y=:$>.D.#;_$}+9.O[,&7,O@s'r+J.Y@#@b-h&v,{.K#''0@_$c:!$a-S@2@%!%'Q{i&I>A*>b)._ap$(-5_g)R'd! ;()j;L i*Q)b>S.R)^@@'=*]*X,,&##8,{;D_c.k=R c#P :#q$c~{*j.[ J{&#N 0$L+d q*Q;J>6#N&d=:9y.u3X'M/F.z$q/I b{];5*n~h&<'@-g@=_@<P{O'9<<)n{P{U.,;T}='6^>&`@-.b#7.>](#8 S+t+[#E+u;K#k=O+b+j&=&(@r(C!o6O7r47~q'w>R P&H#N@V!e-q$s'h+P R =$_   |%P&3#R#g N&`@-$0>i D @+B.|;}#y+6=l@/+",
"S$x_D p@b$/;Q^Y.u-8#>+y1n#=%#_e_l(v-'3k+7<*!yaN~^%Z$B@E+p)L=n.i$-;z#B<U+P&C@*(Y (@<#^#O p%i'N>{)*##+A A |,q]d*F-J0A@ &7&W=<%W+X+,)6b7b*,A#M{O [.i*1+x[I_R 1#a.8#$@E,S.j#j&f+_=2.)&E,5;: 7;#@0 N+G([=4]c#X,=*-*G2F_a!,.f,X&X&9,;&_@'$a{W983C6L+X.2.y&4$c+-$b{O%}{=&O'''R)-.d+i*k@K#9@}_w{7$`.z=>@t$B 3#E(j z / _>[_^;Z%g.8_u+>]9 8b*+;#^#-[9by.+11>)&$ }_b@w{:#:~9|5#I%6*x$0.0bG9}.y>e6v!A~9;(^8~8>Q R%t@!}d!n=|+!%k=W Y!I-*,u#~%r+P&R  {}=h#%&V'B[o6l;X#}@o<R$++p S+ .H&t+e-M:T#a$:&=$<&D K$I>k,7.*@m=e K*b.&{0,i G&=$H.T,O&d~/%",
"Z[~/%+c)},` o@*&j.8.Q%@/j+, <bv,>&U.F=C*6~7|e*q&z)`)g._' !Q;8+[ W)B<3 T#(,E-=]]%<&F@W b$0&a=n.[+n,W)Q;C;` @>#;abE6N:s)~)$}X*W+X+ '@1E6z)f#:++ q '#r>7 p&+ 0 J*7&}=#@ .e+v,i&@;u-I>Q#0*E+b&D.:$j.##`@t]~'>.#@|+v+/~bbW@%$O'D>A$f H 0-a{W9T;p#k#i*-*Q+~&8;i(:=#{`.<'C%W@Q{z>&~#{.$U*W.I~L 5#%;z=C.e.M#C L{ #C.K R f# /N,K*M(v>{)e }#T G##;d=1by.v2S_#(,#:!}=B%4$9*%-%{''_=<'f+R/T8C%=*R//[1$J+>&7-}@V47&G$r+ :J&}%>]#$;#y{Y H-y#}@$ 4&$.h#r@=&g,8{B[{bl;D!X$>aG)+)}+:$t+O#7&9'[#O+@+*$}&4 9&9@H,f n=K$8$%.c#q*{*'#_#: l@u;A;Q;P=B<",
"N[:*7>D O w>d*u-##7>>+q,n#o7r~v,~&~.j<8$V#1&~ [,O&S'D#3>j!j!q*z#8 a$7.K*y@1#z@G,B_j%b$n%c#.+Q0u#$+#+_;N>4;6%M{F-x;f]h*/!,#3_W+X+ '@17bL*@$+$&)+   I.h>3+:=#%z>N@}=Q#C}2.0@7*,+f c 0 { :'X,P _$i*{;B'&.-$]!g@(@R+$>r@{-a!f@%~}+f_Z}b{>b)._a#(J&I&r@W./.w)r@~]-+;#|'C%W.r!:)q%'$&;p$+ O#!^@=@.I>^.*'G w#$&3<P&<|M/8-e.H:: R~:&6,7+P+~%0+R n[1bcb[*6-E!8#c:4#K.%'()u$^>~;dbC](9T)|@j=9;h,[)ebS[t$h+Y]W%f Z@q c~l#U+&;:*X d'w>g>i$8 ^%R%8#L$J-c:]~O<C!{bl;n+c^s>>}~ A#4'h#7$7;|^X~d+N;8 <#5&$.5&K$N@@.$&Q+=@y#V#{~P~:+W%.%`3.+4&7{w#",
"k$S$E&c=K&C h:H c+##{;y1j+o7K_e_~]#~j2];r~p& @J!@+^.6+4=r+6+1#u#*$4=8#;>N1F;,>|,U-e.6# %M+t&9=7=^{f(=]A ,#]%:,D|&6Y%C;E_d2-(L[X+Mab%6-O~y{~!e 5&t%8#@{G}7,T&t%+ w>K<2*a!9.5#k#%.f%4%7.0>t%-.M >=< 8@p$C.Y@#^f+',K:|<R'C%!$#<(.q%7;{&>bW9B:~*= f@8$@'c-< 7;@_M%O+Q{A$W@W@_^i@~-z;z=J+9{q{g@@]7,-$: -+-+5#W)f X/&@t'z#x(y;=[w#T+D&s)E@r=f#h/fb}bi2+!Q l)6>{;740]))2.^>)$(~v$9./[R/>.k3P@@-W&!$].]-.$ +c-[+M&R$5&U=X~@ * q.S,`%:@~!h;=$/@l)1+1[E 8;1]{bo-p&*'o<R|k.U+1+R&_ q O=L;(+f#q*m-y!` 5&_@9,'*}++ 2+v@~~z)1+L+h-3&.%/&^ 2-F@",
"u#$  =$._ |+m 0.(@H&2,[3n#=%B-i&p~*~3.a#e{E*&;l@9#w=R%1-U+=@V#6+C@T C {) @2+L#` V$S$w#T.1#0$6#6#d~Y[n,W;x-` c$/%B#Z)k$z]#;X*a%X+Mab%}*e#q;P ,#$ 2*[.#=m8$-u-:+s F.t@R%[..=9.m=g=_>9@c-r%;.g=6^7$8.*>R:<1O'##,.G2c0w{|@S)-'S)9,q%Y@'*gb).U|0*@*%'(.v<4*')#@Z 5#'-C%K/H 5!T-[=% %@9#O@K%m@c+!;:~&'e/[++;I.H;R%g=I>V#6#R:+%f;]#U$#$P+i $ n%:/V{cb50E~M/% c+0@S@P@W^];Y]D$g%R)>.>^;0s!n{<)R/]!e6Y]`~r~!*O%!}6;=;8#P&^,R v>2#`%z#q$7+3 p%l)f H,B^,*3_C!o6l;G=.)1&M.s~,@R#):(@2+Y$h y$W%o;U~=@N=I.z=_@G L)9$%..4~*C/P; $o+E'R o%W)%#i$",
"z@f#P:,#']4=j.:+% d:y-T6j+j}#_Y@P)z=F}2|*'c%9=4>N#&#C#b.-,S'W;E+A;l@e'X;^%H#g ]%v>9 d+@+w#A@/!M#L*d~O&F*l!@$hb7:v6O&b$1-Q}H~F&X+Ma@1}*X;<[d*5#N@V$  C.o'/#N.6#]@I>2+#@i*5_$-I>7;c'R.w@.@f o@}&@><'|^M@b)ib,@ .O{jb%',=#0l }.p^u-9,9|gbW9B:].*@#=|+3*E,N.m@;%{;:=R)R)%$%$''p~#^X#q K%_$}$:$9{>*8 V+|~3 ,&$#3#s<-$q*/&Z'C;T$e]U+y#n,:&g L+.}!~cbkbD,-^[.Y.5%4#P{H,t$w^s!/=5_@-R'=_s!m73:D>C%_$`~#(B'>*j&X@k,d!I>:#-+#@W Q#H.:@g;e 7&C#'#O D.J*L;u{1]o6o-8>o&#/6{M-C t%X,>=_+>@y&p/h$X/r(6+X -.9#Z@t5o@^@H.{*%,r I.l-:@j)P+B$4)H-i~",
"C@p;>=G.%;%-S+5&N.z*^#U#n#=%' 9,(^,[~&#=7--^[,O=e-14q;K*D#=]H$a$V -@y#l-W$3/| L$y&|]^%J>b$&#o.e.=#Q;4)N*7)@*6{lbm*j!6,b$Q}<%|!X+ 'Z:.'q&F@D:|,f h$I.z=X>N/^#=$:}O a..=t|C%c/H,<+>&~;~@8 $&Q{D$@>r@:-mb$&5$i*g,l3x'D$%*a!m7f@Y@,&6;i@nb).P3G%3<J&W^e+oba>/.%-N+,_R)f@[.>#_^U.P&.*]-T1H g,7>c@x{(._#0&4%r>;,e }@:-$&s.H:Q&A@%=e][ 2-K=q c-N(pbcbu3O$j % h#r$_$B>k/K $-F9v}W&$!&~|.b>O't,0|f,*@m=K*B'n+$&i.;-c#W$O+X3d+0'w>A+[ c#y#5&R $.0+X s&r=-(N$)+o-76~*G=Y$X@8|Z,i;E 9^J m p&$ +@* x+M{I.7.0&T* .N@H,v@H*t'2#7&#$_#q.@+Y/W;9=",
"e 1-U,O,,+  H#g=W.c:,*+&n#o7n+p^()n+K*_@2_*'~~)%f#N,(#: H$=!6#R B$4=N@u]~%@+G@X n%}#)|j o%+%-;8+2-l@f/y@.5F.S-O9&1P=,#`3d2V=p'X+MaqbZ:;,U+ %D ~%7&4#,;J&o@l=@@#%3 _@%$0@f@R'{]R%%$]@M@5&w>R.V&8#R)P)J>(>N;u-@>}&J:>.M }.P{J+9,b>k,[5l~).R_8>3*N+U.#~C$Y>k#>&I>i&K<_@b&#}X,<=u|K I!U r@*&$.v+p#2+/ q&N;e]{,f }{i.f#`$rbB$r;7&C <*T,s{-@4&P:fbcb;2I]$(+ @ 1+K%3@]-Oa0@r@7$D>@'(-D$%~U1v!Q.P{2.p~b#f) +k%M=r+v-p$d*p$<+=;Y D.A;M+B&U+P 8.c+]%q{i*u1N$)+l;p& +S<7~e.e I&T*6{S$>!m=P%H ;+W$M+X I.5*_@3%0@8,r+8@-^g.j&I$9'W)t@0&J@i>C@",
"^%m-` z$I%>,_$H @.n e+T6n#o7Z^f A>8~i*+5v@|~~,q$U=7{^%y+++-8,>o*h.: *=i>A D[V$o@m'z=M+g M>u=9=#$P=H$Z%B)J[T+7 L*O&)[v=a+)55':0X+Masbz~F*h;;+1-H#[&2#N@8>r-}+C D$M&V&])p_,=g@I>W@>#a.K*z=R.X}h 3%N.r~ #W@:#T[@>G2~;W#!-A68,W@k<&~k,[5l~)._a{.%@u-9.{;#{:!& h K/@{/>''O 5_R)A$_@8$.@>=e+:$}&9{F=/ 4=T H;^@e.&=y-i.@+s*j',>tb4 Q=T 3>f(D.4)-[1bcbkbd^V+;+T&T1c([)d-o'+@U1|<%!0-0]t,{]$5V@W&_$0]+>n=,[8>7,*>8#:+.$q d*U U*P +%r+D@0+[ N@;;v+_ c:$-$6H]s=l;y2'*b]p#B;:#M$$-a~U+z+K*$;R%}:k=e J-$ +*m==)|+-$K$n+^;E+%=6+1!~%F@Z%E'T+l@",
"G@E&{>b+R'u-D A$:$[.m@v[n#, E=,@f%r~:#g}q$x%F#c$T 4)C&H$6=n.],P&C&v> .C.;]+ 4;8;2,a$^%p;Z%2->{#)O~E-F@R*a~4'@2Z$}4_,R*n%[!<%p'X+x _bf=i$_&g h N@e %&-+U=-+r%G.2*`#;.e@d+@-M%O+9$v'5_V c-D.R)<&x,b>E.H$-*N%p>+*y-}=6!v:F]f%:)%$6;1*2$nb).`=H>c.N.9#X/9$%;D$q%b&a@+@:$N+:)&$R.t$i(h X.<'X.>=:=!*e- ,a$R$R&#$b.u>0%*$%#8~6=>>4;J.: *;n,^#v=:/V{cbV81>e.A+N.L)@%M)c!= A$R)''$5u$(>D$k3b>%!+{C%0]7;;-G%e{r{X@X O+l+H#[.K$&.D#1#(#G#F@3 u-` |%b+h&e+z^7(k;|&U]c o&P<@@o@H#6#R$9#63g=e{S `.3]E#N@8.;%U+W=0 g=)&&.U%B&##K#P%: r 6#^{!@A;",
"}%|,l$L$r>8.e%|+}&K$@.+&n#, n+W^,;k+-+&;s@4$|~v@V#*,0&]9f.r.8%P+@+X ^%C.N R D G,d+-;T.=$Z%D;P=o%V%o%,>o%-(_@},B)( ~::&q.K}O<p'X+Ma`/o$1#S(={F~I.K$G,S-u $-j#)* .[=N.S@m=f@.='*D'q%z>i.C$$&*&y&r< ~8@M@8.[=F k#n{=&D$Y^a!@':$W@I>9,M7>bW9ubh'v@D'%-]&* #:v+:+u-%{R)u-@_:)>#@#$!n@t>L.N@-*@.J.S<[ *,$#d~q^J-M+:+R,!}J!u=+%+%x_G.H,i p%9@: %_1b}bkbD,#=$-H /;N^1[_@Y]0->..#(^N.#@D^Z_A9%*+=|'Q)- a@n+8>c-J!/#@*9#d+,&O K#M+~%r }@^|m%[ % k#5%L$9.Q%H)|>l;5/r~Z^U%=$u-t%J>M;n+p]P+a$h:q q.4#N@+ 1*N@,+X,*@K>`@~~7.>=K#g;&.i>4)h~~)h{",
"w#^#4;>=v=h&R'U+M]*@U-y1n#j}.)~](^vbK 3*F)(#y#E!p+w]={(&8+0+-;g&H;,>W$L@1#N#r=L$;]j]7&=+o%r @+p)}-H.y+q=u{%@^#3^O~r C&<(12[!H)X+x b/H3D;C&f /.c+-;L$>}n+h$% E#b.2+8,>.d-3$5*O+5&|+W@;>%@h$S]m=o@:+`@[=0-.=X.j;6;(-S)C%B%p~%'p_(.i&[5>b).X'].6(|+_$u$4)X{:$y:W@3%q%S.d+%-(.@{{&c/Z#}&(@L;[.e%w,e{P a$0$U -~`#/ ;!W%( A &#i$e]~/0$p)o.G@k=%_:9}bV8a]i.4=: l=i#>^@'($k,]!e,e_h&1.9;V;.=f+)9V@4*V@9|,%P%S%l+_>[>8@O t+/@7+i>$&|+:,W$K#7.7&[.v+L$L$y!31&^o-r4^.F'~+4=L;%{[ h>V#-~:+^.K$k#x-1+4&q.#@>#B,& K$L;h+|^9$u#f#3;: { 2-3^-/]#",
"=+;+d*q{X 9>d'$-I%7>g,+&j+=%76f%l(D!k%$#K_[#Q^i. +$#0&:&wbr &.=+/#l=E#}%d#&]` G,9%$;E+h;Z%f#W)+%=#v>l'J>8;J }{[+q&E+A;h$x-[!H)X+Ma`/n/v6` T+/.Z,M#*&=>1!D.q%2*0 B d-_$i&q W.='+=%.h$7#T%T-']w>v--.m%{{^/H,8,-*7;w)D>X&X&7.B%5!>#8,[5gbW909K_C6a.q%l y#B^& f K&G >#Q{,@q%T-/-;%'*R.@.4#o@e+G1p&B&X@1#V#T-.;%.B x@W;d~d.(&o%K+k y#B<N>I$+.2;^2cbkbL_e-G r-l=<+d[$% :@_K$U.='4*-.#!t,h@$%t6r@r'l &~B'/$z=e-;;c/&'R u-R#;]&,w#`%=$ $7;t%$ :+W@Z,i*s<H)&^f6.)8~m(~~n,;#@.M#m c :@6#>@h;#@z]S+o@m-+;U*q 8,B g=5*|^y;f#U+A+A u;V#*,G'6#",
"P;n%;$6>D Q+G.%.(@+'g,f4n#I[!*4]|+5/#=r~'&2]W$c#c ^{/%O&k.J&M-R%D.K#,#S%B.V+D U,O1M>+$!@,>q&h-:&i!}#E;i D)},S!4=y*-!,>4=h W=>)xbMaybzb~_n%[.I;W 7&N=W.j00-%{8#W.@@N.])[=x=5_D.5_M+%.g=0>i**&+ _+l%Z@&,/.-@/#H71)0]$>%$''='m7Z_>#A$[5>bW9I]N5'&Y@U.Q+p{j(}+;@2@J&q%5!2)E,.{G)<{2$,;;$g,o@y-_.H>H-f v*e.R%X@C'P'E't'B)V%R*V *;t-I$L=o.e Z#5-p4cbV8S_5;|+E$F.Z;5%9{O%<=v$t$m=,.>.D$k3W>Q.%'!$#%j/:=c.7-B'z=U+r{=@u#v<Q#n%-,+ -$8,B<U+D.l$X,R++'i*$6;[&^*/C-L~^.p#r*X,n-&./.i'X Y#~~&=0 b$2*Y B,m=='I>*&1*%.R *'q.Y B q;{ M+~@W):&D&",
"n%-,|*Ab$ $ b+3*}&u${9P2j+j}#_4$>&Bbz+&<F.n@.@F}~@o47+T,G&X>p*7;|,H#,_(#V%M>K+m@9&|~7&1-t@_#W;R~X;_,B@2-z&`[>!C@J>`$=+3>^#{>|!X+Mayb=4j- $:*(@` [ <+u>{84$])&-Y.;@Y;H&7;=&3$:)O@D l=M&c#+ ,&5#u-/ ()7;9@8$0.d+d+*&74X}g)8$l n{i&- [5>bW983B'r~K$,&9-))S=])/>f@1))'u>k#f Cba@T#.-@'@{P&|_9@B^+>}@J-k=B$q^{~_>v*{%j O=E;r a$T$S12#7=d#<_B N/^2cbs|Db(#;@u#K+Y. {+=g+R.H &@f+]!V&d)-'R)9;v$740-P@V^R.X]W%Y]A=$.0>K$3%r=g z@U Y g Z@<&0,g#;.0@Z,o;V';[|>*/K_4~Q !%/ & t_H-c/.$i;R* #O e+W =$7&/.j#r*/.j;h Q&M#z : |{R /'v*P&q@H=C#x(",
"/'~!1-O#7>:$L;{;j/S|G1W4j+=%C*,;@@D!F# :{~g -+*,U=*'M+z#a$* 3;@+0'B,D6R|p$A+b';4B,V~u#A#{ n,:&p)0$6=l@u;)<_!o:0,3^j)6,W b R;|!X+MaybJ0O&R*M#g~q%h$c)j#p$%@_ R),+A+O _ #{O(w'n=])@@C}/@n+2@I%5&[=X:x4O H o@k,@{8,}$P{C}Q{t]S. .m=A$M$gbW9!b>@A,5!}+0@2*e+_$H %$/-i&@@.=>#R{v!@*EbZ @#% 4:d+S].$7.e-w=K*h$Y _@L{V%x(L>p.3>L=n*4 |-2 #$t't'%19bcbkb1>M@N;Fb%-h @%#<J&z=F%Z.@'R'0;%$Gb5$t,{]+{K$r'6^u>Hbt>='m 8.X!1*$)P  <h*7&H#7+ $f d'H&d'#@m +*z-31|>*/:~s>o'~~;,4#q.;>K{p&b$B c%0+h 9@$&b$-.y$c#5#'*#@[ q&S2g&W j;U=(#;%e-p+I$M#",
"6=p;{>r3+@e+*&x-#%[)C>%1*%, IbJb/ N5n+R|:@K$$ Y#K>^{k=4)|~P+y;P+.@$.j.v/C&Y!D& %}$L@u#g.4={ 233>6=[+Y)e @.[>,9#)`$B!&+&]U-^#>)xbx KbLbW).@R#z(->;.c)F E]s'v+n%u-U*X _ ~;n^d!R.J&W$(.t%q$0.S&K$M+&=r+H,5&-$3*;#X^!^=-X}:)@'%$''>&.=)#>b).X'Z^~.K)/@S@2@J*S@|'R)q~r!@@I>k,(>|_v[j@O%n=q 8$J&X v@f o']#/&:&l33#B. /l-Mb| J>D&=$l)!@4)g*1#h 63[bcbi2)(Q$5;%-:$$-J+@%D$4$;-d-3*3@9.>.O'%~)$X&Q.J&|_A*b{C*M/z;y!r'^,J&N~,&c#t@:,1*N W;t$y&8.u-k#r>8;z&31|>46^7a])&C-z#y&&.y) -p<C.X@y)r+F.2+2*S+y-*@$&>=c/w@7+C@H-r>g#@/: M>A;A;B!K2v=",
"-+#;&3s&I.X,K%N.|=}=P@H@j+=%Nb@#,@p#)%:@K*%.S+U= ,$#q*e-1#L#W)q.B&m>X>q@r ({;+x%ObB.j 3#: c#t&P+9+X@d~}%R; @c~q*O&j]O~(&){^#>)xbx ybx;z#3#_;@2q.D |=o;~@P  .;+$ M+#@U ])G1_)K,[>l+}@X:y#8#V&:$5;R%X;2+>#N@5&e+X X.J:X}5!@@9;e@9,A$r(l~).Pb.4U.L;J&e+q^I%B,q%S.f%R%,@H _^9,-.H,H,z=o@(.S@:+Y;V+K$w@D&:~a$I$j.L!9'-,L>R~[ m%q;V-u;k=Qb8%M+D_[bcb|18'2>_;4=8#/;'!m@s!r@7@ *9.9.Q)J+C%Gbe)a!Q.- < =*2.z;c}e-j.e+h+y$P/f#V d~[.[.-;I$W;F.o@R%w>d:{&(@31s=|&N5a]1/K@K*8.K*:@:!D!c~f#;>a.a.S+:@W$X.m=5&7*x>-}j%W$[#+ S+E %[K#w#K>H-7#%=",
"M+W }&%+B,r>o@h&h&b@[)V3> =%#_K)G H>!.J&;%;%!@/#:@k._;B$L@R*g>p%2*k .%B!A;H'b.<&6_~@D#L=8+|-3!f#_;A;y#k)[!6#u d.i d~3^6,n%@5H)X+MaRbE6a$=+R%>,1-B,O,_>i.&:@.V'e+*&- )*o@Sb0!p{r@J-U+f 7,$.<&N@:'L+M&7.;#k,% :=Y@y-(3c,Q{_@@'r@Y@&@F3l~W9P3^;7@0.9*R%x[(-y&E,W@s$.=1.r@/>.=* ()0.T%m%i&%{D !;k'_ B'0>O~6#t%[ E!$+Z%y;A R>;,e'u*7&k-T$i~&3N/[bcbS7+!G&H.;#7.&=& ])0].=Z h:#!j=T/{]f@S.-'B%a!9;S@y-@#p{:-U3h)<&&<E&_!-;D;=;$ K$V A;u#8.U*7&N#6_m@{!;[j**/#_1&r#8~i c+l#M=s,&<S%-+V+]+S&I.N#d++*{;@@M;7$b#J-N@P=W Q==+_,D#m%w@H-e'%:",
"W C #;B+2*& j.N+P@)-x$H[> , H>9*H}`~n&~'J-1-H.8_F@i'V 6=9~O-i.+$])/@M:}>X~M#L=6+@ L@b.@+r.P+`)#$b.v=w@-+%& ,,9u}q;A;a&T,p;R;k&X+MaTbH_N,|*f#&]/ m %;%-3&y&caB60-!&*&Q#j;|b>@t]9.P&;#R%G@f@(@;@t'=$k#e+-.Y@P&M+a.& /(a!1*:)$6]!>&@_M$l~#bUb #~^[.N+i&/ J.O#H X}=@/$q%g)K/* L{~'o;j%t$j#m'q b+0'(.p#{ k+4=P A#*'Jax(5>+%d#q&D#>,g g.y+T$x-Q![bcb]}ja~'2)N+&@ .9-o]**@{p$e-g@b@z-g)n{A9-'Vb48n{S@v^1)U+c}t$,*&@t$X!`%c (#R E&-+r 4&%-$ q 1*L#+'m@H&l|)+*/o'r~H*d&U=##.;w,G,U%=;m :@c+J.|,N&R.@>H,-$# m@0!`_B U;L=/{d#U=6#{)Z$67F@<>",
"9 A#D w)v+_ K+ .@;#**.[|> o7Z6q#t$-^s>4%U*M+a$T3^@y)C~E+~_4&|;^%g*$.,>71W]* g>w>D 6#b.n,@+6,o%u#6+y#V#d~m):@},07j g.;_+%e <#>)X+Mayb'%H;` P;`[W -]o]@{~*V&'*1 <&& @.h:7.2^U._)3*f%R B$b$2.y&/;H|~'-@U=H,;#:$c/N;<'x:W&Q{Q{9$5!@@i&`.l~).`*8~95'$L{I>8#C%@.:)K&WbO+1*(>Y^])c.n=`..#V)@#o;5&C^L{I>7#a&X>j T.-][# /Z%5>=$_;o*G'` u#R~o%s)12-[<]cb`|X4{*0&$ >#n%93B^>.p{N~5*|$v^|<%$]!Z_$7P{M 9;b-I&j&.;F#d+i&e :-|*'&*';>R (@(.w={*u#y-U,1-y-]~x>H&31)+*/X]J(d&F)(]l)w@{*M$.*}%H,3;O{]%|*b#N+m@B V)c)f+y)%#v=E't'O!| 3 K=j!g> @u#g&",
"7&b.T+m>])N.Q#b+J%v! {&&> =%Xbl+,;L~S< /7.A;6#z]:+F*y+$_H;f +%3]7.m-p/Yb++V#N>b$ .')7+i{O&k-$+q.9 ~@w=Q&)<w]p>!.]#H$o%128 ~!ZbX+x Rb( 0'R%H,;$b$c+^)m=)&S.^)M;O<W@I&I>h+`b2_c$P&q%M&Z'p_f@e+T.M&i.N+=$8#n=R.M78-G.c@N7K/1*e_]!5*]]6^l~).<47ax%N@B&z;p{P@B,W@z>h+9$T-]!W>2.#=f .#].B [=[.S+E[c.m=G#W$q&k-4&U*o+s*Z%Y%{+$_l9++q):+e._;i>h :/fbcb62 c`@ ,X [&:+5&#>-=&~m@i@*&Q_3@C% 6h@a90|2@Z_<{9.r{J&R|:#/:p!S%L;T%d&p$E'#;g&{*H-F@+ U R o;b@+*g~ 9)+O7 5V(P%S<P&/.K$K*y$7 o;U=v*b$U k#B&5&##@_J&v&8.n+n+K*&;#$S+U$=$s)S+N>,>D&*+",
"S$t+w>s,U-C^9-8#!_N._-0(> o7la()~@9'd>q@S$ ,e.P--@Y%-,r E+c-s{q;C  .E+j~D_{>}@% L$F(r | M&2-2-u#K#.+: R*m'T C+'_D@Z$j!b$`%@.:0X+x Tbk.={W h;9@$ ##B^y$e-f+=-M%-1O+n%q%n=6_k@*&;->&M&E;S&=-Y@R%:'Z F.m%K#K#r@w>2) .#>P{9[1*R{C}_@k,0-nb)._aH|w}j%0]r{='=&< & :);%,@y:.=b>i*K u$c:}{* N+K#P&v{Y$N @+W%Z'Z@0@B<.cO~6+[:h;-;n,j m[h*f#C2Q^-]L^('}bI@$,Q #&8.O P ,&z$B^S)d@5*d-s!!-m7C]W>Q.<)!$F E -&j.t_d!='B&##<=*&v<)%v)d.N@X k=|~1-;+@>$-##:>I 0]'+)+|&#&J(B!8>}{|*;%;+r>=5w>%-B;&]#;9@R.e++*S%o@7$@.7~>!;$+[69v>p)~)O&k-R _,=!3>",
"-,K$P # y& %+@,&C>$@|@[|> =%B'4$ #|^+cB.,@q*y#@c:&V>{ D#*+c$L=A#:,&$3 ~!&|C.4=r)*=X;~%=!_#a&|;} s _}W%,>H~K*H%L:}@f(V/#cp;b |!X+x z9~#: q.P % r*&)b@c-$&<+W#]~x[A+r+o;e_a>g+%'K*k,{*7{R=5&1*R%U+m%: H,/#_@S+N#:+G.Z{U:Y^q%@'C%_@- v^l~).G_N;,;R|$.c.}6',4#-*5_; N%.=9,A$#~]-r'|+<{^,7$o'='#>N-r*U=i.|^k=5]C F#9'9 p%U={ q.3! & $C&{)~3b q,x.y.9)`+)&6#+ -@[.d+P@*.$@5(_@8$_=g@5!R)['9;3:a-u$G))#&@u]0'K)/:C4`_n%*_~~/ y(>,X $&q*h 8.< $.|_=1>+m@-9)+*/n+a]J@L!v)H * R#69p{Z.m@X-x-g,-]7;%&=*8#y$t >+~,K>4)o+{{y&z&<#R [&{)i>(&D#",
"E+=+h*9>|=-+p_;#>^_$*&l:j+o7G%$cw5;(( p+v*A;A;j>3>C@D;C@A b$[+@+B &!_+C p/ $O&g 0@T#4)M(C@N,&+s 7+-+V%j g~w@p>07j4+%d~@+.&n_%cX+x KbX%N#g*j.Q^D.z*O(Z P&_$W!@@W](.q.8.I>s,t>e@t$e $#8>l>&c,&i&3>l%X;/;q O N+N;8 +@q[W!Y^6;P)K/b>Y@b{l~).*^=@g+.#-*)%'$e%<'h#a-*c-&(>|+5*N@V)j&:$.#O+X k=c#H4d&n=1-v]=cj-B^-;f.7{o|W)I$Z)A  ^0+ <n.J=J=B&n[-c8)[*P$a&E*<&I>R%&=_ e@1$*@~&/.]!)*f@X&/>W>e)%$A$n=9|1)K$:={9m<d--$Z#X-k.%#A J$$.S'/ g*g*B,N@% X.^/5&:0)+!#8~-^q@U%%.K#r+A#C{}@A+7.Q&w#/.K#b.3#&@N@,@X/.-;cR$K@1!C&-#%:W}[+6#g;H._&1-",
"#$N@)@s&o]& 0 m=h&-*r@o=> , G>~]o'd>>ac%}@X@4>r)u#A#U=1-{,X;C;r w#Y!%#Q&/&v*2+C z$^].%| 6,Z'j >]U*i'g&N n N#<{R!S$p){,=@(]=1W+X+x kbq'e-%-N@m L#9&#*.40*i&*-R#%@#=5;r@q 6>I!%'v@U*6=;!Y.>ct%=@/#*;f .=E K -+B&a*D n^|0:)r!(>Y^#@F A*l~).*^T 9*@@ .s'X>T1*&J+B%1)@'1)6;u$@#S^w;{!J-B&/.|+v@n^&'Q&_>8&W%*;9>r m(;!f(h.++W)/ Y%0+]#n,O&B<v.T=x.&bz.a]~ 6&,&N@u;.@R#<.,=l#g,-*5&>.R)%$5$j=h,R)%!>&y>71y&U3Q)M$k#h+h>T<H-/&Z)9 /.Z'z@H.R#D P&S@L;E [.:0)+,cK@z 3&0>R%7&+.#=3;8</,r*R*S+<+3 $&9,d@$ 9,m }{{53.c.{ +%]#=,o,[+^%6=| :&;@",
"6+0++ R=V&N.'*p_N)j=W.4:j+=%>7`@'c! ~#a#0&X-#+U'E)0&s*M+H;,!K-Z%r{;:_!@+S*r A#y-]%G#n,N#P d~-,}%$-P&e-D;P:=@X/P>g/P+g>r+v)M*Y=X+x kbz e.S+~%` D }$b@+;U=[>4#c/q$R#d+I>%-c;F}l<t>q^e*M+Q#k:^@5#c#&{k#A$@*&.`.{{='< )cC0C]6;c{2*r!/>0-l~).w(=@B/h+N+N#'&b+v+#!{]7;9$X:/#V<= G)7 5&2)#=0]4$.$o]q$#&R$~ c~_%e%y+y)z#n,-@(#g$1#n.1-z]Y%r1f;/'p(x.@[I@U;`$Q$*;3 _@S+8#h#v!N.q(+*O'j=f+:)g)P{,'a-W&&>:#i(*.9#O,F$* j.},0%K*~_;,b'K+#$Z@P+Y!4#]%7$X (@/.k&)++1K@J{G&g;f 7&C$: _+X@T ,#N#^#e%K+,&(@l=I(;#[.p$Q z=3&.+T A+h M#P+e$9#q*,>#$",
"w>,#y&h&6</.S]N+c;W.5&Y3j+}2>-q#8@x{`+`+{ ;>v]g&==a&+)g e.Y[C@^.9@A;j 3;4)U+h*1;< ~*P=K#A+B@/&U*;#N*t@-,>+Z#5.7~J$C@H-J!z(f^W2X+MaRbJ)H;2+d*M{B,r3@>v'@@8,n-`_b#y$%.7;Z.,+_!74q$N;%#++^@q[z$g=M@2)O+$.N+:-i*R%1*(@^=0ba!g)Z}(.>#&~{&D%W9w(4%@#/--.h I!B^}=>.9;O)Y@y/}+u$~=,;b$[ H,;-!^H|Y]J%-+@+X@-^+[y#H&B@.%e*(#H.f#6#{ B@E@e](*^+{ L;d=x.@[z.D,6&6#$ l-_$J.@ ,+[)>.]=(>_ $!K/S.c{O@x'}.X&!9K,N<z$3%)-@{N#[>F,^}!'Z'g>@!H# $F*h; %w>7;E#d-e+-*k&)+z.V.P$G&:@2+b$T |+Ea(]g 3 T-d'N&D :&*@-.U+S&E{(+i V#.%6=K*E#R3+ D;D&a$v>C#6#",
"G@$ _$B,U^-*t%|{-=i*9,o=j+}2M/n@7-L~p&P$R*U+8&::haT.}#4=X;p&@+d+%-_+:&*7N+g + + ]%T[z#U*+,w@=@{~~%k=D;[ 8;.;E{X$8%[+g; @w>x,7%X+Maz9 /~*f ]#y&Z,c:h&:#m%5*N.!cs$w}+ }@y$,&r*@<N-%-V#R%q ,+h#+ !}2- %B&B,e-m-3 2)5&R<R( (S.q%1*k,i&I&D%W9C94]r{n+_@$-c.v+W{X{a-*97*_@1*1)T#Z.u]% Z#%.5#8@v'y%6^&;v*3^t!R H&z#K>E! $k-6#z#S(=]I$[&#)w~N: %.}x.@[e=~+s--$t@H,G]0 :$J+n{@%I&]!y$b-6*a->#S[!$&~&=w'=7@{#%4*~c.-q$N<b#* L==#A o2X { K-g 2#R#(@+'##$.+@l|j*+1~~L!y)U= $*+o*C@y*n%U+k 4&Y -.'#q.S@P-P E,i;w*4%Q C.V.i G@P;G@S(O&Z$::_&4=",
"% W 9>]%B><&Y.W.]/+ o@J}j+m00*Q k@c H_=cH.D.D*!@&!D#0$g=o.P&A N#S+e.9 u]g;+ [+v>5]>=^{[&K-.%b.{*3>@+z#y#%&},L^[/u#[+'16#$}(]v X+MaRb~~E'O+k#$-g~X{5&c.R 8#m g;Q&@**&2>U (.`@u'0*q%<3e.d* .e%h:2>G*;#=$N+S+% O {c4;^^(3S.r@ 6%-Y^&~D]D%).U|H|j;) [.k#r{l)+'#:@{F R)Y^>#2.#~{;X!N+_@$ o@a)-$E[[ 0.~~1&-$E'F,b$v]_+ $A ~%d#8 ]c_;L'!(;,B;|*e}/0@[I@5,G|y#:+:'l-X,F.v+=*<.'=T#n~D$+'''o^a!S)|'-.^cs'* u>d,>.'& ,j%},p{t'y+Z)d ;+z)`)]#I.S+r@&)< 8,$@;[s=+1$#|^K@e-C&!@ ,N@p+D.g&X/q$_1C + b#0+_$-$I.<#31(#7-*!@+&.u#A#^+x(f*D;J$u[<&",
"~!a+L$J.^^@*F k#T]A$Y@);j+o70>$&;<C-d]1!K#T ] I'^<A#,>U+O&4=&<P ,>;,3 z(:- %=]_$c+;+1!/{A#3;<{(]-@-$l@7&i*c$a4)%h:=!d#1-T#Z#3,X+x yb$,r*M;:,`.<&(!m=}@=@B&.-H|h+t$N@{{(@7;+;Z{P'-,e.M@=;1+==@@q h-8 k#+ r+!'v'3>/;Z{/(48DaR)v,r!A$%{D%5@U|e-.= +j#:$p>:$t<@;P@[5/>.=Y@i@i(;#@+H >#R%o@@+o@C>T-c-`@H*R%~@g.2>-^C@-@{*W%8&: E+{)]#k-^_E@12p(n$8)9)6-V/V ;#2+*$2*#@ {%'_ r'.-J&%~>.%$r!%!a!1.E,1)d!B/i@0@{[d!Z [>X!L@;,p)(,_&X W)H$2+9@g#f g,@=(@)*k&k;+1^;*>k.d*->`#k)/c1=|*d'-]b#L$S+H,U+f%Q+f%K$:-%.N,Y#.4w=Z@T#A+l)g*++f*6,o.g*",
"w>E#Q+L$)-$-X O',=D N@o=j+=%7@~'~* /(cx@K#{ 2>U=5]t%Z%8 6=[+.+n%L+p+E:;;r w#*;v>&$9@J!M+t@R*_@7+4=3;2-[ ;4h%R=L!^+,>8%k=7>:,)~X+x RbH=v=v=d+#;E#W#L{2>K*e@^.[ ,&9,r%6#+@L %-S/:-=@[,!}: T.p@,@k#1=n%B&k#m%H.<1_>K$C>!_ (b&Y^>#6;['d@_cZ&<4G _@!*X,]-c'I&:!!;<.u1.=A9H,.#j%>&n-G.N+@@@{g=|{W!3 >&c%L!x[<-W;w@! q&E+K*p*_%<*p%g*6=/!t&B@d2e}T>8)+1f=a_W)g*K+D.^+1-U:R'& m@(8p^0;+@p_Z_!$W&2.,&k5.;n~^/)b(-q~0*9|l@(#^*F*0&4&K+K#W%h;P;@ C d:{;q 0@H]k;+1V.O$z f#!@K=C@K*Z'2+$.9%=@i#k#j.>#C}V&()b#d&#&i.k=b. ,L+^,e ~%D;X;J!W;s);+",
"x-c+l)g,M]d-% _$N.k,2.);j+=%n+~' /8>1=! y#{*s-&+T&0 l@u@ <B$C.h;y#p+F.R*$#:&_;..|%^, ,q^d*{*b.g=r D@ $-$p>:cb^b]4=Q;)@n,}&B v X+MakbG&H.U*M+u;)*%'7;G g=O25(t'U:5&h:s%:$g=;@%'|~T a&M&V 1+^+b&N@a&P '*X %-!'K+k#z[-=U&K.b&/>6;Y^5$E D%Z&+7G 1*7~^/7.X/M%K|<$J+v$v-9;A$@#)%t$$6y&i*N@n@ $()V&e+ #e>p+N&k.z#J!K>0$v>t@W;L(C@ &A#n.5^L>B@R;-[y~8)+1m{(1H.g&v>;#/@B Z{I%%$+#Z.m={=o@|'r!i=545*K<:-#=&>.*i&l $-7~0-p&7 S$6#6#3(4=G*-@S$H#B,@>< H&k#F 7(k;+1>@#/%,D#: +$$ x%[,}+N@R.n+.@H#q^k#&!p_u-+ v*&<w,m%A;U*q$c$D.7=g* $K>8&0,0+",
" % %K%H&']'$Z %$1-|+K$4:j+~2h0w:P)E]a#q'X@&+e*{)R&|%0&=#_'R /%=$|-q.Q=>]8+t+&$:,|[,#a$$ o.r a&B&X;C.0&4)t_H%6[o4^%T,9^8%^#T%,:X+Ma4b1!}@q 9$O  =j#P)d+q%C ,[X>P@L+n%h$-.$-=$:$ +Y)J>/&b)& q^R.R%q;*$S+4%}+[ Y e-I>z$/(~;z>f_k,b>l([5+~Z&<4f%k,D!u>-+8{V&Y>l %'F9V)j=6;i&t>h-!}% 6;-$X!q I>K(v'7,x@*'o%V%e .%p+0&q;l.X@/&j)F@T$7&g.<cF/@./7x.8)+1+!_4V#8%[.m%h#9@l 9-;.27@#3.i@,&R)Z_e)Pa/>:+I>U=(>C$i;1[X/:@@{#&X>T g;p)-{S+l9(,-@W$$.7;{!y-,*S@'+s=+1*!~<8&V#j.t%(,a&e*% C$_'R.V-q $$M&Q=r)+ h K#0>2_K$a&G*=$U-n -/t+P+{*#+S$A+",
":*1-,+L$P@}&L+%'R.y$f+15*%=%[cV4.4K@5,L_V%C@C-0$h^2#K#X)b$/&K-n%S+.@u#j~^}9 t+[&6>f M-C 4&P&6#U=f#4)2>f#|*s2G+P#b.V T+g d2{~,:X+ 'b% +L+g=K N@9&K.9#()A$%&4+B I%Z $ f H U+9$(@;>7=&.i S$Q#2+2)J.a&4=K#4$S P q.K h;_$U^c;48(.1*b>O)A*D%Z&@4q#_@,[o@9,M;:$(!#%G(}c9|-'9;f+|cZ r(7;;#I>'$v-d-j&-@B.#$r&n.C.q.e.P$i |-s{4&p%3&C@E+_#3!'{~>{>}9('8)!+1cZ1++H,t+%.k#k#,=<@9.0.o;:3c/j#(>O)/=a!I>W._ K*H|1)#*6aT#p&L;o'X!W%e.=!g.%=3!W~1-+ /.D $@{;{!D H]s=+1#&b]*!^{%=&=^+f w=K$N@(#W$0 R%3#U+V$|,K+0 3; #d~=$$ J&`.$6t@w!2+q.e.L*7&` ",
"%+n%{;@>J+<'I>:$i&l#*@<|n#),#/z=p>x*O$`+V/i;&'C&&$9-`%i_C@6#0&C Q^n-:@9~/+q 7$.3l)a,{ 1+r*R*9@N;U+A;@+D@u-s2O4X6!@!@T+D#/'g>,:X+Ma@1^.C.I.B&x&c:l .@e-,&(=0*U=]^O 7&H.#@3*+$W.y)++=@}#q%Y.R%;%p_5;3#*&c-m=O  ~L{r 5&!;/=X}I(1*Y^y>w2D%Z&#[='I>5(5*H,V<3@T]~;r@Q.m=t,y>b-Q,K*d+S+b'5&a@]-F % b.8>;%,[T%e.f# #[,:@h{=#[;T.V%=]l$R.1<:(i>9@w.T>y.A]5,23`%K$3#f%1*O  .Y._@}.-~k+9|F @@2cQ5%!G nai*v'* B/@;%;_@r~c$v@X!y*(&g.l')@u#b'+;0+h <&< !^5&R'H]s=+1G^H=^-0&0+<~c+v*@+f#  z#+$|=T.&$#$])>=U=e-[/719#='r)#$g T n,B@w#8 6=RaC@A#",
"(@j-M{B,I.0@7.+*e+e+b-);n#o7) Z h>H!X4l*z)1-%#b.a,  R*J$U*_*[+,^o;R6B(/&-,)@/.l$=+4'U=']/.D.4=P =$w=f%D.S+}:(!&8:+K+K$-,i;z),:X+Ma`-.$=$n%A+,;##A$O+K*Y@@#Q&d+/.i*[ + *&'&3#m=.$j =;p)f '#D.%.C 3 ;#8#1_$.n=H.w>)&B,i}T/w1X^q%1*i&T/D%Z&a<b#3*B1Z /-l###z$<$=*{ag@[]X.j=v<c#I>D f S+L;x>N.K#j#].~@+%*#E'N;u,g;@+F'l@g 6+h.K=<>D&S(a'D&m @/x.y.9)3c( M&R%% _+-$W$Q#a.,&,=A=,;h=@@@'|$P{e6g=|'r*: #{A,D'R'd,n+p{>@P&;!r W)V,T+{ U F@z@R#>==&|{4#:$7(j*z.s>m;%,^{4=t+0@9'V#m%L'~%<~T]{{r)E$K$2#z=K#T#m}s2R$R%E+&._#1#8=z@)@F@-2,>[.",
"K#x%L$F.z$*&*@>^[.u$%{Ebn#),;14$H|D*a]1/}-(+E*W U$I-P&O T+g.W$f 7+8#*)S%L+]#T1T$K#x!c#2#!@U+-$O [ H$6#^%;.T*M,H/7&J.3 k)4c4),:w  'Z+G==+w#c#v)}=5_9#-$u$U=a$t%X.-.#=0@,&t$7&h+J!Z%W;2+E+% t%w@!@7=Y E#Z@Q+$ K$T#!'% $*S]b&E,<11*.=G(7!Z&#[;-=@Y]1)M%,__ t<F]_.&}M%d@V)['w'[,`[H R#)*0.h+_ @{K#a$B.B$X)8]J>J-Z$}%r.5c<*{+P=/%!@}#-/)[j-z(]<y~y.A]C:}- $g K$B&d'I-l=^@@%0@D6G%$-O+{&a;D>!$y:O[t]M&e-%#5&B]P*C*y$*'C.V%8%o+C@C j!U {+M+b$@>l)f+N.8#31)++1! H_P$B.*;e] .G&f*L{R#9 Y!0@,>*$r-;#(+U-r@:@n>G{M=%@;@->M+f*++x(0,|;s*s)L'",
"4;^%6;;.5#X,C%j&U.8#9.4:j+, 6c)&B.(+a]%,K@N;]*v=q.N=H;W;w>8<L@w#u#u#B9V[^+b...Z[L$U ,;5]@!t'r+N@y#0$q@|+R#i;Y'A&R#)@A#P&-]g;>)w Ma`*G&y+K=w>d-c)5_@@R.*@8.];z*8.q *_h u-2>3#L+M-o.w=k$8 Y!O H.-.;@..*=#$,,i*/;K+P+=;i}T]p_l(2*>#8,3@{$).C9b#7,9*$;r@z^I.b@W!*|P2d@j,1.O'($8>R :+%-j&[.V)l Z J(=$F=T $6Y/C@t'b#3 d~B@j)s)P=(*|*Z%+/j{I'c=w.x.y.A]2{8&R z=1*x%a.]%8 2*U:*.(-k5i&n=9|>.|@h,J&0 ;%v@0 &;u$5&f@t{c-B.H._#P+W)|;R#[+I$^@% u;g,+ g,+@o@H])+[*~~l*l*i.+$#;Y x@l@K =@Z%R#K%1#f *$E,q 9%/.o'N;obx2{~W;-;V B$<(|-n,_;e#C&)@",
"` t+g=<&E#% C}E 9*@{k#^3j+, 7c,[B'V.K>V(9'n.l@c=B;i#>]i q*&;a@g;h$@!&$8c>9;]F+.]9c#%F,h$}+2+J>q.T.W% ,D.[.R;Y'o t+U %-c#x-T<c2X+MaZ+0$w=R [.i*m>R)g+,&k#i(<{L;])-.H.%-_>G R ,43&H$8%P&&-D 2+k=A+C w1<&B V$% /#q^% :#c;0c-.H<%$>#D$#^R8).W-U.k%]-`@d-M%'$1[(~)9o@f0j=5*t,n@r~Z.j&|+H&h ^/K%-$<a;#C-w='&5)2-3>:-4&e&e'n.h$/%j{]#,>i_&1J$A+m$T>y.9){%A.q$[,X.Z t+H#q^[.T1$%'=A,2)p^j;p8/=48~&D$()H.7;H>^/h>b+@#-~Q 2]C@4=Z$l9)@%-:+h$|+f #@C |{J.$-_{)+b3c%I=o+B!@+I;K++)+._!-;E+0,<+h$S+=+d'7;I.u$7-=@<#P%q&H;(+-,g;j_(&A i>O&n*u+"};
