/* XPM */
static char * 2_xpm[] = {
"256 256 18146 3",
"   	c #91A7BF",
".  	c #858B8E",
"+  	c #82898F",
"@  	c #5A697D",
"#  	c #3D4445",
"$  	c #798179",
"%  	c #858E88",
"&  	c #88948C",
"*  	c #8C9890",
"=  	c #818A83",
"-  	c #8C9790",
";  	c #4E575F",
">  	c #828B88",
",  	c #949F98",
"'  	c #95A099",
")  	c #909892",
"!  	c #909387",
"~  	c #576068",
"{  	c #596F7D",
"]  	c #7C8988",
"^  	c #7B8582",
"/  	c #6F7A76",
"(  	c #667670",
"_  	c #687570",
":  	c #62736D",
"<  	c #63736D",
"[  	c #64736D",
"}  	c #64736E",
"|  	c #697671",
"1  	c #677671",
"2  	c #6A7A74",
"3  	c #737F7B",
"4  	c #747C75",
"5  	c #373C43",
"6  	c #4E585D",
"7  	c #5E5E58",
"8  	c #585952",
"9  	c #53544D",
"0  	c #4F5049",
"a  	c #4D4F48",
"b  	c #4D4E47",
"c  	c #5F6059",
"d  	c #676761",
"e  	c #6F6F69",
"f  	c #57636E",
"g  	c #778085",
"h  	c #7E8588",
"i  	c #6E6F6C",
"j  	c #3B4759",
"k  	c #96A0AA",
"l  	c #9DA0A3",
"m  	c #979C9F",
"n  	c #93979B",
"o  	c #909598",
"p  	c #909498",
"q  	c #95999D",
"r  	c #969B9E",
"s  	c #8E9396",
"t  	c #8C9194",
"u  	c #8A8F92",
"v  	c #8D9194",
"w  	c #919699",
"x  	c #969A9D",
"y  	c #999C9F",
"z  	c #81817F",
"A  	c #4D5969",
"B  	c #B9B8B9",
"C  	c #B0B0B1",
"D  	c #B1B1B2",
"E  	c #B7B7B8",
"F  	c #BDBDBE",
"G  	c #C2C1C2",
"H  	c #C3C2C3",
"I  	c #C6C6C7",
"J  	c #C8C8C9",
"K  	c #CAC9CA",
"L  	c #C8C7C9",
"M  	c #C9C8C9",
"N  	c #CDCCCD",
"O  	c #D1D0D1",
"P  	c #7D7C7D",
"Q  	c #4F5F66",
"R  	c #7D8472",
"S  	c #79816F",
"T  	c #787E6E",
"U  	c #767D6D",
"V  	c #737B6B",
"W  	c #727A68",
"X  	c #747B6B",
"Y  	c #747C69",
"Z  	c #757D6B",
"`  	c #777F6C",
" . 	c #79806E",
".. 	c #7B8270",
"+. 	c #7D8473",
"@. 	c #808776",
"#. 	c #838A79",
"$. 	c #868C7C",
"%. 	c #4E5760",
"&. 	c #535D65",
"*. 	c #666963",
"=. 	c #5F625B",
"-. 	c #5E615A",
";. 	c #61645D",
">. 	c #5C5F58",
",. 	c #595C56",
"'. 	c #484941",
"). 	c #464841",
"!. 	c #474943",
"~. 	c #424543",
"{. 	c #434848",
"]. 	c #43484A",
"^. 	c #2D3030",
"/. 	c #363B41",
"(. 	c #383D42",
"_. 	c #363B3F",
":. 	c #454F5D",
"<. 	c #3A424A",
"[. 	c #49515B",
"}. 	c #48505B",
"|. 	c #4E5A6A",
"1. 	c #4B535E",
"2. 	c #454A51",
"3. 	c #485464",
"4. 	c #3A4149",
"5. 	c #363A3D",
"6. 	c #34393E",
"7. 	c #373A3B",
"8. 	c #484D50",
"9. 	c #4C5051",
"0. 	c #4C4F4D",
"a. 	c #4B4C46",
"b. 	c #4B4C44",
"c. 	c #504F47",
"d. 	c #696B63",
"e. 	c #676961",
"f. 	c #65675F",
"g. 	c #686962",
"h. 	c #6D6E67",
"i. 	c #75766F",
"j. 	c #6D6F6E",
"k. 	c #4F5B6B",
"l. 	c #535D6A",
"m. 	c #576372",
"n. 	c #596473",
"o. 	c #586576",
"p. 	c #5C687A",
"q. 	c #5C6B7F",
"r. 	c #586577",
"s. 	c #5E6A7B",
"t. 	c #606B7A",
"u. 	c #606D7F",
"v. 	c #606E82",
"w. 	c #5A6B82",
"x. 	c #576270",
"y. 	c #525C6A",
"z. 	c #474E57",
"A. 	c #475260",
"B. 	c #667686",
"C. 	c #AEB1AA",
"D. 	c #ACB0A9",
"E. 	c #A3A79F",
"F. 	c #9CA199",
"G. 	c #A2A69E",
"H. 	c #A0A59D",
"I. 	c #A0A49C",
"J. 	c #888D89",
"K. 	c #5A6671",
"L. 	c #A5A9A1",
"M. 	c #9FA39C",
"N. 	c #9A9F97",
"O. 	c #9CA098",
"P. 	c #A2A69F",
"Q. 	c #A8ACA5",
"R. 	c #4B5055",
"S. 	c #43525B",
"T. 	c #616861",
"U. 	c #606660",
"V. 	c #5A6059",
"W. 	c #565D56",
"X. 	c #4F574F",
"Y. 	c #4D544D",
"Z. 	c #4C534C",
"`. 	c #474F47",
" + 	c #414A41",
".+ 	c #434B43",
"++ 	c #4B534B",
"@+ 	c #4D554D",
"#+ 	c #4C544C",
"$+ 	c #4F564F",
"%+ 	c #4E564C",
"&+ 	c #444C56",
"*+ 	c #98A2AB",
"=+ 	c #B5B4B0",
"-+ 	c #B6B4B0",
";+ 	c #B9B7B3",
">+ 	c #BBBAB5",
",+ 	c #BEBDB8",
"'+ 	c #BDBBB7",
")+ 	c #B6B5B1",
"!+ 	c #B4B3AE",
"~+ 	c #B3B2AD",
"{+ 	c #B3B1AD",
"]+ 	c #B3B2AE",
"^+ 	c #B4B3AF",
"/+ 	c #BAB8B4",
"(+ 	c #B2AAA0",
"_+ 	c #47505E",
":+ 	c #7D8A92",
"<+ 	c #9A9F9E",
"[+ 	c #A1A6A6",
"}+ 	c #949A99",
"|+ 	c #909695",
"1+ 	c #999F9F",
"2+ 	c #989E9D",
"3+ 	c #8D9493",
"4+ 	c #818786",
"5+ 	c #878D8D",
"6+ 	c #9BA1A0",
"7+ 	c #969C9B",
"8+ 	c #8B9190",
"9+ 	c #929897",
"0+ 	c #8F9494",
"a+ 	c #989B98",
"b+ 	c #777977",
"c+ 	c #455360",
"d+ 	c #7A8B89",
"e+ 	c #838D82",
"f+ 	c #838E83",
"g+ 	c #808D81",
"h+ 	c #7E897E",
"i+ 	c #798579",
"j+ 	c #7C8A7D",
"k+ 	c #7D8D7D",
"l+ 	c #7D8C7D",
"m+ 	c #7C877C",
"n+ 	c #7C8C7D",
"o+ 	c #7D8D7E",
"p+ 	c #7E8E7F",
"q+ 	c #818F81",
"r+ 	c #859181",
"s+ 	c #6E7E7D",
"t+ 	c #C2CAD1",
"u+ 	c #BCBDBC",
"v+ 	c #BABAB7",
"w+ 	c #B8B8B5",
"x+ 	c #B6B6B3",
"y+ 	c #B6BFC6",
"z+ 	c #8A939C",
"A+ 	c #707A83",
"B+ 	c #545D61",
"C+ 	c #555B59",
"D+ 	c #525C66",
"E+ 	c #6A706B",
"F+ 	c #8A928A",
"G+ 	c #939D97",
"H+ 	c #919A94",
"I+ 	c #8A928C",
"J+ 	c #969A8D",
"K+ 	c #56616C",
"L+ 	c #5F7684",
"M+ 	c #778483",
"N+ 	c #78837F",
"O+ 	c #717D79",
"P+ 	c #677570",
"Q+ 	c #65736E",
"R+ 	c #62726D",
"S+ 	c #62726C",
"T+ 	c #6A7672",
"U+ 	c #65746E",
"V+ 	c #707E78",
"W+ 	c #747B73",
"X+ 	c #353A41",
"Y+ 	c #505A5F",
"Z+ 	c #5F5F59",
"`+ 	c #595A54",
" @ 	c #55564F",
".@ 	c #52534C",
"+@ 	c #50524A",
"@@ 	c #50514A",
"#@ 	c #575851",
"$@ 	c #5C5D56",
"%@ 	c #5F605A",
"&@ 	c #666660",
"*@ 	c #6D6D68",
"=@ 	c #4F5459",
"-@ 	c #777671",
";@ 	c #787772",
">@ 	c #686761",
",@ 	c #3A4554",
"'@ 	c #97A0AA",
")@ 	c #9B9FA2",
"!@ 	c #93979A",
"~@ 	c #8F9497",
"{@ 	c #959A9D",
"]@ 	c #93989B",
"^@ 	c #95999C",
"/@ 	c #9DA1A4",
"(@ 	c #7E7E7D",
"_@ 	c #4A5766",
":@ 	c #B6B5B6",
"<@ 	c #B4B3B4",
"[@ 	c #B7B6B8",
"}@ 	c #BEBEBF",
"|@ 	c #C1C0C2",
"1@ 	c #C2C1C3",
"2@ 	c #C6C5C6",
"3@ 	c #C9C8CA",
"4@ 	c #C8C7C8",
"5@ 	c #CBCACB",
"6@ 	c #CBCACC",
"7@ 	c #C4C4C5",
"8@ 	c #CFCECF",
"9@ 	c #D0CFD0",
"0@ 	c #7E7D7F",
"a@ 	c #506068",
"b@ 	c #7E8574",
"c@ 	c #787F6D",
"d@ 	c #767E6B",
"e@ 	c #757D6A",
"f@ 	c #767D6B",
"g@ 	c #777F6D",
"h@ 	c #7B8271",
"i@ 	c #828978",
"j@ 	c #858B7B",
"k@ 	c #888E7E",
"l@ 	c #8A9080",
"m@ 	c #8B9182",
"n@ 	c #515B65",
"o@ 	c #4B565E",
"p@ 	c #484944",
"q@ 	c #4A4D4C",
"r@ 	c #373A3A",
"s@ 	c #323639",
"t@ 	c #3E4957",
"u@ 	c #424C59",
"v@ 	c #434E5F",
"w@ 	c #475565",
"x@ 	c #4B5C6A",
"y@ 	c #56697C",
"z@ 	c #57636B",
"A@ 	c #58646B",
"B@ 	c #5E6F7B",
"C@ 	c #657887",
"D@ 	c #697882",
"E@ 	c #6E7E88",
"F@ 	c #7A8A94",
"G@ 	c #8696A1",
"H@ 	c #8A9BA5",
"I@ 	c #8797A1",
"J@ 	c #85959F",
"K@ 	c #80909A",
"L@ 	c #768891",
"M@ 	c #70838C",
"N@ 	c #6D7E87",
"O@ 	c #697984",
"P@ 	c #687985",
"Q@ 	c #5D6A71",
"R@ 	c #5B6972",
"S@ 	c #5B6871",
"T@ 	c #5A6C7E",
"U@ 	c #506070",
"V@ 	c #48586C",
"W@ 	c #434B55",
"X@ 	c #414955",
"Y@ 	c #454E5C",
"Z@ 	c #31373C",
"`@ 	c #3A3E3F",
" # 	c #505352",
".# 	c #4D4D48",
"+# 	c #5E5F5D",
"@# 	c #515A66",
"## 	c #536175",
"$# 	c #5B6677",
"%# 	c #566273",
"&# 	c #5B6879",
"*# 	c #5B6B82",
"=# 	c #596574",
"-# 	c #596676",
";# 	c #5D6B7F",
"># 	c #616D7F",
",# 	c #576373",
"'# 	c #576271",
")# 	c #596370",
"!# 	c #4E5762",
"~# 	c #4B5461",
"{# 	c #465261",
"]# 	c #677685",
"^# 	c #ACAFA9",
"/# 	c #A9ACA5",
"(# 	c #A6AAA3",
"_# 	c #9DA29A",
":# 	c #A2A79F",
"<# 	c #545757",
"[# 	c #9BA7A9",
"}# 	c #9A9E96",
"|# 	c #9EA29A",
"1# 	c #A5A9A2",
"2# 	c #A6A9A2",
"3# 	c #ABAEA7",
"4# 	c #505457",
"5# 	c #42515B",
"6# 	c #626862",
"7# 	c #5F665F",
"8# 	c #5D645D",
"9# 	c #575E57",
"0# 	c #495149",
"a# 	c #484F48",
"b# 	c #444C44",
"c# 	c #404940",
"d# 	c #414A42",
"e# 	c #454D45",
"f# 	c #505750",
"g# 	c #51574E",
"h# 	c #404852",
"i# 	c #959FA8",
"j# 	c #B2B0AC",
"k# 	c #B2B1AD",
"l# 	c #B7B5B1",
"m# 	c #B9B8B3",
"n# 	c #BCBBB7",
"o# 	c #B5B3AF",
"p# 	c #BAB9B5",
"q# 	c #C0BEBA",
"r# 	c #BAB2A8",
"s# 	c #4A525C",
"t# 	c #7C8B96",
"u# 	c #969B9B",
"v# 	c #939998",
"w# 	c #8A908F",
"x# 	c #8C9291",
"y# 	c #999F9E",
"z# 	c #8A9190",
"A# 	c #8B9191",
"B# 	c #A7AFAE",
"C# 	c #A8B0AF",
"D# 	c #9FA4A4",
"E# 	c #9EA3A2",
"F# 	c #A3A6A3",
"G# 	c #8E8F8C",
"H# 	c #43515F",
"I# 	c #788988",
"J# 	c #818C81",
"K# 	c #828E82",
"L# 	c #808E80",
"M# 	c #7B877B",
"N# 	c #788478",
"O# 	c #7C8B7C",
"P# 	c #7C8C7C",
"Q# 	c #7B887B",
"R# 	c #7B8A7C",
"S# 	c #7E8D7E",
"T# 	c #808F80",
"U# 	c #829183",
"V# 	c #7C8B8D",
"W# 	c #C0C0BD",
"X# 	c #BBBBB8",
"Y# 	c #BABBB8",
"Z# 	c #BBBCB9",
"`# 	c #B9BAB7",
" $ 	c #B8B9B6",
".$ 	c #B4B5B2",
"+$ 	c #BBC1C5",
"@$ 	c #B1BDC9",
"#$ 	c #8E9BAB",
"$$ 	c #717D8A",
"%$ 	c #495054",
"&$ 	c #454947",
"*$ 	c #4F524D",
"=$ 	c #595C58",
"-$ 	c #495360",
";$ 	c #657B88",
">$ 	c #798480",
",$ 	c #6E7B76",
"'$ 	c #737E7A",
")$ 	c #727E79",
"!$ 	c #6C7874",
"~$ 	c #6A7772",
"{$ 	c #6B7773",
"]$ 	c #6D7A75",
"^$ 	c #6A7773",
"/$ 	c #65756F",
"($ 	c #6B7772",
"_$ 	c #727E7A",
":$ 	c #747A70",
"<$ 	c #333941",
"[$ 	c #535D61",
"}$ 	c #63635D",
"|$ 	c #595A53",
"1$ 	c #565751",
"2$ 	c #555650",
"3$ 	c #565750",
"4$ 	c #585852",
"5$ 	c #60605A",
"6$ 	c #62635C",
"7$ 	c #64655F",
"8$ 	c #686862",
"9$ 	c #464D54",
"0$ 	c #71716C",
"a$ 	c #74746F",
"b$ 	c #65625A",
"c$ 	c #3A4656",
"d$ 	c #969FA9",
"e$ 	c #989C9F",
"f$ 	c #94999C",
"g$ 	c #929699",
"h$ 	c #92979A",
"i$ 	c #969A9E",
"j$ 	c #9A9EA2",
"k$ 	c #999EA1",
"l$ 	c #A2A6A9",
"m$ 	c #797978",
"n$ 	c #515C6C",
"o$ 	c #B9B8BA",
"p$ 	c #BCBBBC",
"q$ 	c #BFBEBF",
"r$ 	c #C2C2C3",
"s$ 	c #C3C2C4",
"t$ 	c #C4C3C5",
"u$ 	c #C7C6C7",
"v$ 	c #C3C3C4",
"w$ 	c #CECDCE",
"x$ 	c #7A7A7D",
"y$ 	c #566670",
"z$ 	c #84887C",
"A$ 	c #7F8476",
"B$ 	c #7A8170",
"C$ 	c #7D8274",
"D$ 	c #7E8575",
"E$ 	c #7F8675",
"F$ 	c #888E7F",
"G$ 	c #7E8272",
"H$ 	c #696C60",
"I$ 	c #616866",
"J$ 	c #454948",
"K$ 	c #3B434A",
"L$ 	c #46505D",
"M$ 	c #4A586B",
"N$ 	c #566778",
"O$ 	c #616F7C",
"P$ 	c #697A88",
"Q$ 	c #6B7C86",
"R$ 	c #74868D",
"S$ 	c #737E7C",
"T$ 	c #757F7D",
"U$ 	c #747F7D",
"V$ 	c #737F7C",
"W$ 	c #757F7C",
"X$ 	c #7B8482",
"Y$ 	c #7A8281",
"Z$ 	c #747A77",
"`$ 	c #6A6E68",
" % 	c #646863",
".% 	c #606661",
"+% 	c #5F6660",
"@% 	c #6B7470",
"#% 	c #778280",
"$% 	c #76817F",
"%% 	c #75817E",
"&% 	c #75807E",
"*% 	c #77807E",
"=% 	c #78817F",
"-% 	c #79817F",
";% 	c #788180",
">% 	c #7D8583",
",% 	c #7D8C94",
"'% 	c #71808A",
")% 	c #6C7984",
"!% 	c #667079",
"~% 	c #607184",
"{% 	c #505D6E",
"]% 	c #505D6F",
"^% 	c #515E70",
"/% 	c #596678",
"(% 	c #596576",
"_% 	c #545D6A",
":% 	c #556272",
"<% 	c #556274",
"[% 	c #556170",
"}% 	c #515B67",
"|% 	c #4C545F",
"1% 	c #505B69",
"2% 	c #586372",
"3% 	c #566478",
"4% 	c #525D6D",
"5% 	c #546275",
"6% 	c #505C6D",
"7% 	c #46505E",
"8% 	c #60707F",
"9% 	c #ADB0AA",
"0% 	c #A4A8A1",
"a% 	c #9FA49C",
"b% 	c #A4A69C",
"c% 	c #44505C",
"d% 	c #A1A59E",
"e% 	c #A7ABA3",
"f% 	c #A8ABA4",
"g% 	c #54585A",
"h% 	c #404F59",
"i% 	c #636963",
"j% 	c #60665F",
"k% 	c #5B625B",
"l% 	c #515851",
"m% 	c #4A514A",
"n% 	c #464E46",
"o% 	c #424A43",
"p% 	c #424A42",
"q% 	c #464E47",
"r% 	c #525851",
"s% 	c #565C53",
"t% 	c #3F4751",
"u% 	c #8999A8",
"v% 	c #B0AEAA",
"w% 	c #AFAEAA",
"x% 	c #B7B6B2",
"y% 	c #B7B6B1",
"z% 	c #B2B1AC",
"A% 	c #BBB9B5",
"B% 	c #C6C4C0",
"C% 	c #C5BCB1",
"D% 	c #464F5D",
"E% 	c #798A97",
"F% 	c #8D9392",
"G% 	c #888E8D",
"H% 	c #979C9C",
"I% 	c #A3A8A8",
"J% 	c #989D9D",
"K% 	c #888E8E",
"L% 	c #868C8B",
"M% 	c #8D9292",
"N% 	c #A0A7A6",
"O% 	c #A8ADAC",
"P% 	c #A6ABAA",
"Q% 	c #92928B",
"R% 	c #424E5C",
"S% 	c #728584",
"T% 	c #848E83",
"U% 	c #828F82",
"V% 	c #7F8E7F",
"W% 	c #7C8A7C",
"X% 	c #748074",
"Y% 	c #758175",
"Z% 	c #7B897B",
"`% 	c #7B8B7B",
" & 	c #7B8C7C",
".& 	c #7E8D7F",
"+& 	c #7F8B7F",
"@& 	c #8C938D",
"#& 	c #BDBDBA",
"$& 	c #BEBEBB",
"%& 	c #BDBEBB",
"&& 	c #BCBCB9",
"*& 	c #C2C5C5",
"=& 	c #C1C8CE",
"-& 	c #A9B5C3",
";& 	c #3F4855",
">& 	c #6C828D",
",& 	c #75807C",
"'& 	c #6C7A74",
")& 	c #6D7975",
"!& 	c #6F7C77",
"~& 	c #707D78",
"{& 	c #6B7873",
"]& 	c #6A7873",
"^& 	c #717C78",
"/& 	c #72807B",
"(& 	c #70766D",
"_& 	c #343E4D",
":& 	c #5D6464",
"<& 	c #65655F",
"[& 	c #61615B",
"}& 	c #5E5F58",
"|& 	c #60615A",
"1& 	c #62625C",
"2& 	c #5A5A53",
"3& 	c #3B3E40",
"4& 	c #2B2F32",
"5& 	c #3D444C",
"6& 	c #4C5156",
"7& 	c #5C5A53",
"8& 	c #3F4B59",
"9& 	c #94989C",
"0& 	c #9CA1A4",
"a& 	c #9A9FA2",
"b& 	c #A2A5A8",
"c& 	c #747474",
"d& 	c #566476",
"e& 	c #C5C4C5",
"f& 	c #CCCBCC",
"g& 	c #C6C5C7",
"h& 	c #D0CED0",
"i& 	c #CCCACB",
"j& 	c #747579",
"k& 	c #5D6E78",
"l& 	c #8A8E82",
"m& 	c #888C80",
"n& 	c #878C7F",
"o& 	c #878B7E",
"p& 	c #878B7F",
"q& 	c #8A8F82",
"r& 	c #838979",
"s& 	c #6B6E5D",
"t& 	c #5B6059",
"u& 	c #4B504E",
"v& 	c #3D4348",
"w& 	c #424B57",
"x& 	c #4C596C",
"y& 	c #485768",
"z& 	c #707F88",
"A& 	c #838C8A",
"B& 	c #808987",
"C& 	c #7D8684",
"D& 	c #798180",
"E& 	c #5A615C",
"F& 	c #565C5A",
"G& 	c #545E61",
"H& 	c #535B5F",
"I& 	c #4A5153",
"J& 	c #373D41",
"K& 	c #31373D",
"L& 	c #393E45",
"M& 	c #3C434C",
"N& 	c #3F4958",
"O& 	c #3D4756",
"P& 	c #404853",
"Q& 	c #424C5A",
"R& 	c #485362",
"S& 	c #464F5C",
"T& 	c #444B52",
"U& 	c #434D5A",
"V& 	c #455060",
"W& 	c #414954",
"X& 	c #3F4854",
"Y& 	c #414B58",
"Z& 	c #3C444E",
"`& 	c #2F353B",
" * 	c #373D43",
".* 	c #495157",
"+* 	c #4F585C",
"@* 	c #4F5555",
"#* 	c #606768",
"$* 	c #5C615D",
"%* 	c #7B8382",
"&* 	c #838A89",
"** 	c #8C9391",
"=* 	c #959B9A",
"-* 	c #999E9D",
";* 	c #929FA9",
">* 	c #8191A0",
",* 	c #738395",
"'* 	c #63758C",
")* 	c #576475",
"!* 	c #515E71",
"~* 	c #4D5662",
"{* 	c #4E5763",
"]* 	c #49505A",
"^* 	c #535F70",
"/* 	c #525D6C",
"(* 	c #505964",
"_* 	c #545F6F",
":* 	c #546377",
"<* 	c #576171",
"[* 	c #515B68",
"}* 	c #495465",
"|* 	c #5D6E7F",
"1* 	c #B2B4AE",
"2* 	c #A5A8A1",
"3* 	c #9FA39B",
"4* 	c #A3A8A0",
"5* 	c #888C86",
"6* 	c #626F79",
"7* 	c #A3A7A0",
"8* 	c #A1A59D",
"9* 	c #9B9F98",
"0* 	c #9EA29B",
"a* 	c #A6AAA2",
"b* 	c #A9ADA6",
"c* 	c #9E9A8A",
"d* 	c #4B4F52",
"e* 	c #3E4D58",
"f* 	c #626861",
"g* 	c #616760",
"h* 	c #5D645C",
"i* 	c #4D554E",
"j* 	c #434A43",
"k* 	c #454D46",
"l* 	c #545B54",
"m* 	c #595F56",
"n* 	c #424B55",
"o* 	c #ADACA8",
"p* 	c #B0AFAA",
"q* 	c #B4B2AE",
"r* 	c #B1B0AB",
"s* 	c #B1B0AC",
"t* 	c #B1AFAB",
"u* 	c #C3C1BD",
"v* 	c #C3C1BE",
"w* 	c #C0BBB3",
"x* 	c #455161",
"y* 	c #6F808D",
"z* 	c #8C9191",
"A* 	c #898F8E",
"B* 	c #9AA09F",
"C* 	c #898E8E",
"D* 	c #868C8C",
"E* 	c #848681",
"F* 	c #7F8078",
"G* 	c #7E7D76",
"H* 	c #5F5C52",
"I* 	c #47505B",
"J* 	c #3E4753",
"K* 	c #677B7C",
"L* 	c #849086",
"M* 	c #839183",
"N* 	c #7F8F7F",
"O* 	c #788377",
"P* 	c #727E72",
"Q* 	c #79867A",
"R* 	c #7A8B7B",
"S* 	c #7A8A7B",
"T* 	c #8F9696",
"U* 	c #B9BAB6",
"V* 	c #BCBDBA",
"W* 	c #BDBEBA",
"X* 	c #BFC0BD",
"Y* 	c #C1C1BE",
"Z* 	c #C1BEB7",
"`* 	c #908D87",
" = 	c #495766",
".= 	c #73868D",
"+= 	c #717D78",
"@= 	c #6A7974",
"#= 	c #687671",
"$= 	c #67736F",
"%= 	c #66726E",
"&= 	c #67746F",
"*= 	c #6B7874",
"== 	c #697873",
"-= 	c #6F7D78",
";= 	c #6A6F68",
">= 	c #323C49",
",= 	c #606565",
"'= 	c #6B6B66",
")= 	c #6A6A64",
"!= 	c #696963",
"~= 	c #474640",
"{= 	c #2E343D",
"]= 	c #4E5961",
"^= 	c #656A6A",
"/= 	c #696964",
"(= 	c #484C50",
"_= 	c #53534D",
":= 	c #445162",
"<= 	c #97A0A9",
"[= 	c #979B9E",
"}= 	c #989DA0",
"|= 	c #6A6C6D",
"1= 	c #627388",
"2= 	c #CCCBCD",
"3= 	c #C7C6C8",
"4= 	c #CDCBCD",
"5= 	c #6B6F76",
"6= 	c #636D6D",
"7= 	c #8D9185",
"8= 	c #8C9084",
"9= 	c #808376",
"0= 	c #5F615A",
"a= 	c #4D5150",
"b= 	c #3E454E",
"c= 	c #49525E",
"d= 	c #7B8CA5",
"e= 	c #9299A7",
"f= 	c #48525F",
"g= 	c #475160",
"h= 	c #444C57",
"i= 	c #4A5563",
"j= 	c #464F5A",
"k= 	c #454D58",
"l= 	c #495463",
"m= 	c #3C4249",
"n= 	c #394048",
"o= 	c #454E59",
"p= 	c #3C4652",
"q= 	c #4D5D72",
"r= 	c #6E8098",
"s= 	c #7C838D",
"t= 	c #9098A4",
"u= 	c #969DA6",
"v= 	c #99A0AC",
"w= 	c #B2BCCA",
"x= 	c #C2CDDD",
"y= 	c #BCC1C8",
"z= 	c #BCBBBB",
"A= 	c #BFBEBE",
"B= 	c #C2C1C1",
"C= 	c #CECDCD",
"D= 	c #D1CFD0",
"E= 	c #D8D6D6",
"F= 	c #D8D7D7",
"G= 	c #CECCCD",
"H= 	c #C4C2C3",
"I= 	c #C0BFBF",
"J= 	c #C1BFC0",
"K= 	c #CACED6",
"L= 	c #C5CFDE",
"M= 	c #B0B9C7",
"N= 	c #9499A2",
"O= 	c #8D95A1",
"P= 	c #848C97",
"Q= 	c #7A7E85",
"R= 	c #707E90",
"S= 	c #4A586C",
"T= 	c #3C434B",
"U= 	c #454F5C",
"V= 	c #414A55",
"W= 	c #53595E",
"X= 	c #636768",
"Y= 	c #6F7371",
"Z= 	c #888C89",
"`= 	c #9CA1A0",
" - 	c #96A3AD",
".- 	c #7D8A98",
"+- 	c #647588",
"@- 	c #526075",
"#- 	c #4C5665",
"$- 	c #4A5462",
"%- 	c #4C5662",
"&- 	c #505A67",
"*- 	c #505C6C",
"=- 	c #4E596A",
"-- 	c #4A576A",
";- 	c #5A6B7C",
">- 	c #B4B6B0",
",- 	c #727673",
"'- 	c #778389",
")- 	c #9DA199",
"!- 	c #A7A89F",
"~- 	c #5C5B52",
"{- 	c #363C41",
"]- 	c #3B4046",
"^- 	c #3D4951",
"/- 	c #5C635C",
"(- 	c #5B625A",
"_- 	c #5A625A",
":- 	c #495049",
"<- 	c #4B524B",
"[- 	c #555B55",
"}- 	c #5B6057",
"|- 	c #768696",
"1- 	c #ADABA7",
"2- 	c #B5B4AF",
"3- 	c #BEBCB8",
"4- 	c #C1BBB2",
"5- 	c #51565C",
"6- 	c #677886",
"7- 	c #959A99",
"8- 	c #909595",
"9- 	c #9EA3A3",
"0- 	c #9DA2A1",
"a- 	c #929693",
"b- 	c #888B86",
"c- 	c #5D5B51",
"d- 	c #4C4B42",
"e- 	c #414442",
"f- 	c #42484E",
"g- 	c #43505E",
"h- 	c #5C6B76",
"i- 	c #5A6771",
"j- 	c #404750",
"k- 	c #54666C",
"l- 	c #808C83",
"m- 	c #839283",
"n- 	c #7D8B7D",
"o- 	c #737F73",
"p- 	c #79877A",
"q- 	c #7A877A",
"r- 	c #7D8A7D",
"s- 	c #9DA6AC",
"t- 	c #BFBFBC",
"u- 	c #BCBDB9",
"v- 	c #BFC0BC",
"w- 	c #BABBB7",
"x- 	c #B9B9B6",
"y- 	c #B8B9B5",
"z- 	c #BEBEBC",
"A- 	c #BFB8AD",
"B- 	c #666767",
"C- 	c #566D82",
"D- 	c #738385",
"E- 	c #6D7C77",
"F- 	c #6F7B76",
"G- 	c #6F7B77",
"H- 	c #7C8683",
"I- 	c #5F645F",
"J- 	c #384250",
"K- 	c #404546",
"L- 	c #65645D",
"M- 	c #41423F",
"N- 	c #313539",
"O- 	c #414C58",
"P- 	c #4B555E",
"Q- 	c #50575B",
"R- 	c #636664",
"S- 	c #64645E",
"T- 	c #6A6A65",
"U- 	c #6B6B65",
"V- 	c #3C4045",
"W- 	c #4D5B6C",
"X- 	c #A0A3A6",
"Y- 	c #9BA0A3",
"Z- 	c #999DA0",
"`- 	c #9A9EA1",
" ; 	c #9CA0A3",
".; 	c #5F6264",
"+; 	c #6D7C90",
"@; 	c #CFCDCF",
"#; 	c #C4C3C4",
"$; 	c #CCCACC",
"%; 	c #676B71",
"&; 	c #667171",
"*; 	c #6B6E5F",
"=; 	c #505656",
"-; 	c #40484F",
";; 	c #74849B",
">; 	c #9CA7B9",
",; 	c #D2DBED",
"'; 	c #D9D4D6",
"); 	c #ADA9A8",
"!; 	c #4D545E",
"~; 	c #475261",
"{; 	c #45505F",
"]; 	c #454D56",
"^; 	c #424A55",
"/; 	c #485466",
"(; 	c #708095",
"_; 	c #7B848F",
":; 	c #91969F",
"<; 	c #C2CEDE",
"[; 	c #CFCDCE",
"}; 	c #D0CFCF",
"|; 	c #D2D0D1",
"1; 	c #D3D2D2",
"2; 	c #D3D1D2",
"3; 	c #CBCACA",
"4; 	c #C3C1C2",
"5; 	c #BEBCBD",
"6; 	c #B8B7B8",
"7; 	c #BBB9BA",
"8; 	c #C0BFC0",
"9; 	c #CBC9CA",
"0; 	c #D0CECF",
"a; 	c #D5D4D4",
"b; 	c #C9C8C8",
"c; 	c #C5C4C4",
"d; 	c #C3C2C2",
"e; 	c #CDCCCC",
"f; 	c #C9C7C8",
"g; 	c #BEBDBD",
"h; 	c #C0BEBF",
"i; 	c #CDCBCC",
"j; 	c #CFCECE",
"k; 	c #BEC6D3",
"l; 	c #8D96A4",
"m; 	c #57616E",
"n; 	c #454E5A",
"o; 	c #48515D",
"p; 	c #4E5967",
"q; 	c #404549",
"r; 	c #62696E",
"s; 	c #747979",
"t; 	c #8B8F8C",
"u; 	c #9BA09F",
"v; 	c #949998",
"w; 	c #909896",
"x; 	c #929FA8",
"y; 	c #7D8A97",
"z; 	c #657588",
"A; 	c #4D5B6F",
"B; 	c #49576B",
"C; 	c #4A515A",
"D; 	c #485361",
"E; 	c #434B56",
"F; 	c #546270",
"G; 	c #B1B3AD",
"H; 	c #AAADA6",
"I; 	c #A7AAA3",
"J; 	c #575A5B",
"K; 	c #A3ACA9",
"L; 	c #A4A8A0",
"M; 	c #AAABA2",
"N; 	c #5A5954",
"O; 	c #3E4651",
"P; 	c #3A424D",
"Q; 	c #3B4954",
"R; 	c #5F655F",
"S; 	c #616761",
"T; 	c #5E655E",
"U; 	c #5A615A",
"V; 	c #596059",
"W; 	c #4E554E",
"X; 	c #5F655E",
"Y; 	c #4A5258",
"Z; 	c #6C7B8B",
"`; 	c #B0AFAB",
" > 	c #B8B7B2",
".> 	c #AEADA9",
"+> 	c #C3C2BE",
"@> 	c #C1BDB6",
"#> 	c #616569",
"$> 	c #404A55",
"%> 	c #767976",
"&> 	c #80817A",
"*> 	c #727168",
"=> 	c #636056",
"-> 	c #4F4D45",
";> 	c #434544",
">> 	c #3B4043",
",> 	c #404955",
"'> 	c #4B5865",
")> 	c #546471",
"!> 	c #647680",
"~> 	c #6C797A",
"{> 	c #6D7570",
"]> 	c #6F746C",
"^> 	c #6F7269",
"/> 	c #727369",
"(> 	c #545A5B",
"_> 	c #424E58",
":> 	c #77877F",
"<> 	c #849284",
"[> 	c #818D81",
"}> 	c #7D887C",
"|> 	c #7C897C",
"1> 	c #717D71",
"2> 	c #768276",
"3> 	c #7A8A7A",
"4> 	c #7A887A",
"5> 	c #7B8B7C",
"6> 	c #767E71",
"7> 	c #B6BBBD",
"8> 	c #B7B8B4",
"9> 	c #C0BFBA",
"0> 	c #AFA799",
"a> 	c #454E58",
"b> 	c #647D8B",
"c> 	c #71807C",
"d> 	c #6C7B76",
"e> 	c #6C7974",
"f> 	c #6E7A75",
"g> 	c #697571",
"h> 	c #6E7A76",
"i> 	c #7E867F",
"j> 	c #515757",
"k> 	c #383F49",
"l> 	c #343A43",
"m> 	c #2C2D2B",
"n> 	c #34322C",
"o> 	c #3E3C34",
"p> 	c #3C4146",
"q> 	c #39424C",
"r> 	c #60625E",
"s> 	c #62615A",
"t> 	c #676862",
"u> 	c #656660",
"v> 	c #6C6C66",
"w> 	c #6D6C65",
"x> 	c #434545",
"y> 	c #5A6A7E",
"z> 	c #A4A7AA",
"A> 	c #A1A5A8",
"B> 	c #999DA1",
"C> 	c #989CA0",
"D> 	c #9DA1A5",
"E> 	c #A0A4A7",
"F> 	c #575C63",
"G> 	c #798A9F",
"H> 	c #CDCCCE",
"I> 	c #9A9895",
"J> 	c #525964",
"K> 	c #424952",
"L> 	c #546277",
"M> 	c #8D9CB3",
"N> 	c #BFC8D9",
"O> 	c #D6D2D3",
"P> 	c #D5D0D2",
"Q> 	c #A4A2A2",
"R> 	c #53575C",
"S> 	c #474F5A",
"T> 	c #465160",
"U> 	c #4A5566",
"V> 	c #4D5968",
"W> 	c #798493",
"X> 	c #9099A5",
"Y> 	c #B8C3D2",
"Z> 	c #C1C0C0",
"`> 	c #BAB8B9",
" , 	c #B6B4B5",
"., 	c #BBBABA",
"+, 	c #CAC9C9",
"@, 	c #C4C3C3",
"#, 	c #BEBDBE",
"$, 	c #C8C6C7",
"%, 	c #C5C3C4",
"&, 	c #C6C4C5",
"*, 	c #CAC8C9",
"=, 	c #CCCBCB",
"-, 	c #B1B6C1",
";, 	c #5A6473",
">, 	c #4D5764",
",, 	c #47505D",
"', 	c #424A53",
"), 	c #47515F",
"!, 	c #505860",
"~, 	c #555A59",
"{, 	c #7E8280",
"], 	c #979D9C",
"^, 	c #86939D",
"/, 	c #667482",
"(, 	c #495768",
"_, 	c #3F4956",
":, 	c #404A54",
"<, 	c #7E7F79",
"[, 	c #ABAEA8",
"}, 	c #ABAFA8",
"|, 	c #A1A29A",
"1, 	c #4C555C",
"2, 	c #9FA097",
"3, 	c #4C4C49",
"4, 	c #343A42",
"5, 	c #8CA1B1",
"6, 	c #B0BFC5",
"7, 	c #737A7F",
"8, 	c #353F46",
"9, 	c #5E645D",
"0, 	c #585F58",
"a, 	c #4A524A",
"b, 	c #535A53",
"c, 	c #555C55",
"d, 	c #5B615B",
"e, 	c #4E5559",
"f, 	c #677687",
"g, 	c #B8B7B3",
"h, 	c #BFBDB9",
"i, 	c #B8B6B2",
"j, 	c #BCBBB6",
"k, 	c #AEADA8",
"l, 	c #C0BFBB",
"m, 	c #C4C2BE",
"n, 	c #C1BFBB",
"o, 	c #C4C0BB",
"p, 	c #7E8185",
"q, 	c #4B5768",
"r, 	c #414953",
"s, 	c #40474E",
"t, 	c #3F444B",
"u, 	c #526374",
"v, 	c #5D6E7B",
"w, 	c #67787E",
"x, 	c #697472",
"y, 	c #6C736E",
"z, 	c #6A6D63",
"A, 	c #686C62",
"B, 	c #686B62",
"C, 	c #6A6D64",
"D, 	c #6C6F66",
"E, 	c #6F7167",
"F, 	c #64665F",
"G, 	c #394350",
"H, 	c #637572",
"I, 	c #839284",
"J, 	c #808B80",
"K, 	c #7D887D",
"L, 	c #7D897D",
"M, 	c #707C70",
"N, 	c #727F72",
"O, 	c #7A897A",
"P, 	c #7B887C",
"Q, 	c #5D655E",
"R, 	c #BEBFBB",
"S, 	c #C2C2BF",
"T, 	c #BDB6AB",
"U, 	c #7D7A74",
"V, 	c #485B6E",
"W, 	c #6F8589",
"X, 	c #6F7E79",
"Y, 	c #697772",
"Z, 	c #66756F",
"`, 	c #66736E",
" ' 	c #66746E",
".' 	c #687771",
"+' 	c #6E7C76",
"@' 	c #76827D",
"#' 	c #7E857C",
"$' 	c #43494D",
"%' 	c #3B434F",
"&' 	c #445361",
"*' 	c #434F5B",
"=' 	c #373E48",
"-' 	c #363D47",
";' 	c #36404C",
">' 	c #282B2D",
",' 	c #2B2D2E",
"'' 	c #282823",
")' 	c #32312A",
"!' 	c #3C3A32",
"~' 	c #4B4941",
"{' 	c #56544D",
"]' 	c #5F5E57",
"^' 	c #6F6E69",
"/' 	c #5F5B50",
"(' 	c #66798F",
"_' 	c #A5A9AC",
":' 	c #A3A6AA",
"<' 	c #474C51",
"[' 	c #8C9CB0",
"}' 	c #CAC9CB",
"|' 	c #CECCCE",
"1' 	c #9F9B98",
"2' 	c #646565",
"3' 	c #3D4146",
"4' 	c #556172",
"5' 	c #8D939C",
"6' 	c #CDD6E8",
"7' 	c #D8D3D5",
"8' 	c #D8D4D5",
"9' 	c #A09D9C",
"0' 	c #6C6D6F",
"a' 	c #4A5668",
"b' 	c #4A535E",
"c' 	c #5C697A",
"d' 	c #838D9A",
"e' 	c #AAB1BB",
"f' 	c #CDCBCB",
"g' 	c #C2C0C1",
"h' 	c #BDBCBC",
"i' 	c #C7C5C6",
"j' 	c #D6D5D5",
"k' 	c #D4D2D3",
"l' 	c #C6C5C5",
"m' 	c #C8C7C7",
"n' 	c #BDBDBD",
"o' 	c #C7C6C6",
"p' 	c #C6C4C4",
"q' 	c #B6B4B3",
"r' 	c #4D5866",
"s' 	c #49535F",
"t' 	c #4A5360",
"u' 	c #5B6C82",
"v' 	c #7B8EA7",
"w' 	c #7F8998",
"x' 	c #777F8C",
"y' 	c #728297",
"z' 	c #46515F",
"A' 	c #3B4451",
"B' 	c #363E47",
"C' 	c #44484A",
"D' 	c #676E6F",
"E' 	c #888F8D",
"F' 	c #868F8D",
"G' 	c #89908F",
"H' 	c #87949D",
"I' 	c #606D78",
"J' 	c #455467",
"K' 	c #33393F",
"L' 	c #4C4F4E",
"M' 	c #7E7F78",
"N' 	c #5F656A",
"O' 	c #6B7272",
"P' 	c #484B4B",
"Q' 	c #616462",
"R' 	c #999B93",
"S' 	c #999B92",
"T' 	c #43484D",
"U' 	c #485564",
"V' 	c #9AABB5",
"W' 	c #AFB2AB",
"X' 	c #868883",
"Y' 	c #35404C",
"Z' 	c #5D635D",
"`' 	c #5A605A",
" ) 	c #5E645E",
".) 	c #565B5A",
"+) 	c #576473",
"@) 	c #B8B9B8",
"#) 	c #C1C0BB",
"$) 	c #BCBAB6",
"%) 	c #AFAEA9",
"&) 	c #C2C1BD",
"*) 	c #C5C3C0",
"=) 	c #C6C4C1",
"-) 	c #A3A09E",
";) 	c #475364",
">) 	c #4B5868",
",) 	c #6B808F",
"') 	c #76868C",
")) 	c #757E7C",
"!) 	c #727974",
"~) 	c #6B6E65",
"{) 	c #686B61",
"]) 	c #676A60",
"^) 	c #666960",
"/) 	c #676A61",
"() 	c #66695F",
"_) 	c #65685E",
":) 	c #666A60",
"<) 	c #696C62",
"[) 	c #6C6E64",
"}) 	c #484F56",
"|) 	c #475659",
"1) 	c #78877D",
"2) 	c #7E897D",
"3) 	c #6F7B6F",
"4) 	c #6C787A",
"5) 	c #C3C3C0",
"6) 	c #C2C1BC",
"7) 	c #ADA496",
"8) 	c #4C545E",
"9) 	c #627D8D",
"0) 	c #748583",
"a) 	c #6B7A75",
"b) 	c #697771",
"c) 	c #677470",
"d) 	c #65726D",
"e) 	c #697872",
"f) 	c #6E7D78",
"g) 	c #76847F",
"h) 	c #797F74",
"i) 	c #3E4958",
"j) 	c #46515E",
"k) 	c #5A6A74",
"l) 	c #464D52",
"m) 	c #657F87",
"n) 	c #7B9392",
"o) 	c #6A8189",
"p) 	c #5A6D7A",
"q) 	c #4A5A6A",
"r) 	c #313740",
"s) 	c #2C3138",
"t) 	c #282C30",
"u) 	c #242628",
"v) 	c #252624",
"w) 	c #2C2B25",
"x) 	c #3A3730",
"y) 	c #343738",
"z) 	c #3A404A",
"A) 	c #8196AE",
"B) 	c #A7AAAD",
"C) 	c #A3A7AA",
"D) 	c #9EA2A5",
"E) 	c #A2A2A0",
"F) 	c #A2AEBE",
"G) 	c #C9C7C9",
"H) 	c #C8C6C8",
"I) 	c #BCBAB8",
"J) 	c #80807F",
"K) 	c #42474C",
"L) 	c #4E5866",
"M) 	c #8E9CB2",
"N) 	c #CDCFD9",
"O) 	c #C3BDBB",
"P) 	c #878584",
"Q) 	c #4C5055",
"R) 	c #4D596B",
"S) 	c #7A889B",
"T) 	c #9FA7B4",
"U) 	c #D1D0D0",
"V) 	c #BDBCBD",
"W) 	c #BAB9B9",
"X) 	c #BAB9BA",
"Y) 	c #D7D6D6",
"Z) 	c #C0C0C0",
"`) 	c #A9A49F",
" ! 	c #4A5461",
".! 	c #4B5665",
"+! 	c #617389",
"@! 	c #C8CDD5",
"#! 	c #BFBFC0",
"$! 	c #B9B9BA",
"%! 	c #B9BABB",
"&! 	c #BABBBC",
"*! 	c #BCBCBD",
"=! 	c #9EA4AD",
"-! 	c #737E8C",
";! 	c #454F5E",
">! 	c #383F47",
",! 	c #33383B",
"'! 	c #4E5453",
")! 	c #717774",
"!! 	c #808786",
"~! 	c #7B8583",
"{! 	c #737F82",
"]! 	c #58656E",
"^! 	c #384049",
"/! 	c #3A434F",
"(! 	c #7C8587",
"_! 	c #AEB9BC",
":! 	c #889299",
"<! 	c #657586",
"[! 	c #3A4049",
"}! 	c #6E8295",
"|! 	c #ACB7B9",
"1! 	c #B0B3AC",
"2! 	c #AEB0AA",
"3! 	c #999B94",
"4! 	c #333D4A",
"5! 	c #58625F",
"6! 	c #636A63",
"7! 	c #525952",
"8! 	c #575D56",
"9! 	c #646A63",
"0! 	c #696F69",
"a! 	c #6B716B",
"b! 	c #535755",
"c! 	c #495665",
"d! 	c #B2B6B8",
"e! 	c #BDBCB7",
"f! 	c #BAB9B4",
"g! 	c #C1BBB4",
"h! 	c #485363",
"i! 	c #607280",
"j! 	c #797D77",
"k! 	c #74776E",
"l! 	c #707269",
"m! 	c #64675E",
"n! 	c #63665D",
"o! 	c #62665C",
"p! 	c #62655B",
"q! 	c #64675D",
"r! 	c #63665C",
"s! 	c #64685E",
"t! 	c #5D615D",
"u! 	c #3B444D",
"v! 	c #5F6E6A",
"w! 	c #7F8A7F",
"x! 	c #808A7F",
"y! 	c #798478",
"z! 	c #6F7D87",
"A! 	c #BEBFBC",
"B! 	c #C1C2BF",
"C! 	c #C4C4C1",
"D! 	c #BEB7AA",
"E! 	c #6F6F6D",
"F! 	c #60757B",
"G! 	c #74827D",
"H! 	c #6F7F79",
"I! 	c #6C7B75",
"J! 	c #687670",
"K! 	c #65746F",
"L! 	c #64746E",
"M! 	c #65736D",
"N! 	c #697973",
"O! 	c #707E79",
"P! 	c #778580",
"Q! 	c #666D64",
"R! 	c #3E4B59",
"S! 	c #565F63",
"T! 	c #39414C",
"U! 	c #50636F",
"V! 	c #8C958A",
"W! 	c #91998E",
"X! 	c #9BA59C",
"Y! 	c #9EAAA3",
"Z! 	c #9AA9A4",
"`! 	c #90A5A6",
" ~ 	c #778E91",
".~ 	c #5D7479",
"+~ 	c #495C65",
"@~ 	c #424F5D",
"#~ 	c #36404E",
"$~ 	c #353C45",
"%~ 	c #343B45",
"&~ 	c #384352",
"*~ 	c #353C46",
"=~ 	c #97A6B7",
"-~ 	c #A5A8AB",
";~ 	c #9FA3A6",
">~ 	c #A1A1A0",
",~ 	c #3A424C",
"'~ 	c #A3AFBE",
")~ 	c #CAC8CA",
"!~ 	c #D2D1D2",
"~~ 	c #9F9D9B",
"{~ 	c #4F5357",
"]~ 	c #3E4752",
"^~ 	c #758090",
"/~ 	c #BEC6D6",
"(~ 	c #D4D0D1",
"_~ 	c #D5D1D2",
":~ 	c #C5BFBD",
"<~ 	c #878686",
"[~ 	c #4E545E",
"}~ 	c #57616C",
"|~ 	c #8C95A3",
"1~ 	c #BCC2CA",
"2~ 	c #BFBDBE",
"3~ 	c #B8B7B7",
"4~ 	c #BBBABB",
"5~ 	c #B6B6B6",
"6~ 	c #B5B4B5",
"7~ 	c #B6B5B5",
"8~ 	c #D4D3D3",
"9~ 	c #BEBEBE",
"0~ 	c #8F8B88",
"a~ 	c #444E5A",
"b~ 	c #3F464E",
"c~ 	c #788EA9",
"d~ 	c #B9B9BB",
"e~ 	c #B8B9BA",
"f~ 	c #B8B9BB",
"g~ 	c #B8B8BA",
"h~ 	c #BBBCBD",
"i~ 	c #BCBDBE",
"j~ 	c #B5BAC1",
"k~ 	c #808792",
"l~ 	c #4F5967",
"m~ 	c #383E47",
"n~ 	c #2E3236",
"o~ 	c #4B5050",
"p~ 	c #6F7573",
"q~ 	c #7A8381",
"r~ 	c #7A8482",
"s~ 	c #717D85",
"t~ 	c #4F5B66",
"u~ 	c #3C4653",
"v~ 	c #393D40",
"w~ 	c #7A7C76",
"x~ 	c #9DA19E",
"y~ 	c #3E464E",
"z~ 	c #959892",
"A~ 	c #AFB1A9",
"B~ 	c #A8A99F",
"C~ 	c #A7A79D",
"D~ 	c #353D48",
"E~ 	c #5A6361",
"F~ 	c #60655F",
"G~ 	c #686F68",
"H~ 	c #606760",
"I~ 	c #666C66",
"J~ 	c #6A6F69",
"K~ 	c #6C7069",
"L~ 	c #66665A",
"M~ 	c #464D55",
"N~ 	c #404A58",
"O~ 	c #A4ACB2",
"P~ 	c #BFBDBA",
"Q~ 	c #C5BFB8",
"R~ 	c #4D535A",
"S~ 	c #515D63",
"T~ 	c #75776E",
"U~ 	c #72746B",
"V~ 	c #6D7066",
"W~ 	c #61645A",
"X~ 	c #606359",
"Y~ 	c #5F6359",
"Z~ 	c #5F6358",
"`~ 	c #61655A",
" { 	c #606459",
".{ 	c #696B62",
"+{ 	c #4A525A",
"@{ 	c #3A454A",
"#{ 	c #6E7A73",
"${ 	c #828D82",
"%{ 	c #818F82",
"&{ 	c #7F8D7F",
"*{ 	c #778377",
"={ 	c #7C8576",
"-{ 	c #7A838B",
";{ 	c #C0C1BE",
">{ 	c #C1C2BE",
",{ 	c #C3C3C1",
"'{ 	c #8A8479",
"){ 	c #424B56",
"!{ 	c #3E4851",
"~{ 	c #545E59",
"{{ 	c #737F7A",
"]{ 	c #707C77",
"^{ 	c #6B7974",
"/{ 	c #687772",
"({ 	c #66746F",
"_{ 	c #677670",
":{ 	c #6B7A74",
"<{ 	c #78827A",
"[{ 	c #4B514F",
"}{ 	c #343D43",
"|{ 	c #4B555B",
"1{ 	c #38414E",
"2{ 	c #68746E",
"3{ 	c #91998F",
"4{ 	c #929B90",
"5{ 	c #98A196",
"6{ 	c #869084",
"7{ 	c #7A8778",
"8{ 	c #788676",
"9{ 	c #7A897B",
"0{ 	c #7B8C7F",
"a{ 	c #97A8A4",
"b{ 	c #92A7A9",
"c{ 	c #80969C",
"d{ 	c #54626D",
"e{ 	c #37414E",
"f{ 	c #3D4A5C",
"g{ 	c #A3ADB9",
"h{ 	c #9EA3A6",
"i{ 	c #8E9296",
"j{ 	c #A3A7A9",
"k{ 	c #9B9B99",
"l{ 	c #3B424C",
"m{ 	c #8794A4",
"n{ 	c #CBC9CB",
"o{ 	c #BEBAB8",
"p{ 	c #818182",
"q{ 	c #474D57",
"r{ 	c #57667A",
"s{ 	c #A2ACBE",
"t{ 	c #D7D9E3",
"u{ 	c #D7D3D4",
"v{ 	c #9E9C9E",
"w{ 	c #4F5154",
"x{ 	c #5E6B7D",
"y{ 	c #9AA2AE",
"z{ 	c #D0D5DE",
"A{ 	c #B9B8B8",
"B{ 	c #C1C0C1",
"C{ 	c #B7B6B7",
"D{ 	c #B7B7B7",
"E{ 	c #D2D1D1",
"F{ 	c #C1C1C1",
"G{ 	c #BFBFBF",
"H{ 	c #717171",
"I{ 	c #414851",
"J{ 	c #454D5A",
"K{ 	c #414B5A",
"L{ 	c #93ABC7",
"M{ 	c #BEBEC0",
"N{ 	c #B7B8B9",
"O{ 	c #B6B7B9",
"P{ 	c #B6B7B8",
"Q{ 	c #B5B6B8",
"R{ 	c #BABBBD",
"S{ 	c #BCBCBE",
"T{ 	c #B5B6B7",
"U{ 	c #B4B9BF",
"V{ 	c #838B98",
"W{ 	c #343B46",
"X{ 	c #2E3336",
"Y{ 	c #5A6263",
"Z{ 	c #7C8483",
"`{ 	c #7C8583",
" ] 	c #7D898B",
".] 	c #67747F",
"+] 	c #46505C",
"@] 	c #383F48",
"#] 	c #626563",
"$] 	c #81837E",
"%] 	c #323942",
"&] 	c #575A5A",
"*] 	c #A6A498",
"=] 	c #9FA098",
"-] 	c #A8A9A0",
";] 	c #3A4351",
">] 	c #495457",
",] 	c #666B65",
"'] 	c #686E68",
")] 	c #6F756F",
"!] 	c #646A64",
"~] 	c #5E6159",
"{] 	c #585B51",
"]] 	c #53554A",
"^] 	c #4A4A3F",
"/] 	c #44443A",
"(] 	c #3D3D35",
"_] 	c #3E403D",
":] 	c #455160",
"<] 	c #434E5E",
"[] 	c #909CA6",
"}] 	c #C0BCB6",
"|] 	c #727477",
"1] 	c #3F4B54",
"2] 	c #6B6E64",
"3] 	c #65695F",
"4] 	c #5E6258",
"5] 	c #5D6157",
"6] 	c #5D6156",
"7] 	c #5E6157",
"8] 	c #5D6056",
"9] 	c #5E6257",
"0] 	c #61655F",
"a] 	c #3F4750",
"b] 	c #434E4F",
"c] 	c #758077",
"d] 	c #849184",
"e] 	c #819082",
"f] 	c #7C8D7D",
"g] 	c #7D8C7E",
"h] 	c #72796C",
"i] 	c #9DAAB5",
"j] 	c #BDB7AB",
"k] 	c #958D7E",
"l] 	c #444A51",
"m] 	c #637684",
"n] 	c #798383",
"o] 	c #6D787D",
"p] 	c #3F474D",
"q] 	c #42494B",
"r] 	c #6A7470",
"s] 	c #707B77",
"t] 	c #6A7872",
"u] 	c #6C7873",
"v] 	c #747F7B",
"w] 	c #74796F",
"x] 	c #393F45",
"y] 	c #445057",
"z] 	c #83938A",
"A] 	c #838F84",
"B] 	c #474F55",
"C] 	c #404648",
"D] 	c #6F756A",
"E] 	c #8C9589",
"F] 	c #818B7F",
"G] 	c #778575",
"H] 	c #758473",
"I] 	c #778475",
"J] 	c #768474",
"K] 	c #8A9488",
"L] 	c #939C91",
"M] 	c #969E93",
"N] 	c #38414C",
"O] 	c #4D5D71",
"P] 	c #A8AEB5",
"Q] 	c #A3A6A9",
"R] 	c #9DA2A5",
"S] 	c #8B9093",
"T] 	c #8A8A87",
"U] 	c #3F444C",
"V] 	c #596675",
"W] 	c #BEBDBF",
"X] 	c #BAB8B6",
"Y] 	c #656667",
"Z] 	c #3C424A",
"`] 	c #697485",
" ^ 	c #C1C9D9",
".^ 	c #DBD6D8",
"+^ 	c #D7D2D4",
"@^ 	c #B7B3B3",
"#^ 	c #6D7177",
"$^ 	c #404956",
"%^ 	c #526073",
"&^ 	c #87909B",
"*^ 	c #C1C6CF",
"=^ 	c #B2B1B2",
"-^ 	c #B7B6B6",
";^ 	c #D7D6D7",
">^ 	c #D5D5D5",
",^ 	c #B1B1B1",
"'^ 	c #C3BDB8",
")^ 	c #56595D",
"!^ 	c #444D59",
"~^ 	c #485261",
"{^ 	c #3E4754",
"]^ 	c #AFBDCF",
"^^ 	c #BFBFC1",
"/^ 	c #B4B5B7",
"(^ 	c #B3B5B6",
"_^ 	c #B3B4B5",
":^ 	c #B4B5B6",
"<^ 	c #B5B7B8",
"[^ 	c #BBBCBE",
"}^ 	c #B9BEC5",
"|^ 	c #7E858F",
"1^ 	c #454E5B",
"2^ 	c #3D4347",
"3^ 	c #6A716F",
"4^ 	c #7C8684",
"5^ 	c #738087",
"6^ 	c #505B67",
"7^ 	c #32373D",
"8^ 	c #4A4D4B",
"9^ 	c #7D8384",
"0^ 	c #4E555C",
"a^ 	c #666967",
"b^ 	c #86867D",
"c^ 	c #474E55",
"d^ 	c #343C44",
"e^ 	c #666B66",
"f^ 	c #6F746F",
"g^ 	c #777C77",
"h^ 	c #63645B",
"i^ 	c #53544A",
"j^ 	c #47473C",
"k^ 	c #3D3E35",
"l^ 	c #32322B",
"m^ 	c #2C2F2E",
"n^ 	c #2E3130",
"o^ 	c #3F4957",
"p^ 	c #434D5B",
"q^ 	c #434D5C",
"r^ 	c #6F7D8D",
"s^ 	c #BEBCB9",
"t^ 	c #B9B8B4",
"u^ 	c #A3A19E",
"v^ 	c #3B4550",
"w^ 	c #5C6360",
"x^ 	c #6E7168",
"y^ 	c #5C6055",
"z^ 	c #5A5E54",
"A^ 	c #5A5E53",
"B^ 	c #5B5F55",
"C^ 	c #5C6056",
"D^ 	c #5F6258",
"E^ 	c #61655B",
"F^ 	c #5C6262",
"G^ 	c #373F49",
"H^ 	c #4A5451",
"I^ 	c #778278",
"J^ 	c #849384",
"K^ 	c #768176",
"L^ 	c #768175",
"M^ 	c #7C887C",
"N^ 	c #59605B",
"O^ 	c #B3BBC1",
"P^ 	c #B7B8B5",
"Q^ 	c #BBBCB8",
"R^ 	c #BAB3A7",
"S^ 	c #928A7B",
"T^ 	c #586B79",
"U^ 	c #6E7876",
"V^ 	c #6D7067",
"W^ 	c #6E7167",
"X^ 	c #717773",
"Y^ 	c #56626D",
"Z^ 	c #373E44",
"`^ 	c #4C5450",
" / 	c #6D7974",
"./ 	c #6B7672",
"+/ 	c #77817D",
"@/ 	c #60655C",
"#/ 	c #384451",
"$/ 	c #788E8D",
"%/ 	c #8B9489",
"&/ 	c #848D82",
"*/ 	c #919B8F",
"=/ 	c #808E8C",
"-/ 	c #515C60",
";/ 	c #2C3137",
">/ 	c #414741",
",/ 	c #758373",
"'/ 	c #748372",
")/ 	c #778275",
"!/ 	c #738271",
"~/ 	c #7B8779",
"{/ 	c #868F84",
"]/ 	c #969F93",
"^/ 	c #868E7F",
"// 	c #3C4246",
"(/ 	c #677A91",
"_/ 	c #71716F",
":/ 	c #3B434D",
"</ 	c #3E4854",
"[/ 	c #4A4A46",
"}/ 	c #4D4F4F",
"|/ 	c #8390A3",
"1/ 	c #D0D3DC",
"2/ 	c #DCD7D8",
"3/ 	c #908D8B",
"4/ 	c #4C5057",
"5/ 	c #6F7B8A",
"6/ 	c #A0AAB7",
"7/ 	c #B3B2B2",
"8/ 	c #BBBBBB",
"9/ 	c #B8B8B8",
"0/ 	c #BCBABB",
"a/ 	c #C3BBB4",
"b/ 	c #495058",
"c/ 	c #414850",
"d/ 	c #444C58",
"e/ 	c #485669",
"f/ 	c #B7C0CB",
"g/ 	c #BABCBD",
"h/ 	c #ACB4BF",
"i/ 	c #6B7686",
"j/ 	c #3A4452",
"k/ 	c #373C41",
"l/ 	c #494E4B",
"m/ 	c #7B8688",
"n/ 	c #596672",
"o/ 	c #39424F",
"p/ 	c #474B4D",
"q/ 	c #939EA2",
"r/ 	c #889197",
"s/ 	c #4B545F",
"t/ 	c #414B59",
"u/ 	c #323737",
"v/ 	c #48483E",
"w/ 	c #45443B",
"x/ 	c #36362F",
"y/ 	c #333737",
"z/ 	c #32373B",
"A/ 	c #393E44",
"B/ 	c #3B4450",
"C/ 	c #3D495A",
"D/ 	c #475566",
"E/ 	c #5D728B",
"F/ 	c #7993AF",
"G/ 	c #8FA8C0",
"H/ 	c #748597",
"I/ 	c #56616D",
"J/ 	c #BABAB9",
"K/ 	c #BEB9B2",
"L/ 	c #485356",
"M/ 	c #60645A",
"N/ 	c #5C5F55",
"O/ 	c #595D52",
"P/ 	c #595D53",
"Q/ 	c #61645B",
"R/ 	c #5A6368",
"S/ 	c #3E464F",
"T/ 	c #49524E",
"U/ 	c #828C82",
"V/ 	c #7B867B",
"W/ 	c #7A857A",
"X/ 	c #7C877B",
"Y/ 	c #808D80",
"Z/ 	c #819081",
"`/ 	c #808B7F",
" ( 	c #525B5E",
".( 	c #B9BCBD",
"+( 	c #BEBCB7",
"@( 	c #AFA89C",
"#( 	c #7B7568",
"$( 	c #40464C",
"%( 	c #566773",
"&( 	c #677270",
"*( 	c #65685F",
"=( 	c #696D64",
"-( 	c #626C6F",
";( 	c #3B434C",
">( 	c #343A39",
",( 	c #5A6661",
"'( 	c #727D79",
")( 	c #77817E",
"!( 	c #777F78",
"~( 	c #474E51",
"{( 	c #546873",
"]( 	c #828E85",
"^( 	c #8E988C",
"/( 	c #838D81",
"(( 	c #8C968A",
"_( 	c #40494E",
":( 	c #313637",
"<( 	c #7F897D",
"[( 	c #7B8679",
"}( 	c #7A8678",
"|( 	c #8F988D",
"1( 	c #8F9586",
"2( 	c #879AAF",
"3( 	c #9B9FA3",
"4( 	c #A1A4A7",
"5( 	c #5D6167",
"6( 	c #414D5E",
"7( 	c #49586D",
"8( 	c #97A9C3",
"9( 	c #D6D1D3",
"0( 	c #C6C0BE",
"a( 	c #727273",
"b( 	c #404B59",
"c( 	c #525F71",
"d( 	c #96A2B4",
"e( 	c #B1B0B0",
"f( 	c #AEADAD",
"g( 	c #AAAAAA",
"h( 	c #B3B3B3",
"i( 	c #B4ADA5",
"j( 	c #3C444D",
"k( 	c #404A59",
"l( 	c #5C6C80",
"m( 	c #BEC2C8",
"n( 	c #B6B8B9",
"o( 	c #B8BABB",
"p( 	c #B9BABC",
"q( 	c #B7B9BA",
"r( 	c #BCBDBF",
"s( 	c #BFC0C1",
"t( 	c #C1C1C3",
"u( 	c #C2C3C4",
"v( 	c #C3C3C5",
"w( 	c #C2C2C4",
"x( 	c #8C95A2",
"y( 	c #464F5B",
"z( 	c #2E343B",
"A( 	c #3F4548",
"B( 	c #747A78",
"C( 	c #888F8E",
"D( 	c #858F91",
"E( 	c #3F4C5D",
"F( 	c #4C5153",
"G( 	c #646666",
"H( 	c #3D4652",
"I( 	c #3B424B",
"J( 	c #3F4650",
"K( 	c #404854",
"L( 	c #3A4350",
"M( 	c #465469",
"N( 	c #556880",
"O( 	c #68809B",
"P( 	c #819BB5",
"Q( 	c #95B0C7",
"R( 	c #9FB7C9",
"S( 	c #A1B1BC",
"T( 	c #9EAAB1",
"U( 	c #979E9F",
"V( 	c #99A0A2",
"W( 	c #717A81",
"X( 	c #414C59",
"Y( 	c #ADB1B3",
"Z( 	c #C2BFBA",
"`( 	c #7F8285",
" _ 	c #3B454E",
"._ 	c #656A63",
"+_ 	c #6C6F65",
"@_ 	c #5A5D53",
"#_ 	c #6F736B",
"$_ 	c #5B6366",
"%_ 	c #414845",
"&_ 	c #6F786E",
"*_ 	c #828C81",
"=_ 	c #848E81",
"-_ 	c #B1ABA0",
";_ 	c #968E7E",
">_ 	c #58554F",
",_ 	c #5B6E7A",
"'_ 	c #697371",
")_ 	c #60635A",
"!_ 	c #636A65",
"~_ 	c #4C5863",
"{_ 	c #373F48",
"]_ 	c #404844",
"^_ 	c #6A7571",
"/_ 	c #6E7C77",
"(_ 	c #77827E",
"__ 	c #798380",
":_ 	c #6C7065",
"<_ 	c #789298",
"[_ 	c #828C80",
"}_ 	c #818C7F",
"|_ 	c #848F82",
"1_ 	c #8A9487",
"2_ 	c #899387",
"3_ 	c #808B7E",
"4_ 	c #4B575F",
"5_ 	c #41484C",
"6_ 	c #838C81",
"7_ 	c #7E897C",
"8_ 	c #768575",
"9_ 	c #828C7F",
"0_ 	c #8D968B",
"a_ 	c #808374",
"b_ 	c #343C46",
"c_ 	c #9CABBB",
"d_ 	c #929495",
"e_ 	c #4C596B",
"f_ 	c #9FB2CD",
"g_ 	c #DBDEE7",
"h_ 	c #BEBAB9",
"i_ 	c #696B6F",
"j_ 	c #3B434E",
"k_ 	c #5B6573",
"l_ 	c #A3AAB4",
"m_ 	c #B9B7B8",
"n_ 	c #B5B4B4",
"o_ 	c #ABABAB",
"p_ 	c #ACABAB",
"q_ 	c #A8A8A8",
"r_ 	c #C3C1C1",
"s_ 	c #A69F97",
"t_ 	c #3D4753",
"u_ 	c #3D454F",
"v_ 	c #788EAA",
"w_ 	c #C5C5C7",
"x_ 	c #BABABC",
"y_ 	c #B7B8BA",
"z_ 	c #B2B4B5",
"A_ 	c #B1B3B4",
"B_ 	c #BDBFC0",
"C_ 	c #C0C1C2",
"D_ 	c #BEBFC0",
"E_ 	c #BBBBBD",
"F_ 	c #9FA4AC",
"G_ 	c #565D68",
"H_ 	c #393F47",
"I_ 	c #434B52",
"J_ 	c #6B7270",
"K_ 	c #7F8987",
"L_ 	c #859091",
"M_ 	c #697886",
"N_ 	c #404B5B",
"O_ 	c #424C5B",
"P_ 	c #4E5D72",
"Q_ 	c #62778F",
"R_ 	c #7994B1",
"S_ 	c #90AAC3",
"T_ 	c #A0BAD0",
"U_ 	c #A5B9C9",
"V_ 	c #A1B0B7",
"W_ 	c #9FAAAE",
"X_ 	c #9BA3A4",
"Y_ 	c #989FA0",
"Z_ 	c #939B9B",
"`_ 	c #919899",
" : 	c #939A9B",
".: 	c #999E9E",
"+: 	c #8D97A0",
"@: 	c #BFBEB9",
"#: 	c #C1C0BC",
"$: 	c #BCB8B3",
"%: 	c #4D5655",
"&: 	c #595C52",
"*: 	c #5B5F54",
"=: 	c #6A6C63",
"-: 	c #747871",
";: 	c #646D71",
">: 	c #333837",
",: 	c #585F56",
"': 	c #727A6F",
"): 	c #818A80",
"!: 	c #869086",
"~: 	c #848D7E",
"{: 	c #6F7E8D",
"]: 	c #B6B3AC",
"^: 	c #A9A398",
"/: 	c #8D8577",
"(: 	c #615E58",
"_: 	c #4C5F74",
":: 	c #5E6E74",
"<: 	c #666E69",
"[: 	c #676B63",
"}: 	c #5D676A",
"|: 	c #3D4651",
"1: 	c #32393B",
"2: 	c #545C57",
"3: 	c #727F7A",
"4: 	c #7C8682",
"5: 	c #7F8985",
"6: 	c #7F867F",
"7: 	c #505453",
"8: 	c #4D5F6C",
"9: 	c #889992",
"0: 	c #808A7E",
"a: 	c #7F8A7D",
"b: 	c #889386",
"c: 	c #858F83",
"d: 	c #7D897B",
"e: 	c #798677",
"f: 	c #848E82",
"g: 	c #535F61",
"h: 	c #394043",
"i: 	c #7E8B7C",
"j: 	c #7B8879",
"k: 	c #949D91",
"l: 	c #909A8E",
"m: 	c #5E625A",
"n: 	c #4D5D70",
"o: 	c #A4ABB2",
"p: 	c #979999",
"q: 	c #55595D",
"r: 	c #414C5C",
"s: 	c #96A7C1",
"t: 	c #D8DBE4",
"u: 	c #B9B5B5",
"v: 	c #62656B",
"w: 	c #69737F",
"x: 	c #B4B3B3",
"y: 	c #B4B4B4",
"z: 	c #ABAAAA",
"A: 	c #A8A7A7",
"B: 	c #888581",
"C: 	c #3D454E",
"D: 	c #3C4551",
"E: 	c #96ADC8",
"F: 	c #B4B6B7",
"G: 	c #B0B2B3",
"H: 	c #ABAFB5",
"I: 	c #646D7A",
"J: 	c #454D55",
"K: 	c #6E7573",
"L: 	c #8C9598",
"M: 	c #667583",
"N: 	c #96AABC",
"O: 	c #AEBDCA",
"P: 	c #ABB7BE",
"Q: 	c #A3A9AA",
"R: 	c #9FA6A7",
"S: 	c #9CA3A3",
"T: 	c #99A0A1",
"U: 	c #969D9E",
"V: 	c #92999A",
"W: 	c #8E9697",
"X: 	c #8C9495",
"Y: 	c #929A9B",
"Z: 	c #959C9D",
"`: 	c #989E9E",
" < 	c #545B63",
".< 	c #606C77",
"+< 	c #BDBBB8",
"@< 	c #BDBCB8",
"#< 	c #C9C5C0",
"$< 	c #6C727C",
"%< 	c #3B464E",
"&< 	c #656962",
"*< 	c #737469",
"=< 	c #424E60",
"-< 	c #3B3F3B",
";< 	c #565C52",
">< 	c #72796D",
",< 	c #828A7F",
"'< 	c #6F7467",
")< 	c #7C8EA0",
"!< 	c #A29C91",
"~< 	c #9D978B",
"{< 	c #90897C",
"]< 	c #827C6F",
"^< 	c #655F54",
"/< 	c #494945",
"(< 	c #3A414A",
"_< 	c #495767",
":< 	c #61747E",
"<< 	c #6B7776",
"[< 	c #646961",
"}< 	c #65695E",
"|< 	c #63675D",
"1< 	c #6D7168",
"2< 	c #6A716D",
"3< 	c #4A545F",
"4< 	c #2F353A",
"5< 	c #3C423F",
"6< 	c #697570",
"7< 	c #838C89",
"8< 	c #848E8A",
"9< 	c #74766A",
"0< 	c #678385",
"a< 	c #8A9588",
"b< 	c #838E81",
"c< 	c #7C877A",
"d< 	c #879285",
"e< 	c #879185",
"f< 	c #7A8878",
"g< 	c #7C8274",
"h< 	c #3F454A",
"i< 	c #313A45",
"j< 	c #343C42",
"k< 	c #3C4140",
"l< 	c #737B75",
"m< 	c #969B8C",
"n< 	c #3A3F40",
"o< 	c #71879F",
"p< 	c #979B9F",
"q< 	c #9B9D9C",
"r< 	c #575856",
"s< 	c #353C47",
"t< 	c #8494AC",
"u< 	c #D8DAE4",
"v< 	c #BAB6B6",
"w< 	c #5B5E64",
"x< 	c #7A8799",
"y< 	c #C8CDD6",
"z< 	c #B2B2B2",
"A< 	c #A7A7A7",
"B< 	c #C9C5C2",
"C< 	c #6B6C6E",
"D< 	c #40474F",
"E< 	c #434C57",
"F< 	c #3F4B5C",
"G< 	c #AFBDCE",
"H< 	c #B1B2B4",
"I< 	c #AFB1B2",
"J< 	c #B3B4B6",
"K< 	c #B4B4B6",
"L< 	c #B7BBC2",
"M< 	c #6B7481",
"N< 	c #464E55",
"O< 	c #727877",
"P< 	c #848D8B",
"Q< 	c #869092",
"R< 	c #5E6B79",
"S< 	c #464A4A",
"T< 	c #A2A9A9",
"U< 	c #9DA4A4",
"V< 	c #989F9F",
"W< 	c #949B9C",
"X< 	c #909899",
"Y< 	c #8D9596",
"Z< 	c #8B9394",
"`< 	c #8C9595",
" [ 	c #8F9798",
".[ 	c #929A9A",
"+[ 	c #797F81",
"@[ 	c #ADB0B1",
"#[ 	c #B2AFAD",
"$[ 	c #3D4754",
"%[ 	c #4B5352",
"&[ 	c #5A594D",
"*[ 	c #4D6176",
"=[ 	c #819AA1",
"-[ 	c #728890",
";[ 	c #4D5B68",
">[ 	c #34393A",
",[ 	c #404239",
"'[ 	c #43494E",
")[ 	c #5C666F",
"![ 	c #9C978C",
"~[ 	c #A49E93",
"{[ 	c #383B3C",
"][ 	c #3A3C3E",
"^[ 	c #353A40",
"/[ 	c #383D44",
"([ 	c #404B58",
"_[ 	c #526370",
":[ 	c #67787F",
"<[ 	c #717C7A",
"[[ 	c #70766F",
"}[ 	c #676B60",
"|[ 	c #696C63",
"1[ 	c #6E726B",
"2[ 	c #5C676C",
"3[ 	c #404953",
"4[ 	c #313636",
"5[ 	c #545750",
"6[ 	c #606155",
"7[ 	c #464949",
"8[ 	c #4B616E",
"9[ 	c #73877B",
"0[ 	c #828D80",
"a[ 	c #899386",
"b[ 	c #6C7161",
"c[ 	c #52584C",
"d[ 	c #373C3C",
"e[ 	c #76837E",
"f[ 	c #8D958B",
"g[ 	c #788983",
"h[ 	c #434B51",
"i[ 	c #54574E",
"j[ 	c #323A45",
"k[ 	c #92A1B1",
"l[ 	c #9EA2A6",
"m[ 	c #A7ABAE",
"n[ 	c #727372",
"o[ 	c #363B40",
"p[ 	c #636C7B",
"q[ 	c #CACDD6",
"r[ 	c #C0BBBA",
"s[ 	c #5F6164",
"t[ 	c #7A899D",
"u[ 	c #D1D7E0",
"v[ 	c #B2B1B1",
"w[ 	c #BCBCBC",
"x[ 	c #AFAEAE",
"y[ 	c #AFAEAF",
"z[ 	c #B0AFAF",
"A[ 	c #BABABA",
"B[ 	c #C4C2C2",
"C[ 	c #C8C2BE",
"D[ 	c #585C60",
"E[ 	c #414853",
"F[ 	c #4B596D",
"G[ 	c #BCC5D0",
"H[ 	c #BDBEBF",
"I[ 	c #B9BBBC",
"J[ 	c #AEAFB0",
"K[ 	c #ADAFB0",
"L[ 	c #AEAFB1",
"M[ 	c #AEB0B1",
"N[ 	c #B0B1B2",
"O[ 	c #BFC3CA",
"P[ 	c #717A88",
"Q[ 	c #434A52",
"R[ 	c #727876",
"S[ 	c #858B8A",
"T[ 	c #7D8789",
"U[ 	c #505C6A",
"V[ 	c #323941",
"W[ 	c #5F6363",
"X[ 	c #9EA5A5",
"Y[ 	c #9BA2A2",
"Z[ 	c #8E9797",
"`[ 	c #91999A",
" } 	c #959D9D",
".} 	c #39414A",
"+} 	c #8C959C",
"@} 	c #BFBDB8",
"#} 	c #707680",
"$} 	c #374047",
"%} 	c #5F635D",
"&} 	c #5F5D4F",
"*} 	c #465360",
"=} 	c #778F94",
"-} 	c #7A857E",
";} 	c #828F8A",
">} 	c #829693",
",} 	c #779094",
"'} 	c #5D737F",
")} 	c #4C5D70",
"!} 	c #31363D",
"~} 	c #35383B",
"{} 	c #36393B",
"]} 	c #6B8692",
"^} 	c #708D98",
"/} 	c #769199",
"(} 	c #434C54",
"_} 	c #4F5E68",
":} 	c #727975",
"<} 	c #6E736B",
"[} 	c #676B61",
"}} 	c #63675C",
"|} 	c #72756D",
"1} 	c #717875",
"2} 	c #515D6C",
"3} 	c #424D5C",
"4} 	c #45505E",
"5} 	c #6E8886",
"6} 	c #758474",
"7} 	c #838F81",
"8} 	c #8F998D",
"9} 	c #5D6054",
"0} 	c #30363F",
"a} 	c #2F353E",
"b} 	c #36414F",
"c} 	c #373F45",
"d} 	c #727D6F",
"e} 	c #838F83",
"f} 	c #3C4348",
"g} 	c #4C5C6F",
"h} 	c #9DA4AB",
"i} 	c #9FA4A7",
"j} 	c #8C8F91",
"k} 	c #393C3F",
"l} 	c #536277",
"m} 	c #BFC7D7",
"n} 	c #C8C2BF",
"o} 	c #666667",
"p} 	c #6C7786",
"q} 	c #CFD5DE",
"r} 	c #D5D3D4",
"s} 	c #D4D2D2",
"t} 	c #AFAFAF",
"u} 	c #C9C7C7",
"v} 	c #C4BDB6",
"w} 	c #424D5D",
"x} 	c #64778F",
"y} 	c #BFC3C9",
"z} 	c #BBBDBE",
"A} 	c #B2B3B4",
"B} 	c #C0C0C1",
"C} 	c #B9BDC3",
"D} 	c #666F7D",
"E} 	c #3A414B",
"F} 	c #3E4446",
"G} 	c #757B79",
"H} 	c #8F9695",
"I} 	c #808B92",
"J} 	c #47515B",
"K} 	c #848A8A",
"L} 	c #8F9898",
"M} 	c #949C9D",
"N} 	c #535A62",
"O} 	c #596571",
"P} 	c #B6B5B0",
"Q} 	c #B8B6B4",
"R} 	c #444D58",
"S} 	c #414849",
"T} 	c #62665B",
"U} 	c #65675C",
"V} 	c #444643",
"W} 	c #678493",
"X} 	c #79857E",
"Y} 	c #76817A",
"Z} 	c #7B8780",
"`} 	c #7C8A83",
" | 	c #7E8F87",
".| 	c #81958F",
"+| 	c #839A99",
"@| 	c #7E9599",
"#| 	c #768E97",
"$| 	c #6F8A94",
"%| 	c #81948E",
"&| 	c #83958F",
"*| 	c #819087",
"=| 	c #47545D",
"-| 	c #666A5F",
";| 	c #686C61",
">| 	c #73766D",
",| 	c #767870",
"'| 	c #787A73",
")| 	c #607A83",
"!| 	c #7A8B7D",
"~| 	c #777A69",
"{| 	c #31353C",
"]| 	c #465562",
"^| 	c #90A19D",
"/| 	c #92A098",
"(| 	c #9AA8A2",
"_| 	c #9EADA8",
":| 	c #99A7A1",
"<| 	c #707E7E",
"[| 	c #343D4A",
"}| 	c #3D4446",
"|| 	c #585E53",
"1| 	c #353B3F",
"2| 	c #7D93AC",
"3| 	c #9FA2A5",
"4| 	c #A0A4A8",
"5| 	c #A2A6AA",
"6| 	c #919393",
"7| 	c #4A4B4C",
"8| 	c #A7B2C4",
"9| 	c #DCD8D9",
"0| 	c #8C8A8A",
"a| 	c #5A636F",
"b| 	c #C1C4CB",
"c| 	c #D6D4D5",
"d| 	c #ADADAD",
"e| 	c #B0B0B0",
"f| 	c #D8D6D7",
"g| 	c #CAC8C8",
"h| 	c #C1B6AC",
"i| 	c #434A53",
"j| 	c #7F96B1",
"k| 	c #BDBDBF",
"l| 	c #AAAEB3",
"m| 	c #575F6B",
"n| 	c #454A4B",
"o| 	c #787E7B",
"p| 	c #8A9290",
"q| 	c #68747A",
"r| 	c #38404A",
"s| 	c #919999",
"t| 	c #939B9C",
"u| 	c #969E9F",
"v| 	c #818789",
"w| 	c #363D46",
"x| 	c #A8ABAC",
"y| 	c #8A8D93",
"z| 	c #3B4551",
"A| 	c #535955",
"B| 	c #535247",
"C| 	c #4C6070",
"D| 	c #798C87",
"E| 	c #77837C",
"F| 	c #75817A",
"G| 	c #76837B",
"H| 	c #78877F",
"I| 	c #788980",
"J| 	c #798A80",
"K| 	c #7B8B81",
"L| 	c #7B8A82",
"M| 	c #7C8B82",
"N| 	c #80938C",
"O| 	c #80938D",
"P| 	c #7A8981",
"Q| 	c #7C8C83",
"R| 	c #7E8E84",
"S| 	c #79877C",
"T| 	c #39444C",
"U| 	c #696D65",
"V| 	c #64685D",
"W| 	c #696D63",
"X| 	c #787A72",
"Y| 	c #78776B",
"Z| 	c #484D52",
"`| 	c #53677C",
" 1 	c #8FA6A7",
".1 	c #7C897A",
"+1 	c #8B9589",
"@1 	c #838C7E",
"#1 	c #676A5D",
"$1 	c #363D44",
"%1 	c #465159",
"&1 	c #8D9B92",
"*1 	c #97A094",
"=1 	c #8D988F",
"-1 	c #72827D",
";1 	c #41494D",
">1 	c #39424D",
",1 	c #9FAAB6",
"'1 	c #9EA1A4",
")1 	c #A4A8AB",
"!1 	c #7E8081",
"~1 	c #33383E",
"{1 	c #606A79",
"]1 	c #D7DAE3",
"^1 	c #BBB8BB",
"/1 	c #41464C",
"(1 	c #4E5B6A",
"_1 	c #B3BBC6",
":1 	c #AEAEAE",
"<1 	c #B9B9B9",
"[1 	c #A5A19B",
"}1 	c #A29E99",
"|1 	c #9F9C97",
"11 	c #979491",
"21 	c #8A8987",
"31 	c #6B6965",
"41 	c #6B6A66",
"51 	c #696764",
"61 	c #6D6C68",
"71 	c #6E6D69",
"81 	c #6C6A66",
"91 	c #7F7E7C",
"01 	c #858380",
"a1 	c #8B8985",
"b1 	c #96938E",
"c1 	c #9C9993",
"d1 	c #CBC6C3",
"e1 	c #8D877F",
"f1 	c #465161",
"g1 	c #9AB1CB",
"h1 	c #BEBFC1",
"i1 	c #A4A8AE",
"j1 	c #4D5766",
"k1 	c #525754",
"l1 	c #6B716F",
"m1 	c #353B42",
"n1 	c #9AA1A1",
"o1 	c #959D9E",
"p1 	c #969E9E",
"q1 	c #98A0A0",
"r1 	c #99A0A0",
"s1 	c #707A84",
"t1 	c #BFBCB9",
"u1 	c #5A626D",
"v1 	c #373E42",
"w1 	c #5C6059",
"x1 	c #5F5D50",
"y1 	c #404951",
"z1 	c #729094",
"A1 	c #788880",
"B1 	c #738079",
"C1 	c #737F78",
"D1 	c #74847C",
"E1 	c #75867C",
"F1 	c #76877D",
"G1 	c #76887E",
"H1 	c #77877E",
"I1 	c #78897F",
"J1 	c #77857E",
"K1 	c #798980",
"L1 	c #7D8B7F",
"M1 	c #39434E",
"N1 	c #626761",
"O1 	c #71746A",
"P1 	c #777A71",
"Q1 	c #78796F",
"R1 	c #58564C",
"S1 	c #444F5A",
"T1 	c #8EA9B3",
"U1 	c #99A297",
"V1 	c #595D51",
"W1 	c #434745",
"X1 	c #373B3C",
"Y1 	c #363C45",
"Z1 	c #6B8187",
"`1 	c #7D877B",
" 2 	c #859083",
".2 	c #889286",
"+2 	c #969F94",
"@2 	c #868E81",
"#2 	c #3E4445",
"$2 	c #677A92",
"%2 	c #989A9A",
"&2 	c #4A4D51",
"*2 	c #B9C0CF",
"=2 	c #CCC5C3",
"-2 	c #55585D",
";2 	c #98A4B6",
">2 	c #B9B6B4",
",2 	c #9B9894",
"'2 	c #7D7C7A",
")2 	c #7B7C7E",
"!2 	c #4D4E4D",
"~2 	c #41474E",
"{2 	c #363A40",
"]2 	c #333A44",
"^2 	c #38424F",
"/2 	c #373F4B",
"(2 	c #3D495B",
"_2 	c #3E4A59",
":2 	c #445467",
"<2 	c #43505B",
"[2 	c #43505C",
"}2 	c #42505D",
"|2 	c #465461",
"12 	c #465464",
"22 	c #3E4C5D",
"32 	c #3E4A5A",
"42 	c #343A40",
"52 	c #373D44",
"62 	c #39404A",
"72 	c #383A3C",
"82 	c #40403E",
"92 	c #5E5E5C",
"02 	c #72757A",
"a2 	c #5F6161",
"b2 	c #4D4D4C",
"c2 	c #45494F",
"d2 	c #4E5B6E",
"e2 	c #75818F",
"f2 	c #B2B3B5",
"g2 	c #BDBEC0",
"h2 	c #C4C4C6",
"i2 	c #8C939D",
"j2 	c #3E4855",
"k2 	c #484E52",
"l2 	c #8A8F8F",
"m2 	c #9AA1A2",
"n2 	c #98A0A1",
"o2 	c #6E767D",
"p2 	c #404954",
"q2 	c #B2B3B1",
"r2 	c #394042",
"s2 	c #61655C",
"t2 	c #65665A",
"u2 	c #464845",
"v2 	c #617E8C",
"w2 	c #798D85",
"x2 	c #77887E",
"y2 	c #75857C",
"z2 	c #727F77",
"A2 	c #727F78",
"B2 	c #72847A",
"C2 	c #73857A",
"D2 	c #73857B",
"E2 	c #74857B",
"F2 	c #74867B",
"G2 	c #75857D",
"H2 	c #74847B",
"I2 	c #7D8C80",
"J2 	c #444D52",
"K2 	c #555E5C",
"L2 	c #777A70",
"M2 	c #625F51",
"N2 	c #48515C",
"O2 	c #6B8993",
"P2 	c #8B988F",
"Q2 	c #9AA297",
"R2 	c #727567",
"S2 	c #454A4E",
"T2 	c #363C44",
"U2 	c #3F4C55",
"V2 	c #62757B",
"W2 	c #87968D",
"X2 	c #7B867A",
"Y2 	c #727E70",
"Z2 	c #869184",
"`2 	c #767A6A",
" 3 	c #343C47",
".3 	c #96A5B6",
"+3 	c #A6AAAD",
"@3 	c #838586",
"#3 	c #343A41",
"$3 	c #6D7B90",
"%3 	c #DBDDE7",
"&3 	c #DBD7D8",
"*3 	c #97928E",
"=3 	c #525A64",
"-3 	c #CED3DB",
";3 	c #D5D3D3",
">3 	c #D2D0D0",
",3 	c #A8A39E",
"'3 	c #848382",
")3 	c #656666",
"!3 	c #434648",
"~3 	c #3E4550",
"{3 	c #414A56",
"]3 	c #485664",
"^3 	c #50616A",
"/3 	c #546162",
"(3 	c #5B6B6E",
"_3 	c #637274",
":3 	c #6D7F7D",
"<3 	c #748682",
"[3 	c #737D73",
"}3 	c #6D786C",
"|3 	c #6C786B",
"13 	c #6E786D",
"23 	c #6F796E",
"33 	c #707A6F",
"43 	c #717B70",
"53 	c #737D72",
"63 	c #727C71",
"73 	c #6E807A",
"83 	c #667A74",
"93 	c #627172",
"03 	c #596869",
"a3 	c #525E5F",
"b3 	c #50616B",
"c3 	c #475561",
"d3 	c #404B5A",
"e3 	c #434C59",
"f3 	c #404751",
"g3 	c #4A5665",
"h3 	c #C3C4C6",
"i3 	c #C6C7C8",
"j3 	c #C6C6C8",
"k3 	c #C0C0C2",
"l3 	c #BBBFC4",
"m3 	c #5B636F",
"n3 	c #3C4552",
"o3 	c #414852",
"p3 	c #3C4756",
"q3 	c #7A8184",
"r3 	c #9CA3A4",
"s3 	c #979E9E",
"t3 	c #828A90",
"u3 	c #9A9CA1",
"v3 	c #3C4240",
"w3 	c #68695F",
"x3 	c #504F45",
"y3 	c #485868",
"z3 	c #789290",
"A3 	c #75877D",
"B3 	c #73847B",
"C3 	c #707D76",
"D3 	c #717F77",
"E3 	c #718378",
"F3 	c #718379",
"G3 	c #718479",
"H3 	c #728479",
"I3 	c #73837A",
"J3 	c #728279",
"K3 	c #74867C",
"L3 	c #535D5B",
"M3 	c #465155",
"N3 	c #6D7167",
"O3 	c #7A7B71",
"P3 	c #676455",
"Q3 	c #454C55",
"R3 	c #6A8596",
"S3 	c #7F8E83",
"T3 	c #7A8474",
"U3 	c #52564E",
"V3 	c #586871",
"W3 	c #889EA1",
"X3 	c #7E8D82",
"Y3 	c #768174",
"Z3 	c #788376",
"`3 	c #747F72",
" 4 	c #737F71",
".4 	c #6F7B6D",
"+4 	c #748073",
"@4 	c #798477",
"#4 	c #868E80",
"$4 	c #404443",
"%4 	c #5D7087",
"&4 	c #A5ACB3",
"*4 	c #999A9A",
"=4 	c #494C4D",
"-4 	c #414C5B",
";4 	c #B9BFCE",
">4 	c #DAD6D7",
",4 	c #C3BEBD",
"'4 	c #52565D",
")4 	c #3C4654",
"!4 	c #ABB2BC",
"~4 	c #D1CFCF",
"{4 	c #BEBAB7",
"]4 	c #9B9996",
"^4 	c #686866",
"/4 	c #4D5257",
"(4 	c #4A5666",
"_4 	c #4D5A6C",
":4 	c #4A5564",
"<4 	c #434F5F",
"[4 	c #516676",
"}4 	c #6A7C7D",
"|4 	c #74827B",
"14 	c #6F7A6E",
"24 	c #6E796D",
"34 	c #6D796D",
"44 	c #6A776A",
"54 	c #6B766A",
"64 	c #6A766A",
"74 	c #687568",
"84 	c #697569",
"94 	c #6B756A",
"04 	c #6A7569",
"a4 	c #687567",
"b4 	c #6B776B",
"c4 	c #697568",
"d4 	c #6E796E",
"e4 	c #6A7669",
"f4 	c #6C7A6B",
"g4 	c #6F7B6E",
"h4 	c #717D70",
"i4 	c #768075",
"j4 	c #7B8781",
"k4 	c #738382",
"l4 	c #68777C",
"m4 	c #5F6F7A",
"n4 	c #515F6C",
"o4 	c #5F6160",
"p4 	c #A5A5A4",
"q4 	c #B7B7B9",
"r4 	c #B1B2B3",
"s4 	c #BCBEBF",
"t4 	c #C1C2C4",
"u4 	c #C4C5C6",
"v4 	c #BBBBBC",
"w4 	c #C1C1C2",
"x4 	c #A9ADB4",
"y4 	c #4C5664",
"z4 	c #56697B",
"A4 	c #455261",
"B4 	c #8C9292",
"C4 	c #9BA2A3",
"D4 	c #9BA4A5",
"E4 	c #687079",
"F4 	c #495562",
"G4 	c #B2B2B0",
"H4 	c #878D96",
"I4 	c #3C454F",
"J4 	c #424743",
"K4 	c #605F51",
"L4 	c #6F8E98",
"M4 	c #707E76",
"N4 	c #6F7D75",
"O4 	c #708278",
"P4 	c #708378",
"Q4 	c #728179",
"R4 	c #65716A",
"S4 	c #3D4850",
"T4 	c #76776D",
"U4 	c #666354",
"V4 	c #6A8395",
"W4 	c #8FA2A0",
"X4 	c #60655B",
"Y4 	c #41484E",
"Z4 	c #4A5A68",
"`4 	c #809496",
" 5 	c #929C90",
".5 	c #919B8E",
"+5 	c #879184",
"@5 	c #6D7C6B",
"#5 	c #6B7B69",
"$5 	c #6A7969",
"%5 	c #697867",
"&5 	c #6B7869",
"*5 	c #6C796B",
"=5 	c #768274",
"-5 	c #7A8578",
";5 	c #737666",
">5 	c #303843",
",5 	c #9BAFC5",
"'5 	c #AAADB0",
")5 	c #A6A9AC",
"!5 	c #898C8E",
"~5 	c #383B3F",
"{5 	c #596371",
"]5 	c #DBD6D7",
"^5 	c #948F8C",
"/5 	c #2E343C",
"(5 	c #5E6978",
"_5 	c #D9D8D8",
":5 	c #918F8B",
"<5 	c #68696A",
"[5 	c #46494B",
"}5 	c #444D5A",
"|5 	c #434C5A",
"15 	c #4A5565",
"25 	c #4C5869",
"35 	c #4D596A",
"45 	c #535F6F",
"55 	c #505E6D",
"65 	c #79949A",
"75 	c #798578",
"85 	c #737F72",
"95 	c #6D776C",
"05 	c #6B766B",
"a5 	c #667365",
"b5 	c #657264",
"c5 	c #6C776B",
"d5 	c #647263",
"e5 	c #667266",
"f5 	c #657265",
"g5 	c #6A756A",
"h5 	c #697468",
"i5 	c #687367",
"j5 	c #6C776C",
"k5 	c #6B776A",
"l5 	c #747D73",
"m5 	c #778076",
"n5 	c #778276",
"o5 	c #7F877E",
"p5 	c #828A81",
"q5 	c #889087",
"r5 	c #859595",
"s5 	c #6E7C80",
"t5 	c #4C596A",
"u5 	c #595C5F",
"v5 	c #858583",
"w5 	c #BEC0C1",
"x5 	c #6B7585",
"y5 	c #414A57",
"z5 	c #434D59",
"A5 	c #869497",
"B5 	c #535F6C",
"C5 	c #848A8B",
"D5 	c #9EA6A6",
"E5 	c #9DA5A6",
"F5 	c #9DA4A5",
"G5 	c #80878D",
"H5 	c #C4C2C0",
"I5 	c #787E87",
"J5 	c #383E45",
"K5 	c #434742",
"L5 	c #62655C",
"M5 	c #6C6B5D",
"N5 	c #464A49",
"O5 	c #597381",
"P5 	c #7A8D86",
"Q5 	c #75877C",
"R5 	c #708178",
"S5 	c #707F77",
"T5 	c #718179",
"U5 	c #748175",
"V5 	c #3C454E",
"W5 	c #6E7268",
"X5 	c #72756C",
"Y5 	c #73746A",
"Z5 	c #605D4E",
"`5 	c #485260",
" 6 	c #484F50",
".6 	c #6B838A",
"+6 	c #808D85",
"@6 	c #8E988B",
"#6 	c #8C978A",
"$6 	c #6F7D6D",
"%6 	c #677865",
"&6 	c #667764",
"*6 	c #657663",
"=6 	c #657564",
"-6 	c #687767",
";6 	c #6D7A6B",
">6 	c #7D887B",
",6 	c #798274",
"'6 	c #3C403F",
")6 	c #61758C",
"!6 	c #AAB1B8",
"~6 	c #ACAEB1",
"{6 	c #676663",
"]6 	c #323B47",
"^6 	c #B0C3DD",
"/6 	c #D9D5D6",
"(6 	c #C9C3C1",
"_6 	c #53575E",
":6 	c #3B4552",
"<6 	c #AAAAAC",
"[6 	c #C7C3C0",
"}6 	c #8F8D8A",
"|6 	c #505153",
"16 	c #3E4652",
"26 	c #3C4550",
"36 	c #647488",
"46 	c #7F868F",
"56 	c #919CA9",
"66 	c #9FAAB9",
"76 	c #9AA7B9",
"86 	c #778395",
"96 	c #4B5563",
"06 	c #4A5460",
"a6 	c #596D7A",
"b6 	c #828B81",
"c6 	c #788477",
"d6 	c #6F7D6F",
"e6 	c #677466",
"f6 	c #647264",
"g6 	c #637163",
"h6 	c #637162",
"i6 	c #657064",
"j6 	c #667165",
"k6 	c #637063",
"l6 	c #616F61",
"m6 	c #677267",
"n6 	c #687368",
"o6 	c #637062",
"p6 	c #626F61",
"q6 	c #646F63",
"r6 	c #636F62",
"s6 	c #697469",
"t6 	c #667366",
"u6 	c #6D796C",
"v6 	c #707B6F",
"w6 	c #7E877D",
"x6 	c #838C82",
"y6 	c #7A8A86",
"z6 	c #6A797D",
"A6 	c #586876",
"B6 	c #3F4449",
"C6 	c #707273",
"D6 	c #A0A09F",
"E6 	c #ADAEB2",
"F6 	c #505A69",
"G6 	c #919B9A",
"H6 	c #798993",
"I6 	c #404B5C",
"J6 	c #4D5455",
"K6 	c #9FA7A8",
"L6 	c #A1A8A8",
"M6 	c #6E7781",
"N6 	c #AEAEAC",
"O6 	c #C4C3C2",
"P6 	c #757E8A",
"Q6 	c #424641",
"R6 	c #707167",
"S6 	c #55544A",
"T6 	c #485767",
"U6 	c #789497",
"V6 	c #708277",
"W6 	c #718279",
"X6 	c #73827A",
"Y6 	c #75867D",
"Z6 	c #79887C",
"`6 	c #39434F",
" 7 	c #5A625E",
".7 	c #72756B",
"+7 	c #6F7066",
"@7 	c #585548",
"#7 	c #4D5D6B",
"$7 	c #6E8189",
"%7 	c #6B8189",
"&7 	c #798C95",
"*7 	c #91A5A3",
"=7 	c #869083",
"-7 	c #8B9689",
";7 	c #8A9587",
">7 	c #859183",
",7 	c #6B796A",
"'7 	c #657563",
")7 	c #647562",
"!7 	c #6C7A6A",
"~7 	c #899287",
"{7 	c #666758",
"]7 	c #323B46",
"^7 	c #A0B0C1",
"/7 	c #ACAFB2",
"(7 	c #A2A2A2",
"_7 	c #464A4E",
":7 	c #C5C6CE",
"<7 	c #ABA6A5",
"[7 	c #525963",
"}7 	c #CACFD7",
"|7 	c #BDBAB6",
"17 	c #8D8A86",
"27 	c #515354",
"37 	c #465260",
"47 	c #778494",
"57 	c #A0A7AF",
"67 	c #B4B0AA",
"77 	c #B5B1AB",
"87 	c #B5B1AC",
"97 	c #B4B1AB",
"07 	c #B7B4AE",
"a7 	c #BAB6B1",
"b7 	c #696E76",
"c7 	c #505B6A",
"d7 	c #50606E",
"e7 	c #7B8681",
"f7 	c #798277",
"g7 	c #6E7A6D",
"h7 	c #677566",
"i7 	c #647063",
"j7 	c #606F60",
"k7 	c #626E61",
"l7 	c #606E5F",
"m7 	c #616D61",
"n7 	c #616D60",
"o7 	c #606D60",
"p7 	c #5F6D5F",
"q7 	c #647064",
"r7 	c #5E6D5D",
"s7 	c #606D5F",
"t7 	c #5F6D5E",
"u7 	c #5E6D5E",
"v7 	c #616E61",
"w7 	c #626F62",
"x7 	c #677266",
"y7 	c #667265",
"z7 	c #647164",
"A7 	c #677467",
"B7 	c #7A8479",
"C7 	c #7E887D",
"D7 	c #7F887D",
"E7 	c #7D877C",
"F7 	c #788277",
"G7 	c #778176",
"H7 	c #667674",
"I7 	c #546167",
"J7 	c #3B414A",
"K7 	c #3D4042",
"L7 	c #6F7172",
"M7 	c #C3C4C5",
"N7 	c #C7CACF",
"O7 	c #606773",
"P7 	c #3C444A",
"Q7 	c #8D9695",
"R7 	c #828D90",
"S7 	c #495460",
"T7 	c #42494E",
"U7 	c #8E9595",
"V7 	c #A0A8A9",
"W7 	c #9EA7A8",
"X7 	c #4B525B",
"Y7 	c #6C757C",
"Z7 	c #7C8491",
"`7 	c #3D413D",
" 8 	c #70736A",
".8 	c #72746C",
"+8 	c #656356",
"@8 	c #3E4348",
"#8 	c #6D8C99",
"$8 	c #77857D",
"%8 	c #7B8A7F",
"&8 	c #484F53",
"*8 	c #4C5759",
"=8 	c #6C7066",
"-8 	c #6F7369",
";8 	c #71746B",
">8 	c #69685B",
",8 	c #4A483E",
"'8 	c #41464B",
")8 	c #475665",
"!8 	c #596A73",
"~8 	c #646D63",
"{8 	c #889486",
"]8 	c #879284",
"^8 	c #849082",
"/8 	c #6D7A6C",
"(8 	c #647663",
"_8 	c #687866",
":8 	c #878B7A",
"<8 	c #363B3E",
"[8 	c #4F5E70",
"}8 	c #ACB2B8",
"|8 	c #969899",
"18 	c #3D4147",
"28 	c #626E81",
"38 	c #DCD7D9",
"48 	c #5D5D5F",
"58 	c #2D333B",
"68 	c #AAB8C9",
"78 	c #A6A29E",
"88 	c #626465",
"98 	c #3E4349",
"08 	c #485360",
"a8 	c #77828F",
"b8 	c #ABB2BA",
"c8 	c #B2AEA8",
"d8 	c #B1ADA7",
"e8 	c #B0ADA7",
"f8 	c #B3AFA9",
"g8 	c #B2AEA9",
"h8 	c #B8B4AF",
"i8 	c #C1BCB6",
"j8 	c #828385",
"k8 	c #444B54",
"l8 	c #758280",
"m8 	c #798278",
"n8 	c #657364",
"o8 	c #657065",
"p8 	c #5F6C5F",
"q8 	c #5D6C5D",
"r8 	c #5E6C5D",
"s8 	c #606C60",
"t8 	c #5D6C5C",
"u8 	c #5E6C5E",
"v8 	c #5F6C5E",
"w8 	c #5C6C5C",
"x8 	c #636F63",
"y8 	c #616F60",
"z8 	c #727D71",
"A8 	c #747F73",
"B8 	c #697668",
"C8 	c #757E74",
"D8 	c #71807E",
"E8 	c #58666C",
"F8 	c #4E5155",
"G8 	c #878785",
"H8 	c #BFC0C2",
"I8 	c #C0C1C3",
"J8 	c #A9B1BF",
"K8 	c #525E6C",
"L8 	c #8C9897",
"M8 	c #8C9997",
"N8 	c #54606C",
"O8 	c #888E8F",
"P8 	c #A1A8A9",
"Q8 	c #7D858B",
"R8 	c #4B5664",
"S8 	c #989B9C",
"T8 	c #C6C6C6",
"U8 	c #8A93A0",
"V8 	c #3E4856",
"W8 	c #393D3C",
"X8 	c #5F6056",
"Y8 	c #615E51",
"Z8 	c #444849",
"`8 	c #556E80",
" 9 	c #809491",
".9 	c #7C8D83",
"+9 	c #718278",
"@9 	c #707D75",
"#9 	c #6E7B73",
"$9 	c #748079",
"%9 	c #7C8B81",
"&9 	c #535E5F",
"*9 	c #445159",
"=9 	c #6D6F65",
"-9 	c #5E5C4F",
";9 	c #41413C",
">9 	c #424E5A",
",9 	c #66858D",
"'9 	c #89958C",
")9 	c #7F9092",
"!9 	c #4D5860",
"~9 	c #6E7770",
"{9 	c #758274",
"]9 	c #879385",
"^9 	c #869284",
"/9 	c #7E8A7C",
"(9 	c #677666",
"_9 	c #6D7B6B",
":9 	c #858C7E",
"<9 	c #323841",
"[9 	c #566474",
"}9 	c #81807D",
"|9 	c #31373E",
"19 	c #B2C6E2",
"29 	c #DED9DB",
"39 	c #C6C1C0",
"49 	c #46484C",
"59 	c #4D5867",
"69 	c #B8BCC3",
"79 	c #D4D3D4",
"89 	c #BDBAB7",
"99 	c #838381",
"09 	c #474C53",
"a9 	c #6D7B8C",
"b9 	c #A1A8B0",
"c9 	c #AEABA5",
"d9 	c #B1AEA8",
"e9 	c #ACA9A3",
"f9 	c #B5B2AC",
"g9 	c #A29E9A",
"h9 	c #4A5769",
"i9 	c #485668",
"j9 	c #69797A",
"k9 	c #7B857A",
"l9 	c #717C70",
"m9 	c #626E62",
"n9 	c #5C6C5B",
"o9 	c #687468",
"p9 	c #657165",
"q9 	c #677366",
"r9 	c #687467",
"s9 	c #657471",
"t9 	c #4B575D",
"u9 	c #31363C",
"v9 	c #686A6C",
"w9 	c #A3A3A2",
"x9 	c #B1B4BA",
"y9 	c #58616F",
"z9 	c #404851",
"A9 	c #778381",
"B9 	c #8B9997",
"C9 	c #758790",
"D9 	c #696F70",
"E9 	c #A5ABAC",
"F9 	c #5A6573",
"G9 	c #58626C",
"H9 	c #AFAEAC",
"I9 	c #BAB9B7",
"J9 	c #9FA7B1",
"K9 	c #4C5560",
"L9 	c #3A3F44",
"M9 	c #3B4147",
"N9 	c #3F464F",
"O9 	c #75939B",
"P9 	c #819188",
"Q9 	c #7D8D84",
"R9 	c #718178",
"S9 	c #718078",
"T9 	c #717E77",
"U9 	c #6F7C74",
"V9 	c #75827B",
"W9 	c #7B8B82",
"X9 	c #66716B",
"Y9 	c #3D4952",
"Z9 	c #646962",
"`9 	c #666558",
" 0 	c #4A483D",
".0 	c #3E4245",
"+0 	c #4D5E6F",
"@0 	c #7F999F",
"#0 	c #78887B",
"$0 	c #7A8679",
"%0 	c #8D978B",
"&0 	c #5A6670",
"*0 	c #454C47",
"=0 	c #758173",
"-0 	c #828D7F",
";0 	c #788577",
">0 	c #6A7868",
",0 	c #707E6E",
"'0 	c #777868",
")0 	c #323840",
"!0 	c #C0C0C6",
"~0 	c #E0DBDC",
"{0 	c #BBB9BB",
"]0 	c #2E333A",
"^0 	c #5F6979",
"/0 	c #AEACAA",
"(0 	c #5C5E5F",
"_0 	c #505B68",
":0 	c #8E97A2",
"<0 	c #B7B3AD",
"[0 	c #AFABA5",
"}0 	c #B0ADA6",
"|0 	c #AEAAA4",
"10 	c #ADA9A3",
"20 	c #AFACA6",
"30 	c #B3B0AA",
"40 	c #B6AFA6",
"50 	c #474F59",
"60 	c #49525F",
"70 	c #677A81",
"80 	c #858E84",
"90 	c #626D61",
"00 	c #606C5F",
"a0 	c #5D6D5D",
"b0 	c #727D72",
"c0 	c #677367",
"d0 	c #6B786A",
"e0 	c #6C7C70",
"f0 	c #596A69",
"g0 	c #30353B",
"h0 	c #9B9B9B",
"i0 	c #ACAEAF",
"j0 	c #626B77",
"k0 	c #7C8889",
"l0 	c #818E90",
"m0 	c #4E5968",
"n0 	c #4D5355",
"o0 	c #9AA2A6",
"p0 	c #7B8084",
"q0 	c #BBBAB7",
"r0 	c #616D7E",
"s0 	c #617577",
"t0 	c #829188",
"u0 	c #7E8E85",
"v0 	c #73847A",
"w0 	c #72837A",
"x0 	c #728379",
"y0 	c #708078",
"z0 	c #717E76",
"A0 	c #78867E",
"B0 	c #768278",
"C0 	c #5F6662",
"D0 	c #6F7268",
"E0 	c #6A6B5F",
"F0 	c #545143",
"G0 	c #3A3A36",
"H0 	c #7B9490",
"I0 	c #727E71",
"J0 	c #535E68",
"K0 	c #778375",
"L0 	c #828E80",
"M0 	c #889385",
"N0 	c #717E6F",
"O0 	c #748172",
"P0 	c #848776",
"Q0 	c #333A43",
"R0 	c #556171",
"S0 	c #E1DDDE",
"T0 	c #837E78",
"U0 	c #343B44",
"V0 	c #ACBACC",
"W0 	c #B5B5B5",
"X0 	c #918F8C",
"Y0 	c #47494D",
"Z0 	c #3C434D",
"`0 	c #646F7D",
" a 	c #A2AAB1",
".a 	c #B0ACA6",
"+a 	c #ACA9A2",
"@a 	c #ACA8A2",
"#a 	c #B9B5B0",
"$a 	c #BEB7AF",
"%a 	c #59606B",
"&a 	c #48515E",
"*a 	c #505E73",
"=a 	c #5B6E79",
"-a 	c #858D83",
";a 	c #717C71",
">a 	c #617060",
",a 	c #657365",
"'a 	c #667465",
")a 	c #697669",
"!a 	c #45515A",
"~a 	c #828281",
"{a 	c #AFB0B2",
"]a 	c #A6ADB7",
"^a 	c #434C4F",
"/a 	c #8D9A98",
"(a 	c #8A999A",
"_a 	c #54616F",
":a 	c #5C646C",
"<a 	c #7D868F",
"[a 	c #4B5767",
"}a 	c #949797",
"|a 	c #C5C7CB",
"1a 	c #909AA7",
"2a 	c #48525E",
"3a 	c #343C43",
"4a 	c #4F584F",
"5a 	c #738077",
"6a 	c #7A8B81",
"7a 	c #6E7C74",
"8a 	c #6F7C75",
"9a 	c #748179",
"0a 	c #78887F",
"aa 	c #7E8D85",
"ba 	c #525C5D",
"ca 	c #646459",
"da 	c #514E41",
"ea 	c #3A3B35",
"fa 	c #566D7F",
"ga 	c #5F6F71",
"ha 	c #526269",
"ia 	c #788576",
"ja 	c #6F7C6D",
"ka 	c #879286",
"la 	c #414947",
"ma 	c #6C786A",
"na 	c #808C7E",
"oa 	c #8C9789",
"pa 	c #788476",
"qa 	c #848C7F",
"ra 	c #4F514B",
"sa 	c #38404B",
"ta 	c #E4E7F1",
"ua 	c #E3DEDF",
"va 	c #53565C",
"wa 	c #AEB1B6",
"xa 	c #888683",
"ya 	c #3D4145",
"za 	c #3B4758",
"Aa 	c #73808F",
"Ba 	c #B2AFA9",
"Ca 	c #AEABA4",
"Da 	c #ABA7A1",
"Ea 	c #ADAAA3",
"Fa 	c #B6B2AC",
"Ga 	c #C0BAB2",
"Ha 	c #72757B",
"Ia 	c #454D57",
"Ja 	c #4C5E6A",
"Ka 	c #7A8680",
"La 	c #636E62",
"Ma 	c #657164",
"Na 	c #606F5F",
"Oa 	c #607060",
"Pa 	c #627161",
"Qa 	c #6F7B74",
"Ra 	c #4D595D",
"Sa 	c #333940",
"Ta 	c #858686",
"Ua 	c #B0B1B3",
"Va 	c #AAADB2",
"Wa 	c #4E5962",
"Xa 	c #8E9B9A",
"Ya 	c #92A0A0",
"Za 	c #576370",
"`a 	c #4A525B",
" b 	c #464E59",
".b 	c #4D545C",
"+b 	c #C3C2C0",
"@b 	c #BDC2CA",
"#b 	c #738194",
"$b 	c #3C4755",
"%b 	c #353D3E",
"&b 	c #4C544B",
"*b 	c #6F7C72",
"=b 	c #76867D",
"-b 	c #727E77",
";b 	c #77847C",
">b 	c #798880",
",b 	c #7B8C82",
"'b 	c #818D87",
")b 	c #869286",
"!b 	c #4B545C",
"~b 	c #424D51",
"{b 	c #666A61",
"]b 	c #64655A",
"^b 	c #565448",
"/b 	c #424035",
"(b 	c #383C3C",
"_b 	c #394452",
":b 	c #4D606D",
"<b 	c #718D91",
"[b 	c #8C9C95",
"}b 	c #68726D",
"|b 	c #576767",
"1b 	c #717F6F",
"2b 	c #899587",
"3b 	c #818D7F",
"4b 	c #7E8A85",
"5b 	c #49534B",
"6b 	c #728070",
"7b 	c #899487",
"8b 	c #54594A",
"9b 	c #373D45",
"0b 	c #8191A8",
"ab 	c #E3DEE0",
"bb 	c #CFC8C7",
"cb 	c #4A4C4F",
"db 	c #51565D",
"eb 	c #C0C5CD",
"fb 	c #928F8C",
"gb 	c #414449",
"hb 	c #7B8A9B",
"ib 	c #B2B4B4",
"jb 	c #B2AFA8",
"kb 	c #AAA6A0",
"lb 	c #A9A69F",
"mb 	c #BAB7B2",
"nb 	c #908E8C",
"ob 	c #4B5769",
"pb 	c #5E6E5E",
"qb 	c #6E7B72",
"rb 	c #56646B",
"sb 	c #3B4655",
"tb 	c #3A3E43",
"ub 	c #878787",
"vb 	c #AFB0B1",
"wb 	c #C2C5CA",
"xb 	c #434D57",
"yb 	c #7C8887",
"zb 	c #909D9B",
"Ab 	c #687887",
"Bb 	c #47505C",
"Cb 	c #495462",
"Db 	c #5E6569",
"Eb 	c #C4C5C5",
"Fb 	c #B3BCC8",
"Gb 	c #6A7686",
"Hb 	c #33393B",
"Ib 	c #3E453D",
"Jb 	c #5D675C",
"Kb 	c #717F74",
"Lb 	c #7D8C83",
"Mb 	c #76827B",
"Nb 	c #78847D",
"Ob 	c #77847D",
"Pb 	c #7F8F86",
"Qb 	c #829088",
"Rb 	c #838E88",
"Sb 	c #7D8475",
"Tb 	c #4C555F",
"Ub 	c #3E4956",
"Vb 	c #34352F",
"Wb 	c #413F35",
"Xb 	c #3B3D3A",
"Yb 	c #44505D",
"Zb 	c #546D78",
"`b 	c #738F91",
" c 	c #778A7F",
".c 	c #6C726A",
"+c 	c #5B6D6D",
"@c 	c #6E7E6C",
"#c 	c #6E7A6C",
"$c 	c #87948A",
"%c 	c #6B7B7D",
"&c 	c #4D5861",
"*c 	c #3F4951",
"=c 	c #717F70",
"-c 	c #8E998C",
";c 	c #6D7060",
">c 	c #363F4C",
",c 	c #ADC0DC",
"'c 	c #C0BCBD",
")c 	c #515966",
"!c 	c #ADACAD",
"~c 	c #95928E",
"{c 	c #404244",
"]c 	c #363F4B",
"^c 	c #7D8C9E",
"/c 	c #AEAAA3",
"(c 	c #AAA49D",
"_c 	c #444A52",
":c 	c #444F5F",
"<c 	c #3F4A56",
"[c 	c #6B7B7B",
"}c 	c #798378",
"|c 	c #747E73",
"1c 	c #6C766B",
"2c 	c #616E60",
"3c 	c #617061",
"4c 	c #79857D",
"5c 	c #5D6C73",
"6c 	c #39424E",
"7c 	c #383D43",
"8c 	c #868786",
"9c 	c #5C6571",
"0c 	c #414B56",
"ac 	c #798584",
"bc 	c #8F9A99",
"cc 	c #758691",
"dc 	c #7A7E7F",
"ec 	c #BBBAB6",
"fc 	c #BEC0C0",
"gc 	c #B9C3CF",
"hc 	c #7C8898",
"ic 	c #47515E",
"jc 	c #2F363E",
"kc 	c #2E3331",
"lc 	c #40453C",
"mc 	c #5B6258",
"nc 	c #6C756C",
"oc 	c #757F76",
"pc 	c #7C8781",
"qc 	c #7C8780",
"rc 	c #7D8A83",
"sc 	c #7C8C82",
"tc 	c #687266",
"uc 	c #61685B",
"vc 	c #5A6051",
"wc 	c #565B4D",
"xc 	c #4D4F44",
"yc 	c #494E4E",
"zc 	c #4D5E71",
"Ac 	c #596F7A",
"Bc 	c #69888C",
"Cc 	c #738E87",
"Dc 	c #758677",
"Ec 	c #8E9688",
"Fc 	c #484F55",
"Gc 	c #6D8072",
"Hc 	c #6D7D6B",
"Ic 	c #707C6E",
"Jc 	c #889284",
"Kc 	c #65776C",
"Lc 	c #939D91",
"Mc 	c #6B705D",
"Nc 	c #394148",
"Oc 	c #BED2EE",
"Pc 	c #E2DEDF",
"Qc 	c #BFBDC0",
"Rc 	c #333C48",
"Sc 	c #8295AE",
"Tc 	c #C2C2C2",
"Uc 	c #B8B5B3",
"Vc 	c #54575B",
"Wc 	c #363E4B",
"Xc 	c #728194",
"Yc 	c #B4B0AB",
"Zc 	c #ADAAA4",
"`c 	c #ABA8A1",
" d 	c #AFACA5",
".d 	c #AAA7A0",
"+d 	c #A7A49D",
"@d 	c #B2AEA7",
"#d 	c #B6B2AD",
"$d 	c #BBB3AA",
"%d 	c #4D545D",
"&d 	c #475262",
"*d 	c #434E5C",
"=d 	c #5F7075",
"-d 	c #606E60",
";d 	c #5F6E5E",
">d 	c #5F6E5F",
",d 	c #646F64",
"'d 	c #7A8379",
")d 	c #7D8981",
"!d 	c #586770",
"~d 	c #484C51",
"{d 	c #9E9E9E",
"]d 	c #ADAEB0",
"^d 	c #C5C6C7",
"/d 	c #8892A1",
"(d 	c #7D8888",
"_d 	c #7D8F98",
":d 	c #838686",
"<d 	c #BEBDBC",
"[d 	c #C3CAD2",
"}d 	c #AAB7C8",
"|d 	c #748296",
"1d 	c #32383E",
"2d 	c #2C3031",
"3d 	c #343837",
"4d 	c #393C34",
"5d 	c #45483E",
"6d 	c #4F5548",
"7d 	c #555B4E",
"8d 	c #5D6558",
"9d 	c #677165",
"0d 	c #475465",
"ad 	c #4A5A69",
"bd 	c #546672",
"cd 	c #5F7681",
"dd 	c #8EA9B1",
"ed 	c #7C928B",
"fd 	c #798C80",
"gd 	c #728170",
"hd 	c #6F7E6D",
"id 	c #7C847A",
"jd 	c #3F4D5E",
"kd 	c #6A7A68",
"ld 	c #727F71",
"md 	c #859082",
"nd 	c #717E70",
"od 	c #748072",
"pd 	c #8E978A",
"qd 	c #505960",
"rd 	c #596969",
"sd 	c #798577",
"td 	c #868773",
"ud 	c #3D4246",
"vd 	c #B7B5B9",
"wd 	c #E0DCDD",
"xd 	c #B5B0AF",
"yd 	c #333B46",
"zd 	c #9FB3CB",
"Ad 	c #ADACAC",
"Bd 	c #C1BDBA",
"Cd 	c #6C6B69",
"Dd 	c #5B6674",
"Ed 	c #B7B3AE",
"Fd 	c #BEB6AD",
"Gd 	c #5C6065",
"Hd 	c #444E5D",
"Id 	c #54666D",
"Jd 	c #627162",
"Kd 	c #627062",
"Ld 	c #5D6D5C",
"Md 	c #737E73",
"Nd 	c #77827C",
"Od 	c #4A555E",
"Pd 	c #505254",
"Qd 	c #A4A4A4",
"Rd 	c #C1C2C3",
"Sd 	c #A3ABB8",
"Td 	c #6D7879",
"Ud 	c #8A9796",
"Vd 	c #7C8686",
"Wd 	c #3F4651",
"Xd 	c #3D4349",
"Yd 	c #898B8A",
"Zd 	c #BFBEBA",
"`d 	c #C9CBCC",
" e 	c #C9CED4",
".e 	c #99A0AA",
"+e 	c #3D4653",
"@e 	c #455468",
"#e 	c #33383C",
"$e 	c #525F68",
"%e 	c #3E4B4D",
"&e 	c #7C9896",
"*e 	c #7C938B",
"=e 	c #809288",
"-e 	c #7F8E81",
";e 	c #748273",
">e 	c #474F53",
",e 	c #606C68",
"'e 	c #6E7D6C",
")e 	c #7F8B7D",
"!e 	c #727A74",
"~e 	c #455153",
"{e 	c #7B8979",
"]e 	c #7A7B68",
"^e 	c #3E413F",
"/e 	c #394657",
"(e 	c #BABAC0",
"_e 	c #D9D4D5",
":e 	c #989089",
"<e 	c #313840",
"[e 	c #A4A5A8",
"}e 	c #96928D",
"|e 	c #3D4249",
"1e 	c #4F5D6E",
"2e 	c #A0A6AD",
"3e 	c #ABA7A0",
"4e 	c #AFABA4",
"5e 	c #BEB8B0",
"6e 	c #7B7A7B",
"7e 	c #3F4853",
"8e 	c #495A66",
"9e 	c #7C8782",
"0e 	c #687667",
"ae 	c #6D786D",
"be 	c #667566",
"ce 	c #5E6E5D",
"de 	c #707B70",
"ee 	c #737E72",
"fe 	c #758074",
"ge 	c #7F887E",
"he 	c #697676",
"ie 	c #383E46",
"je 	c #32373C",
"ke 	c #777979",
"le 	c #AAABAD",
"me 	c #ACADAE",
"ne 	c #C6C7C9",
"oe 	c #A0A2A4",
"pe 	c #4B5557",
"qe 	c #8A9795",
"re 	c #7C898C",
"se 	c #8C8D8C",
"te 	c #C4C2BF",
"ue 	c #CAC4BE",
"ve 	c #5B6066",
"we 	c #6F8D92",
"xe 	c #7E918B",
"ye 	c #7E918C",
"ze 	c #76928C",
"Ae 	c #74908C",
"Be 	c #74908E",
"Ce 	c #4E585E",
"De 	c #535C55",
"Ee 	c #5A6357",
"Fe 	c #6C7265",
"Ge 	c #798777",
"He 	c #768374",
"Ie 	c #707F6F",
"Je 	c #6E7D6D",
"Ke 	c #6C7C6A",
"Le 	c #778476",
"Me 	c #69756D",
"Ne 	c #4B5B65",
"Oe 	c #697967",
"Pe 	c #758273",
"Qe 	c #707D6F",
"Re 	c #697A68",
"Se 	c #82897C",
"Te 	c #778376",
"Ue 	c #737763",
"Ve 	c #3C3F3C",
"We 	c #BABAC1",
"Xe 	c #8C867F",
"Ye 	c #333A46",
"Ze 	c #AEAEB1",
"`e 	c #B1B0B1",
" f 	c #AFACAA",
".f 	c #535558",
"+f 	c #3D4856",
"@f 	c #8B9CAD",
"#f 	c #B0ACA5",
"$f 	c #B8B4AE",
"%f 	c #BBB7B2",
"&f 	c #9D9893",
"*f 	c #3D444E",
"=f 	c #404F5C",
"-f 	c #78857E",
";f 	c #7D867C",
">f 	c #727B71",
",f 	c #6C796C",
"'f 	c #6E7B6D",
")f 	c #6F7C6E",
"!f 	c #788177",
"~f 	c #747E74",
"{f 	c #6E7C6E",
"]f 	c #707A70",
"^f 	c #5F6F5F",
"/f 	c #616C60",
"(f 	c #6E7A6E",
"_f 	c #7C857B",
":f 	c #7C867B",
"<f 	c #6D7977",
"[f 	c #4C5053",
"}f 	c #A9A9A9",
"|f 	c #AAACAD",
"1f 	c #ABADAE",
"2f 	c #A9ABAC",
"3f 	c #A9AAAC",
"4f 	c #C5C7C8",
"5f 	c #9EA1A6",
"6f 	c #444E4E",
"7f 	c #899795",
"8f 	c #7D8A8C",
"9f 	c #8C8D8B",
"0f 	c #C2C0BC",
"af 	c #C5BDB2",
"bf 	c #5B5F65",
"cf 	c #556B78",
"df 	c #798A7F",
"ef 	c #738171",
"ff 	c #71806F",
"gf 	c #5C6D71",
"hf 	c #5D6F78",
"if 	c #566567",
"jf 	c #5A6B73",
"kf 	c #596B74",
"lf 	c #3E4A52",
"mf 	c #515C5B",
"nf 	c #566051",
"of 	c #707F6E",
"pf 	c #6D7D6C",
"qf 	c #727F6D",
"rf 	c #3E4751",
"sf 	c #647364",
"tf 	c #6C7B6A",
"uf 	c #6F7D6E",
"vf 	c #8C9386",
"wf 	c #43494C",
"xf 	c #414545",
"yf 	c #BBBBC2",
"zf 	c #7F7B77",
"Af 	c #35404F",
"Bf 	c #A3A6AB",
"Cf 	c #7C7770",
"Df 	c #545B64",
"Ef 	c #B1AEA7",
"Ff 	c #A9A59F",
"Gf 	c #BBB7B3",
"Hf 	c #B8B0A7",
"If 	c #424953",
"Jf 	c #3C444F",
"Kf 	c #3F4A57",
"Lf 	c #4E5550",
"Mf 	c #7A8077",
"Nf 	c #687064",
"Of 	c #5B6355",
"Pf 	c #5A6055",
"Qf 	c #4C5146",
"Rf 	c #474C42",
"Sf 	c #42483F",
"Tf 	c #4A524E",
"Uf 	c #383B38",
"Vf 	c #353835",
"Wf 	c #323532",
"Xf 	c #333633",
"Yf 	c #343836",
"Zf 	c #363936",
"`f 	c #353A37",
" g 	c #383D39",
".g 	c #4E5552",
"+g 	c #474B44",
"@g 	c #4A4E46",
"#g 	c #4C5246",
"$g 	c #5D6458",
"%g 	c #63695D",
"&g 	c #70776C",
"*g 	c #6A7769",
"=g 	c #667166",
"-g 	c #646E70",
";g 	c #3E4857",
">g 	c #646667",
",g 	c #A8AAAB",
"'g 	c #ABACAE",
")g 	c #A2A4A9",
"!g 	c #424B4E",
"~g 	c #7C8789",
"{g 	c #33393E",
"]g 	c #878886",
"^g 	c #BCBAB7",
"/g 	c #AFADA9",
"(g 	c #ACABA7",
"_g 	c #ADACA7",
":g 	c #BEB6A9",
"<g 	c #464D57",
"[g 	c #5A7378",
"}g 	c #768574",
"|g 	c #6F7F6E",
"1g 	c #65746A",
"2g 	c #55666E",
"3g 	c #343C41",
"4g 	c #596557",
"5g 	c #526068",
"6g 	c #394044",
"7g 	c #657565",
"8g 	c #6A7B69",
"9g 	c #7C887A",
"0g 	c #717C7B",
"ag 	c #445265",
"bg 	c #BCBDC4",
"cg 	c #7C7876",
"dg 	c #374150",
"eg 	c #B2B4BA",
"fg 	c #B3B2B3",
"gg 	c #B3B0AE",
"hg 	c #515760",
"ig 	c #3E4959",
"jg 	c #ADA9A2",
"kg 	c #8C8274",
"lg 	c #2F3438",
"mg 	c #2C302F",
"ng 	c #2C3030",
"og 	c #2F3334",
"pg 	c #2F3337",
"qg 	c #30363D",
"rg 	c #353D47",
"sg 	c #353B43",
"tg 	c #475466",
"ug 	c #66778F",
"vg 	c #70819A",
"wg 	c #7788A1",
"xg 	c #7B8AA1",
"yg 	c #8190A6",
"zg 	c #8595AC",
"Ag 	c #8697B1",
"Bg 	c #8594AA",
"Cg 	c #7D8CA3",
"Dg 	c #71839B",
"Eg 	c #6E7E96",
"Fg 	c #586679",
"Gg 	c #435063",
"Hg 	c #3D4857",
"Ig 	c #34393C",
"Jg 	c #333736",
"Kg 	c #3E4344",
"Lg 	c #505651",
"Mg 	c #61675D",
"Ng 	c #696E63",
"Og 	c #7E867D",
"Pg 	c #6C786C",
"Qg 	c #838A81",
"Rg 	c #797D6F",
"Sg 	c #3F4752",
"Tg 	c #555C64",
"Ug 	c #C3C5C6",
"Vg 	c #A8ABAF",
"Wg 	c #414B4F",
"Xg 	c #899492",
"Yg 	c #7C8688",
"Zg 	c #41474F",
"`g 	c #ADA498",
" h 	c #617A79",
".h 	c #6F7F6D",
"+h 	c #6A7968",
"@h 	c #738071",
"#h 	c #6C7C6B",
"$h 	c #718172",
"%h 	c #657671",
"&h 	c #414842",
"*h 	c #748272",
"=h 	c #657174",
"-h 	c #4F5C58",
";h 	c #677866",
">h 	c #727F70",
",h 	c #758174",
"'h 	c #707D6E",
")h 	c #6B7C6A",
"!h 	c #626855",
"~h 	c #444B53",
"{h 	c #837F7B",
"]h 	c #AEB1B7",
"^h 	c #D6D4D4",
"/h 	c #B0AFB0",
"(h 	c #94918D",
"_h 	c #ABA8A2",
":h 	c #B6B3AD",
"<h 	c #AEA8A0",
"[h 	c #6D6962",
"}h 	c #39414B",
"|h 	c #39404B",
"1h 	c #5C6A7F",
"2h 	c #7989A0",
"3h 	c #94A2B8",
"4h 	c #B1BDD1",
"5h 	c #D1D9E9",
"6h 	c #E0E7F6",
"7h 	c #65686E",
"8h 	c #CFD3DD",
"9h 	c #DFDBDB",
"0h 	c #DED9DA",
"ah 	c #D6D1D2",
"bh 	c #D3CECF",
"ch 	c #D5D1D1",
"dh 	c #D8D4D4",
"eh 	c #D9D5D5",
"fh 	c #DDDEE4",
"gh 	c #C2B7AD",
"hh 	c #6D6861",
"ih 	c #4D4D4B",
"jh 	c #3E454D",
"kh 	c #3D434B",
"lh 	c #61728B",
"mh 	c #414D5D",
"nh 	c #464E58",
"oh 	c #444F5E",
"ph 	c #32383F",
"qh 	c #404641",
"rh 	c #555E52",
"sh 	c #646E62",
"th 	c #81897C",
"uh 	c #545A57",
"vh 	c #40464E",
"wh 	c #414B57",
"xh 	c #454C57",
"yh 	c #454F5B",
"zh 	c #7D8083",
"Ah 	c #C4C6C7",
"Bh 	c #A5A8AD",
"Ch 	c #445163",
"Dh 	c #434B4D",
"Eh 	c #889290",
"Fh 	c #7D8688",
"Gh 	c #3F464D",
"Hh 	c #777775",
"Ih 	c #B9B7B4",
"Jh 	c #C2BEB8",
"Kh 	c #8C877F",
"Lh 	c #394554",
"Mh 	c #66807B",
"Nh 	c #697A67",
"Oh 	c #667765",
"Ph 	c #687966",
"Qh 	c #687967",
"Rh 	c #6B7B6A",
"Sh 	c #6F7F73",
"Th 	c #4D5963",
"Uh 	c #3F4952",
"Vh 	c #4D5356",
"Wh 	c #637776",
"Xh 	c #687867",
"Yh 	c #727D70",
"Zh 	c #70806E",
"`h 	c #758170",
" i 	c #565A4B",
".i 	c #444D57",
"+i 	c #475363",
"@i 	c #B8B6B9",
"#i 	c #8D8781",
"$i 	c #404C5C",
"%i 	c #A9ACB2",
"&i 	c #5C5C5C",
"*i 	c #3A4658",
"=i 	c #95A5B6",
"-i 	c #ACA8A1",
";i 	c #B3AFAA",
">i 	c #928C83",
",i 	c #5E5B55",
"'i 	c #373A3C",
")i 	c #36404D",
"!i 	c #617084",
"~i 	c #90A2BC",
"{i 	c #B1BDD2",
"]i 	c #D1D9E7",
"^i 	c #DBDDE4",
"/i 	c #D4CFD0",
"(i 	c #DDD8D9",
"_i 	c #DDD9D9",
":i 	c #C9C6C8",
"<i 	c #363D45",
"[i 	c #474E58",
"}i 	c #CBC8C9",
"|i 	c #D3CFCF",
"1i 	c #D1CDCD",
"2i 	c #BBB7B6",
"3i 	c #848487",
"4i 	c #363E49",
"5i 	c #4F5865",
"6i 	c #798AA1",
"7i 	c #A9B7CC",
"8i 	c #DCE7F9",
"9i 	c #D6D4D9",
"0i 	c #C8CDDA",
"ai 	c #585F69",
"bi 	c #404A57",
"ci 	c #33373C",
"di 	c #303536",
"ei 	c #3A3F3B",
"fi 	c #535B50",
"gi 	c #697769",
"hi 	c #676959",
"ii 	c #444C55",
"ji 	c #424951",
"ki 	c #4C586B",
"li 	c #444E5B",
"mi 	c #3A434E",
"ni 	c #4A4D4E",
"oi 	c #A2A5AA",
"pi 	c #464F53",
"qi 	c #899392",
"ri 	c #798282",
"si 	c #555757",
"ti 	c #B0AEAB",
"ui 	c #6A6967",
"vi 	c #3F505E",
"wi 	c #6C8176",
"xi 	c #667664",
"yi 	c #687766",
"zi 	c #6B7A69",
"Ai 	c #7F8A7C",
"Bi 	c #545D57",
"Ci 	c #6F7A6C",
"Di 	c #434B50",
"Ei 	c #7B9499",
"Fi 	c #6C7460",
"Gi 	c #4C524B",
"Hi 	c #4A525E",
"Ii 	c #B7CBE8",
"Ji 	c #9C958F",
"Ki 	c #ADABA9",
"Li 	c #A5A7A8",
"Mi 	c #A8A59E",
"Ni 	c #B0ACA7",
"Oi 	c #A7A299",
"Pi 	c #7F786E",
"Qi 	c #4C4944",
"Ri 	c #35393E",
"Si 	c #5E6F86",
"Ti 	c #909FB5",
"Ui 	c #C4D1E7",
"Vi 	c #D7D9E0",
"Wi 	c #D5D0D1",
"Xi 	c #D4D0D0",
"Yi 	c #D7D3D3",
"Zi 	c #D8D3D4",
"`i 	c #DFDADB",
" j 	c #DCD8D8",
".j 	c #D2D3DC",
"+j 	c #4B515A",
"@j 	c #DBD7D7",
"#j 	c #A39F9E",
"$j 	c #5C5D60",
"%j 	c #7B8189",
"&j 	c #989FAB",
"*j 	c #CFD7E5",
"=j 	c #E0DCDC",
"-j 	c #E1E7F6",
";j 	c #B8BBC3",
">j 	c #777B84",
",j 	c #7A818D",
"'j 	c #8E949F",
")j 	c #7D8798",
"!j 	c #525A65",
"~j 	c #676665",
"{j 	c #D1CDCE",
"]j 	c #CECACB",
"^j 	c #B4AEAA",
"/j 	c #455163",
"(j 	c #4C5C72",
"_j 	c #7E94B1",
":j 	c #98A8BE",
"<j 	c #9AAABF",
"[j 	c #8C9AAE",
"}j 	c #758398",
"|j 	c #525E6F",
"1j 	c #2B3033",
"2j 	c #30332F",
"3j 	c #434B3F",
"4j 	c #616C5E",
"5j 	c #697768",
"6j 	c #637262",
"7j 	c #657465",
"8j 	c #757967",
"9j 	c #455162",
"0j 	c #84A0B5",
"aj 	c #8595A0",
"bj 	c #A4A5A6",
"cj 	c #9EA1A5",
"dj 	c #4D5659",
"ej 	c #8A9593",
"fj 	c #7C8990",
"gj 	c #454848",
"hj 	c #95948F",
"ij 	c #BCB5AB",
"jj 	c #52575D",
"kj 	c #455863",
"lj 	c #6F8275",
"mj 	c #6E7E6D",
"nj 	c #869183",
"oj 	c #717D6F",
"pj 	c #8B9588",
"qj 	c #3F4A59",
"rj 	c #323938",
"sj 	c #424C53",
"tj 	c #75816F",
"uj 	c #5E6351",
"vj 	c #4C5761",
"wj 	c #4F5A67",
"xj 	c #474F58",
"yj 	c #AABED9",
"zj 	c #B3B0B1",
"Aj 	c #A2A3A5",
"Bj 	c #C3C3C3",
"Cj 	c #918C86",
"Dj 	c #34393F",
"Ej 	c #5F6D7E",
"Fj 	c #837C71",
"Gj 	c #505150",
"Hj 	c #414A58",
"Ij 	c #A8BAD4",
"Jj 	c #DFE7F6",
"Kj 	c #D7D2D3",
"Lj 	c #D2CECE",
"Mj 	c #CDC9C9",
"Nj 	c #D3CFD0",
"Oj 	c #E2DDDE",
"Pj 	c #DEDADA",
"Qj 	c #D6D4D7",
"Rj 	c #474B51",
"Sj 	c #798290",
"Tj 	c #BBBFC9",
"Uj 	c #D2CECF",
"Vj 	c #D0CCCD",
"Wj 	c #DAD5D6",
"Xj 	c #DAD6D6",
"Yj 	c #C6C2C2",
"Zj 	c #C9C5C5",
"`j 	c #CCC8C8",
" k 	c #BABCC3",
".k 	c #7A8597",
"+k 	c #46494C",
"@k 	c #848486",
"#k 	c #485465",
"$k 	c #434C58",
"%k 	c #6F85A1",
"&k 	c #A8ADB5",
"*k 	c #A3A5A9",
"=k 	c #9FA1A5",
"-k 	c #9D9FA3",
";k 	c #9C9FA3",
">k 	c #9EA7B4",
",k 	c #838FA0",
"'k 	c #617085",
")k 	c #37404B",
"!k 	c #303430",
"~k 	c #464D42",
"{k 	c #757F74",
"]k 	c #7D8479",
"^k 	c #54574D",
"/k 	c #404A56",
"(k 	c #6A8298",
"_k 	c #A8B9C0",
":k 	c #A3AAA5",
"<k 	c #9CA4A0",
"[k 	c #57616A",
"}k 	c #7B7D7E",
"|k 	c #A2A3A6",
"1k 	c #6D7678",
"2k 	c #8C9695",
"3k 	c #74848E",
"4k 	c #47525F",
"5k 	c #3E444A",
"6k 	c #757470",
"7k 	c #C0BEBB",
"8k 	c #B9AFA1",
"9k 	c #40454B",
"0k 	c #4D656D",
"ak 	c #718376",
"bk 	c #6C796A",
"ck 	c #6B7969",
"dk 	c #3D434C",
"ek 	c #526367",
"fk 	c #728171",
"gk 	c #797C6C",
"hk 	c #4D5249",
"ik 	c #4B5460",
"jk 	c #5C7087",
"kk 	c #8799B3",
"lk 	c #B9B7BA",
"mk 	c #A8A9AB",
"nk 	c #95A4B3",
"ok 	c #B9B5AF",
"pk 	c #979187",
"qk 	c #605D57",
"rk 	c #7A8EAA",
"sk 	c #C0CFE5",
"tk 	c #E3E5ED",
"uk 	c #D3D7E1",
"vk 	c #CECACA",
"wk 	c #CAC6C6",
"xk 	c #E5E1E1",
"yk 	c #6B6A69",
"zk 	c #495362",
"Ak 	c #788393",
"Bk 	c #D6D9E1",
"Ck 	c #E1DDDD",
"Dk 	c #D0CCCC",
"Ek 	c #C7C3C4",
"Fk 	c #C3BFBF",
"Gk 	c #C4C0C0",
"Hk 	c #C5C1C1",
"Ik 	c #CDC9CA",
"Jk 	c #D0CBCC",
"Kk 	c #CEC9C9",
"Lk 	c #444F60",
"Mk 	c #8499B3",
"Nk 	c #A9ABAE",
"Ok 	c #A4A6AA",
"Pk 	c #9FA2A6",
"Qk 	c #999CA0",
"Rk 	c #9C9FA2",
"Sk 	c #9B9DA1",
"Tk 	c #A0A5AD",
"Uk 	c #8D99AA",
"Vk 	c #647389",
"Wk 	c #38403C",
"Xk 	c #535D50",
"Yk 	c #6B786B",
"Zk 	c #7B847A",
"`k 	c #6B6C5D",
" l 	c #4C5A6B",
".l 	c #9DB1BD",
"+l 	c #9FA6A2",
"@l 	c #9FA59F",
"#l 	c #99A099",
"$l 	c #959C95",
"%l 	c #6A7479",
"&l 	c #54585B",
"*l 	c #A3A4A6",
"=l 	c #7D888B",
"-l 	c #909C9B",
";l 	c #667582",
">l 	c #464E57",
",l 	c #494A49",
"'l 	c #94928C",
")l 	c #C1BFBC",
"!l 	c #A79F93",
"~l 	c #587274",
"{l 	c #697667",
"]l 	c #6B7769",
"^l 	c #667564",
"/l 	c #657664",
"(l 	c #4B5459",
"_l 	c #728477",
":l 	c #738172",
"<l 	c #788372",
"[l 	c #565848",
"}l 	c #485460",
"|l 	c #556478",
"1l 	c #6F8094",
"2l 	c #596471",
"3l 	c #69707A",
"4l 	c #BBB8B9",
"5l 	c #A5B9D0",
"6l 	c #505356",
"7l 	c #45505D",
"8l 	c #9D9E9F",
"9l 	c #867F74",
"0l 	c #484948",
"al 	c #607188",
"bl 	c #B3C4DD",
"cl 	c #E2E4EC",
"dl 	c #D1D5DF",
"el 	c #CBC7C7",
"fl 	c #C9C5C6",
"gl 	c #E1DCDD",
"hl 	c #E2DDDD",
"il 	c #C7C1BF",
"jl 	c #4F5155",
"kl 	c #B2C4DE",
"ll 	c #C1BDBE",
"ml 	c #C1BDBD",
"nl 	c #C0BCBC",
"ol 	c #C2BEBE",
"pl 	c #D1CCCD",
"ql 	c #CCC8C9",
"rl 	c #D0C5BE",
"sl 	c #4B5564",
"tl 	c #91A4BC",
"ul 	c #A4A6A9",
"vl 	c #9B9EA2",
"wl 	c #9A9DA1",
"xl 	c #989B9F",
"yl 	c #A0A3A7",
"zl 	c #A1A7AF",
"Al 	c #8995A8",
"Bl 	c #4A5047",
"Cl 	c #787A69",
"Dl 	c #444D5B",
"El 	c #98B1C2",
"Fl 	c #A7B1B0",
"Gl 	c #A1A8A1",
"Hl 	c #A0A79F",
"Il 	c #9DA59D",
"Jl 	c #969C95",
"Kl 	c #898F89",
"Ll 	c #4E5B66",
"Ml 	c #4C5056",
"Nl 	c #ADADAE",
"Ol 	c #A2A7B1",
"Pl 	c #3A4553",
"Ql 	c #7A8686",
"Rl 	c #929F9D",
"Sl 	c #59636E",
"Tl 	c #414952",
"Ul 	c #3F454D",
"Vl 	c #393F46",
"Wl 	c #5A5953",
"Xl 	c #BEBDB9",
"Yl 	c #8A857E",
"Zl 	c #6B8385",
"`l 	c #637461",
" m 	c #677665",
".m 	c #5A6360",
"+m 	c #788373",
"@m 	c #5D6251",
"#m 	c #48576A",
"$m 	c #707C89",
"%m 	c #545758",
"&m 	c #667384",
"*m 	c #CDC7C6",
"=m 	c #4F5660",
"-m 	c #8B9EB7",
";m 	c #D3D2D3",
">m 	c #C5C2C0",
",m 	c #4A4D52",
"'m 	c #535F6D",
")m 	c #A9A49B",
"!m 	c #726C61",
"~m 	c #414343",
"{m 	c #3A4048",
"]m 	c #C0C9D9",
"^m 	c #C8C4C5",
"/m 	c #E2DEDE",
"(m 	c #E6E1E2",
"_m 	c #E3DFDF",
":m 	c #958E86",
"<m 	c #353E49",
"[m 	c #B7C6DC",
"}m 	c #CFCACB",
"|m 	c #C3C0C0",
"1m 	c #C7C3C3",
"2m 	c #D6D2D2",
"3m 	c #CEC5BE",
"4m 	c #53657D",
"5m 	c #9DAAB9",
"6m 	c #A1A3A7",
"7m 	c #9A9DA0",
"8m 	c #96999D",
"9m 	c #95989C",
"0m 	c #A2A5A9",
"am 	c #6E7D93",
"bm 	c #33373A",
"cm 	c #404743",
"dm 	c #697267",
"em 	c #7B8377",
"fm 	c #5C5F54",
"gm 	c #8AA4B7",
"hm 	c #A9B7B7",
"im 	c #A4ADA4",
"jm 	c #A0A9A0",
"km 	c #9DA49C",
"lm 	c #9DA79D",
"mm 	c #9CA39C",
"nm 	c #959B94",
"om 	c #565F67",
"pm 	c #696F6C",
"qm 	c #535D69",
"rm 	c #A5A6A7",
"sm 	c #858D9A",
"tm 	c #3D4855",
"um 	c #808C8C",
"vm 	c #95A2A1",
"wm 	c #4F5B68",
"xm 	c #8C9FBB",
"ym 	c #77879F",
"zm 	c #393D42",
"Am 	c #706E68",
"Bm 	c #B0AEA9",
"Cm 	c #6D6C69",
"Dm 	c #839797",
"Em 	c #90998D",
"Fm 	c #6D796B",
"Gm 	c #768275",
"Hm 	c #616A66",
"Im 	c #6E8176",
"Jm 	c #74806F",
"Km 	c #5A5F4E",
"Lm 	c #424746",
"Mm 	c #495565",
"Nm 	c #49576A",
"Om 	c #5E6265",
"Pm 	c #526175",
"Qm 	c #DBDEE8",
"Rm 	c #DFDADC",
"Sm 	c #5E636B",
"Tm 	c #5F6672",
"Um 	c #BAB8B8",
"Vm 	c #42464A",
"Wm 	c #AFABA6",
"Xm 	c #6F6B63",
"Ym 	c #393E42",
"Zm 	c #94A4BB",
"`m 	c #818B9B",
" n 	c #424B58",
".n 	c #A8A6A7",
"+n 	c #B4ACA7",
"@n 	c #8490A0",
"#n 	c #C8C4C4",
"$n 	c #E3DEDE",
"%n 	c #9C9388",
"&n 	c #383F4A",
"*n 	c #B3BAC8",
"=n 	c #CFCBCB",
"-n 	c #CABDB2",
";n 	c #4F5763",
">n 	c #A3ABB5",
",n 	c #929599",
"'n 	c #92969A",
")n 	c #9DA0A4",
"!n 	c #A1A4A8",
"~n 	c #A4A7AB",
"{n 	c #A6A9AD",
"]n 	c #A3A8B0",
"^n 	c #788598",
"/n 	c #333A42",
"(n 	c #414742",
"_n 	c #6D756B",
":n 	c #707C6F",
"<n 	c #6E7262",
"[n 	c #4A535D",
"}n 	c #465365",
"|n 	c #424A56",
"1n 	c #647B91",
"2n 	c #A5B4BA",
"3n 	c #A6B0A8",
"4n 	c #A1AAA1",
"5n 	c #989F97",
"6n 	c #9BA49B",
"7n 	c #9AA19A",
"8n 	c #9AA199",
"9n 	c #A0A7A0",
"0n 	c #505963",
"an 	c #757E80",
"bn 	c #9EA0A1",
"cn 	c #595F68",
"dn 	c #919D9C",
"en 	c #8C9A9B",
"fn 	c #94969C",
"gn 	c #D9D7DC",
"hn 	c #D3D6E3",
"in 	c #8691A5",
"jn 	c #3D4654",
"kn 	c #393B3B",
"ln 	c #706D66",
"mn 	c #ADABA6",
"nn 	c #C0B7AB",
"on 	c #4A5969",
"pn 	c #444C4C",
"qn 	c #949E92",
"rn 	c #8F998C",
"sn 	c #737E71",
"tn 	c #6D7B6C",
"un 	c #6A7370",
"vn 	c #76857A",
"wn 	c #6A7462",
"xn 	c #4D4F40",
"yn 	c #3B403F",
"zn 	c #465262",
"An 	c #4C596D",
"Bn 	c #444F5D",
"Cn 	c #C7C9D1",
"Dn 	c #61666E",
"En 	c #616872",
"Fn 	c #333840",
"Gn 	c #728092",
"Hn 	c #AAA49B",
"In 	c #6F6A61",
"Jn 	c #3B3F44",
"Kn 	c #A2B4CC",
"Ln 	c #D0D2D9",
"Mn 	c #D1CDCF",
"Nn 	c #BBBCC5",
"On 	c #3E444D",
"Pn 	c #9A9A9B",
"Qn 	c #737172",
"Rn 	c #D4D6DD",
"Sn 	c #999188",
"Tn 	c #353B44",
"Un 	c #AFBFD6",
"Vn 	c #CFCBCC",
"Wn 	c #BAB0A7",
"Xn 	c #3D4650",
"Yn 	c #7389A4",
"Zn 	c #A2A7AE",
"`n 	c #919599",
" o 	c #94979B",
".o 	c #979A9E",
"+o 	c #9DA3AA",
"@o 	c #7D8999",
"#o 	c #495361",
"$o 	c #3F433D",
"%o 	c #6A7368",
"&o 	c #7C7F70",
"*o 	c #4F5450",
"=o 	c #3E444C",
"-o 	c #4E5F71",
";o 	c #A3B7C3",
">o 	c #A7B2B1",
",o 	c #A3ABA3",
"'o 	c #9FA99F",
")o 	c #9BA39B",
"!o 	c #9AA59B",
"~o 	c #99A299",
"{o 	c #9AA39B",
"]o 	c #9DA49D",
"^o 	c #A2A9A2",
"/o 	c #4F595F",
"(o 	c #A1A6A0",
"_o 	c #6B7882",
":o 	c #A3A5A8",
"<o 	c #59616B",
"[o 	c #444B50",
"}o 	c #818B8D",
"|o 	c #B6B3B6",
"1o 	c #D7D4D8",
"2o 	c #D2D7E7",
"3o 	c #828DA2",
"4o 	c #323536",
"5o 	c #56534C",
"6o 	c #A19E98",
"7o 	c #BBB9B6",
"8o 	c #B9AEA1",
"9o 	c #596D7C",
"0o 	c #818E8C",
"ao 	c #50585D",
"bo 	c #8B9488",
"co 	c #7E8475",
"do 	c #444C52",
"eo 	c #424640",
"fo 	c #383F45",
"go 	c #536274",
"ho 	c #4C5765",
"io 	c #50575F",
"jo 	c #4C5562",
"ko 	c #B5C9E5",
"lo 	c #918C89",
"mo 	c #4E5B6B",
"no 	c #999590",
"oo 	c #373D46",
"po 	c #8593A2",
"qo 	c #A9A6A0",
"ro 	c #B1ADA8",
"so 	c #827C73",
"to 	c #404245",
"uo 	c #A1B3CD",
"vo 	c #D2D4DC",
"wo 	c #C6C2C3",
"xo 	c #CDC8C9",
"yo 	c #B2B3BB",
"zo 	c #3D4551",
"Ao 	c #D0CED1",
"Bo 	c #525E6D",
"Co 	c #D2CDCE",
"Do 	c #BCB8B8",
"Eo 	c #546173",
"Fo 	c #C8D3E5",
"Go 	c #CBC7C8",
"Ho 	c #DAD3D1",
"Io 	c #A39C95",
"Jo 	c #869BB4",
"Ko 	c #A2A4A8",
"Lo 	c #989B9E",
"Mo 	c #A0A5AC",
"No 	c #8390A2",
"Oo 	c #525954",
"Po 	c #80877B",
"Qo 	c #616557",
"Ro 	c #49515E",
"So 	c #464E5A",
"To 	c #5D6D7E",
"Uo 	c #92ADBC",
"Vo 	c #AAB7B6",
"Wo 	c #A5ADA5",
"Xo 	c #9EA89E",
"Yo 	c #9CA59C",
"Zo 	c #9BA59B",
"`o 	c #9CA69C",
" p 	c #9DA69D",
".p 	c #9DA39C",
"+p 	c #878E8B",
"@p 	c #5A6467",
"#p 	c #989E97",
"$p 	c #7E8A8F",
"%p 	c #7D8185",
"&p 	c #BBBDC0",
"*p 	c #485156",
"=p 	c #899291",
"-p 	c #707B80",
";p 	c #C0BEC0",
">p 	c #D9D7DB",
",p 	c #D7DBE8",
"'p 	c #98A4B9",
")p 	c #464D58",
"!p 	c #343B43",
"~p 	c #454542",
"{p 	c #757168",
"]p 	c #A4A09A",
"^p 	c #A79F95",
"/p 	c #617986",
"(p 	c #8F9A91",
"_p 	c #818982",
":p 	c #4D555B",
"<p 	c #7E8679",
"[p 	c #767C6D",
"}p 	c #606253",
"|p 	c #44463E",
"1p 	c #465567",
"2p 	c #5B6E83",
"3p 	c #616A72",
"4p 	c #666A6B",
"5p 	c #666C72",
"6p 	c #404850",
"7p 	c #4A515C",
"8p 	c #7788A2",
"9p 	c #C0BEC3",
"0p 	c #3F4B5A",
"ap 	c #B2B5BC",
"bp 	c #8B867E",
"cp 	c #363B42",
"dp 	c #93A2B0",
"ep 	c #958F87",
"fp 	c #46484A",
"gp 	c #95A5BD",
"hp 	c #CCCED5",
"ip 	c #797D86",
"jp 	c #BAC1CD",
"kp 	c #8F96A1",
"lp 	c #717378",
"mp 	c #C4CAD7",
"np 	c #CEC9CA",
"op 	c #D6CEC9",
"pp 	c #85827F",
"qp 	c #95A8C0",
"rp 	c #A6A8AC",
"sp 	c #9CA0A4",
"tp 	c #798698",
"up 	c #3A434C",
"vp 	c #424844",
"wp 	c #61675C",
"xp 	c #6E7467",
"yp 	c #6F7162",
"zp 	c #474D51",
"Ap 	c #677E94",
"Bp 	c #ACBBC2",
"Cp 	c #AFB7B5",
"Dp 	c #7B8283",
"Ep 	c #5E676D",
"Fp 	c #4F5556",
"Gp 	c #8B9289",
"Hp 	c #A0AAA0",
"Ip 	c #9FA89F",
"Jp 	c #9EA69E",
"Kp 	c #9FA69F",
"Lp 	c #91968C",
"Mp 	c #788082",
"Np 	c #4B4C47",
"Op 	c #394049",
"Pp 	c #6A6F72",
"Qp 	c #A5A8AC",
"Rp 	c #7C878A",
"Sp 	c #8B9594",
"Tp 	c #52575F",
"Up 	c #D3CED0",
"Vp 	c #DCDDE6",
"Wp 	c #B1BCD2",
"Xp 	c #546073",
"Yp 	c #3C4044",
"Zp 	c #474744",
"`p 	c #716D64",
" q 	c #A29F98",
".q 	c #ABA69D",
"+q 	c #9E9586",
"@q 	c #5F5D59",
"#q 	c #8B9389",
"$q 	c #8D958A",
"%q 	c #7E8882",
"&q 	c #3E4345",
"*q 	c #8D978A",
"=q 	c #70796C",
"-q 	c #596055",
";q 	c #5D6457",
">q 	c #575C53",
",q 	c #5A6058",
"'q 	c #686F62",
")q 	c #7C8273",
"!q 	c #7C8173",
"~q 	c #6D7061",
"{q 	c #5B5D4F",
"]q 	c #434338",
"^q 	c #3B3E3C",
"/q 	c #353A3F",
"(q 	c #46566A",
"_q 	c #526479",
":q 	c #5E6468",
"<q 	c #646869",
"[q 	c #686B6D",
"}q 	c #717476",
"|q 	c #616A74",
"1q 	c #4A535F",
"2q 	c #5F6F84",
"3q 	c #C9C3C3",
"4q 	c #A8B6C9",
"5q 	c #948F87",
"6q 	c #323A44",
"7q 	c #97A7B6",
"8q 	c #A6A199",
"9q 	c #5C5A56",
"0q 	c #CDD0D8",
"aq 	c #CEC9C7",
"bq 	c #D2CDCC",
"cq 	c #D8D3D3",
"dq 	c #9199A4",
"eq 	c #6B6D72",
"fq 	c #CAD1DD",
"gq 	c #D9D2CE",
"hq 	c #535F6E",
"iq 	c #E4E0E0",
"jq 	c #C4C0C1",
"kq 	c #CAC6C7",
"lq 	c #D3C8C1",
"mq 	c #696A6B",
"nq 	c #3F454E",
"oq 	c #495769",
"pq 	c #9EAAB9",
"qq 	c #A8ABAE",
"rq 	c #94989B",
"sq 	c #93969A",
"tq 	c #A3A9B1",
"uq 	c #6B7A8F",
"vq 	c #3D4245",
"wq 	c #3D434A",
"xq 	c #9BAFBC",
"yq 	c #A5AAA4",
"zq 	c #A1A7A1",
"Aq 	c #9EA49E",
"Bq 	c #999F99",
"Cq 	c #969F9C",
"Dq 	c #6E7B83",
"Eq 	c #373F47",
"Fq 	c #656A65",
"Gq 	c #959E93",
"Hq 	c #9FA79F",
"Iq 	c #7F837E",
"Jq 	c #576167",
"Kq 	c #758085",
"Lq 	c #8F9EA3",
"Mq 	c #7F8C8F",
"Nq 	c #7A8080",
"Oq 	c #576069",
"Pq 	c #495158",
"Qq 	c #6A6E71",
"Rq 	c #A5A9B0",
"Sq 	c #788685",
"Tq 	c #8A9896",
"Uq 	c #444E58",
"Vq 	c #70757C",
"Wq 	c #D4CFD1",
"Xq 	c #B2ACA9",
"Yq 	c #A1B1CB",
"Zq 	c #596373",
"`q 	c #393D41",
" r 	c #393D3F",
".r 	c #434E5D",
"+r 	c #38414A",
"@r 	c #5F675F",
"#r 	c #858D82",
"$r 	c #77837D",
"%r 	c #414951",
"&r 	c #4A5455",
"*r 	c #5A6766",
"=r 	c #444744",
"-r 	c #3F4340",
";r 	c #3B3F3F",
">r 	c #474D50",
",r 	c #3C4248",
"'r 	c #424E5E",
")r 	c #445266",
"!r 	c #53657C",
"~r 	c #64707C",
"{r 	c #61676B",
"]r 	c #5A5E5F",
"^r 	c #565A5B",
"/r 	c #555A5B",
"(r 	c #595E5F",
"_r 	c #5D6162",
":r 	c #646769",
"<r 	c #6B6F70",
"[r 	c #727576",
"}r 	c #575F69",
"|r 	c #C9CBD4",
"1r 	c #5A5D63",
"2r 	c #6A778B",
"3r 	c #948E87",
"4r 	c #98A8B8",
"5r 	c #787164",
"6r 	c #5B6B81",
"7r 	c #D3E2F9",
"8r 	c #79808C",
"9r 	c #5A5E63",
"0r 	c #D0C6BF",
"ar 	c #A5998A",
"br 	c #908B85",
"cr 	c #C0BBB8",
"dr 	c #D9D4D4",
"er 	c #7D8492",
"fr 	c #908C88",
"gr 	c #50545B",
"hr 	c #BAB9BB",
"ir 	c #5F6369",
"jr 	c #BBBFC7",
"kr 	c #CFC3BA",
"lr 	c #515458",
"mr 	c #5B6E87",
"nr 	c #9EA6B0",
"or 	c #9FA3A7",
"pr 	c #9BA4B2",
"qr 	c #555F6E",
"rr 	c #444A53",
"sr 	c #809BAF",
"tr 	c #A9B2B0",
"ur 	c #A4AAA4",
"vr 	c #9DA39D",
"wr 	c #999F98",
"xr 	c #979D97",
"yr 	c #A1A9A1",
"zr 	c #717E83",
"Ar 	c #4E5455",
"Br 	c #8A8D84",
"Cr 	c #616460",
"Dr 	c #889393",
"Er 	c #9EA49D",
"Fr 	c #A0A8A0",
"Gr 	c #91968E",
"Hr 	c #83929B",
"Ir 	c #373C42",
"Jr 	c #6C7074",
"Kr 	c #616770",
"Lr 	c #3C4752",
"Mr 	c #7F8D8E",
"Nr 	c #B2B0B3",
"Or 	c #58595D",
"Pr 	c #9FB1CB",
"Qr 	c #DDDBE0",
"Rr 	c #D7DDED",
"Sr 	c #979FAF",
"Tr 	c #606C7E",
"Ur 	c #3F4955",
"Vr 	c #353D46",
"Wr 	c #393D3B",
"Xr 	c #383B32",
"Yr 	c #3A3D31",
"Zr 	c #455053",
"`r 	c #383E3A",
" s 	c #5A5E52",
".s 	c #4D575E",
"+s 	c #465264",
"@s 	c #58677D",
"#s 	c #667488",
"$s 	c #636F81",
"%s 	c #506276",
"&s 	c #6E7378",
"*s 	c #676B6C",
"=s 	c #606466",
"-s 	c #5B5F60",
";s 	c #515557",
">s 	c #515657",
",s 	c #5B5F61",
"'s 	c #626667",
")s 	c #666868",
"!s 	c #474D55",
"~s 	c #BDD2F0",
"{s 	c #636973",
"]s 	c #59687C",
"^s 	c #908A82",
"/s 	c #363B43",
"(s 	c #9AAABA",
"_s 	c #494947",
":s 	c #343C45",
"<s 	c #A6B8D2",
"[s 	c #E1E3EB",
"}s 	c #E4DFE0",
"|s 	c #5A5F69",
"1s 	c #51555B",
"2s 	c #D6D0CC",
"3s 	c #D8D3D2",
"4s 	c #CBC0B7",
"5s 	c #94897B",
"6s 	c #484E55",
"7s 	c #46494A",
"8s 	c #5E5E5E",
"9s 	c #7E7972",
"0s 	c #D3CECD",
"as 	c #69707D",
"bs 	c #A4B3C9",
"cs 	c #7B828E",
"ds 	c #5A5F66",
"es 	c #676768",
"fs 	c #707C8D",
"gs 	c #C7BBB0",
"hs 	c #40464F",
"is 	c #7286A0",
"js 	c #A4A9B0",
"ks 	c #A0A2A6",
"ls 	c #9B9EA1",
"ms 	c #A6AAB1",
"ns 	c #8690A0",
"os 	c #5C6C75",
"ps 	c #ABB1AA",
"qs 	c #A1A8A0",
"rs 	c #A2AAA2",
"ss 	c #A0A69F",
"ts 	c #A3AAA3",
"us 	c #A5ACA5",
"vs 	c #AAB5AF",
"ws 	c #7F8F98",
"xs 	c #424D58",
"ys 	c #3B4149",
"zs 	c #72838E",
"As 	c #959C94",
"Bs 	c #9A9F96",
"Cs 	c #768286",
"Ds 	c #8E9799",
"Es 	c #6B7075",
"Fs 	c #505863",
"Gs 	c #444F56",
"Hs 	c #738285",
"Is 	c #C1BFC2",
"Js 	c #AFA8A4",
"Ks 	c #596472",
"Ls 	c #DADBE2",
"Ms 	c #DAD5D7",
"Ns 	c #DFDDE3",
"Os 	c #E0E3EE",
"Ps 	c #D8E2F6",
"Qs 	c #C6D7F4",
"Rs 	c #A1B2CF",
"Ss 	c #8B9BB3",
"Ts 	c #76859D",
"Us 	c #56667D",
"Vs 	c #475467",
"Ws 	c #D9DDE9",
"Xs 	c #D8DDE9",
"Ys 	c #D9DDEA",
"Zs 	c #DDE0EC",
"`s 	c #E1E5F0",
" t 	c #BCBCC3",
".t 	c #606875",
"+t 	c #C9CBD3",
"@t 	c #E5E3E9",
"#t 	c #7C818D",
"$t 	c #44505F",
"%t 	c #495561",
"&t 	c #707374",
"*t 	c #676A6C",
"=t 	c #5F6364",
"-t 	c #595D5E",
";t 	c #505556",
">t 	c #55595A",
",t 	c #616566",
"'t 	c #494D4F",
")t 	c #6F7C8F",
"!t 	c #E2DDDF",
"~t 	c #626366",
"{t 	c #48566A",
"]t 	c #B1B6BD",
"^t 	c #9C9791",
"/t 	c #37404D",
"(t 	c #9AABBB",
"_t 	c #A8A49E",
":t 	c #7A7265",
"<t 	c #5E6D83",
"[t 	c #D3D5DD",
"}t 	c #E8E4E5",
"|t 	c #5B616B",
"1t 	c #666360",
"2t 	c #676158",
"3t 	c #4E4E4C",
"4t 	c #3F4A58",
"5t 	c #676563",
"6t 	c #7C899C",
"7t 	c #CBCACF",
"8t 	c #60666F",
"9t 	c #A7A4A3",
"0t 	c #6A6C70",
"at 	c #B6ACA3",
"bt 	c #869BB3",
"ct 	c #9FA2A7",
"dt 	c #9DA0A5",
"et 	c #A7A9AD",
"ft 	c #545E6C",
"gt 	c #373E46",
"ht 	c #3A4451",
"it 	c #89928E",
"jt 	c #A5ABA5",
"kt 	c #A1A7A0",
"lt 	c #9BA19A",
"mt 	c #A7ADA7",
"nt 	c #A0A397",
"ot 	c #69695C",
"pt 	c #5C6770",
"qt 	c #979E97",
"rt 	c #919991",
"st 	c #929A92",
"tt 	c #A3ACA2",
"ut 	c #485058",
"vt 	c #414A54",
"wt 	c #939993",
"xt 	c #889194",
"yt 	c #7C8185",
"zt 	c #6A7779",
"At 	c #4E5862",
"Bt 	c #535962",
"Ct 	c #9E968E",
"Dt 	c #3A414C",
"Et 	c #C5C7CF",
"Ft 	c #E2E4EF",
"Gt 	c #B0B3BC",
"Ht 	c #78879B",
"It 	c #DCE0EC",
"Jt 	c #BDC2CF",
"Kt 	c #686766",
"Lt 	c #52575B",
"Mt 	c #5C6062",
"Nt 	c #4E5354",
"Ot 	c #4F5355",
"Pt 	c #595C5D",
"Qt 	c #545F6C",
"Rt 	c #D1D1D7",
"St 	c #61666D",
"Tt 	c #A9B6C8",
"Ut 	c #A9A8A9",
"Vt 	c #92A1AF",
"Wt 	c #ACA69E",
"Xt 	c #595855",
"Yt 	c #B0C3DE",
"Zt 	c #A09D9D",
"`t 	c #38414D",
" u 	c #3F4856",
".u 	c #3E4650",
"+u 	c #5A697F",
"@u 	c #424A54",
"#u 	c #BEC3CF",
"$u 	c #BBBCC3",
"%u 	c #565F6D",
"&u 	c #2C3135",
"*u 	c #373939",
"=u 	c #454545",
"-u 	c #646668",
";u 	c #565656",
">u 	c #586474",
",u 	c #9A9EA9",
"'u 	c #5C626C",
")u 	c #BDBABB",
"!u 	c #DAD3D0",
"~u 	c #918A84",
"{u 	c #455264",
"]u 	c #98AAC1",
"^u 	c #A9ABAF",
"/u 	c #A6A8AB",
"(u 	c #A5A7AB",
"_u 	c #808997",
":u 	c #3D464F",
"<u 	c #929B93",
"[u 	c #A6AEA5",
"}u 	c #A0A6A0",
"|u 	c #919388",
"1u 	c #5C5D57",
"2u 	c #494B48",
"3u 	c #404342",
"4u 	c #505C68",
"5u 	c #4A5157",
"6u 	c #909790",
"7u 	c #8E968E",
"8u 	c #949C94",
"9u 	c #9AA5A1",
"0u 	c #424C58",
"au 	c #656A67",
"bu 	c #7F888A",
"cu 	c #97999B",
"du 	c #9FA3A9",
"eu 	c #7B8988",
"fu 	c #899796",
"gu 	c #8E8E90",
"hu 	c #56575A",
"iu 	c #B4B5BB",
"ju 	c #A7A3A4",
"ku 	c #888E9A",
"lu 	c #D2CDCF",
"mu 	c #CFCFD6",
"nu 	c #465263",
"ou 	c #9DA7BA",
"pu 	c #49515D",
"qu 	c #44505E",
"ru 	c #64686A",
"su 	c #606465",
"tu 	c #595D5F",
"uu 	c #535759",
"vu 	c #575B5C",
"wu 	c #606262",
"xu 	c #5A5B5D",
"yu 	c #616A76",
"zu 	c #CFCDCD",
"Au 	c #ACABAA",
"Bu 	c #303841",
"Cu 	c #8392A2",
"Du 	c #AAA7A1",
"Eu 	c #45484C",
"Fu 	c #9EB1CB",
"Gu 	c #E7E4E7",
"Hu 	c #E6E2E2",
"Iu 	c #DED9D9",
"Ju 	c #817F80",
"Ku 	c #8F9BAE",
"Lu 	c #AAB5C8",
"Mu 	c #6D798C",
"Nu 	c #505E70",
"Ou 	c #7C8EA8",
"Pu 	c #9FB2CE",
"Qu 	c #D9E8FF",
"Ru 	c #E1E4EE",
"Su 	c #E9EBF4",
"Tu 	c #787A81",
"Uu 	c #989EA8",
"Vu 	c #DCDBE1",
"Wu 	c #D3D9E6",
"Xu 	c #B0BBCD",
"Yu 	c #CBD3E3",
"Zu 	c #DCDEE5",
"`u 	c #656B74",
" v 	c #C2BFBF",
".v 	c #D1CAC7",
"+v 	c #BDB5AE",
"@v 	c #A1988F",
"#v 	c #928B84",
"$v 	c #746E66",
"%v 	c #5A5856",
"&v 	c #424344",
"*v 	c #414344",
"=v 	c #3E4043",
"-v 	c #3D4044",
";v 	c #3B3D3F",
">v 	c #3D4144",
",v 	c #3A3C3C",
"'v 	c #424446",
")v 	c #444543",
"!v 	c #4F4E4B",
"~v 	c #55524C",
"{v 	c #6B665F",
"]v 	c #8A847E",
"^v 	c #938D85",
"/v 	c #7F776E",
"(v 	c #615D57",
"_v 	c #424D5B",
":v 	c #A7A9AC",
"<v 	c #979DA7",
"[v 	c #363C43",
"}v 	c #8E968F",
"|v 	c #88887B",
"1v 	c #4A4C49",
"2v 	c #363D48",
"3v 	c #4A5A6D",
"4v 	c #61717F",
"5v 	c #63717B",
"6v 	c #91A7B1",
"7v 	c #AAB7B3",
"8v 	c #A2A8A1",
"9v 	c #989F98",
"0v 	c #969E96",
"av 	c #8D958D",
"bv 	c #939A92",
"cv 	c #A1A9A6",
"dv 	c #6D787E",
"ev 	c #9C9DA0",
"fv 	c #545A63",
"gv 	c #49525A",
"hv 	c #7C898B",
"iv 	c #3B4554",
"jv 	c #9CAABD",
"kv 	c #D8D9E0",
"lv 	c #827E7D",
"mv 	c #757E8C",
"nv 	c #A9AAB3",
"ov 	c #7F848D",
"pv 	c #556174",
"qv 	c #4F5A6A",
"rv 	c #424548",
"sv 	c #5D5E5E",
"tv 	c #66696A",
"uv 	c #626566",
"vv 	c #676A6B",
"wv 	c #4C535B",
"xv 	c #CFD4DC",
"yv 	c #B1AEAC",
"zv 	c #3D434D",
"Av 	c #6D7A8A",
"Bv 	c #877F75",
"Cv 	c #3D444F",
"Dv 	c #3F4A5A",
"Ev 	c #C7D8F0",
"Fv 	c #E3E0E1",
"Gv 	c #666668",
"Hv 	c #98A0AC",
"Iv 	c #EAE8ED",
"Jv 	c #EAEFFC",
"Kv 	c #DBD9DD",
"Lv 	c #484F59",
"Mv 	c #B6C1D2",
"Nv 	c #CAC4C0",
"Ov 	c #B3ACA5",
"Pv 	c #908A84",
"Qv 	c #4E4D4B",
"Rv 	c #3F4A5B",
"Sv 	c #526274",
"Tv 	c #64778C",
"Uv 	c #6C7E90",
"Vv 	c #77899D",
"Wv 	c #7B90A6",
"Xv 	c #7E94AB",
"Yv 	c #8198AF",
"Zv 	c #879DB5",
"`v 	c #8AA1B9",
" w 	c #889EB6",
".w 	c #8095AD",
"+w 	c #7C8EA2",
"@w 	c #78899B",
"#w 	c #708296",
"$w 	c #647485",
"%w 	c #566475",
"&w 	c #404957",
"*w 	c #3B4045",
"=w 	c #9C9EA2",
"-w 	c #9EA0A4",
";w 	c #A1A5AB",
">w 	c #5F6A7A",
",w 	c #4A545E",
"'w 	c #A7BEC8",
")w 	c #ACB8B9",
"!w 	c #AAB2AE",
"~w 	c #A5ABA4",
"{w 	c #A3A9A3",
"]w 	c #A4AAA3",
"^w 	c #5B6265",
"/w 	c #9AA29A",
"(w 	c #8C938C",
"_w 	c #9DA79E",
":w 	c #9BA19B",
"<w 	c #9CA49E",
"[w 	c #889599",
"}w 	c #4A5664",
"|w 	c #414B55",
"1w 	c #6E7980",
"2w 	c #A2A4A6",
"3w 	c #5A676A",
"4w 	c #57636D",
"5w 	c #575E68",
"6w 	c #D1CCCE",
"7w 	c #7B8A9E",
"8w 	c #666D78",
"9w 	c #4B586A",
"0w 	c #4C5768",
"aw 	c #393C3E",
"bw 	c #4B4D4C",
"cw 	c #666969",
"dw 	c #6C6F70",
"ew 	c #616364",
"fw 	c #4B5667",
"gw 	c #4E5B6F",
"hw 	c #B5B6BA",
"iw 	c #B9B6B3",
"jw 	c #484B4E",
"kw 	c #536072",
"lw 	c #A7A39D",
"mw 	c #B1ADA6",
"nw 	c #B8B5AF",
"ow 	c #706D67",
"pw 	c #68717F",
"qw 	c #637183",
"rw 	c #E2E9F6",
"sw 	c #9097A2",
"tw 	c #C6CCD6",
"uw 	c #B4ADA7",
"vw 	c #7A7369",
"ww 	c #514F4A",
"xw 	c #637890",
"yw 	c #A1B8CE",
"zw 	c #B0BCC5",
"Aw 	c #B0BCC4",
"Bw 	c #A8ACA9",
"Cw 	c #A4A8A5",
"Dw 	c #A1A6A3",
"Ew 	c #A3A7A4",
"Fw 	c #A0A5A2",
"Gw 	c #9CA19E",
"Hw 	c #9CA09D",
"Iw 	c #A0A4A2",
"Jw 	c #A3A7A5",
"Kw 	c #A6AAA7",
"Lw 	c #ACB0AE",
"Mw 	c #AFB2B0",
"Nw 	c #AEB2B0",
"Ow 	c #B1BBC1",
"Pw 	c #AAB5BC",
"Qw 	c #A4B3C0",
"Rw 	c #9BADC0",
"Sw 	c #8395A9",
"Tw 	c #6B7E96",
"Uw 	c #495666",
"Vw 	c #504F4C",
"Ww 	c #7D7E7D",
"Xw 	c #858F9E",
"Yw 	c #A0B5BF",
"Zw 	c #A6ABA5",
"`w 	c #A6ADA6",
" x 	c #A4ACA4",
".x 	c #A2A8A2",
"+x 	c #4D5357",
"@x 	c #9EA59E",
"#x 	c #9CA39B",
"$x 	c #99A199",
"%x 	c #959D95",
"&x 	c #919A91",
"*x 	c #99A29A",
"=x 	c #949A94",
"-x 	c #869192",
";x 	c #565F6A",
">x 	c #A6A8AA",
",x 	c #A5A7A9",
"'x 	c #798787",
")x 	c #8B9998",
"!x 	c #A4A4A8",
"~x 	c #D9D0CB",
"{x 	c #A9B4C6",
"]x 	c #E5DBD8",
"^x 	c #636A76",
"/x 	c #4E5C70",
"(x 	c #5C6E85",
"_x 	c #465162",
":x 	c #394046",
"<x 	c #6F7070",
"[x 	c #4E5969",
"}x 	c #4A525D",
"|x 	c #73849A",
"1x 	c #4D4F52",
"2x 	c #B4B6B6",
"3x 	c #B2ACA5",
"4x 	c #565552",
"5x 	c #C8D4E8",
"6x 	c #6B6E73",
"7x 	c #A4B5CD",
"8x 	c #E1DEE1",
"9x 	c #4D525A",
"0x 	c #9097A3",
"ax 	c #8D95A0",
"bx 	c #D1CAC6",
"cx 	c #A29990",
"dx 	c #605B54",
"ex 	c #404141",
"fx 	c #404D5E",
"gx 	c #515F71",
"hx 	c #465467",
"ix 	c #7D94AC",
"jx 	c #ADB5B8",
"kx 	c #ABAEAC",
"lx 	c #A7ABA9",
"mx 	c #A2A6A3",
"nx 	c #A0A4A1",
"ox 	c #9EA3A0",
"px 	c #9FA3A1",
"qx 	c #9CA09E",
"rx 	c #A4A9A6",
"sx 	c #AEB2AF",
"tx 	c #A9ADAB",
"ux 	c #A9ADAA",
"vx 	c #A2A6A4",
"wx 	c #A5A9A6",
"xx 	c #B0B4B1",
"yx 	c #AEB1AF",
"zx 	c #B3B9BB",
"Ax 	c #AEB9C1",
"Bx 	c #96A7B8",
"Cx 	c #6B7A8A",
"Dx 	c #475567",
"Ex 	c #34393D",
"Fx 	c #3E3F3D",
"Gx 	c #696967",
"Hx 	c #909293",
"Ix 	c #919498",
"Jx 	c #969DA8",
"Kx 	c #2F3437",
"Lx 	c #939893",
"Mx 	c #A3AAA2",
"Nx 	c #A2ABA2",
"Ox 	c #606668",
"Px 	c #96A09B",
"Qx 	c #98A098",
"Rx 	c #98A298",
"Sx 	c #97A097",
"Tx 	c #959E95",
"Ux 	c #909890",
"Vx 	c #969D96",
"Wx 	c #545D67",
"Xx 	c #56626A",
"Yx 	c #A3A9A4",
"Zx 	c #4E5761",
"`x 	c #4B5158",
" y 	c #606873",
".y 	c #4C5762",
"+y 	c #7A8789",
"@y 	c #C1BFC3",
"#y 	c #D0CBCD",
"$y 	c #D0C9C6",
"%y 	c #877F76",
"&y 	c #D0D1D8",
"*y 	c #E1D9D7",
"=y 	c #A8A5A7",
"-y 	c #4B5666",
";y 	c #4A5869",
">y 	c #7C8289",
",y 	c #818A97",
"'y 	c #5B687A",
")y 	c #4C5868",
"!y 	c #474C4F",
"~y 	c #737D8D",
"{y 	c #4A5463",
"]y 	c #556376",
"^y 	c #D0CECE",
"/y 	c #797672",
"(y 	c #ADA7A1",
"_y 	c #4F5358",
":y 	c #68707B",
"<y 	c #716C64",
"[y 	c #575D66",
"}y 	c #D9E7FC",
"|y 	c #DBD5D2",
"1y 	c #C4BAB3",
"2y 	c #2D343D",
"3y 	c #D1D8E4",
"4y 	c #686C76",
"5y 	c #818EA0",
"6y 	c #BCB4AE",
"7y 	c #6D665C",
"8y 	c #414346",
"9y 	c #3C4655",
"0y 	c #5B6D82",
"ay 	c #8BA0B5",
"by 	c #BACAD8",
"cy 	c #C3CDD3",
"dy 	c #C6CED2",
"ey 	c #C7CED4",
"fy 	c #9CA4AD",
"gy 	c #8B9DAB",
"hy 	c #B0B3B1",
"iy 	c #A8ACAA",
"jy 	c #9FA3A0",
"ky 	c #9FA4A1",
"ly 	c #9BA09D",
"my 	c #999D9B",
"ny 	c #A5AAA7",
"oy 	c #A9AEAB",
"py 	c #AAAEAB",
"qy 	c #A7ACA9",
"ry 	c #A3A8A5",
"sy 	c #A5A9A7",
"ty 	c #ADB1AF",
"uy 	c #ABAFAD",
"vy 	c #ACB0AD",
"wy 	c #ADB1AE",
"xy 	c #A6ADAE",
"yy 	c #A9B7C1",
"zy 	c #83909D",
"Ay 	c #31363A",
"By 	c #40413F",
"Cy 	c #787979",
"Dy 	c #A4A9AD",
"Ey 	c #A3A9AE",
"Fy 	c #9B9FA6",
"Gy 	c #878D87",
"Hy 	c #9EA89F",
"Iy 	c #707876",
"Jy 	c #778688",
"Ky 	c #99A098",
"Ly 	c #98A399",
"My 	c #97A298",
"Ny 	c #939B93",
"Oy 	c #8C948C",
"Py 	c #858D85",
"Qy 	c #9AA099",
"Ry 	c #9CA39D",
"Sy 	c #99A19D",
"Ty 	c #A0A7A2",
"Uy 	c #595F64",
"Vy 	c #5C696B",
"Wy 	c #515C66",
"Xy 	c #575B63",
"Yy 	c #4D4F53",
"Zy 	c #B8C8E0",
"`y 	c #C2BBB9",
" z 	c #4E5A6C",
".z 	c #D1D1D6",
"+z 	c #4C5766",
"@z 	c #B0B7C1",
"#z 	c #9C9892",
"$z 	c #9D9D9E",
"%z 	c #A6A29C",
"&z 	c #494E53",
"*z 	c #4C5767",
"=z 	c #DEE0E8",
"-z 	c #CCC5C2",
";z 	c #90887F",
">z 	c #4A4A49",
",z 	c #BECEE5",
"'z 	c #757579",
")z 	c #8B98A9",
"!z 	c #C7C0BD",
"~z 	c #857D72",
"{z 	c #474746",
"]z 	c #566575",
"^z 	c #8EA2B6",
"/z 	c #B4C0C7",
"(z 	c #BABCB7",
"_z 	c #B3B5B0",
":z 	c #BBBCB7",
"<z 	c #C3BDB4",
"[z 	c #51575F",
"}z 	c #798A99",
"|z 	c #ADB0AE",
"1z 	c #A5A8A6",
"2z 	c #9DA29F",
"3z 	c #9A9E9C",
"4z 	c #999E9B",
"5z 	c #979C99",
"6z 	c #A6ABA8",
"7z 	c #ABB0AD",
"8z 	c #A8ADAA",
"9z 	c #AAAEAC",
"0z 	c #A2ADB3",
"az 	c #8090A0",
"bz 	c #4E5A69",
"cz 	c #535451",
"dz 	c #8E9092",
"ez 	c #A4A8AC",
"fz 	c #A0A4A9",
"gz 	c #586273",
"hz 	c #3A424B",
"iz 	c #838984",
"jz 	c #878F8B",
"kz 	c #4F585E",
"lz 	c #99A399",
"mz 	c #99A499",
"nz 	c #8B938B",
"oz 	c #878F87",
"pz 	c #899189",
"qz 	c #9BA29A",
"rz 	c #9CA29B",
"sz 	c #7A8183",
"tz 	c #616B6F",
"uz 	c #A3A9A2",
"vz 	c #8E9592",
"wz 	c #373E49",
"xz 	c #7F8387",
"yz 	c #9FA1A4",
"zz 	c #7C8B8A",
"Az 	c #859493",
"Bz 	c #B3B1B4",
"Cz 	c #D1C9C7",
"Dz 	c #52565C",
"Ez 	c #AFC0D9",
"Fz 	c #D8D8E0",
"Gz 	c #D2C8C3",
"Hz 	c #606B76",
"Iz 	c #80878F",
"Jz 	c #717D8D",
"Kz 	c #69798F",
"Lz 	c #B0BCD0",
"Mz 	c #ADAAAA",
"Nz 	c #4D5663",
"Oz 	c #626C7A",
"Pz 	c #B2B0AF",
"Qz 	c #2F343A",
"Rz 	c #91A0B0",
"Sz 	c #9B968D",
"Tz 	c #434F5E",
"Uz 	c #586473",
"Vz 	c #D7D7DD",
"Wz 	c #B9ADA1",
"Xz 	c #464A4F",
"Yz 	c #4D5259",
"Zz 	c #4D5054",
"`z 	c #434E5B",
" A 	c #7A90A9",
".A 	c #AFBFCC",
"+A 	c #BAC0C1",
"@A 	c #B7B8B3",
"#A 	c #B3B4AF",
"$A 	c #B8BAB5",
"%A 	c #B2B4AF",
"&A 	c #B9BAB5",
"*A 	c #C2BFB7",
"=A 	c #676C71",
"-A 	c #627486",
";A 	c #A2A9AB",
">A 	c #A4A8A6",
",A 	c #9A9F9D",
"'A 	c #A6AAA8",
")A 	c #A2A7A4",
"!A 	c #A9B0B1",
"~A 	c #A5B2BB",
"{A 	c #78889C",
"]A 	c #383F46",
"^A 	c #4D5051",
"/A 	c #7E8080",
"(A 	c #A1A5A9",
"_A 	c #A4A8AD",
":A 	c #626B76",
"<A 	c #767C78",
"[A 	c #9EA79E",
"}A 	c #4A5158",
"|A 	c #909994",
"1A 	c #9AA49B",
"2A 	c #969F97",
"3A 	c #A0A69E",
"4A 	c #363F4A",
"5A 	c #838C8C",
"6A 	c #A0A3A5",
"7A 	c #ACADAF",
"8A 	c #51565E",
"9A 	c #444D54",
"0A 	c #6A777A",
"aA 	c #4F5053",
"bA 	c #AABAD2",
"cA 	c #DBD1CD",
"dA 	c #5C636E",
"eA 	c #47515D",
"fA 	c #55626F",
"gA 	c #7F8183",
"hA 	c #7F8182",
"iA 	c #67696B",
"jA 	c #6E6F72",
"kA 	c #CFD3DC",
"lA 	c #464B52",
"mA 	c #8D8375",
"nA 	c #383C40",
"oA 	c #3C424B",
"pA 	c #3B4148",
"qA 	c #A8AAAF",
"rA 	c #CCBFB3",
"sA 	c #53565A",
"tA 	c #566374",
"uA 	c #BAB2AB",
"vA 	c #69635B",
"wA 	c #4F5D6F",
"xA 	c #93A7BC",
"yA 	c #B6C1C7",
"zA 	c #B0B2AD",
"AA 	c #B1B3AE",
"BA 	c #B5B6B2",
"CA 	c #B0B1AD",
"DA 	c #B5B7B2",
"EA 	c #B4B5B0",
"FA 	c #AFB1AC",
"GA 	c #C1C0B9",
"HA 	c #898A8A",
"IA 	c #536375",
"JA 	c #9DA6AB",
"KA 	c #ABAFAC",
"LA 	c #9FA4A2",
"MA 	c #AAAFAC",
"NA 	c #AEB4B1",
"OA 	c #B1BABE",
"PA 	c #8D9DAC",
"QA 	c #4D5A6A",
"RA 	c #3C3D3C",
"SA 	c #7E7F80",
"TA 	c #919598",
"UA 	c #6E7784",
"VA 	c #595F5C",
"WA 	c #747D7B",
"XA 	c #7B8687",
"YA 	c #9AA39A",
"ZA 	c #97A197",
"`A 	c #969D95",
" B 	c #9BA29B",
".B 	c #606669",
"+B 	c #8E9A9A",
"@B 	c #989E98",
"#B 	c #3B424A",
"$B 	c #B2B3B6",
"%B 	c #778382",
"&B 	c #8A8D94",
"*B 	c #B2ACA8",
"=B 	c #545E6B",
"-B 	c #DDD4D0",
";B 	c #7C7F86",
">B 	c #4C5A6A",
",B 	c #797E83",
"'B 	c #7C7D7C",
")B 	c #C1C9D8",
"!B 	c #D6CFCE",
"~B 	c #9DA8B8",
"{B 	c #D9D7D8",
"]B 	c #8B8173",
"^B 	c #373C44",
"/B 	c #78889F",
"(B 	c #647184",
"_B 	c #5A6A80",
":B 	c #7B8FAA",
"<B 	c #98A5BA",
"[B 	c #98A7BF",
"}B 	c #9DADC6",
"|B 	c #919EB2",
"1B 	c #3C4450",
"2B 	c #4C5561",
"3B 	c #D5D3D6",
"4B 	c #BEB4AA",
"5B 	c #54514C",
"6B 	c #5F6D81",
"7B 	c #9DAABD",
"8B 	c #E6E1E1",
"9B 	c #C9C2BF",
"0B 	c #6A6359",
"aB 	c #373B41",
"bB 	c #505F71",
"cB 	c #9DB2C6",
"dB 	c #B5BBBC",
"eB 	c #B1B2AE",
"fB 	c #AEB0AB",
"gB 	c #B2B3AE",
"hB 	c #AFB0AB",
"iB 	c #BABBB6",
"jB 	c #A6A5A0",
"kB 	c #98A5AD",
"lB 	c #ACAFAD",
"mB 	c #A1A5A3",
"nB 	c #ACB1AE",
"oB 	c #AFB3B1",
"pB 	c #ACB3B4",
"qB 	c #94A2B0",
"rB 	c #535E6E",
"sB 	c #414341",
"tB 	c #8D8F91",
"uB 	c #AAAEB2",
"vB 	c #A9ADB2",
"wB 	c #A8ACB0",
"xB 	c #707986",
"yB 	c #343940",
"zB 	c #5C6562",
"AB 	c #9FA69E",
"BB 	c #434B53",
"CB 	c #969F96",
"DB 	c #97A198",
"EB 	c #8F978F",
"FB 	c #686E6D",
"GB 	c #798385",
"HB 	c #9AA19B",
"IB 	c #464E56",
"JB 	c #4B5157",
"KB 	c #ADAEAF",
"LB 	c #82868C",
"MB 	c #37414B",
"NB 	c #7B898B",
"OB 	c #C7C6C9",
"PB 	c #555A61",
"QB 	c #CCCED7",
"RB 	c #DCD4D2",
"SB 	c #9B999B",
"TB 	c #444E5C",
"UB 	c #475463",
"VB 	c #737A80",
"WB 	c #5A5D5E",
"XB 	c #737F90",
"YB 	c #DDD8DA",
"ZB 	c #89888B",
"`B 	c #56616F",
" C 	c #97928D",
".C 	c #323943",
"+C 	c #949EAA",
"@C 	c #898072",
"#C 	c #9DAFC7",
"$C 	c #DDD9DC",
"%C 	c #DFDFE5",
"&C 	c #E0E2EA",
"*C 	c #DBDBE1",
"=C 	c #D7D4D5",
"-C 	c #DBD3D0",
";C 	c #9C9A98",
">C 	c #74859B",
",C 	c #D7E3F7",
"'C 	c #E4E3E8",
")C 	c #E0D9D8",
"!C 	c #353D49",
"~C 	c #8C929B",
"{C 	c #D8D1CD",
"]C 	c #898179",
"^C 	c #3B4047",
"/C 	c #9BB0C4",
"(C 	c #B7BEBF",
"_C 	c #B1B2AD",
":C 	c #ACAEA9",
"<C 	c #ABADA8",
"[C 	c #B0B1AC",
"}C 	c #B9B6AD",
"|C 	c #4E5867",
"1C 	c #8899A5",
"2C 	c #969B98",
"3C 	c #A7ABA8",
"4C 	c #ADB3B4",
"5C 	c #9AA7B4",
"6C 	c #545E6A",
"7C 	c #5A5D5D",
"8C 	c #A9ADB0",
"9C 	c #77808E",
"0C 	c #5C6361",
"aC 	c #707676",
"bC 	c #697373",
"cC 	c #97A098",
"dC 	c #6C7270",
"eC 	c #656F71",
"fC 	c #929A96",
"gC 	c #7A8086",
"hC 	c #ABACAD",
"iC 	c #AAABAC",
"jC 	c #494F56",
"kC 	c #59666A",
"lC 	c #4A535B",
"mC 	c #636972",
"nC 	c #ACA5A0",
"oC 	c #8E8B8A",
"pC 	c #908C8B",
"qC 	c #938F8D",
"rC 	c #515459",
"sC 	c #9E9DA1",
"tC 	c #BBB4B2",
"uC 	c #D5D7E1",
"vC 	c #B2B8C1",
"wC 	c #BAB7B5",
"xC 	c #32373F",
"yC 	c #97A8C0",
"zC 	c #D8CFCA",
"AC 	c #3A424E",
"BC 	c #38424E",
"CC 	c #BCCDE6",
"DC 	c #909298",
"EC 	c #9A8F83",
"FC 	c #47494B",
"GC 	c #8FA1B2",
"HC 	c #B7BDBE",
"IC 	c #ABADA7",
"JC 	c #AAACA6",
"KC 	c #AAACA7",
"LC 	c #AFB1AB",
"MC 	c #ADAFAA",
"NC 	c #AEAFAA",
"OC 	c #C1BDB4",
"PC 	c #626973",
"QC 	c #798B99",
"RC 	c #B0B4B2",
"SC 	c #ABB1AE",
"TC 	c #989D9A",
"UC 	c #AFB3B0",
"VC 	c #B0B5B6",
"WC 	c #8F9CA8",
"XC 	c #4E5A6B",
"YC 	c #5E5F5E",
"ZC 	c #7A828F",
"`C 	c #777E7A",
" D 	c #A1A79E",
".D 	c #97A297",
"+D 	c #889088",
"@D 	c #6B7271",
"#D 	c #57656D",
"$D 	c #939A93",
"%D 	c #838B8B",
"&D 	c #A2A4A7",
"*D 	c #A1A3A6",
"=D 	c #2E3640",
"-D 	c #808F8E",
";D 	c #859392",
">D 	c #333942",
",D 	c #999798",
"'D 	c #454647",
")D 	c #566477",
"!D 	c #8D94A2",
"~D 	c #95979E",
"{D 	c #9C9FA9",
"]D 	c #95949A",
"^D 	c #939091",
"/D 	c #8998AD",
"(D 	c #E0DBDD",
"_D 	c #7A7B7F",
":D 	c #5C6169",
"<D 	c #BDBBBC",
"[D 	c #585B60",
"}D 	c #6E7E8F",
"|D 	c #BCB9B4",
"1D 	c #393C40",
"2D 	c #8B9BB2",
"3D 	c #D9D1CD",
"4D 	c #565A62",
"5D 	c #ABC0DB",
"6D 	c #7D7A77",
"7D 	c #ACA6A0",
"8D 	c #5B5751",
"9D 	c #3A4758",
"0D 	c #778EA5",
"aD 	c #B7C3CA",
"bD 	c #B4B6B1",
"cD 	c #A7A9A4",
"dD 	c #BFBEB7",
"eD 	c #777B7D",
"fD 	c #67798A",
"gD 	c #A7AEB0",
"hD 	c #A8ADAB",
"iD 	c #ACB1AF",
"jD 	c #ADB2AF",
"kD 	c #9DA19F",
"lD 	c #A3A8A6",
"mD 	c #AAAFAD",
"nD 	c #ADB4B0",
"oD 	c #ACB2AF",
"pD 	c #B5B9B6",
"qD 	c #AEB5BB",
"rD 	c #3C4042",
"sD 	c #909194",
"tD 	c #747C88",
"uD 	c #3B444E",
"vD 	c #858B86",
"wD 	c #97A29C",
"xD 	c #9BA69C",
"yD 	c #99A49A",
"zD 	c #949D94",
"AD 	c #7B827D",
"BD 	c #4E5C66",
"CD 	c #919891",
"DD 	c #929992",
"ED 	c #4C5660",
"FD 	c #4B5058",
"GD 	c #A7A9AA",
"HD 	c #A8A9AA",
"ID 	c #4E535A",
"JD 	c #4A5761",
"KD 	c #5D686D",
"LD 	c #D5D7E0",
"MD 	c #DAD6D8",
"ND 	c #ACACB2",
"OD 	c #373F4A",
"PD 	c #BCBFC7",
"QD 	c #D0C9C7",
"RD 	c #DBDDE6",
"SD 	c #D1CCCB",
"TD 	c #AFB3BA",
"UD 	c #969088",
"VD 	c #718090",
"WD 	c #C1BDB8",
"XD 	c #BEBAB5",
"YD 	c #A8A39C",
"ZD 	c #3E4246",
"`D 	c #78869C",
" E 	c #919095",
".E 	c #373E47",
"+E 	c #A8BEDC",
"@E 	c #D9D8DD",
"#E 	c #D2D1D8",
"$E 	c #555D6A",
"%E 	c #ADC3D6",
"&E 	c #B5B6B1",
"*E 	c #A9ABA6",
"=E 	c #A9ABA5",
"-E 	c #BEBEB8",
";E 	c #9A9A97",
">E 	c #576574",
",E 	c #9DA7AB",
"'E 	c #ADB2B0",
")E 	c #989D9B",
"!E 	c #B3B7B4",
"~E 	c #B5B8B6",
"{E 	c #95999A",
"]E 	c #474E56",
"^E 	c #464D56",
"/E 	c #3D4550",
"(E 	c #595B5C",
"_E 	c #67707E",
":E 	c #8D938E",
"<E 	c #767C7A",
"[E 	c #889796",
"}E 	c #9CA79D",
"|E 	c #9AA59A",
"1E 	c #979F97",
"2E 	c #96A097",
"3E 	c #8A9087",
"4E 	c #979E98",
"5E 	c #6A7179",
"6E 	c #A9AAAE",
"7E 	c #7E8C8C",
"8E 	c #8F9B9A",
"9E 	c #DBD4D3",
"0E 	c #848B97",
"aE 	c #B9B1AB",
"bE 	c #B5ADA8",
"cE 	c #8C8277",
"dE 	c #4F5050",
"eE 	c #474F5B",
"fE 	c #96A7BF",
"gE 	c #6D7077",
"hE 	c #D7D7D7",
"iE 	c #C1BEBC",
"jE 	c #75736E",
"kE 	c #404243",
"lE 	c #5D6E86",
"mE 	c #DFE1E9",
"nE 	c #6D6A68",
"oE 	c #353D4A",
"pE 	c #B4C4DB",
"qE 	c #DAD9DE",
"rE 	c #6A6560",
"sE 	c #8AA2B9",
"tE 	c #B8BEC0",
"uE 	c #A7AAA4",
"vE 	c #A8AAA4",
"wE 	c #4C5866",
"xE 	c #97A3AB",
"yE 	c #B1B6B3",
"zE 	c #AEB3B0",
"AE 	c #B2B6B4",
"BE 	c #B4B8B6",
"CE 	c #B2B4B2",
"DE 	c #A39F94",
"EE 	c #3D4755",
"FE 	c #3D4041",
"GE 	c #989A9D",
"HE 	c #5C6675",
"IE 	c #687073",
"JE 	c #95A8A7",
"KE 	c #9DA89E",
"LE 	c #6D7271",
"ME 	c #495762",
"NE 	c #949B94",
"OE 	c #7F8685",
"PE 	c #5E646C",
"QE 	c #49535C",
"RE 	c #919A98",
"SE 	c #687176",
"TE 	c #3C3D3D",
"UE 	c #504D46",
"VE 	c #928C85",
"WE 	c #B1AAA6",
"XE 	c #B9B2AD",
"YE 	c #595D64",
"ZE 	c #D1CFD2",
"`E 	c #5B544A",
" F 	c #5C554B",
".F 	c #5A544A",
"+F 	c #585249",
"@F 	c #5B5854",
"#F 	c #565450",
"$F 	c #4A4A47",
"%F 	c #3A4046",
"&F 	c #55667B",
"*F 	c #66778B",
"=F 	c #DADCE5",
"-F 	c #C3C0C1",
";F 	c #AAAFB6",
">F 	c #5E6267",
",F 	c #4C4D4A",
"'F 	c #94908B",
")F 	c #464542",
"!F 	c #DBDEE5",
"~F 	c #D7CEC9",
"{F 	c #B1C0D5",
"]F 	c #B1A79D",
"^F 	c #4C5B6E",
"/F 	c #AEC3D6",
"(F 	c #B8B9B4",
"_F 	c #B0B2AC",
":F 	c #ACAEA8",
"<F 	c #B3B5AF",
"[F 	c #A6A8A3",
"}F 	c #A8ABA5",
"|F 	c #B6B7B3",
"1F 	c #BCB9B0",
"2F 	c #52585F",
"3F 	c #8C9CA8",
"4F 	c #B1B4B2",
"5F 	c #B1B5B3",
"6F 	c #B1AC9F",
"7F 	c #6F6F6B",
"8F 	c #768AA7",
"9F 	c #697689",
"0F 	c #3A3F45",
"aF 	c #727476",
"bF 	c #A7AAAE",
"cF 	c #A8ABB0",
"dF 	c #505760",
"eF 	c #A0AAA1",
"fF 	c #7F8580",
"gF 	c #313A46",
"hF 	c #939C97",
"iF 	c #92968D",
"jF 	c #464B51",
"kF 	c #343D48",
"lF 	c #464C54",
"mF 	c #BABBBE",
"nF 	c #7C8586",
"oF 	c #474849",
"pF 	c #555350",
"qF 	c #504B43",
"rF 	c #565046",
"sF 	c #595349",
"tF 	c #5A5349",
"uF 	c #546272",
"vF 	c #576779",
"wF 	c #5E6B7A",
"xF 	c #637486",
"yF 	c #6A7C91",
"zF 	c #4C5867",
"AF 	c #67798D",
"BF 	c #AEBBC6",
"CF 	c #B7BBBB",
"DF 	c #B3B3AE",
"EF 	c #5A6067",
"FF 	c #626469",
"GF 	c #6F7D8F",
"HF 	c #B5B3B4",
"IF 	c #AEAAA8",
"JF 	c #434F60",
"KF 	c #404446",
"LF 	c #76746F",
"MF 	c #6F6B65",
"NF 	c #313842",
"OF 	c #949AA6",
"PF 	c #DFDADA",
"QF 	c #969392",
"RF 	c #8E857A",
"SF 	c #6C829B",
"TF 	c #B5BCBD",
"UF 	c #B6B7B2",
"VF 	c #B2B3AF",
"WF 	c #A9ACA6",
"XF 	c #BEBBB3",
"YF 	c #6A6E73",
"ZF 	c #7B8C9B",
"`F 	c #A1A5A2",
" G 	c #8D897D",
".G 	c #A8C0E2",
"+G 	c #DBE2F2",
"@G 	c #DEE0EA",
"#G 	c #D7DCEB",
"$G 	c #778295",
"%G 	c #37404C",
"&G 	c #515456",
"*G 	c #A6AAAE",
"=G 	c #9FA3A8",
"-G 	c #444B55",
";G 	c #959F96",
">G 	c #9EA49C",
",G 	c #879394",
"'G 	c #949A93",
")G 	c #9CA097",
"!G 	c #859CAA",
"~G 	c #9EA7A0",
"{G 	c #797E84",
"]G 	c #6C717A",
"^G 	c #929A99",
"/G 	c #6E777C",
"(G 	c #6F839A",
"_G 	c #95A8BA",
":G 	c #9FADB8",
"<G 	c #9AA8B2",
"[G 	c #91A2B2",
"}G 	c #8294A6",
"|G 	c #788797",
"1G 	c #6C7E92",
"2G 	c #5E6D7F",
"3G 	c #566473",
"4G 	c #556271",
"5G 	c #B7B8B1",
"6G 	c #B0B1AB",
"7G 	c #B2B2AC",
"8G 	c #B4B4AE",
"9G 	c #BFBFBA",
"0G 	c #ACAEAD",
"aG 	c #677787",
"bG 	c #AFB5B7",
"cG 	c #B6B6B1",
"dG 	c #A3A39E",
"eG 	c #D9DBE4",
"fG 	c #424B59",
"gG 	c #B7BCC3",
"hG 	c #CDC9C6",
"iG 	c #4A4E54",
"jG 	c #8DA6C7",
"kG 	c #B9C6DA",
"lG 	c #78879E",
"mG 	c #3E454C",
"nG 	c #4E4E4A",
"oG 	c #93908A",
"pG 	c #8A8379",
"qG 	c #606B7C",
"rG 	c #D0D7E3",
"sG 	c #6F6C6B",
"tG 	c #858E9C",
"uG 	c #C7C1BD",
"vG 	c #6C6761",
"wG 	c #353F4C",
"xG 	c #8A9DAD",
"yG 	c #B2B9B9",
"zG 	c #BDBEB9",
"AG 	c #BFBDB6",
"BG 	c #8C8E8D",
"CG 	c #6C7E8E",
"DG 	c #ABB0B0",
"EG 	c #9EA2A0",
"FG 	c #A09C90",
"GG 	c #595F65",
"HG 	c #7B91B0",
"IG 	c #DBE9FF",
"JG 	c #D7D4D7",
"KG 	c #A7ABB9",
"LG 	c #3A3D3F",
"MG 	c #909396",
"NG 	c #A7ABAF",
"OG 	c #A9ADB1",
"PG 	c #9EA2AA",
"QG 	c #5F696A",
"RG 	c #9CA49C",
"SG 	c #919890",
"TG 	c #565C5F",
"UG 	c #6B757A",
"VG 	c #525652",
"WG 	c #4F5961",
"XG 	c #7D8785",
"YG 	c #7E8889",
"ZG 	c #95A09F",
"`G 	c #6C8195",
" H 	c #B4B8B7",
".H 	c #AEAFA9",
"+H 	c #ACACA6",
"@H 	c #AAABA4",
"#H 	c #AFB0A9",
"$H 	c #B5B5AF",
"%H 	c #B4B5AF",
"&H 	c #AFB0AA",
"*H 	c #BBBBB4",
"=H 	c #BABBB4",
"-H 	c #B9BAB2",
";H 	c #B4B5AE",
">H 	c #B1B1AB",
",H 	c #B3B4AE",
"'H 	c #BDBAB2",
")H 	c #5B626B",
"!H 	c #586779",
"~H 	c #AEB3B4",
"{H 	c #BABAB5",
"]H 	c #92A3BB",
"^H 	c #676B73",
"/H 	c #6C7989",
"(H 	c #7D7C7C",
"_H 	c #3A4453",
":H 	c #9BAFC6",
"<H 	c #B4B6B9",
"[H 	c #5E6B7E",
"}H 	c #333535",
"|H 	c #77756F",
"1H 	c #ACBDD5",
"2H 	c #484F5B",
"3H 	c #DAD5D5",
"4H 	c #C5C1C2",
"5H 	c #CBC4C1",
"6H 	c #42454A",
"7H 	c #76808D",
"8H 	c #C1BBB8",
"9H 	c #4D4A47",
"0H 	c #A1B5C7",
"aH 	c #BEBFBA",
"bH 	c #A7A49E",
"cH 	c #4D5863",
"dH 	c #858989",
"eH 	c #B4B7B5",
"fH 	c #B3B6B4",
"gH 	c #999991",
"hH 	c #979790",
"iH 	c #90918A",
"jH 	c #8E8E88",
"kH 	c #90908A",
"lH 	c #94948E",
"mH 	c #94948D",
"nH 	c #96968F",
"oH 	c #979891",
"pH 	c #92928C",
"qH 	c #A8ABA9",
"rH 	c #9A9F9C",
"sH 	c #A7A59B",
"tH 	c #75756F",
"uH 	c #525E6E",
"vH 	c #C9DDFB",
"wH 	c #C7C9D5",
"xH 	c #49505C",
"yH 	c #8E9194",
"zH 	c #868D97",
"AH 	c #89908B",
"BH 	c #8E958E",
"CH 	c #868E86",
"DH 	c #7B817E",
"EH 	c #485259",
"FH 	c #969A91",
"GH 	c #767971",
"HH 	c #4A5052",
"IH 	c #46515B",
"JH 	c #96A19E",
"KH 	c #5B626A",
"LH 	c #6B6F75",
"MH 	c #939F9D",
"NH 	c #687479",
"OH 	c #4B5661",
"PH 	c #AEAEA8",
"QH 	c #A9AAA4",
"RH 	c #A8A9A3",
"SH 	c #A6A6A0",
"TH 	c #ADADA7",
"UH 	c #AFAFA9",
"VH 	c #B8B9B2",
"WH 	c #B5B6B0",
"XH 	c #ADAEA8",
"YH 	c #B3B3AD",
"ZH 	c #BCBAB2",
"`H 	c #7A7B7A",
" I 	c #4D5765",
".I 	c #495566",
"+I 	c #8F9597",
"@I 	c #445061",
"#I 	c #CBC6C6",
"$I 	c #C1C6CD",
"%I 	c #B4B2B1",
"&I 	c #8DA0B7",
"*I 	c #B3B3B5",
"=I 	c #ADADAF",
"-I 	c #B5B5B7",
";I 	c #BDC3CE",
">I 	c #8490A3",
",I 	c #4D4D49",
"'I 	c #96938D",
")I 	c #B0AAA3",
"!I 	c #424549",
"~I 	c #7387A2",
"{I 	c #D1CAC8",
"]I 	c #707885",
"^I 	c #BEBABA",
"/I 	c #BFBBBC",
"(I 	c #7C8899",
"_I 	c #BAB4B2",
":I 	c #404144",
"<I 	c #B1BDC4",
"[I 	c #BCBDB8",
"}I 	c #C0C1BD",
"|I 	c #BCBAB3",
"1I 	c #7E7B74",
"2I 	c #44494F",
"3I 	c #4F5250",
"4I 	c #5C5D5A",
"5I 	c #50514E",
"6I 	c #444746",
"7I 	c #414648",
"8I 	c #40454A",
"9I 	c #3B3F42",
"0I 	c #41484F",
"aI 	c #515452",
"bI 	c #58554B",
"cI 	c #797871",
"dI 	c #94958F",
"eI 	c #A8AAA6",
"fI 	c #9EA3A1",
"gI 	c #969A98",
"hI 	c #ACADA8",
"iI 	c #918C7F",
"jI 	c #A9C1E3",
"kI 	c #D8D7DD",
"lI 	c #7C828F",
"mI 	c #545D6B",
"nI 	c #8C8F92",
"oI 	c #616874",
"pI 	c #3A434B",
"qI 	c #8E9690",
"rI 	c #8D948C",
"sI 	c #848D85",
"tI 	c #7E867E",
"uI 	c #808880",
"vI 	c #878E87",
"wI 	c #8D948D",
"xI 	c #353E4A",
"yI 	c #31373F",
"zI 	c #919D9B",
"AI 	c #89908D",
"BI 	c #7F8C8D",
"CI 	c #8F9C9B",
"DI 	c #39404C",
"EI 	c #9EA09E",
"FI 	c #A6A7A1",
"GI 	c #A6A7A0",
"HI 	c #A1A29B",
"II 	c #A2A39D",
"JI 	c #A9A9A3",
"KI 	c #B1B2AC",
"LI 	c #A4A7A4",
"MI 	c #B3B4AD",
"NI 	c #A9AAA3",
"OI 	c #B2B3AD",
"PI 	c #B8B8B1",
"QI 	c #A2A29F",
"RI 	c #383E44",
"SI 	c #65696B",
"TI 	c #8492A7",
"UI 	c #DDD9DA",
"VI 	c #727378",
"WI 	c #687383",
"XI 	c #5D6166",
"YI 	c #B2B2B4",
"ZI 	c #B1B1B3",
"`I 	c #B6B8BB",
" J 	c #ACB6C6",
".J 	c #616E81",
"+J 	c #7E7C77",
"@J 	c #BEBAB6",
"#J 	c #A69F96",
"$J 	c #86827F",
"%J 	c #B7BBC4",
"&J 	c #C0B9B5",
"*J 	c #C7CFDC",
"=J 	c #B6AEA8",
"-J 	c #3C3F44",
";J 	c #4F6075",
">J 	c #B6BDBF",
",J 	c #A5A7A2",
"'J 	c #B6B8B3",
")J 	c #B2B1AA",
"!J 	c #9D988B",
"~J 	c #68645B",
"{J 	c #53657E",
"]J 	c #55677B",
"^J 	c #596C80",
"/J 	c #5C6D80",
"(J 	c #7089A3",
"_J 	c #7790A8",
":J 	c #7E96AD",
"<J 	c #728391",
"[J 	c #6D808F",
"}J 	c #758A9A",
"|J 	c #6D7C88",
"1J 	c #5F6F80",
"2J 	c #485567",
"3J 	c #667990",
"4J 	c #505D6D",
"5J 	c #3E4346",
"6J 	c #494B4A",
"7J 	c #67665F",
"8J 	c #87877F",
"9J 	c #A2A5A1",
"0J 	c #999E9C",
"aJ 	c #A6A296",
"bJ 	c #5C5E5E",
"cJ 	c #7C90AD",
"dJ 	c #D9E6FC",
"eJ 	c #9D9DA3",
"fJ 	c #D1CFD3",
"gJ 	c #646C7C",
"hJ 	c #7F8386",
"iJ 	c #464C56",
"jJ 	c #485155",
"kJ 	c #838A83",
"lJ 	c #848C84",
"mJ 	c #8C9188",
"nJ 	c #333A45",
"oJ 	c #6E818F",
"pJ 	c #A2B8BB",
"qJ 	c #9DA7A2",
"rJ 	c #8F968F",
"sJ 	c #4E545A",
"tJ 	c #484D55",
"uJ 	c #4C5963",
"vJ 	c #8F9C9A",
"wJ 	c #596369",
"xJ 	c #5A626A",
"yJ 	c #A7A8A2",
"zJ 	c #A2A49D",
"AJ 	c #A5A6A0",
"BJ 	c #99968C",
"CJ 	c #535554",
"DJ 	c #4C5154",
"EJ 	c #B0B1AA",
"FJ 	c #A7A9A2",
"GJ 	c #AEAFA8",
"HJ 	c #BCBAB4",
"IJ 	c #5A6169",
"JJ 	c #49525D",
"KJ 	c #D6D0CE",
"LJ 	c #ADB0B6",
"MJ 	c #AFACA9",
"NJ 	c #A9AEB6",
"OJ 	c #B9BEC8",
"PJ 	c #8B97AA",
"QJ 	c #46505F",
"RJ 	c #404A5A",
"SJ 	c #313538",
"TJ 	c #5B564E",
"UJ 	c #CDD5E3",
"VJ 	c #BAB4B1",
"WJ 	c #57616F",
"XJ 	c #C3BFC0",
"YJ 	c #696562",
"ZJ 	c #7B899D",
"`J 	c #ADA092",
" K 	c #3A3D42",
".K 	c #5C6E83",
"+K 	c #BCC3C4",
"@K 	c #B9BBB6",
"#K 	c #A5A7A1",
"$K 	c #A4A6A1",
"%K 	c #A6A8A2",
"&K 	c #B7B9B4",
"*K 	c #B0AFA8",
"=K 	c #928E82",
"-K 	c #5E594D",
";K 	c #414240",
">K 	c #415065",
",K 	c #54687F",
"'K 	c #657D96",
")K 	c #758BA0",
"!K 	c #7C8E9D",
"~K 	c #808E98",
"{K 	c #7F8A8F",
"]K 	c #7B8385",
"^K 	c #727B7D",
"/K 	c #73797A",
"(K 	c #525A62",
"_K 	c #4F5F72",
":K 	c #5B6C7E",
"<K 	c #556A84",
"[K 	c #5D7085",
"}K 	c #718191",
"|K 	c #8A979F",
"1K 	c #8A9295",
"2K 	c #4D565D",
"3K 	c #848F97",
"4K 	c #53677F",
"5K 	c #414444",
"6K 	c #52534F",
"7K 	c #787973",
"8K 	c #9C9F9B",
"9K 	c #A9A8A1",
"0K 	c #7C7970",
"aK 	c #58667A",
"bK 	c #C5D8F5",
"cK 	c #AAACB2",
"dK 	c #D5D2D5",
"eK 	c #707887",
"fK 	c #666A6D",
"gK 	c #92969C",
"hK 	c #576061",
"iK 	c #888F88",
"jK 	c #8A918A",
"kK 	c #494D4D",
"lK 	c #748793",
"mK 	c #969F98",
"nK 	c #2C323A",
"oK 	c #898E92",
"pK 	c #ABADB0",
"qK 	c #819090",
"rK 	c #869493",
"sK 	c #A0A4A0",
"tK 	c #ABABA5",
"uK 	c #A8A8A2",
"vK 	c #727068",
"wK 	c #556576",
"xK 	c #4F5862",
"yK 	c #596062",
"zK 	c #AAABA5",
"AK 	c #ABACA5",
"BK 	c #9FA09E",
"CK 	c #6B7583",
"DK 	c #888686",
"EK 	c #515860",
"FK 	c #CECCCC",
"GK 	c #6B7A8E",
"HK 	c #A5A6A8",
"IK 	c #A7A8AA",
"JK 	c #B5B6B9",
"KK 	c #ACB3C0",
"LK 	c #6C788A",
"MK 	c #3B444F",
"NK 	c #657385",
"OK 	c #888688",
"PK 	c #ADB0B8",
"QK 	c #C1BEBE",
"RK 	c #C3BBB5",
"SK 	c #BEC8D7",
"TK 	c #CCC7C8",
"UK 	c #A99D8F",
"VK 	c #64788D",
"WK 	c #B9C0C1",
"XK 	c #A8AAA5",
"YK 	c #A5A298",
"ZK 	c #696355",
"`K 	c #3E3F3E",
" L 	c #404F62",
".L 	c #5B7187",
"+L 	c #72889C",
"@L 	c #7A8993",
"#L 	c #7C878D",
"$L 	c #7C8486",
"%L 	c #7A8285",
"&L 	c #798284",
"*L 	c #7E8789",
"=L 	c #838B8D",
"-L 	c #81898B",
";L 	c #464F59",
">L 	c #515E6C",
",L 	c #74828B",
"'L 	c #758184",
")L 	c #748082",
"!L 	c #757F81",
"~L 	c #848C8F",
"{L 	c #878F91",
"]L 	c #8B9294",
"^L 	c #7A858E",
"/L 	c #41494F",
"(L 	c #767D7E",
"_L 	c #647E9A",
":L 	c #8FA6B1",
"<L 	c #919FA0",
"[L 	c #8E9C9C",
"}L 	c #869BA4",
"|L 	c #6C818D",
"1L 	c #4E5C6C",
"2L 	c #393F44",
"3L 	c #4A4A43",
"4L 	c #8B8E89",
"5L 	c #948F82",
"6L 	c #4B535D",
"7L 	c #4A5667",
"8L 	c #A8BFE0",
"9L 	c #D0CFD5",
"0L 	c #E8E3E4",
"aL 	c #E7E2E4",
"bL 	c #606670",
"cL 	c #DAD6D9",
"dL 	c #7B8190",
"eL 	c #363E48",
"fL 	c #686D71",
"gL 	c #7C818A",
"hL 	c #7F8782",
"iL 	c #8B928B",
"jL 	c #868D86",
"kL 	c #8F968E",
"lL 	c #8E9287",
"mL 	c #333B45",
"nL 	c #97A5A6",
"oL 	c #5E6668",
"pL 	c #545C68",
"qL 	c #4F5C65",
"rL 	c #50595E",
"sL 	c #6D7376",
"tL 	c #ACADA7",
"uL 	c #868277",
"vL 	c #869BAD",
"wL 	c #606360",
"xL 	c #424546",
"yL 	c #A3A49D",
"zL 	c #A5A69F",
"AL 	c #ACADA6",
"BL 	c #B9B8B2",
"CL 	c #7A8085",
"DL 	c #3B4553",
"EL 	c #BEC5D4",
"FL 	c #3D444D",
"GL 	c #9BA1A8",
"HL 	c #AAA7A5",
"IL 	c #323A46",
"JL 	c #C2C9D1",
"KL 	c #A4A6A7",
"LL 	c #A7A8A9",
"ML 	c #B0B0B2",
"NL 	c #B8BBC2",
"OL 	c #97A2B4",
"PL 	c #546071",
"QL 	c #414B5B",
"RL 	c #6D7279",
"SL 	c #BCC3CE",
"TL 	c #C4BDBA",
"UL 	c #545352",
"VL 	c #6B6D70",
"WL 	c #5F5C58",
"XL 	c #5D5954",
"YL 	c #393D43",
"ZL 	c #677B91",
"`L 	c #B9BFC0",
" M 	c #B3B4B0",
".M 	c #AFAEA6",
"+M 	c #949084",
"@M 	c #57554D",
"#M 	c #3A4047",
"$M 	c #3F4E61",
"%M 	c #556B81",
"&M 	c #6B8497",
"*M 	c #71838C",
"=M 	c #707A7D",
"-M 	c #717A7D",
";M 	c #767F82",
">M 	c #767F81",
",M 	c #7B8486",
"'M 	c #899193",
")M 	c #8A9395",
"!M 	c #858E90",
"~M 	c #596978",
"{M 	c #737F81",
"]M 	c #717D7F",
"^M 	c #727C7E",
"/M 	c #747D7F",
"(M 	c #778082",
"_M 	c #838C8E",
":M 	c #858D8F",
"<M 	c #8A9294",
"[M 	c #7F878F",
"}M 	c #4D5560",
"|M 	c #5C6367",
"1M 	c #546072",
"2M 	c #7891A0",
"3M 	c #929A94",
"4M 	c #8F9892",
"5M 	c #8F9B93",
"6M 	c #8D9891",
"7M 	c #88928C",
"8M 	c #8E9C9B",
"9M 	c #84979D",
"0M 	c #647786",
"aM 	c #797B76",
"bM 	c #9EA19E",
"cM 	c #A6A195",
"dM 	c #636460",
"eM 	c #839ABB",
"fM 	c #D4DFF3",
"gM 	c #CDC8CA",
"hM 	c #E1DCDE",
"iM 	c #E7E2E3",
"jM 	c #B4B2B5",
"kM 	c #A09FA1",
"lM 	c #DBD7DA",
"mM 	c #7C8391",
"nM 	c #4F555F",
"oM 	c #363E44",
"pM 	c #90978F",
"qM 	c #607381",
"rM 	c #96A096",
"sM 	c #858A8F",
"tM 	c #8C9A98",
"uM 	c #7D8A8A",
"vM 	c #837E72",
"wM 	c #4E5A67",
"xM 	c #ADB7BB",
"yM 	c #727A81",
"zM 	c #909697",
"AM 	c #969790",
"BM 	c #494B4E",
"CM 	c #A1A2A4",
"DM 	c #A1A3A4",
"EM 	c #9FA0A1",
"FM 	c #A6A7A8",
"GM 	c #AEAEB0",
"HM 	c #B4B4B8",
"IM 	c #B0B2B9",
"JM 	c #474B52",
"KM 	c #92959B",
"LM 	c #B3AFAD",
"MM 	c #576374",
"NM 	c #999CA7",
"OM 	c #7F8797",
"PM 	c #363E4A",
"QM 	c #B7BDBF",
"RM 	c #898374",
"SM 	c #4F4E49",
"TM 	c #445468",
"UM 	c #678099",
"VM 	c #717B7E",
"WM 	c #707A7C",
"XM 	c #6D787A",
"YM 	c #697679",
"ZM 	c #6A7678",
"`M 	c #6C7578",
" N 	c #6C7678",
".N 	c #737D7F",
"+N 	c #768082",
"@N 	c #7B8587",
"#N 	c #8C9496",
"$N 	c #56626F",
"%N 	c #757D80",
"&N 	c #6F7B7D",
"*N 	c #6F797B",
"=N 	c #747D80",
"-N 	c #7A8385",
";N 	c #7F888B",
">N 	c #818A8C",
",N 	c #868E90",
"'N 	c #868C8D",
")N 	c #566272",
"!N 	c #505862",
"~N 	c #859DA9",
"{N 	c #929B95",
"]N 	c #8E9791",
"^N 	c #8B9890",
"/N 	c #86908A",
"(N 	c #869089",
"_N 	c #848E88",
":N 	c #848D87",
"<N 	c #808A84",
"[N 	c #879493",
"}N 	c #7D929D",
"|N 	c #4F5D6B",
"1N 	c #6D6E68",
"2N 	c #999D99",
"3N 	c #8A867B",
"4N 	c #5C6C82",
"5N 	c #DDF1FF",
"6N 	c #E3DFE0",
"7N 	c #737B8B",
"8N 	c #979BA0",
"9N 	c #8B999B",
"0N 	c #686F70",
"aN 	c #454B53",
"bN 	c #606E73",
"cN 	c #8E9A98",
"dN 	c #464C50",
"eN 	c #3F4143",
"fN 	c #374251",
"gN 	c #94A6B4",
"hN 	c #B3BABA",
"iN 	c #ADAEA7",
"jN 	c #ABACA6",
"kN 	c #A7A8A1",
"lN 	c #9FA19A",
"mN 	c #8A8B87",
"nN 	c #7E807C",
"oN 	c #A4A59E",
"pN 	c #B7B7B1",
"qN 	c #5B5E62",
"rN 	c #9DA7B8",
"sN 	c #595E65",
"tN 	c #848F9C",
"uN 	c #ACABAC",
"vN 	c #AEADAE",
"wN 	c #343F4D",
"xN 	c #B1B7BF",
"yN 	c #9FA0A2",
"zN 	c #9FA1A2",
"AN 	c #A0A1A2",
"BN 	c #A9AAAB",
"CN 	c #3B424D",
"DN 	c #95A2B6",
"EN 	c #B3B6BF",
"FN 	c #777677",
"GN 	c #767575",
"HN 	c #7B7A7A",
"IN 	c #7F7D7D",
"JN 	c #777676",
"KN 	c #797878",
"LN 	c #7E7C7B",
"MN 	c #494746",
"NN 	c #B7BDC9",
"ON 	c #D8D2D2",
"PN 	c #D0CCCE",
"QN 	c #566982",
"RN 	c #AEAFAB",
"SN 	c #ADAFA9",
"TN 	c #979286",
"UN 	c #514F49",
"VN 	c #4D6178",
"WN 	c #536373",
"XN 	c #40484E",
"YN 	c #737C7E",
"ZN 	c #6A7477",
"`N 	c #677275",
" O 	c #697376",
".O 	c #677174",
"+O 	c #667174",
"@O 	c #6E787A",
"#O 	c #737C7F",
"$O 	c #778183",
"%O 	c #57626A",
"&O 	c #717A7C",
"*O 	c #858D90",
"=O 	c #7F8789",
"-O 	c #69727A",
";O 	c #899BA1",
">O 	c #8D9690",
",O 	c #88918B",
"'O 	c #7D8881",
")O 	c #7E8982",
"!O 	c #7D8781",
"~O 	c #838D86",
"{O 	c #838D87",
"]O 	c #8A978F",
"^O 	c #8D9C96",
"/O 	c #849A9F",
"(O 	c #5A6979",
"_O 	c #404444",
":O 	c #797A76",
"<O 	c #989A97",
"[O 	c #ADAEA9",
"}O 	c #A29B8C",
"|O 	c #505559",
"1O 	c #4D5D73",
"2O 	c #B3CBEC",
"3O 	c #E8E7ED",
"4O 	c #E8E3E5",
"5O 	c #CFCACC",
"6O 	c #B0AEB2",
"7O 	c #9FA0A6",
"8O 	c #D6D2D5",
"9O 	c #616876",
"0O 	c #919499",
"aO 	c #7A7E84",
"bO 	c #8C948F",
"cO 	c #5D6160",
"dO 	c #8E958D",
"eO 	c #30363E",
"fO 	c #8A8E92",
"gO 	c #878B91",
"hO 	c #8E9897",
"iO 	c #6F797E",
"jO 	c #8896A3",
"kO 	c #AFB9BD",
"lO 	c #A8A9A2",
"mO 	c #A2A39C",
"nO 	c #9B9D96",
"oO 	c #9D9F98",
"pO 	c #A0A29B",
"qO 	c #747C82",
"rO 	c #45494C",
"sO 	c #8B8C86",
"tO 	c #A4A59F",
"uO 	c #ACABA4",
"vO 	c #D5D7DF",
"wO 	c #C0BDBE",
"xO 	c #D6D5D6",
"yO 	c #494D52",
"zO 	c #708093",
"AO 	c #A6A3A1",
"BO 	c #98A2B2",
"CO 	c #A9ADB6",
"DO 	c #C8C7CC",
"EO 	c #898E97",
"FO 	c #8B9099",
"GO 	c #8C9099",
"HO 	c #9EA1A9",
"IO 	c #CBD2DF",
"JO 	c #A3A8B4",
"KO 	c #ABB5C5",
"LO 	c #D6CFCD",
"MO 	c #515254",
"NO 	c #B4BBBD",
"OO 	c #B4B5B1",
"PO 	c #A9A69B",
"QO 	c #646159",
"RO 	c #455569",
"SO 	c #72899D",
"TO 	c #838F95",
"UO 	c #586268",
"VO 	c #7E888A",
"WO 	c #667073",
"XO 	c #687274",
"YO 	c #646F71",
"ZO 	c #606E71",
"`O 	c #626F71",
" P 	c #697476",
".P 	c #717B7D",
"+P 	c #747E80",
"@P 	c #677072",
"#P 	c #50595D",
"$P 	c #7B8487",
"%P 	c #7A8486",
"&P 	c #788285",
"*P 	c #7D8689",
"=P 	c #828B8D",
"-P 	c #80888B",
";P 	c #797E7C",
">P 	c #4F5C6F",
",P 	c #5D7080",
"'P 	c #808A83",
")P 	c #7B857F",
"!P 	c #79847C",
"~P 	c #838F88",
"{P 	c #85928A",
"]P 	c #859089",
"^P 	c #89978E",
"/P 	c #8A958E",
"(P 	c #8D9B95",
"_P 	c #83969B",
":P 	c #586776",
"<P 	c #3F4140",
"[P 	c #4B4D4B",
"}P 	c #4D5155",
"|P 	c #879CBA",
"1P 	c #D4DFF2",
"2P 	c #828790",
"3P 	c #D2CFD2",
"4P 	c #535B66",
"5P 	c #8F9397",
"6P 	c #4B5357",
"7P 	c #9AA09A",
"8P 	c #90958C",
"9P 	c #47525A",
"0P 	c #8F9791",
"aP 	c #838B84",
"bP 	c #899089",
"cP 	c #62696A",
"dP 	c #8E9796",
"eP 	c #A8AAA3",
"fP 	c #A3A59D",
"gP 	c #A2A49C",
"hP 	c #9C9D96",
"iP 	c #9FA099",
"jP 	c #A0A29A",
"kP 	c #A6AAA6",
"lP 	c #515351",
"mP 	c #6D7889",
"nP 	c #757578",
"oP 	c #666F7C",
"pP 	c #A9A6A4",
"qP 	c #2C3542",
"rP 	c #C1C7CF",
"sP 	c #A3A5A7",
"tP 	c #817F7C",
"uP 	c #B7C4D7",
"vP 	c #919093",
"wP 	c #BABEC7",
"xP 	c #C4C1C1",
"yP 	c #C5C2C2",
"zP 	c #7B756F",
"AP 	c #AFBBC2",
"BP 	c #B8BAB4",
"CP 	c #B6B8B2",
"DP 	c #B3B2AA",
"EP 	c #878173",
"FP 	c #3D4A5B",
"GP 	c #68829A",
"HP 	c #7A868C",
"IP 	c #7F878A",
"JP 	c #889193",
"KP 	c #788187",
"LP 	c #7E878A",
"MP 	c #818A8D",
"NP 	c #636F71",
"OP 	c #616E71",
"PP 	c #5F6E71",
"QP 	c #657072",
"RP 	c #6D7779",
"SP 	c #6A7578",
"TP 	c #778184",
"UP 	c #7E888B",
"VP 	c #838C8F",
"WP 	c #868F91",
"XP 	c #848D8F",
"YP 	c #737673",
"ZP 	c #667D8D",
"`P 	c #828D89",
" Q 	c #7D8780",
".Q 	c #7B867F",
"+Q 	c #79847D",
"@Q 	c #77827B",
"#Q 	c #7F8A83",
"$Q 	c #828D86",
"%Q 	c #849088",
"&Q 	c #85948A",
"*Q 	c #86938B",
"=Q 	c #87948C",
"-Q 	c #848E87",
";Q 	c #868F89",
">Q 	c #8A9590",
",Q 	c #809199",
"'Q 	c #4A535C",
")Q 	c #A7B8D1",
"!Q 	c #DEDADB",
"~Q 	c #CCC7C9",
"{Q 	c #8A919D",
"]Q 	c #D0CDD2",
"^Q 	c #7F8886",
"/Q 	c #525451",
"(Q 	c #5B6770",
"_Q 	c #808E94",
":Q 	c #454B51",
"<Q 	c #4B5250",
"[Q 	c #919791",
"}Q 	c #303740",
"|Q 	c #8E9398",
"1Q 	c #676B72",
"2Q 	c #4C5965",
"3Q 	c #58626B",
"4Q 	c #70787D",
"5Q 	c #B2B3AC",
"6Q 	c #9E9F98",
"7Q 	c #9C9E96",
"8Q 	c #9A9C95",
"9Q 	c #9B9C95",
"0Q 	c #9D9F97",
"aQ 	c #A3A59E",
"bQ 	c #969A99",
"cQ 	c #5B636B",
"dQ 	c #42484F",
"eQ 	c #B7BDCB",
"fQ 	c #9FA8B3",
"gQ 	c #4F5153",
"hQ 	c #738191",
"iQ 	c #C9CBCD",
"jQ 	c #C5C6C8",
"kQ 	c #C4C6C8",
"lQ 	c #C5C7C9",
"mQ 	c #C2C3C5",
"nQ 	c #7186A2",
"oQ 	c #7C8086",
"pQ 	c #9A9188",
"qQ 	c #A2B7C9",
"rQ 	c #A9A69C",
"sQ 	c #5B584F",
"tQ 	c #576D85",
"uQ 	c #798C9A",
"vQ 	c #788183",
"wQ 	c #868E91",
"xQ 	c #838B8E",
"yQ 	c #5B656C",
"zQ 	c #858E91",
"AQ 	c #636F72",
"BQ 	c #687375",
"CQ 	c #7A8487",
"DQ 	c #798285",
"EQ 	c #687578",
"FQ 	c #606A6E",
"GQ 	c #576168",
"HQ 	c #6E797B",
"IQ 	c #80898C",
"JQ 	c #868F92",
"KQ 	c #878F92",
"LQ 	c #6C706E",
"MQ 	c #708896",
"NQ 	c #808983",
"OQ 	c #818D86",
"PQ 	c #829187",
"QQ 	c #839088",
"RQ 	c #818C85",
"SQ 	c #828C86",
"TQ 	c #7F8983",
"UQ 	c #64747E",
"VQ 	c #6F7987",
"WQ 	c #CCC9CC",
"XQ 	c #E1DBDA",
"YQ 	c #A7ACB6",
"ZQ 	c #C2C1C8",
"`Q 	c #596066",
" R 	c #919B9B",
".R 	c #42484D",
"+R 	c #606968",
"@R 	c #979D96",
"#R 	c #9CA19B",
"$R 	c #9A9F99",
"%R 	c #636A6C",
"&R 	c #3F4852",
"*R 	c #3B4452",
"=R 	c #7D8788",
"-R 	c #B0B0AA",
";R 	c #96958E",
">R 	c #A8A7A9",
",R 	c #B8B7B6",
"'R 	c #B4BAC3",
")R 	c #C4C5C7",
"!R 	c #918E8B",
"~R 	c #C4C6CE",
"{R 	c #6F7278",
"]R 	c #BBB1A8",
"^R 	c #8DA2B4",
"/R 	c #8D8779",
"(R 	c #414447",
"_R 	c #3E4B5B",
":R 	c #6A8094",
"<R 	c #748086",
"[R 	c #788284",
"}R 	c #7D8687",
"|R 	c #81898C",
"1R 	c #677274",
"2R 	c #788184",
"3R 	c #6C7679",
"4R 	c #6A7679",
"5R 	c #6E787B",
"6R 	c #707B7D",
"7R 	c #899194",
"8R 	c #868B8A",
"9R 	c #646C6F",
"0R 	c #79909A",
"aR 	c #818B84",
"bR 	c #77837B",
"cR 	c #808E86",
"dR 	c #808B84",
"eR 	c #78837C",
"fR 	c #7E8881",
"gR 	c #848F8A",
"hR 	c #7E8D91",
"iR 	c #4C5968",
"jR 	c #858689",
"kR 	c #CEC9CB",
"lR 	c #E7E3E4",
"mR 	c #B5B2B3",
"nR 	c #CACBD2",
"oR 	c #A8A9B1",
"pR 	c #777D83",
"qR 	c #A6A9AE",
"rR 	c #687172",
"sR 	c #40474D",
"tR 	c #484B47",
"uR 	c #777C72",
"vR 	c #939992",
"wR 	c #7D817B",
"xR 	c #474948",
"yR 	c #353A3E",
"zR 	c #4A5057",
"AR 	c #6C787C",
"BR 	c #8B9795",
"CR 	c #8E9394",
"DR 	c #9EA098",
"ER 	c #9A9C94",
"FR 	c #676B6F",
"GR 	c #8795A8",
"HR 	c #57585C",
"IR 	c #7C848F",
"JR 	c #646566",
"KR 	c #555F6C",
"LR 	c #464C55",
"MR 	c #8F9EB3",
"NR 	c #A8A19B",
"OR 	c #A39D97",
"PR 	c #646567",
"QR 	c #82868D",
"RR 	c #444649",
"SR 	c #BDC2C3",
"TR 	c #ADACA4",
"UR 	c #756E60",
"VR 	c #52677F",
"WR 	c #738593",
"XR 	c #6D777A",
"YR 	c #6E777A",
"ZR 	c #828A8D",
"`R 	c #879092",
" S 	c #6B7678",
".S 	c #6F797C",
"+S 	c #6F7A7C",
"@S 	c #525A61",
"#S 	c #727B7E",
"$S 	c #838D8F",
"%S 	c #7D8382",
"&S 	c #585D61",
"*S 	c #52606E",
"=S 	c #819294",
"-S 	c #858F89",
";S 	c #848F88",
">S 	c #838E87",
",S 	c #7F8D85",
"'S 	c #808C84",
")S 	c #808C85",
"!S 	c #7B877F",
"~S 	c #747F78",
"{S 	c #758079",
"]S 	c #78827B",
"^S 	c #7B857E",
"/S 	c #616F7A",
"(S 	c #393F48",
"_S 	c #656565",
":S 	c #E5E0E2",
"<S 	c #999799",
"[S 	c #D6D2D4",
"}S 	c #797E8A",
"|S 	c #ABAFB4",
"1S 	c #7E858E",
"2S 	c #3D4752",
"3S 	c #969F9A",
"4S 	c #747D7D",
"5S 	c #6B777A",
"6S 	c #393D3E",
"7S 	c #32363A",
"8S 	c #495051",
"9S 	c #788488",
"0S 	c #8D9DA7",
"aS 	c #82919B",
"bS 	c #798388",
"cS 	c #5B636C",
"dS 	c #848991",
"eS 	c #424C56",
"fS 	c #8B9896",
"gS 	c #5C6369",
"hS 	c #A0A19A",
"iS 	c #CDCFD6",
"jS 	c #D9D3D2",
"kS 	c #31363B",
"lS 	c #B0B4BA",
"mS 	c #B6B3B1",
"nS 	c #A5AFBC",
"oS 	c #A6A8A9",
"pS 	c #C9C9CB",
"qS 	c #918D89",
"rS 	c #444F5C",
"sS 	c #C1C0C4",
"tS 	c #384351",
"uS 	c #736F6A",
"vS 	c #B0BFCB",
"wS 	c #ABAAA3",
"xS 	c #636057",
"yS 	c #647D96",
"zS 	c #737F85",
"AS 	c #727C7F",
"BS 	c #4B5259",
"CS 	c #737672",
"DS 	c #7E8688",
"ES 	c #6E7A7D",
"FS 	c #707B7E",
"GS 	c #747E81",
"HS 	c #676F74",
"IS 	c #636F79",
"JS 	c #848E90",
"KS 	c #798184",
"LS 	c #757A78",
"MS 	c #515A65",
"NS 	c #596B7B",
"OS 	c #849290",
"PS 	c #88928B",
"QS 	c #86918A",
"RS 	c #818E87",
"SS 	c #808F86",
"TS 	c #768079",
"US 	c #828C85",
"VS 	c #86918C",
"WS 	c #6C7A81",
"XS 	c #4D5052",
"YS 	c #CECACC",
"ZS 	c #D8D1CF",
"`S 	c #92A1B6",
" T 	c #515660",
".T 	c #A7ACB1",
"+T 	c #A9AEB3",
"@T 	c #5D686B",
"#T 	c #A2A7A1",
"$T 	c #798081",
"%T 	c #454745",
"&T 	c #6D6E65",
"*T 	c #979B94",
"=T 	c #949996",
"-T 	c #B6B9BD",
";T 	c #819191",
">T 	c #839190",
",T 	c #4E5B6D",
"'T 	c #959292",
")T 	c #868687",
"!T 	c #B6B6B8",
"~T 	c #BFBDBC",
"{T 	c #43484E",
"]T 	c #798BA1",
"^T 	c #43474D",
"/T 	c #A3B1C5",
"(T 	c #97A1B3",
"_T 	c #CFDAEB",
":T 	c #C9C8CC",
"<T 	c #65696F",
"[T 	c #A79D92",
"}T 	c #353C44",
"|T 	c #4E5E71",
"1T 	c #BCC4C8",
"2T 	c #504F4A",
"3T 	c #7D8588",
"4T 	c #6C777A",
"5T 	c #687477",
"6T 	c #6B7577",
"7T 	c #60676C",
"8T 	c #3B4246",
"9T 	c #6B6F6B",
"0T 	c #70736F",
"aT 	c #747874",
"bT 	c #777A76",
"cT 	c #61625C",
"dT 	c #404445",
"eT 	c #5B6261",
"fT 	c #69706E",
"gT 	c #686F6C",
"hT 	c #6A6E6C",
"iT 	c #818787",
"jT 	c #6C757D",
"kT 	c #636D73",
"lT 	c #4D5869",
"mT 	c #678091",
"nT 	c #84908B",
"oT 	c #85938B",
"pT 	c #839288",
"qT 	c #809086",
"rT 	c #7A867E",
"sT 	c #78847C",
"tT 	c #7A847D",
"uT 	c #7C867F",
"vT 	c #7C8680",
"wT 	c #758384",
"xT 	c #41454B",
"yT 	c #CCC9CA",
"zT 	c #7B7B7D",
"AT 	c #5D5F64",
"BT 	c #5F676E",
"CT 	c #A6ABB0",
"DT 	c #A8ADB2",
"ET 	c #919995",
"FT 	c #A7ACA6",
"GT 	c #ABB0AA",
"HT 	c #9E9C90",
"IT 	c #454C52",
"JT 	c #7A8189",
"KT 	c #50565E",
"LT 	c #5E6C74",
"MT 	c #46505A",
"NT 	c #8B9193",
"OT 	c #B2B2AD",
"PT 	c #464643",
"QT 	c #454440",
"RT 	c #3F3F3B",
"ST 	c #3F403F",
"TT 	c #383A38",
"UT 	c #3B3D3D",
"VT 	c #9097A4",
"WT 	c #848F9D",
"XT 	c #454C56",
"YT 	c #8C98A8",
"ZT 	c #898684",
"`T 	c #343C48",
" U 	c #D9D9DF",
".U 	c #AEAEB5",
"+U 	c #B6B3B3",
"@U 	c #CEC8C5",
"#U 	c #546273",
"$U 	c #ABAFAE",
"%U 	c #A69E8D",
"&U 	c #8399AE",
"*U 	c #70797C",
"=U 	c #6A7476",
"-U 	c #6A7577",
";U 	c #737D80",
">U 	c #7A8386",
",U 	c #798080",
"'U 	c #3B4654",
")U 	c #485565",
"!U 	c #607082",
"~U 	c #627487",
"{U 	c #5C6C7D",
"]U 	c #52647B",
"^U 	c #49596F",
"/U 	c #6F7D89",
"(U 	c #777F81",
"_U 	c #6C716E",
":U 	c #768E9C",
"<U 	c #8A948D",
"[U 	c #89958E",
"}U 	c #85948B",
"|U 	c #819187",
"1U 	c #727D76",
"2U 	c #737E77",
"3U 	c #7A847E",
"4U 	c #849190",
"5U 	c #434C56",
"6U 	c #363A3F",
"7U 	c #A2A1A2",
"8U 	c #E6E2E3",
"9U 	c #798089",
"0U 	c #E5E0E1",
"aU 	c #4E5055",
"bU 	c #B7C2D4",
"cU 	c #9A9BA3",
"dU 	c #343D49",
"eU 	c #95999E",
"fU 	c #5E696C",
"gU 	c #959180",
"hU 	c #444645",
"iU 	c #A8B1B3",
"jU 	c #9CAAB4",
"kU 	c #677583",
"lU 	c #BFC1C2",
"mU 	c #85888D",
"nU 	c #3D4955",
"oU 	c #8E9B99",
"pU 	c #677277",
"qU 	c #3E4244",
"rU 	c #3C3D3A",
"sU 	c #404241",
"tU 	c #444542",
"uU 	c #708397",
"vU 	c #6B7E94",
"wU 	c #687A8E",
"xU 	c #6A7C92",
"yU 	c #626D78",
"zU 	c #718193",
"AU 	c #CAD1E0",
"BU 	c #D7D1CF",
"CU 	c #3A4657",
"DU 	c #BABEC4",
"EU 	c #A7A5A2",
"FU 	c #BEC3CC",
"GU 	c #AFADAC",
"HU 	c #3E434B",
"IU 	c #90A4C0",
"JU 	c #D8D8DE",
"KU 	c #BDBCBF",
"LU 	c #565C66",
"MU 	c #76726D",
"NU 	c #555754",
"OU 	c #94938E",
"PU 	c #C1C1BD",
"QU 	c #B5B7B1",
"RU 	c #A79F8E",
"SU 	c #464847",
"TU 	c #797F80",
"UU 	c #878E90",
"VU 	c #7D8587",
"WU 	c #4C545D",
"XU 	c #818E95",
"YU 	c #889297",
"ZU 	c #788590",
"`U 	c #5E6E80",
" V 	c #63778D",
".V 	c #788A9B",
"+V 	c #899DAE",
"@V 	c #93A4B1",
"#V 	c #989FA1",
"$V 	c #92989B",
"%V 	c #888D8E",
"&V 	c #7A7B76",
"*V 	c #535552",
"=V 	c #515E69",
"-V 	c #7A8284",
";V 	c #686D6B",
">V 	c #849AA1",
",V 	c #8E9992",
"'V 	c #86958B",
")V 	c #839289",
"!V 	c #7F8C84",
"~V 	c #808E85",
"{V 	c #89948D",
"]V 	c #8F9F9B",
"^V 	c #495560",
"/V 	c #8B8A8B",
"(V 	c #CCC6C3",
"_V 	c #DBD3D1",
":V 	c #ACA9A9",
"<V 	c #A4A3A6",
"[V 	c #787574",
"}V 	c #BACBE3",
"|V 	c #7E828A",
"1V 	c #949C97",
"2V 	c #9FA59E",
"3V 	c #A9AFA8",
"4V 	c #9A9687",
"5V 	c #3B4144",
"6V 	c #9B9F99",
"7V 	c #A3A8A2",
"8V 	c #ABB3B1",
"9V 	c #9CAAAF",
"0V 	c #63707B",
"aV 	c #373D47",
"bV 	c #9BA0A7",
"cV 	c #B8B8B9",
"dV 	c #849394",
"eV 	c #8A9695",
"fV 	c #8492A3",
"gV 	c #495564",
"hV 	c #74889F",
"iV 	c #71859C",
"jV 	c #A5ACAF",
"kV 	c #A2A9AC",
"lV 	c #8A9092",
"mV 	c #7B7E7F",
"nV 	c #959396",
"oV 	c #696B6E",
"pV 	c #687483",
"qV 	c #C0C2C4",
"rV 	c #817E78",
"sV 	c #D6D8DF",
"tV 	c #908F91",
"uV 	c #B9B8BB",
"vV 	c #B6AA9E",
"wV 	c #424E5F",
"xV 	c #404548",
"yV 	c #787874",
"zV 	c #B7B7B3",
"AV 	c #4A5C74",
"BV 	c #8096A8",
"CV 	c #565B5C",
"DV 	c #7E8586",
"EV 	c #697375",
"FV 	c #656A68",
"GV 	c #5B6C7D",
"HV 	c #80888A",
"IV 	c #848C8E",
"JV 	c #91999B",
"KV 	c #999FA1",
"LV 	c #9DA3A5",
"MV 	c #93938D",
"NV 	c #64635B",
"OV 	c #484F58",
"PV 	c #4B5C74",
"QV 	c #667F9A",
"RV 	c #829BAF",
"SV 	c #80898D",
"TV 	c #889092",
"UV 	c #8D9597",
"VV 	c #7F8483",
"WV 	c #5E6465",
"XV 	c #52616F",
"YV 	c #8CA0A1",
"ZV 	c #8F9C94",
"`V 	c #8B9990",
" W 	c #839189",
".W 	c #818F87",
"+W 	c #7F8B84",
"@W 	c #7E8A82",
"#W 	c #89958D",
"$W 	c #92A09C",
"%W 	c #78818E",
"&W 	c #80858F",
"*W 	c #7F8896",
"=W 	c #8B898A",
"-W 	c #717379",
";W 	c #CACFDB",
">W 	c #838283",
",W 	c #B4AFAE",
"'W 	c #B0AEB1",
")W 	c #5B636D",
"!W 	c #BAC5D7",
"~W 	c #C3BFC3",
"{W 	c #666E77",
"]W 	c #606D71",
"^W 	c #A7AFA7",
"/W 	c #A9AFA5",
"(W 	c #9C9B8B",
"_W 	c #353B41",
":W 	c #6B6E69",
"<W 	c #999E99",
"[W 	c #999F9A",
"}W 	c #9BA7AA",
"|W 	c #4C555D",
"1W 	c #5E6771",
"2W 	c #C7C7C8",
"3W 	c #51555D",
"4W 	c #616E75",
"5W 	c #454E57",
"6W 	c #90989D",
"7W 	c #A3AAAE",
"8W 	c #A6ADB0",
"9W 	c #A2AAAD",
"0W 	c #A0A8AB",
"aW 	c #919799",
"bW 	c #7B8799",
"cW 	c #5A5A5B",
"dW 	c #7C8590",
"eW 	c #ACACAC",
"fW 	c #CAC6C3",
"gW 	c #A9B3C0",
"hW 	c #C7C8CA",
"iW 	c #C8CACC",
"jW 	c #414549",
"kW 	c #8E9DB1",
"lW 	c #C9C4C5",
"mW 	c #50555B",
"nW 	c #D6CFCC",
"oW 	c #535456",
"pW 	c #505C6E",
"qW 	c #3D4247",
"rW 	c #565754",
"sW 	c #94948F",
"tW 	c #B1B0A9",
"uW 	c #4A4B48",
"vW 	c #485B73",
"wW 	c #8EA4B8",
"xW 	c #8F9698",
"yW 	c #979EA1",
"zW 	c #747C7F",
"AW 	c #697275",
"BW 	c #474F57",
"CW 	c #80898B",
"DW 	c #909494",
"EW 	c #6B6960",
"FW 	c #4A4E50",
"GW 	c #556476",
"HW 	c #7F92A5",
"IW 	c #808B93",
"JW 	c #6E7676",
"KW 	c #575952",
"LW 	c #4C5661",
"MW 	c #474E52",
"NW 	c #56574F",
"OW 	c #5C5C55",
"PW 	c #5A5B54",
"QW 	c #636865",
"RW 	c #686C69",
"SW 	c #5B5C54",
"TW 	c #495059",
"UW 	c #4A5865",
"VW 	c #849592",
"WW 	c #919D95",
"XW 	c #8D9A92",
"YW 	c #8A968F",
"ZW 	c #87938C",
"`W 	c #849089",
" X 	c #828F88",
".X 	c #818D85",
"+X 	c #76827A",
"@X 	c #89968E",
"#X 	c #92A19D",
"$X 	c #515D69",
"%X 	c #D3D0D2",
"&X 	c #E9E4E5",
"*X 	c #777F8A",
"=X 	c #DFDFE6",
"-X 	c #8D93A0",
";X 	c #97989D",
">X 	c #C3BDBA",
",X 	c #797572",
"'X 	c #6B7483",
")X 	c #818289",
"!X 	c #313841",
"~X 	c #909499",
"{X 	c #797E86",
"]X 	c #3A434D",
"^X 	c #A8AEA5",
"/X 	c #9FA092",
"(X 	c #767364",
"_X 	c #516479",
":X 	c #A4B7C1",
"<X 	c #ABB6B7",
"[X 	c #5C666D",
"}X 	c #5D625F",
"|X 	c #989D97",
"1X 	c #969B95",
"2X 	c #8A908D",
"3X 	c #BDC1C5",
"4X 	c #84888E",
"5X 	c #404C58",
"6X 	c #919E9C",
"7X 	c #636E73",
"8X 	c #697581",
"9X 	c #7F8993",
"0X 	c #434A55",
"aX 	c #6E787F",
"bX 	c #919CA3",
"cX 	c #9FA7AA",
"dX 	c #969C9E",
"eX 	c #B1B8C5",
"fX 	c #ABAAAB",
"gX 	c #AAA9A9",
"hX 	c #424E5D",
"iX 	c #C7C9CB",
"jX 	c #D5D7DE",
"kX 	c #AFAEB3",
"lX 	c #6E7075",
"mX 	c #585959",
"nX 	c #C3BFBE",
"oX 	c #A39D98",
"pX 	c #546070",
"qX 	c #525C69",
"rX 	c #4C5663",
"sX 	c #42484C",
"tX 	c #B5B5B1",
"uX 	c #BABAB6",
"vX 	c #B5B4AD",
"wX 	c #56554F",
"xX 	c #8197AA",
"yX 	c #8D9497",
"zX 	c #8C9396",
"AX 	c #889195",
"BX 	c #76838E",
"CX 	c #697173",
"DX 	c #73746C",
"EX 	c #464C51",
"FX 	c #474E59",
"GX 	c #4B5154",
"HX 	c #3F4347",
"IX 	c #4B5562",
"JX 	c #4B5556",
"KX 	c #767E74",
"LX 	c #818B82",
"MX 	c #8C9891",
"NX 	c #8A988F",
"OX 	c #88958D",
"PX 	c #86928B",
"QX 	c #85918A",
"RX 	c #7C8881",
"SX 	c #7F8B83",
"TX 	c #89948E",
"UX 	c #8C9791",
"VX 	c #919E9B",
"WX 	c #48525B",
"XX 	c #4C535C",
"YX 	c #D5D2D4",
"ZX 	c #E6E1E3",
"`X 	c #C2C0C4",
" Y 	c #BFC1CC",
".Y 	c #737C8A",
"+Y 	c #CDD0D9",
"@Y 	c #3C4149",
"#Y 	c #59616A",
"$Y 	c #ACAFB3",
"%Y 	c #788182",
"&Y 	c #8E8A7A",
"*Y 	c #62798D",
"=Y 	c #A2B6BE",
"-Y 	c #868F90",
";Y 	c #454B4B",
">Y 	c #999E98",
",Y 	c #878E97",
"'Y 	c #3C485A",
")Y 	c #828E8E",
"!Y 	c #B4BBC1",
"~Y 	c #94A4B8",
"{Y 	c #6D7C8C",
"]Y 	c #9FA4A6",
"^Y 	c #A0A8AA",
"/Y 	c #AAA8AB",
"(Y 	c #626569",
"_Y 	c #727E8D",
":Y 	c #C6C8CA",
"<Y 	c #C9CACC",
"[Y 	c #59595A",
"}Y 	c #718298",
"|Y 	c #D0CDD1",
"1Y 	c #DDD6D3",
"2Y 	c #4D545F",
"3Y 	c #566170",
"4Y 	c #576577",
"5Y 	c #556479",
"6Y 	c #535E6F",
"7Y 	c #595B58",
"8Y 	c #969791",
"9Y 	c #B9B8B0",
"0Y 	c #6D6A61",
"aY 	c #788FA1",
"bY 	c #92999B",
"cY 	c #868E95",
"dY 	c #3A4044",
"eY 	c #70797D",
"fY 	c #48525D",
"gY 	c #7E8689",
"hY 	c #646662",
"iY 	c #495260",
"jY 	c #8199BB",
"kY 	c #CFE4FF",
"lY 	c #DFF0FF",
"mY 	c #E6F6FF",
"nY 	c #E5F1FF",
"oY 	c #E3E9FA",
"pY 	c #E3E9F9",
"qY 	c #E5F0FF",
"rY 	c #E3F1FF",
"sY 	c #DCEBFF",
"tY 	c #D2E3FF",
"uY 	c #B8C8E4",
"vY 	c #94A4BD",
"wY 	c #68778F",
"xY 	c #4E5868",
"yY 	c #3E4750",
"zY 	c #3D4447",
"AY 	c #464941",
"BY 	c #666E63",
"CY 	c #87918A",
"DY 	c #7E8A83",
"EY 	c #7D8A82",
"FY 	c #8A948E",
"GY 	c #889390",
"HY 	c #596069",
"IY 	c #C9C5C7",
"JY 	c #747D8C",
"KY 	c #636467",
"LY 	c #8C8E94",
"MY 	c #A19FA4",
"NY 	c #2F363F",
"OY 	c #90949A",
"PY 	c #AEB2B6",
"QY 	c #6C7179",
"RY 	c #343B41",
"SY 	c #71899A",
"TY 	c #AABDC0",
"UY 	c #A9B4B2",
"VY 	c #A4ABA5",
"WY 	c #8F9793",
"XY 	c #4A5159",
"YY 	c #585F5D",
"ZY 	c #696D6A",
"`Y 	c #4C5358",
" Z 	c #4C5764",
".Z 	c #717F82",
"+Z 	c #929E9D",
"@Z 	c #9EA7AC",
"#Z 	c #AFB5B8",
"$Z 	c #A3A8AF",
"%Z 	c #596572",
"&Z 	c #9BA0A2",
"*Z 	c #767B7E",
"=Z 	c #617185",
"-Z 	c #6C798A",
";Z 	c #CDC9C7",
">Z 	c #A8B2BF",
",Z 	c #C0C2C3",
"'Z 	c #A6A7A9",
")Z 	c #B9B6B2",
"!Z 	c #C0C7D4",
"~Z 	c #CAC9CD",
"{Z 	c #616975",
"]Z 	c #878078",
"^Z 	c #556377",
"/Z 	c #565E6A",
"(Z 	c #5A687D",
"_Z 	c #586578",
":Z 	c #434647",
"<Z 	c #7E7E79",
"[Z 	c #BFBFBB",
"}Z 	c #857F71",
"|Z 	c #828A8C",
"1Z 	c #888F91",
"2Z 	c #91989A",
"3Z 	c #9AA1A3",
"4Z 	c #A2A8A9",
"5Z 	c #58616D",
"6Z 	c #4F5C69",
"7Z 	c #8E9598",
"8Z 	c #8A9193",
"9Z 	c #767E80",
"0Z 	c #737875",
"aZ 	c #515350",
"bZ 	c #49596C",
"cZ 	c #607A93",
"dZ 	c #7693AB",
"eZ 	c #72899C",
"fZ 	c #4B5662",
"gZ 	c #57677E",
"hZ 	c #D5E2F8",
"iZ 	c #EBEBF3",
"jZ 	c #EAEDF9",
"kZ 	c #E5EDFF",
"lZ 	c #CBD9F4",
"mZ 	c #8D9DB7",
"nZ 	c #525F73",
"oZ 	c #3B4040",
"pZ 	c #4E524A",
"qZ 	c #767E77",
"rZ 	c #758179",
"sZ 	c #808D86",
"tZ 	c #84928A",
"uZ 	c #86948C",
"vZ 	c #83908E",
"wZ 	c #6C7178",
"xZ 	c #747B86",
"yZ 	c #DBD4D4",
"zZ 	c #BAB9BD",
"AZ 	c #464B53",
"BZ 	c #ADB1B5",
"CZ 	c #A6AAAF",
"DZ 	c #39414D",
"EZ 	c #5C7186",
"FZ 	c #A9BEC7",
"GZ 	c #A8B2AB",
"HZ 	c #A4ABA3",
"IZ 	c #4D5254",
"JZ 	c #60717F",
"KZ 	c #51565A",
"LZ 	c #B8BCC0",
"MZ 	c #74787E",
"NZ 	c #55636E",
"OZ 	c #596166",
"PZ 	c #747F8A",
"QZ 	c #AAB0B3",
"RZ 	c #AEB0B0",
"SZ 	c #4D555E",
"TZ 	c #848C92",
"UZ 	c #5B6067",
"VZ 	c #959DAB",
"WZ 	c #9DA3AB",
"XZ 	c #9A9896",
"YZ 	c #BFC1C3",
"ZZ 	c #4C5969",
"`Z 	c #D5CECB",
" ` 	c #495667",
".` 	c #515B6A",
"+` 	c #566375",
"@` 	c #55606E",
"#` 	c #536173",
"$` 	c #535E6D",
"%` 	c #5B5D59",
"&` 	c #9B9B96",
"*` 	c #C0C0BC",
"=` 	c #B9B7B0",
"-` 	c #968F81",
";` 	c #67809A",
">` 	c #959A9A",
",` 	c #85847C",
"'` 	c #61625D",
")` 	c #576677",
"!` 	c #8D9496",
"~` 	c #484F57",
"{` 	c #828F96",
"]` 	c #767975",
"^` 	c #52524A",
"/` 	c #4F6479",
"(` 	c #6A879D",
"_` 	c #7A93A0",
":` 	c #7D8F94",
"<` 	c #7C8888",
"[` 	c #808C8D",
"}` 	c #6B7679",
"|` 	c #CACED9",
"1` 	c #E6E5EC",
"2` 	c #E7ECFC",
"3` 	c #C7D3EA",
"4` 	c #75839A",
"5` 	c #363C3E",
"6` 	c #4F544D",
"7` 	c #7B837C",
"8` 	c #818B85",
"9` 	c #7F8982",
"0` 	c #829288",
"a` 	c #84938A",
"b` 	c #858F88",
"c` 	c #8C9991",
"d` 	c #768485",
"e` 	c #91949A",
"f` 	c #969597",
"g` 	c #BDBDC4",
"h` 	c #D5CCC8",
"i` 	c #545C66",
"j` 	c #AEABAE",
"k` 	c #2E353E",
"l` 	c #858B92",
"m` 	c #ACB0B4",
"n` 	c #B0B4B8",
"o` 	c #50565D",
"p` 	c #45515E",
"q` 	c #92AABC",
"r` 	c #A4B7C2",
"s` 	c #A9B8BC",
"t` 	c #77776D",
"u` 	c #A2A297",
"v` 	c #595E60",
"w` 	c #89939F",
"x` 	c #9EA0A3",
"y` 	c #909B9A",
"z` 	c #6F787D",
"A` 	c #57616B",
"B` 	c #A8ACAE",
"C` 	c #AAADAF",
"D` 	c #6B7077",
"E` 	c #3C4147",
"F` 	c #586674",
"G` 	c #999EA0",
"H` 	c #CED5E4",
"I` 	c #646464",
"J` 	c #6B7888",
"K` 	c #99A8BC",
"L` 	c #8F8983",
"M` 	c #545E6D",
"N` 	c #526074",
"O` 	c #535E6C",
"P` 	c #4E5660",
"Q` 	c #424545",
"R` 	c #6D685C",
"S` 	c #566B82",
"T` 	c #859197",
"U` 	c #889093",
"V` 	c #888982",
"W` 	c #656560",
"X` 	c #46505B",
"Y` 	c #5A6B7E",
"Z` 	c #949B9D",
"`` 	c #8B9090",
"  .	c #7A7E7B",
". .	c #4E5D6E",
"+ .	c #666761",
"@ .	c #3E4347",
"# .	c #566E85",
"$ .	c #6D8A9D",
"% .	c #72858B",
"& .	c #717F7F",
"* .	c #728080",
"= .	c #748181",
"- .	c #768383",
"; .	c #727D7A",
"> .	c #3C495B",
", .	c #BAC3D1",
"' .	c #E0DFE5",
") .	c #D7DFF2",
"! .	c #8896AD",
"~ .	c #3A4043",
"{ .	c #585F59",
"] .	c #7E8680",
"^ .	c #7D8982",
"/ .	c #616C71",
"( .	c #5C636C",
"_ .	c #C9BDB4",
": .	c #454D59",
"< .	c #80868F",
"[ .	c #4F535B",
"} .	c #A5AAAF",
"| .	c #ACAEB2",
"1 .	c #8A8C91",
"2 .	c #323B48",
"3 .	c #91A7B3",
"4 .	c #A2ACAC",
"5 .	c #9EA39D",
"6 .	c #A4ABA4",
"7 .	c #A1ABA1",
"8 .	c #8A8F89",
"9 .	c #A3AEAD",
"0 .	c #AAAFA9",
"a .	c #AEB2A7",
"b .	c #6A7072",
"c .	c #738287",
"d .	c #8B9493",
"e .	c #A2A6A8",
"f .	c #A4A8AA",
"g .	c #A1A4A5",
"h .	c #989D9F",
"i .	c #989A99",
"j .	c #9F9C9C",
"k .	c #9BA5B1",
"l .	c #9D9995",
"m .	c #CED0D6",
"n .	c #D2C9C3",
"o .	c #515D6D",
"p .	c #484E56",
"q .	c #57606D",
"r .	c #57667B",
"s .	c #5A6779",
"t .	c #4F5966",
"u .	c #4B535F",
"v .	c #424C5C",
"w .	c #465669",
"x .	c #8294A2",
"y .	c #919797",
"z .	c #75746B",
"A .	c #41474B",
"B .	c #5B5F5F",
"C .	c #494C4C",
"D .	c #5B6874",
"E .	c #6E7069",
"F .	c #494C4A",
"G .	c #51677E",
"H .	c #7F9AAF",
"I .	c #839298",
"J .	c #757F7F",
"K .	c #6E7A7A",
"L .	c #6A7979",
"M .	c #6B7979",
"N .	c #6D7B7B",
"O .	c #6F7D7D",
"P .	c #717D7B",
"Q .	c #9FACBE",
"R .	c #E1DFE5",
"S .	c #D9DFF1",
"T .	c #6D7582",
"U .	c #3E4442",
"V .	c #676E67",
"W .	c #838C86",
"X .	c #849189",
"Y .	c #7E8981",
"Z .	c #88968D",
"` .	c #919E97",
" ..	c #C6C3C6",
"...	c #918D8C",
"+..	c #49515C",
"@..	c #808081",
"#..	c #B1AEB1",
"$..	c #8E959C",
"%..	c #A3A8AC",
"&..	c #727D80",
"*..	c #6B6E67",
"=..	c #42433F",
"-..	c #5B5F5A",
";..	c #797C72",
">..	c #696B64",
",..	c #3C4145",
"'..	c #7B8F9B",
")..	c #AAB1AA",
"!..	c #B1B6AD",
"~..	c #575D67",
"{..	c #424D57",
"]..	c #939D9C",
"^..	c #3A3F46",
"/..	c #88929B",
"(..	c #9EA2A4",
"_..	c #A0A2A1",
":..	c #4E5B69",
"<..	c #8C8F8F",
"[..	c #767A7C",
"}..	c #6C7C92",
"|..	c #79797B",
"1..	c #627081",
"2..	c #A9A7A5",
"3..	c #9D9FA0",
"4..	c #626261",
"5..	c #DDD8D8",
"6..	c #9C9590",
"7..	c #48515F",
"8..	c #4F5E73",
"9..	c #516074",
"0..	c #5C6879",
"a..	c #58616B",
"b..	c #4E5865",
"c..	c #49566A",
"d..	c #445060",
"e..	c #798FA4",
"f..	c #8F9799",
"g..	c #929A9C",
"h..	c #78776E",
"i..	c #69809A",
"j..	c #6C7E93",
"k..	c #4A596E",
"l..	c #5D676D",
"m..	c #858C8E",
"n..	c #65655D",
"o..	c #3F4346",
"p..	c #465465",
"q..	c #638095",
"r..	c #758891",
"s..	c #838D8D",
"t..	c #8A9494",
"u..	c #6E7979",
"v..	c #657474",
"w..	c #647474",
"x..	c #677676",
"y..	c #6F7C7A",
"z..	c #535C65",
"A..	c #8493A7",
"B..	c #DCD4D3",
"C..	c #555C57",
"D..	c #828E87",
"E..	c #8C9A91",
"F..	c #84908D",
"G..	c #898D95",
"H..	c #8C8C8F",
"I..	c #474D53",
"J..	c #7F8A9C",
"K..	c #898682",
"L..	c #353B45",
"M..	c #616A75",
"N..	c #46525B",
"O..	c #4C5B67",
"P..	c #6E797D",
"Q..	c #606B73",
"R..	c #5C6A76",
"S..	c #5F6B74",
"T..	c #353A3D",
"U..	c #7D817A",
"V..	c #ADB2AB",
"W..	c #ACAFA7",
"X..	c #80848A",
"Y..	c #788486",
"Z..	c #5C656D",
"`..	c #525A63",
" +.	c #717475",
".+.	c #787975",
"++.	c #565D66",
"@+.	c #737D87",
"#+.	c #606A75",
"$+.	c #98A0AF",
"%+.	c #7A7F87",
"&+.	c #7E7E7F",
"*+.	c #5C6A7A",
"=+.	c #9B9D9F",
"-+.	c #AAA8A7",
";+.	c #A5B0C1",
">+.	c #E0D9D6",
",+.	c #565B62",
"'+.	c #525C6B",
")+.	c #536174",
"!+.	c #5D6A7C",
"~+.	c #576579",
"{+.	c #556071",
"]+.	c #617891",
"^+.	c #8E989E",
"/+.	c #8F9699",
"(+.	c #8E9698",
"_+.	c #8E9597",
":+.	c #8E9494",
"<+.	c #6F706C",
"[+.	c #5B718D",
"}+.	c #9DB5CE",
"|+.	c #9EA9B2",
"1+.	c #49525C",
"2+.	c #6C839D",
"3+.	c #949EA4",
"4+.	c #919BA0",
"5+.	c #6A7175",
"6+.	c #5F5F58",
"7+.	c #434950",
"8+.	c #627A92",
"9+.	c #8BA3B3",
"0+.	c #788588",
"a+.	c #7B8586",
"b+.	c #889293",
"c+.	c #848F8F",
"d+.	c #6D7979",
"e+.	c #617171",
"f+.	c #627272",
"g+.	c #647473",
"h+.	c #656D70",
"i+.	c #667385",
"j+.	c #CFCDD0",
"k+.	c #D2C3B7",
"l+.	c #47525E",
"m+.	c #4C5967",
"n+.	c #434A47",
"o+.	c #87918B",
"p+.	c #828F87",
"q+.	c #87958C",
"r+.	c #8F9C93",
"s+.	c #656E72",
"t+.	c #C4C3C8",
"u+.	c #9A9899",
"v+.	c #4B5462",
"w+.	c #7C899B",
"x+.	c #6C7381",
"y+.	c #D3CCC9",
"z+.	c #9B9FA4",
"A+.	c #878A8E",
"B+.	c #666A65",
"C+.	c #576269",
"D+.	c #8F9EA1",
"E+.	c #98A19E",
"F+.	c #5B656B",
"G+.	c #626A6B",
"H+.	c #ACB3AB",
"I+.	c #B2B4AB",
"J+.	c #6B7070",
"K+.	c #727C89",
"L+.	c #3F454C",
"M+.	c #5C6366",
"N+.	c #5D6C7F",
"O+.	c #8995A2",
"P+.	c #777E85",
"Q+.	c #76808B",
"R+.	c #9DA2A4",
"S+.	c #434A54",
"T+.	c #C8CFDE",
"U+.	c #DDD7D5",
"V+.	c #818790",
"W+.	c #4F555E",
"X+.	c #838E9C",
"Y+.	c #A2A4A5",
"Z+.	c #A0A2A3",
"`+.	c #908E8B",
" @.	c #394453",
".@.	c #D6D7DE",
"+@.	c #515B69",
"@@.	c #52627A",
"#@.	c #505A68",
"$@.	c #5A6D88",
"%@.	c #5A6472",
"&@.	c #5B6470",
"*@.	c #535D6D",
"=@.	c #505B6B",
"-@.	c #4F5A69",
";@.	c #4F5D70",
">@.	c #899AA9",
",@.	c #626460",
"'@.	c #434A51",
")@.	c #576D87",
"!@.	c #99AEC2",
"~@.	c #545C65",
"{@.	c #59697B",
"]@.	c #909799",
"^@.	c #8C959A",
"/@.	c #667382",
"(@.	c #495563",
"_@.	c #5A5D5A",
":@.	c #485667",
"<@.	c #7995AF",
"[@.	c #92A5AF",
"}@.	c #8C9696",
"|@.	c #7D8787",
"1@.	c #667575",
"2@.	c #727D7D",
"3@.	c #858F90",
"4@.	c #768181",
"5@.	c #5F6F6F",
"6@.	c #607070",
"7@.	c #657373",
"8@.	c #677575",
"9@.	c #687777",
"0@.	c #687170",
"a@.	c #C7C8CF",
"b@.	c #C4BFC1",
"c@.	c #DAD1CC",
"d@.	c #7C7874",
"e@.	c #889795",
"f@.	c #717B7B",
"g@.	c #3D4443",
"h@.	c #707973",
"i@.	c #8B9790",
"j@.	c #86948B",
"k@.	c #839389",
"l@.	c #7E8B83",
"m@.	c #666E78",
"n@.	c #DBD5D5",
"o@.	c #D0D2DA",
"p@.	c #8992A3",
"q@.	c #CBC7C9",
"r@.	c #575656",
"s@.	c #6C7783",
"t@.	c #A5A7AA",
"u@.	c #505D68",
"v@.	c #8E9997",
"w@.	c #9FA6A1",
"x@.	c #A7ACA7",
"y@.	c #ADADA4",
"z@.	c #7C7F7C",
"A@.	c #3C4754",
"B@.	c #A7ADAF",
"C@.	c #A4ABAE",
"D@.	c #989EA0",
"E@.	c #969A9A",
"F@.	c #B0ADAF",
"G@.	c #637284",
"H@.	c #C0BDBC",
"I@.	c #B2BDCA",
"J@.	c #A3A5A6",
"K@.	c #6A6968",
"L@.	c #637388",
"M@.	c #6F7074",
"N@.	c #5C6877",
"O@.	c #5D697A",
"P@.	c #505E71",
"Q@.	c #556173",
"R@.	c #7892AD",
"S@.	c #8C9294",
"T@.	c #888A85",
"U@.	c #3C434E",
"V@.	c #445365",
"W@.	c #849CB4",
"X@.	c #98A8B5",
"Y@.	c #929899",
"Z@.	c #4F565F",
"`@.	c #5C6E84",
" #.	c #909BA1",
".#.	c #8A8B84",
"+#.	c #4A5868",
"@#.	c #85A1BA",
"##.	c #919EA1",
"$#.	c #8D9797",
"%#.	c #7E8989",
"&#.	c #647373",
"*#.	c #6D7878",
"=#.	c #808B8B",
"-#.	c #838E8E",
";#.	c #7A8586",
">#.	c #5E6E6E",
",#.	c #647171",
"'#.	c #758080",
")#.	c #778282",
"!#.	c #6D7A7A",
"~#.	c #737D7B",
"{#.	c #BFC4CF",
"]#.	c #AA9E92",
"^#.	c #7D8D8C",
"/#.	c #87897C",
"(#.	c #87897B",
"_#.	c #878A7C",
":#.	c #7B837D",
"<#.	c #454F5A",
"[#.	c #353C3D",
"}#.	c #6E7973",
"|#.	c #7F8C83",
"1#.	c #818E86",
"2#.	c #88978E",
"3#.	c #8B9690",
"4#.	c #7D8887",
"5#.	c #B1B4BB",
"6#.	c #DCD6D7",
"7#.	c #8B8D95",
"8#.	c #485364",
"9#.	c #AAB3C1",
"0#.	c #D2D5E2",
"a#.	c #586271",
"b#.	c #555758",
"c#.	c #C1BAB6",
"d#.	c #938B82",
"e#.	c #464C53",
"f#.	c #B6BBC8",
"g#.	c #424D5A",
"h#.	c #4D5A64",
"i#.	c #9AA49A",
"j#.	c #5D6365",
"k#.	c #848B8A",
"l#.	c #ACADA3",
"m#.	c #8C8E88",
"n#.	c #BCBFC5",
"o#.	c #9FA9AF",
"p#.	c #A3AAAC",
"q#.	c #9CA2A4",
"r#.	c #969B9D",
"s#.	c #818688",
"t#.	c #54647B",
"u#.	c #8B8D92",
"v#.	c #D3D1D1",
"w#.	c #8B8885",
"x#.	c #A4A5A7",
"y#.	c #7A7B7D",
"z#.	c #E5E0E0",
"A#.	c #D7CFCA",
"B#.	c #454B52",
"C#.	c #505A66",
"D#.	c #505966",
"E#.	c #545F6E",
"F#.	c #4F5B6A",
"G#.	c #59677A",
"H#.	c #5D6E87",
"I#.	c #5B6777",
"J#.	c #5B687B",
"K#.	c #58667B",
"L#.	c #586476",
"M#.	c #556981",
"N#.	c #919AA1",
"O#.	c #8D9395",
"P#.	c #909698",
"Q#.	c #898983",
"R#.	c #3F4B5B",
"S#.	c #4A586A",
"T#.	c #7C93AB",
"U#.	c #8C9CAA",
"V#.	c #8A9297",
"W#.	c #4C535A",
"X#.	c #5B7087",
"Y#.	c #585B59",
"Z#.	c #526379",
"`#.	c #7C95AA",
" $.	c #808C8F",
".$.	c #889292",
"+$.	c #8B9595",
"@$.	c #7A8585",
"#$.	c #677373",
"$$.	c #828D8E",
"%$.	c #7C8787",
"&$.	c #606E6E",
"*$.	c #687474",
"=$.	c #717D7D",
"-$.	c #869091",
";$.	c #7A8382",
">$.	c #4C565F",
",$.	c #A7B4C6",
"'$.	c #BCB8B9",
")$.	c #C7C2C4",
"!$.	c #CEC0B4",
"~$.	c #535860",
"{$.	c #6A7E88",
"]$.	c #868A80",
"^$.	c #87887C",
"/$.	c #888A7F",
"($.	c #88897E",
"_$.	c #898A80",
":$.	c #80867F",
"<$.	c #454D54",
"[$.	c #353D41",
"}$.	c #6E7B75",
"|$.	c #7F8E85",
"1$.	c #849389",
"2$.	c #86958C",
"3$.	c #8D9791",
"4$.	c #525D66",
"5$.	c #CAC8CB",
"6$.	c #D8D2D3",
"7$.	c #778292",
"8$.	c #DAD6DA",
"9$.	c #6C7584",
"0$.	c #414956",
"a$.	c #B5C8E4",
"b$.	c #CCC1B9",
"c$.	c #8A9199",
"d$.	c #A3A8AD",
"e$.	c #86888D",
"f$.	c #313943",
"g$.	c #8D938C",
"h$.	c #A3ACA3",
"i$.	c #B3B3AA",
"j$.	c #A0A097",
"k$.	c #99A0A9",
"l$.	c #73767B",
"m$.	c #848E97",
"n$.	c #A1A6A8",
"o$.	c #959A9C",
"p$.	c #9A9FA1",
"q$.	c #6B7178",
"r$.	c #7B8594",
"s$.	c #3F4448",
"t$.	c #4A4944",
"u$.	c #5D584D",
"v$.	c #959189",
"w$.	c #B0ACA8",
"x$.	c #BDBAB8",
"y$.	c #4C5158",
"z$.	c #65758A",
"A$.	c #B6B4B1",
"B$.	c #B7C5DB",
"C$.	c #6A6D72",
"D$.	c #979089",
"E$.	c #515A67",
"F$.	c #536279",
"G$.	c #546276",
"H$.	c #56606D",
"I$.	c #555E6A",
"J$.	c #5B6A7E",
"K$.	c #57677C",
"L$.	c #515D6E",
"M$.	c #505F74",
"N$.	c #889EB4",
"O$.	c #828179",
"P$.	c #4B5156",
"Q$.	c #70879F",
"R$.	c #96A6B4",
"S$.	c #90989C",
"T$.	c #848B8D",
"U$.	c #808789",
"V$.	c #5A5F5F",
"W$.	c #8B9295",
"X$.	c #8B8B83",
"Y$.	c #526571",
"Z$.	c #79888A",
"`$.	c #738080",
" %.	c #7F8989",
".%.	c #859090",
"+%.	c #6A7676",
"@%.	c #5F6E6E",
"#%.	c #6C7878",
"$%.	c #828D8D",
"%%.	c #7D8889",
"&%.	c #667373",
"*%.	c #60706F",
"=%.	c #6A7777",
"-%.	c #848E8F",
";%.	c #737F7F",
">%.	c #566269",
",%.	c #8D9CB0",
"'%.	c #C2BEC0",
")%.	c #C2BEBF",
"!%.	c #D5CECC",
"~%.	c #85807B",
"{%.	c #3F4345",
"]%.	c #3F423F",
"^%.	c #585D5A",
"/%.	c #5A5D56",
"(%.	c #5B5C52",
"_%.	c #363E40",
":%.	c #73807A",
"<%.	c #7F8D84",
"[%.	c #7B8880",
"}%.	c #9DA3AD",
"|%.	c #ACADB7",
"1%.	c #C9C9CE",
"2%.	c #D7D1D0",
"3%.	c #89837F",
"4%.	c #66758C",
"5%.	c #99AFCD",
"6%.	c #D8D7DE",
"7%.	c #8D8886",
"8%.	c #3E454F",
"9%.	c #94A5BD",
"0%.	c #A8ADA7",
"a%.	c #9A9E97",
"b%.	c #667788",
"c%.	c #768698",
"d%.	c #707984",
"e%.	c #8B8D91",
"f%.	c #6D7680",
"g%.	c #A0A5A7",
"h%.	c #93999B",
"i%.	c #55585B",
"j%.	c #9AA2B0",
"k%.	c #393A38",
"l%.	c #47453E",
"m%.	c #5D584E",
"n%.	c #8E8A83",
"o%.	c #AEAAA5",
"p%.	c #8993A0",
"q%.	c #838180",
"r%.	c #C6C3C7",
"s%.	c #535557",
"t%.	c #565C65",
"u%.	c #505D70",
"v%.	c #4F5B6C",
"w%.	c #5C6B80",
"x%.	c #576272",
"y%.	c #54647A",
"z%.	c #60758C",
"A%.	c #979DA1",
"B%.	c #91928E",
"C%.	c #77756C",
"D%.	c #697783",
"E%.	c #888F92",
"F%.	c #949A9C",
"G%.	c #686C6C",
"H%.	c #455260",
"I%.	c #879399",
"J%.	c #8B9395",
"K%.	c #616361",
"L%.	c #4D5C70",
"M%.	c #6D8092",
"N%.	c #525D6A",
"O%.	c #737E7E",
"P%.	c #788383",
"Q%.	c #6F7B7B",
"R%.	c #617070",
"S%.	c #5F6F6E",
"T%.	c #727E7E",
"U%.	c #657272",
"V%.	c #637171",
"W%.	c #758081",
"X%.	c #6C7979",
"Y%.	c #6E7777",
"Z%.	c #77869B",
"`%.	c #CBC6C8",
" &.	c #B4A79A",
".&.	c #728385",
"+&.	c #818A82",
"@&.	c #7E877F",
"#&.	c #69726D",
"$&.	c #636A66",
"%&.	c #5E6869",
"&&.	c #414D5C",
"*&.	c #414C5A",
"=&.	c #3E494D",
"-&.	c #8D9790",
";&.	c #545D62",
">&.	c #58626F",
",&.	c #C9C6CA",
"'&.	c #DBD3D2",
")&.	c #9BA0A9",
"!&.	c #D8D0CD",
"~&.	c #787779",
"{&.	c #4C5A6D",
"]&.	c #D5DFF1",
"^&.	c #D8D6DB",
"/&.	c #DCD4D0",
"(&.	c #646870",
"_&.	c #CED8EA",
":&.	c #A5A3A7",
"<&.	c #979BA1",
"[&.	c #A2A6AB",
"}&.	c #4E595E",
"|&.	c #929891",
"1&.	c #A0A59F",
"2&.	c #83837B",
"3&.	c #465361",
"4&.	c #555B61",
"5&.	c #A2A097",
"6&.	c #4D5865",
"7&.	c #4D5A69",
"8&.	c #3C4148",
"9&.	c #C5CCDA",
"0&.	c #D9D2D2",
"a&.	c #475161",
"b&.	c #3B4044",
"c&.	c #3E3E3B",
"d&.	c #4E4B44",
"e&.	c #676157",
"f&.	c #7C7366",
"g&.	c #B3BDCB",
"h&.	c #C7C7C9",
"i&.	c #595A5B",
"j&.	c #8A98AC",
"k&.	c #7E828C",
"l&.	c #BBB7B5",
"m&.	c #C8BEB7",
"n&.	c #4B535C",
"o&.	c #4D5661",
"p&.	c #515C6B",
"q&.	c #586475",
"r&.	c #5C6C84",
"s&.	c #5A6675",
"t&.	c #555E6B",
"u&.	c #606E7A",
"v&.	c #595C5C",
"w&.	c #494B49",
"x&.	c #4C5A6E",
"y&.	c #485663",
"z&.	c #838E95",
"A&.	c #787F7F",
"B&.	c #8B9496",
"C&.	c #8B9396",
"D&.	c #8F9595",
"E&.	c #6A6A63",
"F&.	c #404B57",
"G&.	c #708CA2",
"H&.	c #849094",
"I&.	c #848C8C",
"J&.	c #616F75",
"K&.	c #6E7B7B",
"L&.	c #687575",
"M&.	c #657171",
"N&.	c #616F6F",
"O&.	c #606F6F",
"P&.	c #747F80",
"Q&.	c #869191",
"R&.	c #899394",
"S&.	c #8B9495",
"T&.	c #778383",
"U&.	c #7F8784",
"V&.	c #5D6978",
"W&.	c #CBBFB7",
"X&.	c #525457",
"Y&.	c #667A83",
"Z&.	c #7B7E6E",
"`&.	c #7A7D6D",
" *.	c #7D7F70",
".*.	c #7E8171",
"+*.	c #83897E",
"@*.	c #6C7471",
"#*.	c #455152",
"$*.	c #838F89",
"%*.	c #727E76",
"&*.	c #717C75",
"**.	c #808985",
"=*.	c #A9ADB5",
"-*.	c #D9D3D4",
";*.	c #84868D",
">*.	c #C8C7CB",
",*.	c #B3C6E1",
"'*.	c #D6D4D8",
")*.	c #CEC3BB",
"!*.	c #6C7B90",
"~*.	c #D0CBCB",
"{*.	c #7F8994",
"]*.	c #A1A5AA",
"^*.	c #6B6E71",
"/*.	c #8C938F",
"(*.	c #979A91",
"_*.	c #5A646C",
":*.	c #939690",
"<*.	c #696B69",
"[*.	c #3A3A34",
"}*.	c #434D5D",
"|*.	c #6C706F",
"1*.	c #A8AEB0",
"2*.	c #A4A9AB",
"3*.	c #B1AEAF",
"4*.	c #48505A",
"5*.	c #465060",
"6*.	c #495464",
"7*.	c #C5C8CA",
"8*.	c #CBCAC9",
"9*.	c #AAB5C5",
"0*.	c #A9A5A3",
"a*.	c #8A8A8C",
"b*.	c #938D89",
"c*.	c #4F5965",
"d*.	c #515862",
"e*.	c #4F5A6B",
"f*.	c #515D6F",
"g*.	c #556070",
"h*.	c #576476",
"i*.	c #4F5761",
"j*.	c #5C6B81",
"k*.	c #5D6875",
"l*.	c #4F565E",
"m*.	c #49515A",
"n*.	c #7E8A94",
"o*.	c #81888A",
"p*.	c #54595A",
"q*.	c #7F7E75",
"r*.	c #64829A",
"s*.	c #7A898D",
"t*.	c #798585",
"u*.	c #788484",
"v*.	c #50585E",
"w*.	c #54626A",
"x*.	c #707B7B",
"y*.	c #788384",
"z*.	c #6C7778",
"A*.	c #7B8787",
"B*.	c #7B8686",
"C*.	c #899393",
"D*.	c #919A9A",
"E*.	c #787D79",
"F*.	c #5C676F",
"G*.	c #565D62",
"H*.	c #546174",
"I*.	c #C1C6D0",
"J*.	c #D4CDCB",
"K*.	c #8D867F",
"L*.	c #516271",
"M*.	c #7D847D",
"N*.	c #787B6B",
"O*.	c #76796A",
"P*.	c #757868",
"Q*.	c #747867",
"R*.	c #767969",
"S*.	c #787B6A",
"T*.	c #797C6D",
"U*.	c #7C7F71",
"V*.	c #7D8070",
"W*.	c #646B66",
"X*.	c #586464",
"Y*.	c #748078",
"Z*.	c #737F77",
"`*.	c #828B84",
" =.	c #667180",
".=.	c #BCB6B6",
"+=.	c #A29D9B",
"@=.	c #A4B9D7",
"#=.	c #D7D6DB",
"$=.	c #D9D1CF",
"%=.	c #585B61",
"&=.	c #D4DAE7",
"*=.	c #60646C",
"==.	c #54606E",
"-=.	c #949598",
";=.	c #566063",
">=.	c #A8AEA8",
",=.	c #A9B1A9",
"'=.	c #A8AEA7",
")=.	c #97998E",
"!=.	c #8A8A7E",
"~=.	c #67675D",
"{=.	c #474B4A",
"]=.	c #3E3F3A",
"^=.	c #3A3E41",
"/=.	c #444B56",
"(=.	c #A8AFB9",
"_=.	c #3E434A",
":=.	c #777773",
"<=.	c #6B7880",
"[=.	c #68747D",
"}=.	c #98979A",
"|=.	c #505C6B",
"1=.	c #C7D4E7",
"2=.	c #BBCAE0",
"3=.	c #9EB3D2",
"4=.	c #8396B1",
"5=.	c #697990",
"6=.	c #4F5864",
"7=.	c #4F5D71",
"8=.	c #58677A",
"9=.	c #CACACC",
"0=.	c #C4C6C9",
"a=.	c #BBB9B7",
"b=.	c #595D61",
"c=.	c #8696AE",
"d=.	c #959EAD",
"e=.	c #7C8CA2",
"f=.	c #818FA3",
"g=.	c #7A8698",
"h=.	c #5F646B",
"i=.	c #4E5B6C",
"j=.	c #566274",
"k=.	c #576375",
"l=.	c #546379",
"m=.	c #3B4653",
"n=.	c #788794",
"o=.	c #8C9397",
"p=.	c #6E706D",
"q=.	c #5F7386",
"r=.	c #8B8B84",
"s=.	c #4E5358",
"t=.	c #485769",
"u=.	c #788B94",
"v=.	c #7D8989",
"w=.	c #778484",
"x=.	c #42515E",
"y=.	c #717C7C",
"z=.	c #6A7576",
"A=.	c #707C7C",
"B=.	c #919A9B",
"C=.	c #838B8A",
"D=.	c #5B6061",
"E=.	c #505F73",
"F=.	c #535C68",
"G=.	c #B8BFCC",
"H=.	c #C1B4A9",
"I=.	c #758481",
"J=.	c #747766",
"K=.	c #727665",
"L=.	c #717564",
"M=.	c #727564",
"N=.	c #737665",
"O=.	c #787B6C",
"P=.	c #7E8170",
"Q=.	c #525A5B",
"R=.	c #2C343A",
"S=.	c #65716F",
"T=.	c #6D7972",
"U=.	c #7F8C85",
"V=.	c #737B78",
"W=.	c #C4C5CB",
"X=.	c #DDD7D7",
"Y=.	c #59606C",
"Z=.	c #838E9F",
"`=.	c #5E6166",
" -.	c #D4D8E4",
".-.	c #A29C98",
"+-.	c #C9D8EF",
"@-.	c #9C999A",
"#-.	c #A5A9AE",
"$-.	c #A1A6AB",
"%-.	c #A9AAAD",
"&-.	c #4A4C47",
"*-.	c #706C5C",
"=-.	c #5C5A4C",
"--.	c #424038",
";-.	c #383C3F",
">-.	c #3C4451",
",-.	c #838B94",
"'-.	c #6C6F73",
")-.	c #384455",
"!-.	c #73746F",
"~-.	c #63727E",
"{-.	c #6B787E",
"]-.	c #8B8D83",
"^-.	c #69788C",
"/-.	c #7A7C83",
"(-.	c #C6C0BA",
"_-.	c #BDB5AC",
":-.	c #A0978C",
"<-.	c #8A8174",
"[-.	c #7B7977",
"}-.	c #51627A",
"|-.	c #515E72",
"1-.	c #7B889A",
"2-.	c #888685",
"3-.	c #CFCED3",
"4-.	c #616771",
"5-.	c #D1C9C4",
"6-.	c #54657C",
"7-.	c #5A6471",
"8-.	c #505E72",
"9-.	c #505965",
"0-.	c #5C6674",
"a-.	c #718190",
"b-.	c #8A9093",
"c-.	c #445160",
"d-.	c #859096",
"e-.	c #90989A",
"f-.	c #626562",
"g-.	c #667478",
"h-.	c #818C8C",
"i-.	c #7E8888",
"j-.	c #6A7879",
"k-.	c #6E7C7C",
"l-.	c #737E7F",
"m-.	c #90999A",
"n-.	c #7F847F",
"o-.	c #515656",
"p-.	c #5A677A",
"q-.	c #526278",
"r-.	c #8D99A9",
"s-.	c #CFC8C5",
"t-.	c #CEC7C5",
"u-.	c #D7D0CE",
"v-.	c #5D5D5E",
"w-.	c #757869",
"x-.	c #717563",
"y-.	c #707362",
"z-.	c #6F7361",
"A-.	c #727467",
"B-.	c #7F8174",
"C-.	c #787B6D",
"D-.	c #777B6A",
"E-.	c #787C6D",
"F-.	c #434E54",
"G-.	c #85918B",
"H-.	c #89918A",
"I-.	c #818C9B",
"J-.	c #BEBABC",
"K-.	c #4E5661",
"L-.	c #6F7986",
"M-.	c #CFCCCD",
"N-.	c #C8BBAF",
"O-.	c #6F7E93",
"P-.	c #D0C9C8",
"Q-.	c #8A919B",
"R-.	c #A4A9AE",
"S-.	c #A3A7AB",
"T-.	c #4E535B",
"U-.	c #33383D",
"V-.	c #3F4753",
"W-.	c #4F5F76",
"X-.	c #64768F",
"Y-.	c #859CBD",
"Z-.	c #A3B9D9",
"`-.	c #4E5662",
" ;.	c #66707D",
".;.	c #6F706B",
"+;.	c #626C70",
"@;.	c #888B7F",
"#;.	c #8A8B82",
"$;.	c #606666",
"%;.	c #868C96",
"&;.	c #54585F",
"*;.	c #516075",
"=;.	c #BAB4AF",
"-;.	c #AAA196",
";;.	c #7C7469",
">;.	c #4E5765",
",;.	c #55657C",
"';.	c #525D6E",
");.	c #525B67",
"!;.	c #96A2B2",
"~;.	c #C8C8CA",
"{;.	c #9A9B9D",
"];.	c #666768",
"^;.	c #65707F",
"/;.	c #CCC7C6",
"(;.	c #DBD8DB",
"_;.	c #5A5E65",
":;.	c #868381",
"<;.	c #C1BCBA",
"[;.	c #AEA6A0",
"};.	c #4D5868",
"|;.	c #4F5C6E",
"1;.	c #565F6B",
"2;.	c #505967",
"3;.	c #4F5968",
"4;.	c #515F73",
"5;.	c #525D6B",
"6;.	c #546172",
"7;.	c #536379",
"8;.	c #556579",
"9;.	c #54677E",
"0;.	c #879EB8",
"a;.	c #4B4E4E",
"b;.	c #7F909F",
"c;.	c #939A9D",
"d;.	c #969DA0",
"e;.	c #878881",
"f;.	c #454C53",
"g;.	c #33393D",
"h;.	c #586160",
"i;.	c #788483",
"j;.	c #848D8D",
"k;.	c #8A908C",
"l;.	c #3F474E",
"m;.	c #879191",
"n;.	c #879192",
"o;.	c #8F9999",
"p;.	c #626561",
"q;.	c #505A65",
"r;.	c #586373",
"s;.	c #817970",
"t;.	c #7D756A",
"u;.	c #726B62",
"v;.	c #706960",
"w;.	c #7B746A",
"x;.	c #908980",
"y;.	c #AEA69F",
"z;.	c #C2BBB8",
"A;.	c #D4CECF",
"B;.	c #9E9388",
"C;.	c #516372",
"D;.	c #616967",
"E;.	c #565D60",
"F;.	c #414544",
"G;.	c #66695B",
"H;.	c #757867",
"I;.	c #6F7261",
"J;.	c #6E7260",
"K;.	c #6E7160",
"L;.	c #717465",
"M;.	c #717464",
"N;.	c #727565",
"O;.	c #7A7C6C",
"P;.	c #6A6F65",
"Q;.	c #647372",
"R;.	c #6F7B73",
"S;.	c #839188",
"T;.	c #85938A",
"U;.	c #636C6F",
"V;.	c #8E8780",
"W;.	c #7E8CA1",
"X;.	c #9498A0",
"Y;.	c #777779",
"Z;.	c #DFD7D4",
"`;.	c #677381",
" >.	c #AAACB0",
".>.	c #74777D",
"+>.	c #424D5E",
"@>.	c #697991",
"#>.	c #8BA2C3",
"$>.	c #B0C7E9",
"%>.	c #D4EBFF",
"&>.	c #E2F2FF",
"*>.	c #E6EEFF",
"=>.	c #E7EBF7",
"->.	c #CECDD5",
";>.	c #8A8D91",
">>.	c #6D6E69",
",>.	c #545A5F",
"'>.	c #5D6569",
")>.	c #888A80",
"!>.	c #8F9187",
"~>.	c #959DAA",
"{>.	c #828890",
"]>.	c #AFA69B",
"^>.	c #706C64",
"/>.	c #58677B",
"(>.	c #4D555F",
"_>.	c #B8C3D1",
":>.	c #CCCDCF",
"<>.	c #42474D",
"[>.	c #4C4840",
"}>.	c #6C665C",
"|>.	c #827A6F",
"1>.	c #A9A29C",
"2>.	c #BDB7B4",
"3>.	c #CBC5C4",
"4>.	c #B5B7BF",
"5>.	c #5C6572",
"6>.	c #6A6C6F",
"7>.	c #A8A29C",
"8>.	c #AAA39D",
"9>.	c #6F6E6E",
"0>.	c #4B5159",
"a>.	c #566171",
"b>.	c #8EA7C0",
"c>.	c #9AACBA",
"d>.	c #97A5B0",
"e>.	c #949DA2",
"f>.	c #969FA4",
"g>.	c #768491",
"h>.	c #424954",
"i>.	c #536579",
"j>.	c #90979A",
"k>.	c #959D9F",
"l>.	c #979A97",
"m>.	c #3B4243",
"n>.	c #697372",
"o>.	c #878F8F",
"p>.	c #748492",
"q>.	c #4F5C6A",
"r>.	c #6B7879",
"s>.	c #8A9495",
"t>.	c #8D9697",
"u>.	c #58687C",
"v>.	c #869AA5",
"w>.	c #93A3AE",
"x>.	c #7D8A95",
"y>.	c #5C656F",
"z>.	c #5A6678",
"A>.	c #63748A",
"B>.	c #606C7A",
"C>.	c #657387",
"D>.	c #617188",
"E>.	c #535351",
"F>.	c #B1ABA8",
"G>.	c #CDC8C7",
"H>.	c #CCBEB2",
"I>.	c #505A64",
"J>.	c #788781",
"K>.	c #7C7E71",
"L>.	c #787D6F",
"M>.	c #596262",
"N>.	c #414649",
"O>.	c #636758",
"P>.	c #6F7362",
"Q>.	c #707365",
"R>.	c #6D715F",
"S>.	c #707462",
"T>.	c #787A6D",
"U>.	c #828376",
"V>.	c #4F5458",
"W>.	c #39454D",
"X>.	c #7F8D88",
"Y>.	c #707C74",
"Z>.	c #6F7A73",
"`>.	c #818F86",
" ,.	c #808882",
".,.	c #606C7D",
"+,.	c #D6D9E3",
"@,.	c #DCD8DA",
"#,.	c #BAB9C0",
"$,.	c #ADA8A4",
"%,.	c #617289",
"&,.	c #DCD3CE",
"*,.	c #4E5A68",
"=,.	c #A8AAAE",
"-,.	c #8C8E92",
";,.	c #495668",
">,.	c #7387A4",
",,.	c #97AED1",
"',.	c #BBD1F2",
"),.	c #D6EBFF",
"!,.	c #E1F0FF",
"~,.	c #E7EFFF",
"{,.	c #E3E7F2",
"],.	c #71747B",
"^,.	c #6C6C67",
"/,.	c #585A5A",
"(,.	c #8D8F85",
"_,.	c #8C8E84",
":,.	c #43494F",
"<,.	c #B6BCC8",
"[,.	c #A5AAB0",
"},.	c #878179",
"|,.	c #535D6C",
"1,.	c #555F6D",
"2,.	c #536276",
"3,.	c #687A93",
"4,.	c #647388",
"5,.	c #C7CCD4",
"6,.	c #CBCCCE",
"7,.	c #C2BDBA",
"8,.	c #353739",
"9,.	c #3C3B38",
"0,.	c #4E4941",
"a,.	c #6D665D",
"b,.	c #847C71",
"c,.	c #717070",
"d,.	c #717F93",
"e,.	c #CCD4E4",
"f,.	c #DCE4F4",
"g,.	c #AEB0B7",
"h,.	c #556477",
"i,.	c #94A2AC",
"j,.	c #899295",
"k,.	c #8A9396",
"l,.	c #939CA1",
"m,.	c #818E9B",
"n,.	c #5F7081",
"o,.	c #82898B",
"p,.	c #899093",
"q,.	c #979DA0",
"r,.	c #85847B",
"s,.	c #545C5B",
"t,.	c #7B8484",
"u,.	c #47515C",
"v,.	c #52606B",
"w,.	c #768282",
"x,.	c #727F7F",
"y,.	c #838C8D",
"z,.	c #8F9899",
"A,.	c #8C9390",
"B,.	c #535C67",
"C,.	c #7B93AA",
"D,.	c #848C8B",
"E,.	c #757870",
"F,.	c #65645A",
"G,.	c #4D545B",
"H,.	c #869CBA",
"I,.	c #B2C9E8",
"J,.	c #C8DAF2",
"K,.	c #CFDDF0",
"L,.	c #CED8E5",
"M,.	c #D2DAE6",
"N,.	c #D1D9E4",
"O,.	c #CFD7E3",
"P,.	c #4B5869",
"Q,.	c #5F6B78",
"R,.	c #4E5864",
"S,.	c #696662",
"T,.	c #9D9287",
"U,.	c #52514F",
"V,.	c #6B7E84",
"W,.	c #7D7F72",
"X,.	c #767B6B",
"Y,.	c #3E4447",
"Z,.	c #6B6E63",
"`,.	c #75776A",
" '.	c #737569",
".'.	c #77796C",
"+'.	c #6F7262",
"@'.	c #6E7261",
"#'.	c #717366",
"$'.	c #74776A",
"%'.	c #5A686B",
"&'.	c #707B74",
"*'.	c #8792A2",
"='.	c #DEDFE7",
"-'.	c #C9BAAC",
";'.	c #B1C0D6",
">'.	c #DFD2C9",
",'.	c #9EA3A9",
"''.	c #C6DAF6",
")'.	c #E5E8F3",
"!'.	c #BAB8BB",
"~'.	c #B6BAC0",
"{'.	c #686964",
"]'.	c #5B5D5B",
"^'.	c #3C454D",
"/'.	c #CDD4E2",
"('.	c #D2CBC9",
"_'.	c #B2A9A0",
":'.	c #555B62",
"<'.	c #4D5A6B",
"['.	c #96A0B0",
"}'.	c #D6DBE5",
"|'.	c #D7E1F1",
"1'.	c #B3C4DC",
"2'.	c #667283",
"3'.	c #CDCED0",
"4'.	c #CACCCE",
"5'.	c #AEADAC",
"6'.	c #777065",
"7'.	c #91887D",
"8'.	c #A69887",
"9'.	c #535F71",
"0'.	c #4F5F75",
"a'.	c #58687E",
"b'.	c #4A4E4D",
"c'.	c #6D726F",
"d'.	c #767B7A",
"e'.	c #868C8E",
"f'.	c #9CA2A5",
"g'.	c #98A0A8",
"h'.	c #435061",
"i'.	c #788FA5",
"j'.	c #586772",
"k'.	c #7A8588",
"l'.	c #939693",
"m'.	c #595F63",
"n'.	c #5E7083",
"o'.	c #A1B2B8",
"p'.	c #5B696D",
"q'.	c #3A4142",
"r'.	c #707979",
"s'.	c #6B7275",
"t'.	c #7F8684",
"u'.	c #757B7A",
"v'.	c #86949C",
"w'.	c #8D918C",
"x'.	c #63655C",
"y'.	c #4B5155",
"z'.	c #95ADCB",
"A'.	c #C9DBF2",
"B'.	c #D0D8E4",
"C'.	c #CDCFD3",
"D'.	c #C6C4C2",
"E'.	c #C4C1C0",
"F'.	c #C7C5C3",
"G'.	c #9B9998",
"H'.	c #5E6972",
"I'.	c #6C6B66",
"J'.	c #6C6D6A",
"K'.	c #696D6F",
"L'.	c #70786F",
"M'.	c #777A6A",
"N'.	c #747769",
"O'.	c #77796D",
"P'.	c #747567",
"Q'.	c #747768",
"R'.	c #797B6E",
"S'.	c #828477",
"T'.	c #787A6C",
"U'.	c #818276",
"V'.	c #7E8072",
"W'.	c #3E4B56",
"X'.	c #7A8682",
"Y'.	c #656D6F",
"Z'.	c #515C6A",
"`'.	c #979EAA",
" ).	c #E5DCD8",
".).	c #787471",
"+).	c #707B8A",
"@).	c #E5E1E2",
"#).	c #C9BFB7",
"$).	c #A59889",
"%).	c #8B8176",
"&).	c #949CA6",
"*).	c #A2A7AC",
"=).	c #ABABAE",
"-).	c #DBDCE3",
";).	c #9BA3AC",
">).	c #85897C",
",).	c #A7A5A8",
"').	c #ADA69F",
")).	c #505761",
"!).	c #BEC8D4",
"~).	c #7F8286",
"{).	c #566578",
"]).	c #CACBCD",
"^).	c #C8C9CB",
"/).	c #8B8B8C",
"().	c #CADDFD",
"_).	c #BCCDE9",
":).	c #96A8C5",
"<).	c #7586A0",
"[).	c #5B6A80",
"}).	c #546274",
"|).	c #525F70",
"1).	c #525E70",
"2).	c #4F5A68",
"3).	c #4B545E",
"4).	c #71859B",
"5).	c #4F5C6C",
"6).	c #525450",
"7).	c #7F817E",
"8).	c #969FA5",
"9).	c #666D72",
"0).	c #7A8587",
"a).	c #6D828D",
"b).	c #9A9D94",
"c).	c #969A90",
"d).	c #777F71",
"e).	c #8F9B9B",
"f).	c #30363A",
"g).	c #696E6D",
"h).	c #3E4853",
"i).	c #5A6975",
"j).	c #7D8079",
"k).	c #5A5D57",
"l).	c #48515A",
"m).	c #61666A",
"n).	c #C5C3C1",
"o).	c #C5C2C1",
"p).	c #C3C0BE",
"q).	c #C7C4C2",
"r).	c #858585",
"s).	c #636663",
"t).	c #66645D",
"u).	c #696861",
"v).	c #6E6E69",
"w).	c #525C67",
"x).	c #3C403B",
"y).	c #686B5E",
"z).	c #76786A",
"A).	c #41484D",
"B).	c #6A6D5F",
"C).	c #737766",
"D).	c #737667",
"E).	c #77796A",
"F).	c #777A6B",
"G).	c #5E6D71",
"H).	c #76807A",
"I).	c #808781",
"J).	c #9196A0",
"K).	c #E4DEDD",
"L).	c #C6B7A9",
"M).	c #646971",
"N).	c #8C8378",
"O).	c #807669",
"P).	c #5D574D",
"Q).	c #4C4B47",
"R).	c #3F4349",
"S).	c #7A8592",
"T).	c #A2A8AC",
"U).	c #AAACAF",
"V).	c #5D6D82",
"W).	c #51545B",
"X).	c #7C858F",
"Y).	c #686963",
"Z).	c #8A8C82",
"`).	c #9A999C",
" !.	c #5A6B80",
".!.	c #716E69",
"+!.	c #6C7F98",
"@!.	c #8CA5C7",
"#!.	c #ABC4E5",
"$!.	c #77797C",
"%!.	c #64768C",
"&!.	c #777778",
"*!.	c #C3D5F0",
"=!.	c #E1E1EA",
"-!.	c #DFE2EE",
";!.	c #DDE2F1",
">!.	c #DDE9FF",
",!.	c #CDDBF6",
"'!.	c #B1C2DE",
")!.	c #8FA1BE",
"!!.	c #72829B",
"~!.	c #5A6981",
"{!.	c #4B525D",
"]!.	c #4E5C6D",
"^!.	c #8F9CA6",
"/!.	c #8F989C",
"(!.	c #6E8091",
"_!.	c #6F7F92",
":!.	c #333A41",
"<!.	c #4D5C6E",
"[!.	c #909BA3",
"}!.	c #8E9496",
"|!.	c #838A8D",
"1!.	c #7D888A",
"2!.	c #606261",
"3!.	c #465366",
"4!.	c #677C90",
"5!.	c #9BA29E",
"6!.	c #82877B",
"7!.	c #787E71",
"8!.	c #8F9489",
"9!.	c #7A8073",
"0!.	c #888D81",
"a!.	c #69767A",
"b!.	c #4D545A",
"c!.	c #697A86",
"d!.	c #708597",
"e!.	c #858E8E",
"f!.	c #777C74",
"g!.	c #54657B",
"h!.	c #A5BDDB",
"i!.	c #CBD8E9",
"j!.	c #CBD2DC",
"k!.	c #C2CAD5",
"l!.	c #8A95A6",
"m!.	c #575A5D",
"n!.	c #C3C1BF",
"o!.	c #C7C4C3",
"p!.	c #6E7275",
"q!.	c #63635E",
"r!.	c #626059",
"s!.	c #616058",
"t!.	c #626058",
"u!.	c #64625B",
"v!.	c #696760",
"w!.	c #5B6166",
"x!.	c #393E3C",
"y!.	c #65685C",
"z!.	c #7F8273",
"A!.	c #848679",
"B!.	c #8E9187",
"C!.	c #464B4C",
"D!.	c #50524C",
"E!.	c #797B6D",
"F!.	c #838579",
"G!.	c #909185",
"H!.	c #8C8D81",
"I!.	c #8D8E82",
"J!.	c #8E8F83",
"K!.	c #7E8073",
"L!.	c #7D7F71",
"M!.	c #818273",
"N!.	c #4A5156",
"O!.	c #45535D",
"P!.	c #78837E",
"Q!.	c #79837C",
"R!.	c #636B75",
"S!.	c #837B71",
"T!.	c #545960",
"U!.	c #3F4348",
"V!.	c #5F6F83",
"W!.	c #686C73",
"X!.	c #5F6F85",
"Y!.	c #717175",
"Z!.	c #71777F",
"`!.	c #64676D",
" ~.	c #4F5354",
".~.	c #696A65",
"+~.	c #393E46",
"@~.	c #7D8581",
"#~.	c #808178",
"$~.	c #8C8E95",
"%~.	c #4A5768",
"&~.	c #7287A3",
"*~.	c #667381",
"=~.	c #6B6C70",
"-~.	c #7F8894",
";~.	c #C3C5C8",
">~.	c #5C5E61",
",~.	c #DFDDE1",
"'~.	c #E1E5F1",
")~.	c #E0E8FA",
"!~.	c #DAE7FF",
"~~.	c #C9D9F5",
"{~.	c #A9B8D3",
"]~.	c #4E5764",
"^~.	c #536176",
"/~.	c #4D5E73",
"(~.	c #8B979E",
"_~.	c #90979B",
":~.	c #7C8B97",
"<~.	c #4B5660",
"[~.	c #8494A2",
"}~.	c #8C9293",
"|~.	c #868781",
"1~.	c #3D454C",
"2~.	c #949A95",
"3~.	c #9EA197",
"4~.	c #797F73",
"5~.	c #7D8376",
"6~.	c #757B6E",
"7~.	c #707768",
"8~.	c #8E9489",
"9~.	c #79837D",
"0~.	c #5F6C7B",
"a~.	c #7E8F97",
"b~.	c #7F827B",
"c~.	c #5B5F5C",
"d~.	c #B2CAE6",
"e~.	c #CAD2DC",
"f~.	c #9FA8B4",
"g~.	c #7E8999",
"h~.	c #60605E",
"i~.	c #63615A",
"j~.	c #5F5E56",
"k~.	c #5D5B53",
"l~.	c #5D5C54",
"m~.	c #5F5D55",
"n~.	c #636159",
"o~.	c #67655E",
"p~.	c #6E6D66",
"q~.	c #3B4140",
"r~.	c #676B5F",
"s~.	c #8A8B7F",
"t~.	c #939488",
"u~.	c #909285",
"v~.	c #898A7E",
"w~.	c #7B7E6F",
"x~.	c #777C6F",
"y~.	c #484E51",
"z~.	c #80837C",
"A~.	c #838578",
"B~.	c #7F8175",
"C~.	c #919287",
"D~.	c #929388",
"E~.	c #7F807A",
"F~.	c #8C958F",
"G~.	c #949D96",
"H~.	c #5B6267",
"I~.	c #434B57",
"J~.	c #404C5D",
"K~.	c #506277",
"L~.	c #5C7289",
"M~.	c #728DA6",
"N~.	c #86A1B7",
"O~.	c #95B0C1",
"P~.	c #748490",
"Q~.	c #526173",
"R~.	c #A9ACAF",
"S~.	c #76797D",
"T~.	c #86878C",
"U~.	c #53606F",
"V~.	c #747772",
"W~.	c #637286",
"X~.	c #7D8088",
"Y~.	c #AAC0DC",
"Z~.	c #C9D0DA",
"`~.	c #AEA69C",
" {.	c #55595E",
".{.	c #85909C",
"+{.	c #A0A1A3",
"@{.	c #42464D",
"#{.	c #8E9CB0",
"${.	c #DED9DC",
"%{.	c #898B93",
"&{.	c #494E54",
"*{.	c #707A81",
"={.	c #808A8C",
"-{.	c #818B8E",
";{.	c #767E7D",
">{.	c #77848E",
",{.	c #969D9F",
"'{.	c #959B9E",
"){.	c #797974",
"!{.	c #46556A",
"~{.	c #829196",
"{{.	c #9C9F95",
"]{.	c #94988D",
"^{.	c #71786A",
"/{.	c #6D7466",
"({.	c #666F5F",
"_{.	c #677060",
":{.	c #7D8276",
"<{.	c #7B8173",
"[{.	c #92978C",
"}{.	c #71766F",
"|{.	c #626760",
"1{.	c #55657B",
"2{.	c #B0C7E3",
"3{.	c #CAD1DB",
"4{.	c #C2C0BE",
"5{.	c #C0BEBC",
"6{.	c #7E8897",
"7{.	c #B3ACA3",
"8{.	c #535A5E",
"9{.	c #5A5850",
"0{.	c #595850",
"a{.	c #5B5951",
"b{.	c #5E5D55",
"c{.	c #66645C",
"d{.	c #6D6B64",
"e{.	c #484E4E",
"f{.	c #888B81",
"g{.	c #8A8C7F",
"h{.	c #747868",
"i{.	c #7A7D6F",
"j{.	c #7C7C6B",
"k{.	c #3B4555",
"l{.	c #525C62",
"m{.	c #566268",
"n{.	c #464C4E",
"o{.	c #616256",
"p{.	c #808273",
"q{.	c #848579",
"r{.	c #7D7B69",
"s{.	c #54646C",
"t{.	c #818A84",
"u{.	c #829087",
"v{.	c #717775",
"w{.	c #4A596C",
"x{.	c #52657B",
"y{.	c #62788F",
"z{.	c #7792AB",
"A{.	c #89A5BA",
"B{.	c #94ADBE",
"C{.	c #9AB0BB",
"D{.	c #99AAB0",
"E{.	c #94A2A4",
"F{.	c #939B98",
"G{.	c #969E9B",
"H{.	c #A8AFB7",
"I{.	c #84878A",
"J{.	c #98979B",
"K{.	c #7F848B",
"L{.	c #484E54",
"M{.	c #464C52",
"N{.	c #6F7677",
"O{.	c #6E7170",
"P{.	c #6F8198",
"Q{.	c #757679",
"R{.	c #8199B9",
"S{.	c #C8D5E7",
"T{.	c #717172",
"U{.	c #A0B2C6",
"V{.	c #9EA7B2",
"W{.	c #CACAC9",
"X{.	c #B9BFCB",
"Y{.	c #BCB7B8",
"Z{.	c #4A5562",
"`{.	c #4D5A6E",
" ].	c #343A3E",
".].	c #565752",
"+].	c #666A67",
"@].	c #717979",
"#].	c #798384",
"$].	c #808A8D",
"%].	c #757B78",
"&].	c #657480",
"*].	c #91979A",
"=].	c #989EA1",
"-].	c #8B9398",
";].	c #9B9D9A",
">].	c #63676A",
",].	c #495669",
"'].	c #6D7C84",
")].	c #9B9F95",
"!].	c #90958A",
"~].	c #6B7364",
"{].	c #666F5E",
"]].	c #6A7063",
"^].	c #646D5C",
"/].	c #6A7262",
"(].	c #8A8F83",
"_].	c #72796B",
":].	c #787E70",
"<].	c #818578",
"[].	c #696F6F",
"}].	c #C4CDD8",
"|].	c #C1BFBD",
"1].	c #BEBCBA",
"2].	c #C7C8CB",
"3].	c #88919D",
"4].	c #595F61",
"5].	c #5A5951",
"6].	c #57564E",
"7].	c #57564D",
"8].	c #58574F",
"9].	c #5B5A52",
"0].	c #65635B",
"a].	c #6B6962",
"b].	c #5D6460",
"c].	c #7C7E70",
"d].	c #7A7C6F",
"e].	c #919286",
"f].	c #84867A",
"g].	c #717264",
"h].	c #808275",
"i].	c #87887D",
"j].	c #7D8275",
"k].	c #5F6971",
"l].	c #475661",
"m].	c #7C8784",
"n].	c #7F8882",
"o].	c #909A94",
"p].	c #5F7791",
"q].	c #7F99B2",
"r].	c #90ABBF",
"s].	c #9CB6C7",
"t].	c #9DB1BB",
"u].	c #9CACB2",
"v].	c #98A5A7",
"w].	c #949E9A",
"x].	c #919A96",
"y].	c #909A96",
"z].	c #8E9793",
"A].	c #8D9692",
"B].	c #8F9895",
"C].	c #919B98",
"D].	c #909995",
"E].	c #828A88",
"F].	c #9EA7B1",
"G].	c #929498",
"H].	c #D0D0D5",
"I].	c #AFACAE",
"J].	c #87898E",
"K].	c #3E4852",
"L].	c #71726D",
"M].	c #525556",
"N].	c #8A93A2",
"O].	c #BDD0E8",
"P].	c #CACED4",
"Q].	c #717376",
"R].	c #576679",
"S].	c #C4C7CC",
"T].	c #C4C4C4",
"U].	c #2F353D",
"V].	c #B2BCC9",
"W].	c #C7C5C2",
"X].	c #C7CDD9",
"Y].	c #CAC3C1",
"Z].	c #4E5C6F",
"`].	c #2C2F2F",
" ^.	c #333632",
".^.	c #424540",
"+^.	c #434644",
"@^.	c #525E67",
"#^.	c #808788",
"$^.	c #78838D",
"%^.	c #4D585F",
"&^.	c #96998F",
"*^.	c #91958B",
"=^.	c #6B7464",
"-^.	c #777E71",
";^.	c #868C7F",
">^.	c #81877B",
",^.	c #656E5E",
"'^.	c #676F60",
")^.	c #6F7768",
"!^.	c #808579",
"~^.	c #7B7E7A",
"{^.	c #8394A8",
"]^.	c #BDBBB9",
"^^.	c #BFBDBB",
"/^.	c #C2C0BD",
"(^.	c #C9C7C5",
"_^.	c #C9C6C4",
":^.	c #939498",
"<^.	c #5C5E5A",
"[^.	c #56554C",
"}^.	c #56544C",
"|^.	c #5C5A52",
"1^.	c #5D5C53",
"2^.	c #605F57",
"3^.	c #63625A",
"4^.	c #68665F",
"5^.	c #364049",
"6^.	c #7C817B",
"7^.	c #8B8C81",
"8^.	c #7A7D6E",
"9^.	c #7B7D6F",
"0^.	c #808276",
"a^.	c #7D8071",
"b^.	c #838479",
"c^.	c #666B69",
"d^.	c #455059",
"e^.	c #818476",
"f^.	c #838478",
"g^.	c #808274",
"h^.	c #95968B",
"i^.	c #8B8D82",
"j^.	c #8A8E84",
"k^.	c #61686B",
"l^.	c #404D5C",
"m^.	c #758383",
"n^.	c #7C8880",
"o^.	c #8E9993",
"p^.	c #939B92",
"q^.	c #4B5967",
"r^.	c #9AB0BD",
"s^.	c #9CA7A7",
"t^.	c #979F9C",
"u^.	c #949E9B",
"v^.	c #919A97",
"w^.	c #8B9591",
"x^.	c #88918D",
"y^.	c #87908D",
"z^.	c #838D89",
"A^.	c #86908C",
"B^.	c #8C9591",
"C^.	c #8E9794",
"D^.	c #8B928D",
"E^.	c #8793A1",
"F^.	c #9B9C9D",
"G^.	c #C5C9D4",
"H^.	c #CBC6C5",
"I^.	c #909296",
"J^.	c #55595C",
"K^.	c #5F6768",
"L^.	c #656A6B",
"M^.	c #9299A5",
"N^.	c #9DB7D6",
"O^.	c #C7D0DD",
"P^.	c #5E6A78",
"Q^.	c #B8C3CF",
"R^.	c #D2D2D9",
"S^.	c #BFB8B6",
"T^.	c #474D56",
"U^.	c #4E6278",
"V^.	c #7C909E",
"W^.	c #6C7F8D",
"X^.	c #596A7A",
"Y^.	c #475563",
"Z^.	c #3D4757",
"`^.	c #2C3236",
" /.	c #353733",
"./.	c #666964",
"+/.	c #60656A",
"@/.	c #4D5761",
"#/.	c #6E6C64",
"$/.	c #73796C",
"%/.	c #898E82",
"&/.	c #858B7E",
"*/.	c #697161",
"=/.	c #83887D",
"-/.	c #8C9186",
";/.	c #7A8173",
">/.	c #526177",
",/.	c #6E7A88",
"'/.	c #C8C6C4",
")/.	c #838281",
"!/.	c #59574F",
"~/.	c #605E57",
"{/.	c #65635C",
"]/.	c #64625D",
"^/.	c #565F61",
"//.	c #7E8177",
"(/.	c #818374",
"_/.	c #818172",
":/.	c #555856",
"</.	c #5D6B71",
"[/.	c #8A8B80",
"}/.	c #7E8172",
"|/.	c #8D8E83",
"1/.	c #88897D",
"2/.	c #828476",
"3/.	c #85877A",
"4/.	c #868777",
"5/.	c #6A695B",
"6/.	c #66787E",
"7/.	c #8C968F",
"8/.	c #939D93",
"9/.	c #4B5560",
"0/.	c #5C7183",
"a/.	c #949D99",
"b/.	c #909B98",
"c/.	c #8D9693",
"d/.	c #87918D",
"e/.	c #899490",
"f/.	c #87928E",
"g/.	c #85908C",
"h/.	c #828D88",
"i/.	c #808A86",
"j/.	c #818C88",
"k/.	c #7B8694",
"l/.	c #A4A6A8",
"m/.	c #565959",
"n/.	c #5D6465",
"o/.	c #626668",
"p/.	c #979EAB",
"q/.	c #4D5C72",
"r/.	c #7990AE",
"s/.	c #C7D3E3",
"t/.	c #8C8B8B",
"u/.	c #6B7683",
"v/.	c #BCB9B5",
"w/.	c #C5C7CA",
"x/.	c #9E9FA1",
"y/.	c #ACAAA8",
"z/.	c #A7A29F",
"A/.	c #48515B",
"B/.	c #8FA0A9",
"C/.	c #8B8E87",
"D/.	c #858A84",
"E/.	c #818883",
"F/.	c #7E8884",
"G/.	c #79888D",
"H/.	c #687981",
"I/.	c #596A77",
"J/.	c #4B5863",
"K/.	c #445263",
"L/.	c #353F4D",
"M/.	c #878B80",
"N/.	c #878C80",
"O/.	c #646C5D",
"P/.	c #8F9388",
"Q/.	c #898D82",
"R/.	c #7C7E6D",
"S/.	c #4D555D",
"T/.	c #90A5C0",
"U/.	c #C5C4C2",
"V/.	c #CAC8C5",
"W/.	c #6B6E6E",
"X/.	c #58574E",
"Y/.	c #58564E",
"Z/.	c #5E5C54",
"`/.	c #545657",
" (.	c #63685F",
".(.	c #858779",
"+(.	c #86887A",
"@(.	c #848477",
"#(.	c #6F6D63",
"$(.	c #606A6B",
"%(.	c #86887C",
"&(.	c #818376",
"*(.	c #929387",
"=(.	c #777666",
"-(.	c #6F6E5C",
";(.	c #5B5847",
">(.	c #4D4B3D",
",(.	c #464D53",
"'(.	c #556772",
")(.	c #919C93",
"!(.	c #50585A",
"~(.	c #576B7B",
"{(.	c #8F9995",
"](.	c #8B9894",
"^(.	c #88928E",
"/(.	c #848F8B",
"((.	c #838E8A",
"_(.	c #828F8B",
":(.	c #687687",
"<(.	c #A9B2C1",
"[(.	c #A7B0BA",
"}(.	c #BFBEBD",
"|(.	c #595B5B",
"1(.	c #51606D",
"2(.	c #5A5F62",
"3(.	c #9CA7B8",
"4(.	c #536073",
"5(.	c #C1D2E9",
"6(.	c #C5C6C9",
"7(.	c #888A8D",
"8(.	c #848A92",
"9(.	c #B5B2AF",
"0(.	c #959596",
"a(.	c #948F8B",
"b(.	c #4F5762",
"c(.	c #4B5561",
"d(.	c #515F72",
"e(.	c #4D5C71",
"f(.	c #8F9591",
"g(.	c #84877F",
"h(.	c #7C8078",
"i(.	c #787C74",
"j(.	c #787D74",
"k(.	c #7D8178",
"l(.	c #70756C",
"m(.	c #727972",
"n(.	c #717872",
"o(.	c #6F7874",
"p(.	c #6B7A79",
"q(.	c #657575",
"r(.	c #61747A",
"s(.	c #5B6C77",
"t(.	c #5A666F",
"u(.	c #9B9E95",
"v(.	c #7C8275",
"w(.	c #7E8477",
"x(.	c #84897D",
"y(.	c #626B5A",
"z(.	c #747B6D",
"A(.	c #898E83",
"B(.	c #95978C",
"C(.	c #858374",
"D(.	c #BDCEE2",
"E(.	c #6B727D",
"F(.	c #606B79",
"G(.	c #BDBCB9",
"H(.	c #4B5054",
"I(.	c #55544B",
"J(.	c #67655D",
"K(.	c #3F4446",
"L(.	c #474A4A",
"M(.	c #40464D",
"N(.	c #5C6974",
"O(.	c #3B434B",
"P(.	c #6D6D64",
"Q(.	c #696858",
"R(.	c #555243",
"S(.	c #49463B",
"T(.	c #3A3D3C",
"U(.	c #5C6B7E",
"V(.	c #536071",
"W(.	c #4B5A65",
"X(.	c #87928D",
"Y(.	c #828E86",
"Z(.	c #5E6769",
"`(.	c #4D5C68",
" _.	c #8B9491",
"._.	c #88938F",
"+_.	c #808B87",
"@_.	c #7E8985",
"#_.	c #818D88",
"$_.	c #818D89",
"%_.	c #8C9692",
"&_.	c #51575B",
"*_.	c #5E6D80",
"=_.	c #454B54",
"-_.	c #99A1B0",
";_.	c #A4AEB8",
">_.	c #6E6F6A",
",_.	c #505D69",
"'_.	c #575D60",
")_.	c #AEB4C0",
"!_.	c #B5CBE6",
"~_.	c #CBD0D7",
"{_.	c #676F78",
"]_.	c #ACAAA9",
"^_.	c #9C9E9F",
"/_.	c #8C8C8E",
"(_.	c #8C8A8B",
"__.	c #56657A",
":_.	c #5D6F7E",
"<_.	c #888B84",
"[_.	c #7E8279",
"}_.	c #767B72",
"|_.	c #72766D",
"1_.	c #73776E",
"2_.	c #797E74",
"3_.	c #72776E",
"4_.	c #676C62",
"5_.	c #656A61",
"6_.	c #646960",
"7_.	c #636A5E",
"8_.	c #676E62",
"9_.	c #6E7469",
"0_.	c #7B827B",
"a_.	c #757B77",
"b_.	c #576477",
"c_.	c #5B6975",
"d_.	c #9DA097",
"e_.	c #7A8074",
"f_.	c #767C6F",
"g_.	c #868778",
"h_.	c #5F625D",
"i_.	c #6F839C",
"j_.	c #CBD4DF",
"k_.	c #B8B7B9",
"l_.	c #B1B6BB",
"m_.	c #C9C4C0",
"n_.	c #555956",
"o_.	c #55544C",
"p_.	c #5A5950",
"q_.	c #6B685F",
"r_.	c #6C7A85",
"s_.	c #6C7C8C",
"t_.	c #757D7B",
"u_.	c #7A786C",
"v_.	c #565143",
"w_.	c #5B697B",
"x_.	c #77899E",
"y_.	c #98ABC3",
"z_.	c #B6C7DC",
"A_.	c #C6D2DF",
"B_.	c #CCD2DA",
"C_.	c #CED0D5",
"D_.	c #707782",
"E_.	c #84918F",
"F_.	c #6A706D",
"G_.	c #8B9490",
"H_.	c #858F8B",
"I_.	c #7E8984",
"J_.	c #7F8A85",
"K_.	c #7D8884",
"L_.	c #899390",
"M_.	c #8A9490",
"N_.	c #575D5E",
"O_.	c #566372",
"P_.	c #4C525B",
"Q_.	c #8B93A1",
"R_.	c #9DA6B0",
"S_.	c #6C6C68",
"T_.	c #4D5B67",
"U_.	c #4E555B",
"V_.	c #B9BFCC",
"W_.	c #C1C8D1",
"X_.	c #5C636F",
"Y_.	c #8A8A8A",
"Z_.	c #A1A1A1",
"`_.	c #868A90",
" :.	c #617187",
".:.	c #7E7D7E",
"+:.	c #515A68",
"@:.	c #637582",
"#:.	c #7A7E75",
"$:.	c #73786E",
"%:.	c #6F746A",
"&:.	c #70756B",
"*:.	c #6C7167",
"=:.	c #5E6359",
"-:.	c #5D6359",
";:.	c #5E635A",
">:.	c #5C6257",
",:.	c #5C6457",
"':.	c #61685C",
"):.	c #686F63",
"!:.	c #73776F",
"~:.	c #7C7E72",
"{:.	c #535F6B",
"]:.	c #91958D",
"^:.	c #7E8378",
"/:.	c #6F7668",
"(:.	c #8B9084",
"_:.	c #757764",
"::.	c #4E575E",
"<:.	c #90A4BB",
"[:.	c #D0D2D6",
"}:.	c #D1CECC",
"|:.	c #94999E",
"1:.	c #C1BFBE",
"2:.	c #BCBBB8",
"3:.	c #59584F",
"4:.	c #6A675F",
"5:.	c #60615E",
"6:.	c #424441",
"7:.	c #535048",
"8:.	c #434543",
"9:.	c #657488",
"0:.	c #8192A6",
"a:.	c #A5B9D2",
"b:.	c #C0D1E5",
"c:.	c #C6CDD6",
"d:.	c #C4C7CA",
"e:.	c #C0BFBE",
"f:.	c #BFBBB7",
"g:.	c #C2BEB9",
"h:.	c #C6C2BE",
"i:.	c #AEA8A1",
"j:.	c #7D8C8C",
"k:.	c #8B968F",
"l:.	c #737A74",
"m:.	c #435263",
"n:.	c #859294",
"o:.	c #808C87",
"p:.	c #7C8783",
"q:.	c #7D8984",
"r:.	c #575B60",
"s:.	c #858A93",
"t:.	c #959DA6",
"u:.	c #616360",
"v:.	c #44505B",
"w:.	c #7890B0",
"x:.	c #C3CEDC",
"y:.	c #525862",
"z:.	c #878A8C",
"A:.	c #99999B",
"B:.	c #7C7B7B",
"C:.	c #67768A",
"D:.	c #77777A",
"E:.	c #576478",
"F:.	c #4F5E72",
"G:.	c #697B84",
"H:.	c #81857D",
"I:.	c #72776D",
"J:.	c #6E746A",
"K:.	c #70766C",
"L:.	c #595E54",
"M:.	c #595F55",
"N:.	c #565D51",
"O:.	c #575F52",
"P:.	c #5C6356",
"Q:.	c #626A5D",
"R:.	c #6D7269",
"S:.	c #727568",
"T:.	c #4F534D",
"U:.	c #777E70",
"V:.	c #767C70",
"W:.	c #848A7E",
"X:.	c #8D9287",
"Y:.	c #777D70",
"Z:.	c #7B7C6B",
"`:.	c #ACA7A1",
" <.	c #9B9999",
".<.	c #8E9091",
"+<.	c #CAC8C6",
"@<.	c #919395",
"#<.	c #55534B",
"$<.	c #56554D",
"%<.	c #6A6860",
"&<.	c #6B6861",
"*<.	c #5B6776",
"=<.	c #A7BCD5",
"-<.	c #C2CDDA",
";<.	c #C8CFD7",
"><.	c #C3C6C8",
",<.	c #BDBAB5",
"'<.	c #BDB9B5",
")<.	c #BCB8B4",
"!<.	c #BDB9B4",
"~<.	c #BBB8B3",
"{<.	c #C0BCB8",
"]<.	c #C2BEBA",
"^<.	c #BCB3A9",
"/<.	c #7C8E8F",
"(<.	c #89938D",
"_<.	c #414F61",
":<.	c #839193",
"<<.	c #86918D",
"[<.	c #838E89",
"}<.	c #7F8A86",
"|<.	c #85928E",
"1<.	c #686F6E",
"2<.	c #4B596A",
"3<.	c #768496",
"4<.	c #8E959F",
"5<.	c #70706C",
"6<.	c #656662",
"7<.	c #C4CBD8",
"8<.	c #DFD9D8",
"9<.	c #4D5A6D",
"0<.	c #5E6E83",
"a<.	c #C0D0E5",
"b<.	c #C9CDD5",
"c<.	c #59616C",
"d<.	c #929192",
"e<.	c #767677",
"f<.	c #6A798D",
"g<.	c #71757E",
"h<.	c #586371",
"i<.	c #5A6574",
"j<.	c #80847B",
"k<.	c #71766C",
"l<.	c #5C6258",
"m<.	c #555B51",
"n<.	c #525A4D",
"o<.	c #545C4F",
"p<.	c #586053",
"q<.	c #5E6659",
"r<.	c #686E64",
"s<.	c #6B6D5E",
"t<.	c #687E92",
"u<.	c #5A6A7C",
"v<.	c #506178",
"w<.	c #48505C",
"x<.	c #3F4851",
"y<.	c #6B746A",
"z<.	c #888C81",
"A<.	c #909489",
"B<.	c #93978C",
"C<.	c #7B8175",
"D<.	c #7A7B6D",
"E<.	c #7A8FA2",
"F<.	c #8D9FB0",
"G<.	c #7A8A99",
"H<.	c #5D666D",
"I<.	c #A6A5A2",
"J<.	c #54534A",
"K<.	c #54534B",
"L<.	c #706C63",
"M<.	c #454A4F",
"N<.	c #99A9BA",
"O<.	c #C1BDB9",
"P<.	c #B6B3AE",
"Q<.	c #B7B4AF",
"R<.	c #B9B6B1",
"S<.	c #BBB8B2",
"T<.	c #BFBBB6",
"U<.	c #BFBCB7",
"V<.	c #BFB5A9",
"W<.	c #70848B",
"X<.	c #81897E",
"Y<.	c #86958F",
"Z<.	c #84918C",
"`<.	c #818C87",
" [.	c #7C8883",
".[.	c #6C706D",
"+[.	c #62676D",
"@[.	c #4D535C",
"#[.	c #6A6D6B",
"$[.	c #455469",
"%[.	c #C7CDDA",
"&[.	c #DDD5D3",
"*[.	c #AEC4E0",
"=[.	c #CAD0D9",
"-[.	c #A7A8AB",
";[.	c #6D747C",
">[.	c #909091",
",[.	c #C7C8C9",
"'[.	c #767678",
")[.	c #6F7E94",
"![.	c #6D7076",
"~[.	c #526176",
"{[.	c #515E6E",
"][.	c #5B6B83",
"^[.	c #5C697B",
"/[.	c #556375",
"([.	c #5F6A7B",
"_[.	c #748083",
":[.	c #80847C",
"<[.	c #797D74",
"[[.	c #6D7369",
"}[.	c #71776C",
"|[.	c #60665B",
"1[.	c #555B50",
"2[.	c #52594E",
"3[.	c #50594B",
"4[.	c #525B4D",
"5[.	c #565E51",
"6[.	c #5C6357",
"7[.	c #646A60",
"8[.	c #636658",
"9[.	c #3E4B5D",
"0[.	c #90A1A8",
"a[.	c #A2ADAD",
"b[.	c #89989C",
"c[.	c #697A84",
"d[.	c #5C6A6A",
"e[.	c #777E6F",
"f[.	c #85897E",
"g[.	c #797C6F",
"h[.	c #5C615F",
"i[.	c #4A5053",
"j[.	c #96A0A2",
"k[.	c #A3A39A",
"l[.	c #A1A198",
"m[.	c #A1A7A4",
"n[.	c #98A3A6",
"o[.	c #798287",
"p[.	c #687277",
"q[.	c #686E70",
"r[.	c #737372",
"s[.	c #938F89",
"t[.	c #C0BDB9",
"u[.	c #B0A9A0",
"v[.	c #605F5A",
"w[.	c #6F6A60",
"x[.	c #8896A5",
"y[.	c #BABAB8",
"z[.	c #B5B2AD",
"A[.	c #B0ADA8",
"B[.	c #BAB7B1",
"C[.	c #BEB5AA",
"D[.	c #6C8189",
"E[.	c #849289",
"F[.	c #86938C",
"G[.	c #808B82",
"H[.	c #818F91",
"I[.	c #84928D",
"J[.	c #7A8581",
"K[.	c #818E8A",
"L[.	c #6D726E",
"M[.	c #475464",
"N[.	c #62656A",
"O[.	c #53575D",
"P[.	c #808B99",
"Q[.	c #686E6F",
"R[.	c #6F6F6A",
"S[.	c #414E60",
"T[.	c #C7CEDA",
"U[.	c #DBD4D2",
"V[.	c #999EA6",
"W[.	c #7A8390",
"X[.	c #656A71",
"Y[.	c #ADACAB",
"Z[.	c #B8B5B2",
"`[.	c #535250",
" }.	c #465362",
".}.	c #A9A9AB",
"+}.	c #797B7F",
"@}.	c #6E7C8E",
"#}.	c #686A6F",
"$}.	c #57626F",
"%}.	c #596677",
"&}.	c #81847C",
"*}.	c #787D73",
"=}.	c #757A70",
"-}.	c #6E7369",
";}.	c #53594F",
">}.	c #4F584A",
",}.	c #50594A",
"'}.	c #525A4C",
")}.	c #555D50",
"!}.	c #5A6255",
"~}.	c #62685E",
"{}.	c #5E6255",
"]}.	c #869292",
"^}.	c #9FA49E",
"/}.	c #828B83",
"(}.	c #808B8D",
"_}.	c #455061",
":}.	c #484E4C",
"<}.	c #434747",
"[}.	c #4A5866",
"}}.	c #6A7876",
"|}.	c #5F6E74",
"1}.	c #485568",
"2}.	c #505E6E",
"3}.	c #959E9F",
"4}.	c #A1A197",
"5}.	c #9E9E95",
"6}.	c #9B9C92",
"7}.	c #9A9A90",
"8}.	c #999A8F",
"9}.	c #99998F",
"0}.	c #98998E",
"a}.	c #98988D",
"b}.	c #97988D",
"c}.	c #97988C",
"d}.	c #70736D",
"e}.	c #8E8D88",
"f}.	c #7C766B",
"g}.	c #363939",
"h}.	c #545550",
"i}.	c #5C5B53",
"j}.	c #6D685D",
"k}.	c #8291A1",
"l}.	c #A9A5A0",
"m}.	c #A7A49F",
"n}.	c #A8A49F",
"o}.	c #A8A59F",
"p}.	c #B9B1A8",
"q}.	c #6B8088",
"r}.	c #828C83",
"s}.	c #808F91",
"t}.	c #84918D",
"u}.	c #808C88",
"v}.	c #7F8B86",
"w}.	c #818E89",
"x}.	c #A3A7AC",
"y}.	c #686B6E",
"z}.	c #6E7C90",
"A}.	c #828D9C",
"B}.	c #6E6D68",
"C}.	c #3D4248",
"D}.	c #414547",
"E}.	c #45494D",
"F}.	c #4A4B49",
"G}.	c #737578",
"H}.	c #6F6F6F",
"I}.	c #8B8A86",
"J}.	c #94918C",
"K}.	c #9C9C9C",
"L}.	c #656E7A",
"M}.	c #8D97A6",
"N}.	c #B2BDCB",
"O}.	c #9299A2",
"P}.	c #76777A",
"Q}.	c #A7A7A9",
"R}.	c #A3A4A5",
"S}.	c #6C6D70",
"T}.	c #6A798C",
"U}.	c #555D67",
"V}.	c #56606E",
"W}.	c #5A6677",
"X}.	c #5B6A7F",
"Y}.	c #59687D",
"Z}.	c #7B7F76",
"`}.	c #7A7F75",
" |.	c #767C72",
".|.	c #73796F",
"+|.	c #6A7066",
"@|.	c #50584B",
"#|.	c #50584A",
"$|.	c #515A4C",
"%|.	c #555D4F",
"&|.	c #596154",
"*|.	c #60665C",
"=|.	c #5C6053",
"-|.	c #374353",
";|.	c #828D8B",
">|.	c #979B90",
",|.	c #989C92",
"'|.	c #7D8478",
")|.	c #8C9087",
"!|.	c #8A8F8A",
"~|.	c #4F5D65",
"{|.	c #5D6A6D",
"]|.	c #5D6867",
"^|.	c #7E8B8A",
"/|.	c #7A7F73",
"(|.	c #7B8376",
"_|.	c #54606B",
":|.	c #929B9B",
"<|.	c #9E9E94",
"[|.	c #9B9B91",
"}|.	c #96978C",
"||.	c #96968B",
"1|.	c #95968A",
"2|.	c #939489",
"3|.	c #959487",
"4|.	c #7B8182",
"5|.	c #869AAD",
"6|.	c #767C7D",
"7|.	c #767978",
"8|.	c #5B6165",
"9|.	c #403F37",
"0|.	c #4E4D44",
"a|.	c #615F57",
"b|.	c #6B665C",
"c|.	c #464A4D",
"d|.	c #8291A2",
"e|.	c #B3B0AB",
"f|.	c #ACA9A4",
"g|.	c #A6A39D",
"h|.	c #A3A09A",
"i|.	c #A29F99",
"j|.	c #A5A29C",
"k|.	c #A8A5A0",
"l|.	c #B2AFAA",
"m|.	c #AFA79E",
"n|.	c #6C818A",
"o|.	c #818C82",
"p|.	c #839294",
"q|.	c #86928E",
"r|.	c #808B86",
"s|.	c #838F8B",
"t|.	c #85918D",
"u|.	c #6F7470",
"v|.	c #6C7B8E",
"w|.	c #5C6067",
"x|.	c #8591A0",
"y|.	c #8C8B87",
"z|.	c #848484",
"A|.	c #797D81",
"B|.	c #747679",
"C|.	c #74787D",
"D|.	c #484844",
"E|.	c #4A4F54",
"F|.	c #404752",
"G|.	c #A9B9C5",
"H|.	c #A3B2BE",
"I|.	c #9DACB8",
"J|.	c #9BAAB6",
"K|.	c #93A1AD",
"L|.	c #8A96A2",
"M|.	c #768899",
"N|.	c #74808A",
"O|.	c #6E7882",
"P|.	c #6C7F96",
"Q|.	c #5D6E81",
"R|.	c #424342",
"S|.	c #777B7F",
"T|.	c #73726F",
"U|.	c #7B7A79",
"V|.	c #707172",
"W|.	c #6A788B",
"X|.	c #686D75",
"Y|.	c #5F6E84",
"Z|.	c #5E6E84",
"`|.	c #606C7B",
" 1.	c #58616C",
".1.	c #767B71",
"+1.	c #73796E",
"@1.	c #585E54",
"#1.	c #545D4F",
"$1.	c #808E8E",
"%1.	c #94988E",
"&1.	c #81847A",
"*1.	c #6B6D64",
"=1.	c #546675",
"-1.	c #798072",
";1.	c #747B6C",
">1.	c #7F8479",
",1.	c #7F8379",
"'1.	c #7D8272",
")1.	c #6A6F63",
"!1.	c #475564",
"~1.	c #8D9696",
"{1.	c #9C9C93",
"]1.	c #94958A",
"^1.	c #95958A",
"/1.	c #97978C",
"(1.	c #949489",
"_1.	c #858E8F",
":1.	c #AFB6B8",
"<1.	c #AAABA6",
"[1.	c #A9A9A2",
"}1.	c #A1A9AB",
"|1.	c #7B838A",
"11.	c #626B72",
"21.	c #42494D",
"31.	c #3B3C38",
"41.	c #4D4B42",
"51.	c #696459",
"61.	c #8E9EAF",
"71.	c #BBBBBA",
"81.	c #A29F9A",
"91.	c #A19E99",
"01.	c #A4A19C",
"a1.	c #ACA8A3",
"b1.	c #ABA8A3",
"c1.	c #A9A196",
"d1.	c #738B94",
"e1.	c #87968C",
"f1.	c #808A80",
"g1.	c #829193",
"h1.	c #83908C",
"i1.	c #85908B",
"j1.	c #707470",
"k1.	c #6A6D71",
"l1.	c #707A86",
"m1.	c #74726F",
"n1.	c #76797C",
"o1.	c #4B4E4F",
"p1.	c #4E5D6F",
"q1.	c #7388A1",
"r1.	c #727C87",
"s1.	c #78838E",
"t1.	c #8C9DAE",
"u1.	c #99A8B4",
"v1.	c #9FAEBA",
"w1.	c #A9BBC7",
"x1.	c #AABCC8",
"y1.	c #858680",
"z1.	c #82837D",
"A1.	c #919491",
"B1.	c #A4A9A8",
"C1.	c #979A96",
"D1.	c #525962",
"E1.	c #8F9AA0",
"F1.	c #A5AAA9",
"G1.	c #AAAFAE",
"H1.	c #ABB0AF",
"I1.	c #ABB9C4",
"J1.	c #98A4AD",
"K1.	c #677686",
"L1.	c #667689",
"M1.	c #414548",
"N1.	c #777B80",
"O1.	c #888786",
"P1.	c #A6A5A4",
"Q1.	c #A8A8AA",
"R1.	c #9E9FA0",
"S1.	c #9D9EA0",
"T1.	c #757575",
"U1.	c #657284",
"V1.	c #6B6D73",
"W1.	c #535C66",
"X1.	c #5C6673",
"Y1.	c #5A687C",
"Z1.	c #5D6C81",
"`1.	c #5A6676",
" 2.	c #6E7F88",
".2.	c #83877F",
"+2.	c #666C61",
"@2.	c #575D53",
"#2.	c #596054",
"$2.	c #606356",
"%2.	c #637270",
"&2.	c #57584E",
"*2.	c #70838A",
"=2.	c #898D83",
"-2.	c #72796A",
";2.	c #7C8176",
">2.	c #81877A",
",2.	c #757B6F",
"'2.	c #767D6F",
")2.	c #686B5D",
"!2.	c #848F90",
"~2.	c #9C9D93",
"{2.	c #949589",
"]2.	c #98998C",
"^2.	c #96978B",
"/2.	c #8D8E88",
"(2.	c #AAAAA4",
"_2.	c #AAAAA3",
":2.	c #A7A7A0",
"<2.	c #A5A59E",
"[2.	c #A6A69F",
"}2.	c #A4A49D",
"|2.	c #B0B5B5",
"12.	c #A4AEB4",
"22.	c #808C98",
"32.	c #657382",
"42.	c #363737",
"52.	c #37342D",
"62.	c #3F403E",
"72.	c #9CACBD",
"82.	c #A4A19B",
"92.	c #A19F99",
"02.	c #AAA6A1",
"a2.	c #A89E92",
"b2.	c #79939B",
"c2.	c #819086",
"d2.	c #828E89",
"e2.	c #AAAEB1",
"f2.	c #64686D",
"g2.	c #758396",
"h2.	c #C6C0BD",
"i2.	c #9F9A97",
"j2.	c #4E4E4D",
"k2.	c #63778E",
"l2.	c #6F7B87",
"m2.	c #7E8D9B",
"n2.	c #8F9EAA",
"o2.	c #A6B4BD",
"p2.	c #6F7374",
"q2.	c #717678",
"r2.	c #909089",
"s2.	c #535B64",
"t2.	c #697A8D",
"u2.	c #A1B2C2",
"v2.	c #949794",
"w2.	c #878A83",
"x2.	c #878A84",
"y2.	c #323940",
"z2.	c #525658",
"A2.	c #6A6F71",
"B2.	c #797E7E",
"C2.	c #7D7F7A",
"D2.	c #79848D",
"E2.	c #A7ABAB",
"F2.	c #A9ADAC",
"G2.	c #AAAEAD",
"H2.	c #A2AFBA",
"I2.	c #8A97A3",
"J2.	c #708090",
"K2.	c #5F605F",
"L2.	c #82817E",
"M2.	c #C5C5C6",
"N2.	c #5F6C7D",
"O2.	c #717174",
"P2.	c #586579",
"Q2.	c #5D6979",
"R2.	c #5B6675",
"S2.	c #5C697C",
"T2.	c #59636F",
"U2.	c #596980",
"V2.	c #5B697E",
"W2.	c #6E7F8A",
"X2.	c #898C84",
"Y2.	c #7F837A",
"Z2.	c #7C8177",
"`2.	c #6D7368",
" 3.	c #555C51",
".3.	c #555C50",
"+3.	c #5A6056",
"@3.	c #61665D",
"#3.	c #616559",
"$3.	c #5E6F6E",
"%3.	c #6C7F80",
"&3.	c #757C6F",
"*3.	c #737B6C",
"=3.	c #8C9085",
"-3.	c #7B8174",
";3.	c #7D8277",
">3.	c #646657",
",3.	c #575A4B",
"'3.	c #464639",
")3.	c #798487",
"!3.	c #9B9C93",
"~3.	c #8A8F8D",
"{3.	c #ABABA4",
"]3.	c #A3A39C",
"^3.	c #ADADA6",
"/3.	c #AEB0AD",
"(3.	c #B0B6B8",
"_3.	c #9CA6B0",
":3.	c #A7B5C3",
"<3.	c #A6A29D",
"[3.	c #A6A39E",
"}3.	c #A3A09B",
"|3.	c #A5A29D",
"13.	c #AAA7A2",
"23.	c #A39A8F",
"33.	c #839799",
"43.	c #8E9A92",
"53.	c #787C73",
"63.	c #829093",
"73.	c #8C9793",
"83.	c #AAADB1",
"93.	c #A5AAAE",
"03.	c #60666D",
"a3.	c #7B8BA1",
"b3.	c #AEA7A1",
"c3.	c #626467",
"d3.	c #909EA9",
"e3.	c #A8ACAB",
"f3.	c #A2A7A6",
"g3.	c #A3A8A7",
"h3.	c #84837B",
"i3.	c #798693",
"j3.	c #4B525A",
"k3.	c #485566",
"l3.	c #636965",
"m3.	c #626864",
"n3.	c #646A66",
"o3.	c #666C68",
"p3.	c #686E6A",
"q3.	c #697171",
"r3.	c #637074",
"s3.	c #5B676D",
"t3.	c #576169",
"u3.	c #545E64",
"v3.	c #4E565E",
"w3.	c #495866",
"x3.	c #434951",
"y3.	c #575D63",
"z3.	c #6D7377",
"A3.	c #9C9E9B",
"B3.	c #B4B9B8",
"C3.	c #B3B8B7",
"D3.	c #B0B4B3",
"E3.	c #ABACA8",
"F3.	c #515861",
"G3.	c #70706F",
"H3.	c #86898E",
"I3.	c #7F7F84",
"J3.	c #596575",
"K3.	c #5E6977",
"L3.	c #607189",
"M3.	c #525F6F",
"N3.	c #6A7C89",
"O3.	c #8E9189",
"P3.	c #84887F",
"Q3.	c #7D8278",
"R3.	c #696E64",
"S3.	c #545A4F",
"T3.	c #515A4D",
"U3.	c #5B6157",
"V3.	c #64695B",
"W3.	c #66757A",
"X3.	c #94978E",
"Y3.	c #727973",
"Z3.	c #4E5A63",
"`3.	c #757C6D",
" 4.	c #6F7566",
".4.	c #686C5C",
"+4.	c #717263",
"@4.	c #5B594A",
"#4.	c #3F3F33",
"$4.	c #40423E",
"%4.	c #3C4144",
"&4.	c #6B7D93",
"*4.	c #8395A7",
"=4.	c #808E9F",
"-4.	c #616E76",
";4.	c #979A92",
">4.	c #97988B",
",4.	c #98998B",
"'4.	c #98988C",
")4.	c #929B9E",
"!4.	c #A2A29B",
"~4.	c #AEAEA7",
"{4.	c #BAB6AD",
"]4.	c #8F8B83",
"^4.	c #526070",
"/4.	c #B1BBC4",
"(4.	c #ADAAA5",
"_4.	c #9B9389",
":4.	c #465364",
"<4.	c #859798",
"[4.	c #70746D",
"}4.	c #46525D",
"|4.	c #839293",
"14.	c #5F6665",
"24.	c #56667B",
"34.	c #8F96A3",
"44.	c #C2BCBA",
"54.	c #72859D",
"64.	c #838D99",
"74.	c #424A57",
"84.	c #4A5763",
"94.	c #5D6870",
"04.	c #616A70",
"a4.	c #626F77",
"b4.	c #697272",
"c4.	c #676C69",
"d4.	c #5B615D",
"e4.	c #5A615D",
"f4.	c #5D635F",
"g4.	c #5F6561",
"h4.	c #606662",
"i4.	c #5F6562",
"j4.	c #5E6460",
"k4.	c #5E6461",
"l4.	c #616763",
"m4.	c #666B68",
"n4.	c #586269",
"o4.	c #3E464D",
"p4.	c #6B7175",
"q4.	c #63696E",
"r4.	c #566271",
"s4.	c #939FAC",
"t4.	c #89A3BE",
"u4.	c #B0C4D5",
"v4.	c #9BABB9",
"w4.	c #758393",
"x4.	c #2F3336",
"y4.	c #5C5F60",
"z4.	c #92918F",
"A4.	c #8B8C8F",
"B4.	c #8D8C90",
"C4.	c #5F6D83",
"D4.	c #525C68",
"E4.	c #5E6877",
"F4.	c #546479",
"G4.	c #5B6778",
"H4.	c #64727D",
"I4.	c #91948C",
"J4.	c #878B82",
"K4.	c #7B8076",
"L4.	c #5F645A",
"M4.	c #5E645A",
"N4.	c #575D52",
"O4.	c #666B5E",
"P4.	c #3B444A",
"Q4.	c #666962",
"R4.	c #4B4C3C",
"S4.	c #3D3E32",
"T4.	c #373B38",
"U4.	c #74879B",
"V4.	c #94A9BE",
"W4.	c #A9B9C6",
"X4.	c #ACB4B7",
"Y4.	c #ADAEAA",
"Z4.	c #B8B6AF",
"`4.	c #49535B",
" 5.	c #8C918D",
".5.	c #99998E",
"+5.	c #97978B",
"@5.	c #8F8E81",
"#5.	c #A8A8A1",
"$5.	c #AFAFA8",
"%5.	c #B0B0A9",
"&5.	c #B1B1AA",
"*5.	c #BBBAB4",
"=5.	c #BAB3A5",
"-5.	c #666665",
";5.	c #76889D",
">5.	c #B9BDC0",
",5.	c #B8B5B0",
"'5.	c #ABA7A2",
")5.	c #A9A6A1",
"!5.	c #89847D",
"~5.	c #5A696A",
"{5.	c #879087",
"]5.	c #8B948E",
"^5.	c #89928C",
"/5.	c #6B706D",
"(5.	c #506376",
"_5.	c #828C88",
":5.	c #89928F",
"<5.	c #575C5B",
"[5.	c #9099A8",
"}5.	c #A6A09C",
"|5.	c #6E6D6D",
"15.	c #43474C",
"25.	c #909DAD",
"35.	c #BFCCDC",
"45.	c #C5C5C5",
"55.	c #9F9E9D",
"65.	c #556677",
"75.	c #5B6369",
"85.	c #626F74",
"95.	c #696E6B",
"05.	c #6A6F6C",
"a5.	c #6A6F6B",
"b5.	c #676D69",
"c5.	c #5C625E",
"d5.	c #555B57",
"e5.	c #545B57",
"f5.	c #555C58",
"g5.	c #575E5A",
"h5.	c #59605C",
"i5.	c #585F5B",
"j5.	c #575D59",
"k5.	c #565D59",
"l5.	c #595F5B",
"m5.	c #6C716D",
"n5.	c #697176",
"o5.	c #51585E",
"p5.	c #5F615F",
"q5.	c #8E928F",
"r5.	c #A4ADB4",
"s5.	c #657384",
"t5.	c #3B4350",
"u5.	c #959290",
"v5.	c #999595",
"w5.	c #4F5863",
"x5.	c #545D68",
"y5.	c #546171",
"z5.	c #607086",
"A5.	c #5B6673",
"B5.	c #5D6C80",
"C5.	c #8D9088",
"D5.	c #71756C",
"E5.	c #61665C",
"F5.	c #5B6156",
"G5.	c #585F53",
"H5.	c #5E6558",
"I5.	c #666C60",
"J5.	c #4F5659",
"K5.	c #53637A",
"L5.	c #6B7D90",
"M5.	c #8AA0B8",
"N5.	c #AABFD2",
"O5.	c #B2BFC8",
"P5.	c #B2B9BB",
"Q5.	c #A7A8A4",
"R5.	c #A5A6A1",
"S5.	c #AFAFAB",
"T5.	c #A7A6A1",
"U5.	c #757E7E",
"V5.	c #9A9B91",
"W5.	c #98988B",
"X5.	c #70726D",
"Y5.	c #ACACA5",
"Z5.	c #B6B6AF",
"`5.	c #B9B9B2",
" 6.	c #BCBAB1",
".6.	c #ACA393",
"+6.	c #A0B2C4",
"@6.	c #B4ADA4",
"#6.	c #71706F",
"$6.	c #3D403B",
"%6.	c #515349",
"&6.	c #5E6055",
"*6.	c #71776E",
"=6.	c #7B827A",
"-6.	c #7E857D",
";6.	c #586B7B",
">6.	c #8E9895",
",6.	c #89938F",
"'6.	c #535A5F",
")6.	c #7E7E7E",
"!6.	c #454C54",
"~6.	c #8091A7",
"{6.	c #ACB8C7",
"]6.	c #C2C3C3",
"^6.	c #969798",
"/6.	c #535E69",
"(6.	c #626D76",
"_6.	c #6E7B82",
":6.	c #737774",
"<6.	c #707571",
"[6.	c #606663",
"}6.	c #626764",
"|6.	c #585E5A",
"16.	c #565C58",
"26.	c #515853",
"36.	c #505753",
"46.	c #525955",
"56.	c #535A56",
"66.	c #535A55",
"76.	c #515854",
"86.	c #5D6360",
"96.	c #696E6A",
"06.	c #707572",
"a6.	c #596877",
"b6.	c #565E65",
"c6.	c #545C63",
"d6.	c #303438",
"e6.	c #474A4B",
"f6.	c #747877",
"g6.	c #A6ACAE",
"h6.	c #929CA5",
"i6.	c #2E3338",
"j6.	c #565657",
"k6.	c #999592",
"l6.	c #ACA8A8",
"m6.	c #515E6F",
"n6.	c #536070",
"o6.	c #566376",
"p6.	c #5C6A7E",
"q6.	c #58626E",
"r6.	c #5E6B7C",
"s6.	c #5F718A",
"t6.	c #576778",
"u6.	c #828782",
"v6.	c #757971",
"w6.	c #5C6157",
"x6.	c #595F54",
"y6.	c #5D6358",
"z6.	c #686C63",
"A6.	c #5B5F5B",
"B6.	c #95ACC5",
"C6.	c #B4C8DA",
"D6.	c #B9C4CC",
"E6.	c #B9BFC2",
"F6.	c #A3A5A0",
"G6.	c #5D6671",
"H6.	c #535E66",
"I6.	c #8D918A",
"J6.	c #9C9C92",
"K6.	c #737979",
"L6.	c #A9AAA2",
"M6.	c #B2B2AB",
"N6.	c #B1B2AB",
"O6.	c #B4B4AD",
"P6.	c #BBBAB3",
"Q6.	c #7D7A73",
"R6.	c #576678",
"S6.	c #B3BCC4",
"T6.	c #B5ACA1",
"U6.	c #566370",
"V6.	c #373E45",
"W6.	c #383D3D",
"X6.	c #3C3E38",
"Y6.	c #43463D",
"Z6.	c #4F5248",
"`6.	c #64685F",
" 7.	c #838A82",
".7.	c #828375",
"+7.	c #627889",
"@7.	c #728295",
"#7.	c #7F7F7D",
"$7.	c #505253",
"%7.	c #49586B",
"&7.	c #818B98",
"*7.	c #BAC6D6",
"=7.	c #C3C4C4",
"-7.	c #929494",
";7.	c #5D5F61",
">7.	c #43505F",
",7.	c #545E66",
"'7.	c #647078",
")7.	c #727773",
"!7.	c #6E7370",
"~7.	c #686D6A",
"{7.	c #5A605C",
"]7.	c #545A56",
"^7.	c #545B56",
"/7.	c #4F5652",
"(7.	c #4D5550",
"_7.	c #4E5551",
":7.	c #505752",
"<7.	c #4F5651",
"[7.	c #6F7471",
"}7.	c #4D5E72",
"|7.	c #7C8180",
"17.	c #757771",
"27.	c #70726C",
"37.	c #6C6F69",
"47.	c #6A6C66",
"57.	c #676A63",
"67.	c #696B65",
"77.	c #565D5F",
"87.	c #626666",
"97.	c #99A3A9",
"07.	c #A1AFB9",
"a7.	c #94A5B4",
"b7.	c #9BA8B3",
"c7.	c #6B7884",
"d7.	c #32363C",
"e7.	c #BBB6B5",
"f7.	c #C8C3C2",
"g7.	c #5D6673",
"h7.	c #777E7B",
"i7.	c #70746B",
"j7.	c #5B6056",
"k7.	c #666C62",
"l7.	c #656B61",
"m7.	c #6A6F66",
"n7.	c #849AB0",
"o7.	c #B2B6B5",
"p7.	c #B1B1AD",
"q7.	c #A9AAA5",
"r7.	c #A2A39E",
"s7.	c #A2A49E",
"t7.	c #A6A7A2",
"u7.	c #B9B9B3",
"v7.	c #9C9E9E",
"w7.	c #717876",
"x7.	c #9B9B92",
"y7.	c #9A9A8F",
"z7.	c #6D7880",
"A7.	c #B4B4AC",
"B7.	c #B4B5AC",
"C7.	c #B5B5AD",
"D7.	c #B7B7B0",
"E7.	c #BAB9B2",
"F7.	c #A9A08F",
"G7.	c #98ACC2",
"H7.	c #B9BABA",
"I7.	c #AEA598",
"J7.	c #71828B",
"K7.	c #979C94",
"L7.	c #96998E",
"M7.	c #929892",
"N7.	c #889295",
"O7.	c #76848E",
"P7.	c #616D78",
"Q7.	c #505D6B",
"R7.	c #475365",
"S7.	c #3A4045",
"T7.	c #3F4139",
"U7.	c #515247",
"V7.	c #748D9F",
"W7.	c #8E9894",
"X7.	c #818F8A",
"Y7.	c #8E948D",
"Z7.	c #8391A1",
"`7.	c #8F9191",
" 8.	c #5F6162",
".8.	c #7E8FA4",
"+8.	c #B6BCC4",
"@8.	c #B0AFAC",
"#8.	c #767675",
"$8.	c #474B4F",
"%8.	c #4E5B67",
"&8.	c #576062",
"*8.	c #646966",
"=8.	c #4D5450",
"-8.	c #515954",
";8.	c #4C544F",
">8.	c #505853",
",8.	c #4F5752",
"'8.	c #4D544F",
")8.	c #4C534F",
"!8.	c #6E736F",
"~8.	c #595C59",
"{8.	c #434952",
"]8.	c #516374",
"^8.	c #787974",
"/8.	c #6F716B",
"(8.	c #686A64",
"_8.	c #5D615A",
":8.	c #5D6059",
"<8.	c #646761",
"[8.	c #4F5658",
"}8.	c #303437",
"|8.	c #5F6261",
"18.	c #919592",
"28.	c #9FA5A4",
"38.	c #8C969E",
"48.	c #5A6571",
"58.	c #3C3F41",
"68.	c #D6CECC",
"78.	c #505861",
"88.	c #545F6D",
"98.	c #5E6F88",
"08.	c #606E81",
"a8.	c #637389",
"b8.	c #5E6A7A",
"c8.	c #59687B",
"d8.	c #6F7979",
"e8.	c #767A72",
"f8.	c #6E736A",
"g8.	c #686D63",
"h8.	c #5D6258",
"i8.	c #656B60",
"j8.	c #62675D",
"k8.	c #6B6F64",
"l8.	c #778693",
"m8.	c #AFB0AC",
"n8.	c #ACADA9",
"o8.	c #ABACA7",
"p8.	c #A7A8A3",
"q8.	c #A1A29D",
"r8.	c #A2A49F",
"s8.	c #646A72",
"t8.	c #434C52",
"u8.	c #858982",
"v8.	c #949283",
"w8.	c #717A80",
"x8.	c #A0A099",
"y8.	c #B6B6AE",
"z8.	c #BCBBB4",
"A8.	c #B5AD9E",
"B8.	c #6B6A64",
"C8.	c #9DA7B1",
"D8.	c #B4B1AC",
"E8.	c #ADA9A4",
"F8.	c #AEABA6",
"G8.	c #958D82",
"H8.	c #495461",
"I8.	c #8F8D7D",
"J8.	c #8E8B7B",
"K8.	c #8C8A7B",
"L8.	c #8C8A7D",
"M8.	c #918F84",
"N8.	c #909086",
"O8.	c #909388",
"P8.	c #909894",
"Q8.	c #848F93",
"R8.	c #74828A",
"S8.	c #5E6C77",
"T8.	c #8498A2",
"U8.	c #8B918A",
"V8.	c #8996A6",
"W8.	c #797A7A",
"X8.	c #404142",
"Y8.	c #3E4756",
"Z8.	c #697586",
"`8.	c #A7B2C0",
" 9.	c #B1B0AD",
".9.	c #757472",
"+9.	c #3E4143",
"@9.	c #425162",
"#9.	c #505A60",
"$9.	c #60696B",
"%9.	c #575E59",
"&9.	c #525854",
"*9.	c #4B524D",
"=9.	c #4B524E",
"-9.	c #4B534E",
";9.	c #4C534E",
">9.	c #4F5457",
",9.	c #5B6C7A",
"'9.	c #656861",
")9.	c #5B5E57",
"!9.	c #535750",
"~9.	c #565952",
"{9.	c #575B53",
"]9.	c #545851",
"^9.	c #585C55",
"/9.	c #62655E",
"(9.	c #525B60",
"_9.	c #737777",
":9.	c #A8B0B4",
"<9.	c #7D8891",
"[9.	c #383D45",
"}9.	c #797879",
"|9.	c #BDB8B7",
"19.	c #535D6B",
"29.	c #565F6C",
"39.	c #637691",
"49.	c #637288",
"59.	c #5F6772",
"69.	c #5D6A7D",
"79.	c #69757B",
"89.	c #7F837B",
"99.	c #747970",
"09.	c #63685E",
"a9.	c #64695F",
"b9.	c #63695E",
"c9.	c #5F655A",
"d9.	c #6E7267",
"e9.	c #55616C",
"f9.	c #A6AAA9",
"g9.	c #A4A5A0",
"h9.	c #A0A29D",
"i9.	c #B9B9B4",
"j9.	c #AFB1AF",
"k9.	c #4E5556",
"l9.	c #878981",
"m9.	c #98988E",
"n9.	c #878578",
"o9.	c #8D999F",
"p9.	c #A1A19A",
"q9.	c #B7B7AF",
"r9.	c #B9B9B1",
"s9.	c #B7B0A1",
"t9.	c #3F454B",
"u9.	c #8A8781",
"v9.	c #BAB6B2",
"w9.	c #B1AEA9",
"x9.	c #6E6E6E",
"y9.	c #55626C",
"z9.	c #8C8E86",
"A9.	c #8B897A",
"B9.	c #898776",
"C9.	c #888577",
"D9.	c #898679",
"E9.	c #8A887A",
"F9.	c #898779",
"G9.	c #888676",
"H9.	c #898777",
"I9.	c #8B8878",
"J9.	c #8E8D7F",
"K9.	c #969A92",
"L9.	c #949C9C",
"M9.	c #89969B",
"N9.	c #646E78",
"O9.	c #8D9CA0",
"P9.	c #84908C",
"Q9.	c #7B8682",
"R9.	c #8A9390",
"S9.	c #878D86",
"T9.	c #778596",
"U9.	c #9A9A9A",
"V9.	c #6E7174",
"W9.	c #516278",
"X9.	c #909EB0",
"Y9.	c #BFC6CE",
"Z9.	c #BEBFBF",
"`9.	c #8D8F90",
" 0.	c #43464A",
".0.	c #424E5B",
"+0.	c #525F69",
"@0.	c #616A6B",
"#0.	c #5B615E",
"$0.	c #4A514D",
"%0.	c #4A524D",
"&0.	c #4E5651",
"*0.	c #6D6F69",
"=0.	c #44494E",
"-0.	c #616C70",
";0.	c #676963",
">0.	c #5E615B",
",0.	c #555851",
"'0.	c #52554E",
")0.	c #53574F",
"!0.	c #555951",
"~0.	c #51554D",
"{0.	c #4C5049",
"]0.	c #53564F",
"^0.	c #595D55",
"/0.	c #60635C",
"(0.	c #5D625E",
"_0.	c #909493",
":0.	c #DED8D7",
"<0.	c #687282",
"[0.	c #545D69",
"}0.	c #56657B",
"|0.	c #637083",
"10.	c #637185",
"20.	c #4F575F",
"30.	c #5D6A74",
"40.	c #82857E",
"50.	c #777B72",
"60.	c #6C7168",
"70.	c #646A5F",
"80.	c #63695F",
"90.	c #656A60",
"00.	c #6B7066",
"a0.	c #656964",
"b0.	c #939CA0",
"c0.	c #A4A6A0",
"d0.	c #BEBEB9",
"e0.	c #979CA1",
"f0.	c #565B59",
"g0.	c #878980",
"h0.	c #96968C",
"i0.	c #6A6B64",
"j0.	c #B9B8B1",
"k0.	c #BABAB3",
"l0.	c #B6AFA0",
"m0.	c #908877",
"n0.	c #4E6078",
"o0.	c #8D9DAF",
"p0.	c #595955",
"q0.	c #AEA496",
"r0.	c #718089",
"s0.	c #8B887B",
"t0.	c #888678",
"u0.	c #858375",
"v0.	c #848274",
"w0.	c #848173",
"x0.	c #838172",
"y0.	c #848171",
"z0.	c #848272",
"A0.	c #858373",
"B0.	c #868474",
"C0.	c #888575",
"D0.	c #8A8777",
"E0.	c #908D80",
"F0.	c #939183",
"G0.	c #959284",
"H0.	c #576674",
"I0.	c #818B87",
"J0.	c #7D8883",
"K0.	c #8E9693",
"L0.	c #7D827C",
"M0.	c #576474",
"N0.	c #677384",
"O0.	c #A9B4C2",
"P0.	c #BDBEBE",
"Q0.	c #5F6265",
"R0.	c #60696A",
"S0.	c #49514C",
"T0.	c #424950",
"U0.	c #3C4958",
"V0.	c #676E6D",
"W0.	c #656862",
"X0.	c #50544C",
"Y0.	c #52564F",
"Z0.	c #494D45",
"`0.	c #4D5149",
" a.	c #545850",
".a.	c #585C54",
"+a.	c #585B54",
"@a.	c #5B5E58",
"#a.	c #5D605A",
"$a.	c #62696B",
"%a.	c #444C51",
"&a.	c #435164",
"*a.	c #595D62",
"=a.	c #BAB7B7",
"-a.	c #81848B",
";a.	c #65758B",
">a.	c #546371",
",a.	c #818681",
"'a.	c #797E75",
")a.	c #5F655B",
"!a.	c #76796F",
"~a.	c #424A52",
"{a.	c #6F7B85",
"]a.	c #A1A39E",
"^a.	c #A3A49F",
"/a.	c #868D94",
"(a.	c #535653",
"_a.	c #85867D",
":a.	c #97978D",
"<a.	c #939389",
"[a.	c #5E6264",
"}a.	c #A4A49E",
"|a.	c #B8B8B0",
"1a.	c #B2AC9D",
"2a.	c #8B8372",
"3a.	c #6C849E",
"4a.	c #96A6B6",
"5a.	c #566679",
"6a.	c #999FA2",
"7a.	c #9CA8B2",
"8a.	c #616E7F",
"9a.	c #AFACA7",
"0a.	c #91897D",
"aa.	c #46515D",
"ba.	c #8A877A",
"ca.	c #878476",
"da.	c #838072",
"ea.	c #817F6F",
"fa.	c #807E6D",
"ga.	c #807E6C",
"ha.	c #817E6D",
"ia.	c #817F6E",
"ja.	c #82806E",
"ka.	c #83806F",
"la.	c #848270",
"ma.	c #868373",
"na.	c #898676",
"oa.	c #908D7F",
"pa.	c #948F7E",
"qa.	c #637889",
"ra.	c #6D7373",
"sa.	c #4A4C4C",
"ta.	c #4C4E50",
"ua.	c #7D8CA0",
"va.	c #BEC5CE",
"wa.	c #C0C1C1",
"xa.	c #7D7D7B",
"ya.	c #49535A",
"za.	c #5E6A71",
"Aa.	c #585E5B",
"Ba.	c #48504B",
"Ca.	c #474E4A",
"Da.	c #474F4A",
"Ea.	c #484F4B",
"Fa.	c #49504C",
"Ga.	c #62645D",
"Ha.	c #445261",
"Ia.	c #51554E",
"Ja.	c #454A42",
"Ka.	c #484C44",
"La.	c #4F534C",
"Ma.	c #575B54",
"Na.	c #666862",
"Oa.	c #5A6267",
"Pa.	c #595C61",
"Qa.	c #7B7A7C",
"Ra.	c #4F5760",
"Sa.	c #4E555E",
"Ta.	c #606D80",
"Ua.	c #647183",
"Va.	c #7E8582",
"Wa.	c #7D8179",
"Xa.	c #71766D",
"Ya.	c #666B61",
"Za.	c #5E6459",
"`a.	c #676C63",
" b.	c #7A7E74",
".b.	c #5A6061",
"+b.	c #9DA2A0",
"@b.	c #A8A9A4",
"#b.	c #BDBFBC",
"$b.	c #878E96",
"%b.	c #4A4E4B",
"&b.	c #808177",
"*b.	c #95958B",
"=b.	c #94948A",
"-b.	c #969588",
";b.	c #5D6973",
">b.	c #A5A59F",
",b.	c #B3B3AC",
"'b.	c #B6B6B0",
")b.	c #B9B7AE",
"!b.	c #ACA495",
"~b.	c #777163",
"{b.	c #6F88A2",
"]b.	c #9AACBC",
"^b.	c #616467",
"/b.	c #606362",
"(b.	c #99A0A3",
"_b.	c #959CA0",
":b.	c #7C8A9A",
"<b.	c #4F4F4D",
"[b.	c #97948E",
"}b.	c #5F5F5F",
"|b.	c #5D6C78",
"1b.	c #8A8A7F",
"2b.	c #888578",
"3b.	c #7F7D6B",
"4b.	c #7F7C6C",
"5b.	c #7F7C6D",
"6b.	c #7F7D6C",
"7b.	c #838170",
"8b.	c #858372",
"9b.	c #8D8A7C",
"0b.	c #8D8876",
"ab.	c #788F9E",
"bb.	c #909996",
"cb.	c #959E9A",
"db.	c #5C6368",
"eb.	c #485463",
"fb.	c #8DA2BC",
"gb.	c #C7CED6",
"hb.	c #B4B3B0",
"ib.	c #6A6C6E",
"jb.	c #54616B",
"kb.	c #5A5C56",
"lb.	c #4C5D6D",
"mb.	c #5F635C",
"nb.	c #4D514A",
"ob.	c #484C45",
"pb.	c #4B4F47",
"qb.	c #474B43",
"rb.	c #464A42",
"sb.	c #4B5048",
"tb.	c #595C55",
"ub.	c #61645E",
"vb.	c #6E706A",
"wb.	c #696E6F",
"xb.	c #5C6878",
"yb.	c #6A767A",
"zb.	c #82857D",
"Ab.	c #74786F",
"Bb.	c #6D7169",
"Cb.	c #768086",
"Db.	c #AAABA7",
"Eb.	c #BFC1BF",
"Fb.	c #9CA5AF",
"Gb.	c #435062",
"Hb.	c #3C4040",
"Ib.	c #65655C",
"Jb.	c #85857A",
"Kb.	c #969486",
"Lb.	c #6D7D8B",
"Mb.	c #B3B2AC",
"Nb.	c #B6B5AD",
"Ob.	c #AEA899",
"Pb.	c #938B79",
"Qb.	c #585753",
"Rb.	c #7B95B2",
"Sb.	c #97A8B7",
"Tb.	c #8C9091",
"Ub.	c #949A9D",
"Vb.	c #919BA6",
"Wb.	c #383B3E",
"Xb.	c #696762",
"Yb.	c #9D9284",
"Zb.	c #7D8B8F",
"`b.	c #888679",
" c.	c #827F70",
".c.	c #807D6B",
"+c.	c #7E7C6C",
"@c.	c #7F7C6E",
"#c.	c #807E6F",
"$c.	c #7F7D6E",
"%c.	c #7E7C6B",
"&c.	c #848273",
"*c.	c #878577",
"=c.	c #8B887A",
"-c.	c #7D7866",
";c.	c #8699A1",
">c.	c #8A938F",
",c.	c #868C89",
"'c.	c #96AAC2",
")c.	c #C9D0D8",
"!c.	c #B0AFAE",
"~c.	c #656B73",
"{c.	c #5C6568",
"]c.	c #6B706C",
"^c.	c #525553",
"/c.	c #556571",
"(c.	c #575A53",
"_c.	c #4F534B",
":c.	c #51544D",
"<c.	c #50544D",
"[c.	c #565A52",
"}c.	c #656761",
"|c.	c #696C66",
"1c.	c #6E716B",
"2c.	c #707574",
"3c.	c #525F72",
"4c.	c #566373",
"5c.	c #637186",
"6c.	c #555C66",
"7c.	c #5A6A81",
"8c.	c #858880",
"9c.	c #7C8077",
"0c.	c #696F65",
"ac.	c #686D64",
"bc.	c #6A6E64",
"cc.	c #4C5864",
"dc.	c #B8B8B4",
"ec.	c #BCB9B1",
"fc.	c #646359",
"gc.	c #838176",
"hc.	c #939287",
"ic.	c #807C70",
"jc.	c #778899",
"kc.	c #B2B1AB",
"lc.	c #B1B0AA",
"mc.	c #A6A59E",
"nc.	c #A3A097",
"oc.	c #9D988A",
"pc.	c #8A8373",
"qc.	c #42464B",
"rc.	c #8DA8C2",
"sc.	c #97A3AE",
"tc.	c #747777",
"uc.	c #4D5359",
"vc.	c #94A1AE",
"wc.	c #95A0AA",
"xc.	c #858F9A",
"yc.	c #3D444B",
"zc.	c #7D8485",
"Ac.	c #979FA2",
"Bc.	c #98A0A6",
"Cc.	c #7C899A",
"Dc.	c #84817B",
"Ec.	c #B3AFAB",
"Fc.	c #AFA89E",
"Gc.	c #696763",
"Hc.	c #556472",
"Ic.	c #888B82",
"Jc.	c #868475",
"Kc.	c #838171",
"Lc.	c #807D6F",
"Mc.	c #817F70",
"Nc.	c #817E70",
"Oc.	c #807D6E",
"Pc.	c #817E6E",
"Qc.	c #878475",
"Rc.	c #64625C",
"Sc.	c #536678",
"Tc.	c #899595",
"Uc.	c #899491",
"Vc.	c #848B86",
"Wc.	c #53595C",
"Xc.	c #8DA0B9",
"Yc.	c #C5CBD4",
"Zc.	c #C7C7C7",
"`c.	c #60666E",
" d.	c #5D6669",
".d.	c #5F6461",
"+d.	c #5C625F",
"@d.	c #5A605D",
"#d.	c #6E726D",
"$d.	c #646F72",
"%d.	c #676A64",
"&d.	c #4A4F47",
"*d.	c #4C5048",
"=d.	c #4E524B",
"-d.	c #5F625C",
";d.	c #72746F",
">d.	c #727774",
",d.	c #4C5B6F",
"'d.	c #738EAD",
")d.	c #98B2CE",
"!d.	c #69798D",
"~d.	c #4F5E74",
"{d.	c #7C827E",
"]d.	c #767A71",
"^d.	c #676D62",
"/d.	c #5A5F55",
"(d.	c #6C7268",
"_d.	c #62675E",
":d.	c #5B6159",
"<d.	c #7F888D",
"[d.	c #A7A9A3",
"}d.	c #948E80",
"|d.	c #6A7C97",
"1d.	c #DDEAFF",
"2d.	c #BCC6DA",
"3d.	c #657183",
"4d.	c #3E4140",
"5d.	c #4B4A40",
"6d.	c #59646E",
"7d.	c #908B7F",
"8d.	c #938E82",
"9d.	c #958F82",
"0d.	c #878072",
"ad.	c #7A7466",
"bd.	c #625D51",
"cd.	c #4C4E4E",
"dd.	c #56687F",
"ed.	c #7C95B2",
"fd.	c #8FA0B1",
"gd.	c #97A0A6",
"hd.	c #6D6D69",
"id.	c #4B5057",
"jd.	c #8C9295",
"kd.	c #91989C",
"ld.	c #8F979A",
"md.	c #899198",
"nd.	c #8B8F91",
"od.	c #92989C",
"pd.	c #8B96A1",
"qd.	c #5D5C57",
"rd.	c #B4B0AC",
"sd.	c #9D9283",
"td.	c #7B8A8F",
"ud.	c #7E7C6D",
"vd.	c #817F6D",
"wd.	c #878576",
"xd.	c #898371",
"yd.	c #6B8396",
"zd.	c #889490",
"Ad.	c #848B85",
"Bd.	c #525756",
"Cd.	c #7A899B",
"Dd.	c #A9A9A8",
"Ed.	c #505F6F",
"Fd.	c #616B6C",
"Gd.	c #464D49",
"Hd.	c #454D48",
"Id.	c #454C48",
"Jd.	c #676C68",
"Kd.	c #434A50",
"Ld.	c #3C4553",
"Md.	c #425063",
"Nd.	c #6A7171",
"Od.	c #646660",
"Pd.	c #484D45",
"Qd.	c #454941",
"Rd.	c #434840",
"Sd.	c #5B5F58",
"Td.	c #6B6D67",
"Ud.	c #6E706B",
"Vd.	c #747876",
"Wd.	c #4F5B69",
"Xd.	c #97A1A8",
"Yd.	c #B2BBC2",
"Zd.	c #A9B4BF",
"`d.	c #6A7789",
" e.	c #586272",
".e.	c #606E83",
"+e.	c #5F6C7E",
"@e.	c #677173",
"#e.	c #777C73",
"$e.	c #676D63",
"%e.	c #5B6256",
"&e.	c #60675A",
"*e.	c #495155",
"=e.	c #A3A7A6",
"-e.	c #A8A091",
";e.	c #59626E",
">e.	c #D8E7FF",
",e.	c #D2CFD3",
"'e.	c #DCDDE8",
")e.	c #CED8EE",
"!e.	c #97A6C0",
"~e.	c #647287",
"{e.	c #3A3E40",
"]e.	c #6E859F",
"^e.	c #869EB8",
"/e.	c #868F97",
"(e.	c #8B969E",
"_e.	c #858C90",
":e.	c #8A9094",
"<e.	c #8D9397",
"[e.	c #949CA1",
"}e.	c #798185",
"|e.	c #99A0A4",
"1e.	c #9DA6AD",
"2e.	c #7E8D9F",
"3e.	c #3F4142",
"4e.	c #726D63",
"5e.	c #847A6A",
"6e.	c #565756",
"7e.	c #5B6A77",
"8e.	c #8A8D82",
"9e.	c #878575",
"0e.	c #828071",
"ae.	c #7E7C6A",
"be.	c #7D7B6C",
"ce.	c #7C7564",
"de.	c #80949D",
"ee.	c #B7BEC6",
"fe.	c #AFAFAD",
"ge.	c #5E656D",
"he.	c #4C5A67",
"ie.	c #636C6D",
"je.	c #444C47",
"ke.	c #4A514C",
"le.	c #445566",
"me.	c #6D716E",
"ne.	c #62655F",
"oe.	c #5A5E57",
"pe.	c #4A4E47",
"qe.	c #494E46",
"re.	c #474C44",
"se.	c #72746E",
"te.	c #6E7270",
"ue.	c #9BA0A1",
"ve.	c #B6BCBF",
"we.	c #A5AEB8",
"xe.	c #5B697A",
"ye.	c #868982",
"ze.	c #6B7166",
"Ae.	c #696F64",
"Be.	c #596153",
"Ce.	c #5B6359",
"De.	c #697277",
"Ee.	c #AAACA8",
"Fe.	c #AEADA5",
"Ge.	c #626360",
"He.	c #A9BDD7",
"Ie.	c #D7D3D6",
"Je.	c #DDDDE5",
"Ke.	c #D7DBE9",
"Le.	c #D7E1F6",
"Me.	c #CCDAF4",
"Ne.	c #C3D3F0",
"Oe.	c #B5C7E4",
"Pe.	c #BDD0EF",
"Qe.	c #C1D4F3",
"Re.	c #CAD9F4",
"Se.	c #585F6A",
"Te.	c #62768D",
"Ue.	c #99A5B0",
"Ve.	c #959DA2",
"We.	c #8D9191",
"Xe.	c #798EA1",
"Ye.	c #909DAA",
"Ze.	c #8D979B",
"`e.	c #8B9498",
" f.	c #868D91",
".f.	c #899094",
"+f.	c #8F9598",
"@f.	c #969DA2",
"#f.	c #828F9E",
"$f.	c #444F5B",
"%f.	c #949A9E",
"&f.	c #999FA4",
"*f.	c #96A3AF",
"=f.	c #485462",
"-f.	c #838E8F",
";f.	c #8A8779",
">f.	c #807E6E",
",f.	c #7D7B6A",
"'f.	c #7D7B6B",
")f.	c #827F71",
"!f.	c #8D8B7D",
"~f.	c #506275",
"{f.	c #8A9797",
"]f.	c #8D9793",
"^f.	c #454B50",
"/f.	c #596A80",
"(f.	c #A7B2BE",
"_f.	c #62666B",
":f.	c #4C5865",
"<f.	c #646D6E",
"[f.	c #49504B",
"}f.	c #464E49",
"|f.	c #484F4A",
"1f.	c #6A6A62",
"2f.	c #4F6170",
"3f.	c #4B4F48",
"4f.	c #636660",
"5f.	c #6F726C",
"6f.	c #666B6A",
"7f.	c #545859",
"8f.	c #999C99",
"9f.	c #B4B7B6",
"0f.	c #949DA6",
"af.	c #5A6575",
"bf.	c #5B6471",
"cf.	c #7E827A",
"df.	c #6D7268",
"ef.	c #62685D",
"ff.	c #6B7167",
"gf.	c #535A4E",
"hf.	c #535C4E",
"if.	c #575F51",
"jf.	c #5F6659",
"kf.	c #4F5958",
"lf.	c #858B8B",
"mf.	c #878174",
"nf.	c #68788F",
"of.	c #DADAE2",
"pf.	c #C8C3C5",
"qf.	c #E4E2E8",
"rf.	c #E2E1E7",
"sf.	c #DDDCE3",
"tf.	c #D6D5DB",
"uf.	c #ADA9AC",
"vf.	c #93999C",
"wf.	c #696C6C",
"xf.	c #4F5C6B",
"yf.	c #8D969C",
"zf.	c #868C90",
"Af.	c #888F93",
"Bf.	c #7C8387",
"Cf.	c #838A90",
"Df.	c #393E40",
"Ef.	c #8D9295",
"Ff.	c #495567",
"Gf.	c #6D7F8E",
"Hf.	c #8F9086",
"If.	c #8A887B",
"Jf.	c #858274",
"Kf.	c #7E7C69",
"Lf.	c #838173",
"Mf.	c #8C8A7C",
"Nf.	c #8B8575",
"Of.	c #6D8699",
"Pf.	c #858C86",
"Qf.	c #535A5C",
"Rf.	c #99A8BB",
"Sf.	c #444A4F",
"Tf.	c #5E676A",
"Uf.	c #3D403D",
"Vf.	c #3D403C",
"Wf.	c #3A3C38",
"Xf.	c #434744",
"Yf.	c #444844",
"Zf.	c #474B45",
"`f.	c #494D47",
" g.	c #51524C",
".g.	c #5C6C78",
"+g.	c #686B64",
"@g.	c #4C5149",
"#g.	c #4D5049",
"$g.	c #606665",
"%g.	c #434E5A",
"&g.	c #565F69",
"*g.	c #6F7272",
"=g.	c #8E918F",
"-g.	c #5A636E",
";g.	c #586270",
">g.	c #576369",
",g.	c #757970",
"'g.	c #686E63",
")g.	c #60685C",
"!g.	c #495057",
"~g.	c #989C99",
"{g.	c #A49D8F",
"]g.	c #4B525C",
"^g.	c #C0CFE6",
"/g.	c #DFDBDC",
"(g.	c #CBC4C2",
"_g.	c #4B5969",
":g.	c #919CA1",
"<g.	c #949CA0",
"[g.	c #8B97A1",
"}g.	c #848A8E",
"|g.	c #7B8386",
"1g.	c #869194",
"2g.	c #838B8F",
"3g.	c #82898D",
"4g.	c #8E9497",
"5g.	c #999B9C",
"6g.	c #5D6D7D",
"7g.	c #9FA6A9",
"8g.	c #9CA2A6",
"9g.	c #969794",
"0g.	c #4B5258",
"ag.	c #546475",
"bg.	c #8D8A7D",
"cg.	c #82806F",
"dg.	c #807E6B",
"eg.	c #7E7B69",
"fg.	c #706A5C",
"gg.	c #86969A",
"hg.	c #8B9692",
"ig.	c #8A9591",
"jg.	c #727976",
"kg.	c #3C434A",
"lg.	c #636F7E",
"mg.	c #BAC2CA",
"ng.	c #494C4F",
"og.	c #465363",
"pg.	c #5E6561",
"qg.	c #494C47",
"rg.	c #474B46",
"sg.	c #3B3D39",
"tg.	c #3E423F",
"ug.	c #3E413E",
"vg.	c #455363",
"wg.	c #414E5E",
"xg.	c #2E302F",
"yg.	c #474C4D",
"zg.	c #3E4141",
"Ag.	c #34383A",
"Bg.	c #465054",
"Cg.	c #747670",
"Dg.	c #5C5F59",
"Eg.	c #565A53",
"Fg.	c #63665F",
"Gg.	c #576065",
"Hg.	c #515964",
"Ig.	c #444F59",
"Jg.	c #777B73",
"Kg.	c #51594D",
"Lg.	c #535B4E",
"Mg.	c #565E52",
"Ng.	c #5C645B",
"Og.	c #585F64",
"Pg.	c #A6A8A4",
"Qg.	c #B0ADA3",
"Rg.	c #605F5B",
"Sg.	c #8FA3BD",
"Tg.	c #CECED3",
"Ug.	c #D3CBC7",
"Vg.	c #88929A",
"Wg.	c #858A8B",
"Xg.	c #525F6D",
"Yg.	c #8B9195",
"Zg.	c #879296",
"`g.	c #848B8F",
" h.	c #7E868A",
".h.	c #878E92",
"+h.	c #8D969A",
"@h.	c #919A9E",
"#h.	c #969EA2",
"$h.	c #999E9F",
"%h.	c #83827B",
"&h.	c #585956",
"*h.	c #617287",
"=h.	c #979A9B",
"-h.	c #696863",
";h.	c #859395",
">h.	c #8C8979",
",h.	c #8C8879",
"'h.	c #434443",
")h.	c #5D7487",
"!h.	c #88918E",
"~h.	c #A1A9B1",
"{h.	c #595C60",
"]h.	c #515F68",
"^h.	c #686D69",
"/h.	c #5A5E59",
"(h.	c #4A4E49",
"_h.	c #42484B",
":h.	c #303334",
"<h.	c #2F3439",
"[h.	c #414E5F",
"}h.	c #414F60",
"|h.	c #414D5A",
"1h.	c #45525F",
"2h.	c #676B62",
"3h.	c #656960",
"4h.	c #6B6F66",
"5h.	c #6B7067",
"6h.	c #696E65",
"7h.	c #616C68",
"8h.	c #606A69",
"9h.	c #5B6669",
"0h.	c #5B676E",
"ah.	c #525A5C",
"bh.	c #4E5D69",
"ch.	c #393D3D",
"dh.	c #5A5C55",
"eh.	c #60635D",
"fh.	c #4D524A",
"gh.	c #42473F",
"hh.	c #5E625B",
"ih.	c #576578",
"jh.	c #54606F",
"kh.	c #566479",
"lh.	c #5D6668",
"mh.	c #7A7E76",
"nh.	c #51584D",
"oh.	c #51594C",
"ph.	c #585F54",
"qh.	c #5A6256",
"rh.	c #56605E",
"sh.	c #676D6F",
"th.	c #A8A9A5",
"uh.	c #857F73",
"vh.	c #D4DCEC",
"wh.	c #DAD2D0",
"xh.	c #696D74",
"yh.	c #707E89",
"zh.	c #7B868F",
"Ah.	c #8A9599",
"Bh.	c #869093",
"Ch.	c #869195",
"Dh.	c #7D8488",
"Eh.	c #93999A",
"Fh.	c #888A84",
"Gh.	c #616463",
"Hh.	c #474D54",
"Ih.	c #516178",
"Jh.	c #65778B",
"Kh.	c #76746B",
"Lh.	c #8D8D7F",
"Mh.	c #858271",
"Nh.	c #82806D",
"Oh.	c #7D7B68",
"Ph.	c #7F7D6A",
"Qh.	c #898678",
"Rh.	c #8C897C",
"Sh.	c #787262",
"Th.	c #8498A1",
"Uh.	c #8C9592",
"Vh.	c #6F7C8D",
"Wh.	c #C0C7CF",
"Xh.	c #888785",
"Yh.	c #49525B",
"Zh.	c #626C6C",
"`h.	c #565D58",
" i.	c #565954",
".i.	c #4C4F4C",
"+i.	c #323638",
"@i.	c #415061",
"#i.	c #4E5D68",
"$i.	c #545E63",
"%i.	c #586368",
"&i.	c #5E6A6D",
"*i.	c #64706F",
"=i.	c #6C7774",
"-i.	c #666B62",
";i.	c #5F645B",
">i.	c #5D6259",
",i.	c #6C7067",
"'i.	c #6E7269",
")i.	c #6A6E65",
"!i.	c #6F7671",
"~i.	c #707A7A",
"{i.	c #626E75",
"]i.	c #55626E",
"^i.	c #30353C",
"/i.	c #313330",
"(i.	c #595D56",
"_i.	c #5C6058",
":i.	c #5A5E56",
"<i.	c #494D46",
"[i.	c #6D706A",
"}i.	c #7A8CA5",
"|i.	c #414B54",
"1i.	c #777C76",
"2i.	c #52584D",
"3i.	c #535B4F",
"4i.	c #5B6356",
"5i.	c #5E665A",
"6i.	c #4F595A",
"7i.	c #727676",
"8i.	c #A9AAA6",
"9i.	c #A59F90",
"0i.	c #BDD1EE",
"ai.	c #8D8D91",
"bi.	c #5C6975",
"ci.	c #899397",
"di.	c #899195",
"ei.	c #81888B",
"fi.	c #949A9B",
"gi.	c #6C6A62",
"hi.	c #616465",
"ii.	c #6B7D88",
"ji.	c #8D8D81",
"ki.	c #848271",
"li.	c #888677",
"mi.	c #4F5152",
"ni.	c #5A6F82",
"oi.	c #909C9C",
"pi.	c #8F9894",
"qi.	c #555E65",
"ri.	c #A8B0B8",
"si.	c #585C61",
"ti.	c #46576C",
"ui.	c #656B67",
"vi.	c #505652",
"wi.	c #5B605B",
"xi.	c #4F534F",
"yi.	c #424647",
"zi.	c #6B736E",
"Ai.	c #575E52",
"Bi.	c #72766E",
"Ci.	c #71756D",
"Di.	c #6B7573",
"Ei.	c #596368",
"Fi.	c #495661",
"Gi.	c #26292D",
"Hi.	c #323535",
"Ii.	c #42443E",
"Ji.	c #464B43",
"Ki.	c #5B5F57",
"Li.	c #73756F",
"Mi.	c #515C69",
"Ni.	c #CCCDD4",
"Oi.	c #7C8697",
"Pi.	c #4F5C6D",
"Qi.	c #586162",
"Ri.	c #6F756B",
"Si.	c #535A4F",
"Ti.	c #636B5F",
"Ui.	c #4D595E",
"Vi.	c #757877",
"Wi.	c #B6B0A3",
"Xi.	c #8EA2BE",
"Yi.	c #D1D0D7",
"Zi.	c #B0AAA9",
"`i.	c #768697",
" j.	c #8D9498",
".j.	c #889296",
"+j.	c #879094",
"@j.	c #8A9397",
"#j.	c #8D9598",
"$j.	c #898F93",
"%j.	c #94999A",
"&j.	c #787A75",
"*j.	c #7991AD",
"=j.	c #76889E",
"-j.	c #657786",
";j.	c #868372",
">j.	c #8A8877",
",j.	c #777160",
"'j.	c #3B4757",
")j.	c #889FAD",
"!j.	c #8F9794",
"~j.	c #66707E",
"{j.	c #C1C2C2",
"]j.	c #5B625E",
"^j.	c #3B3E3D",
"/j.	c #3B414B",
"(j.	c #445161",
"_j.	c #72848E",
":j.	c #787B73",
"<j.	c #6A7471",
"[j.	c #555E61",
"}j.	c #424C54",
"|j.	c #313944",
"1j.	c #2B3138",
"2j.	c #232626",
"3j.	c #353732",
"4j.	c #50554D",
"5j.	c #62645E",
"6j.	c #6F7270",
"7j.	c #5D6572",
"8j.	c #C2C9DA",
"9j.	c #505C6F",
"0j.	c #505E74",
"aj.	c #3D4853",
"bj.	c #7B7F79",
"cj.	c #7B7F77",
"dj.	c #545A50",
"ej.	c #565C51",
"fj.	c #626A5F",
"gj.	c #4D585D",
"hj.	c #727573",
"ij.	c #B9B9B5",
"jj.	c #BEBCB5",
"kj.	c #878175",
"lj.	c #CDDBF0",
"mj.	c #CEC5C0",
"nj.	c #808A91",
"oj.	c #878E91",
"pj.	c #8A9194",
"qj.	c #8D9699",
"rj.	c #929696",
"sj.	c #6B6B67",
"tj.	c #748FAF",
"uj.	c #A8BFD8",
"vj.	c #9DA6AE",
"wj.	c #64788A",
"xj.	c #929C9A",
"yj.	c #8B897B",
"zj.	c #878473",
"Aj.	c #83816F",
"Bj.	c #817E6C",
"Cj.	c #828072",
"Dj.	c #868476",
"Ej.	c #8B8778",
"Fj.	c #4C5052",
"Gj.	c #637C94",
"Hj.	c #94A0A0",
"Ij.	c #949C99",
"Jj.	c #60645F",
"Kj.	c #A2BAD6",
"Lj.	c #BFC0C0",
"Mj.	c #B0AFAD",
"Nj.	c #5F6666",
"Oj.	c #5C635F",
"Pj.	c #565B55",
"Qj.	c #444742",
"Rj.	c #313435",
"Sj.	c #394352",
"Tj.	c #79808B",
"Uj.	c #8A98AB",
"Vj.	c #98A6BB",
"Wj.	c #93A2BA",
"Xj.	c #717F94",
"Yj.	c #49586C",
"Zj.	c #526371",
"`j.	c #7A7D75",
" k.	c #585D53",
".k.	c #575C52",
"+k.	c #5E6867",
"@k.	c #4A5459",
"#k.	c #37424E",
"$k.	c #30373F",
"%k.	c #292D30",
"&k.	c #3C3F3D",
"*k.	c #52544D",
"=k.	c #6F726F",
"-k.	c #485059",
";k.	c #545A62",
">k.	c #5D6877",
",k.	c #4D5759",
"'k.	c #82867E",
")k.	c #626B61",
"!k.	c #4C585D",
"~k.	c #686B69",
"{k.	c #B2B2AE",
"]k.	c #ACA496",
"^k.	c #464B50",
"/k.	c #BDD4F4",
"(k.	c #C7C3C5",
"_k.	c #C9C4C6",
":k.	c #D7CFCC",
"<k.	c #78858F",
"[k.	c #858C8F",
"}k.	c #7F868A",
"|k.	c #8E9498",
"1k.	c #6E87A6",
"2k.	c #A4B7CB",
"3k.	c #667887",
"4k.	c #949E9C",
"5k.	c #8D8A7A",
"6k.	c #7E7B6B",
"7k.	c #7E7B6C",
"8k.	c #7F7D6D",
"9k.	c #828070",
"0k.	c #8F8C7F",
"ak.	c #736C5D",
"bk.	c #47566B",
"ck.	c #8FA3AE",
"dk.	c #969D9A",
"ek.	c #8C928C",
"fk.	c #596779",
"gk.	c #B0B6BE",
"hk.	c #9B9B9A",
"ik.	c #656E6E",
"jk.	c #616764",
"kk.	c #515753",
"lk.	c #575B56",
"mk.	c #444946",
"nk.	c #98A3B3",
"ok.	c #AEAFB3",
"pk.	c #AFB0B3",
"qk.	c #B0B1B4",
"rk.	c #B5B5B8",
"sk.	c #656C76",
"tk.	c #495662",
"uk.	c #7A807D",
"vk.	c #50584C",
"wk.	c #53594E",
"xk.	c #555A50",
"yk.	c #63675E",
"zk.	c #606967",
"Ak.	c #4D575C",
"Bk.	c #38414B",
"Ck.	c #33383A",
"Dk.	c #464842",
"Ek.	c #444941",
"Fk.	c #686B65",
"Gk.	c #646A6B",
"Hk.	c #7C8699",
"Ik.	c #37404A",
"Jk.	c #6E7571",
"Kk.	c #545B50",
"Lk.	c #636C61",
"Mk.	c #4F5B5D",
"Nk.	c #9E9C93",
"Ok.	c #A29A8B",
"Pk.	c #5B5C5B",
"Qk.	c #7A8FAB",
"Rk.	c #D5D8E3",
"Sk.	c #C6C1C3",
"Tk.	c #606671",
"Uk.	c #697A8A",
"Vk.	c #949DA1",
"Wk.	c #666864",
"Xk.	c #4A5361",
"Yk.	c #5B6D84",
"Zk.	c #9FB7D1",
"`k.	c #A6B2BE",
" l.	c #8E8D89",
".l.	c #6D7E8A",
"+l.	c #959E99",
"@l.	c #8D8A7B",
"#l.	c #888675",
"$l.	c #8E8B7D",
"%l.	c #8B8371",
"&l.	c #586A7C",
"*l.	c #99A4A4",
"=l.	c #6A7584",
"-l.	c #616568",
";l.	c #5D6A72",
">l.	c #494D48",
",l.	c #383C3D",
"'l.	c #728095",
")l.	c #9FAABA",
"!l.	c #AAABAE",
"~l.	c #A8A9AD",
"{l.	c #ADAEB1",
"]l.	c #B1B1B4",
"^l.	c #BDBBBD",
"/l.	c #81848A",
"(l.	c #54594F",
"_l.	c #4F564B",
":l.	c #51574C",
"<l.	c #5E6766",
"[l.	c #475259",
"}l.	c #2D3135",
"|l.	c #3A3D3A",
"1l.	c #606562",
"2l.	c #B6BCCB",
"3l.	c #434B58",
"4l.	c #51584C",
"5l.	c #5A6155",
"6l.	c #576464",
"7l.	c #BCCEE8",
"8l.	c #DDD6D6",
"9l.	c #7D7D81",
"0l.	c #556474",
"al.	c #92999C",
"bl.	c #8D9396",
"cl.	c #68809E",
"dl.	c #96ADC6",
"el.	c #9DAAB6",
"fl.	c #9C9FA0",
"gl.	c #86847C",
"hl.	c #7B8D9A",
"il.	c #92938A",
"jl.	c #888576",
"kl.	c #827F6E",
"ll.	c #8D8B7E",
"ml.	c #918D7D",
"nl.	c #615F55",
"ol.	c #5D6F7F",
"pl.	c #9DB3CE",
"ql.	c #ADADAB",
"rl.	c #46515C",
"sl.	c #5E686A",
"tl.	c #575D5A",
"ul.	c #525752",
"vl.	c #404544",
"wl.	c #34383C",
"xl.	c #637082",
"yl.	c #A8A9AC",
"zl.	c #A6A7AB",
"Al.	c #A6A7AA",
"Bl.	c #ADADB0",
"Cl.	c #B7B7BA",
"Dl.	c #49505B",
"El.	c #3C4A5B",
"Fl.	c #626E6F",
"Gl.	c #6E7169",
"Hl.	c #51574D",
"Il.	c #53584E",
"Jl.	c #4F564A",
"Kl.	c #565B51",
"Ll.	c #6B726C",
"Ml.	c #596263",
"Nl.	c #3C4753",
"Ol.	c #303435",
"Pl.	c #52554F",
"Ql.	c #60645D",
"Rl.	c #454942",
"Sl.	c #B9B8BD",
"Tl.	c #C3C2C7",
"Ul.	c #565D5C",
"Vl.	c #565E50",
"Wl.	c #6D7674",
"Xl.	c #9DA6B4",
"Yl.	c #C5C1C3",
"Zl.	c #AAA5A5",
"`l.	c #4D5B6B",
" m.	c #8F99A0",
".m.	c #9B9FA0",
"+m.	c #86867F",
"@m.	c #53595F",
"#m.	c #8EA4BD",
"$m.	c #A2AEBA",
"%m.	c #636158",
"&m.	c #4E5E70",
"*m.	c #89979C",
"=m.	c #909085",
"-m.	c #7F7C6A",
";m.	c #8A8878",
">m.	c #908E80",
",m.	c #7D7666",
"'m.	c #ACAEB3",
")m.	c #616663",
"!m.	c #505551",
"~m.	c #363A3B",
"{m.	c #8592A2",
"]m.	c #ADB3BD",
"^m.	c #A4A5A9",
"/m.	c #A7A8AC",
"(m.	c #ABACAF",
"_m.	c #B0ADAB",
":m.	c #525F64",
"<m.	c #70746C",
"[m.	c #4E5648",
"}m.	c #52584E",
"|m.	c #50574C",
"1m.	c #51564C",
"2m.	c #50564C",
"3m.	c #626B69",
"4m.	c #424B52",
"5m.	c #464943",
"6m.	c #464A43",
"7m.	c #5F6566",
"8m.	c #646669",
"9m.	c #D8D6DC",
"0m.	c #606A7A",
"am.	c #656B66",
"bm.	c #52594D",
"cm.	c #545C50",
"dm.	c #78807B",
"em.	c #85817C",
"fm.	c #D5CBC7",
"gm.	c #858E95",
"hm.	c #908F8A",
"im.	c #787977",
"jm.	c #464B4F",
"km.	c #7A858F",
"lm.	c #969CA0",
"mm.	c #949593",
"nm.	c #737167",
"om.	c #3E4A58",
"pm.	c #6C7D87",
"qm.	c #8E8C7F",
"rm.	c #515962",
"sm.	c #63748B",
"tm.	c #BCC2CB",
"um.	c #787672",
"vm.	c #5B6A73",
"wm.	c #4B4E4A",
"xm.	c #35393C",
"ym.	c #38404D",
"zm.	c #5C6776",
"Am.	c #99A4B3",
"Bm.	c #ACADB0",
"Cm.	c #A3A4A8",
"Dm.	c #A5A6AA",
"Em.	c #B5B5B9",
"Fm.	c #4B5A63",
"Gm.	c #71746C",
"Hm.	c #49545A",
"Im.	c #313945",
"Jm.	c #3F423D",
"Km.	c #646968",
"Lm.	c #E0DDE2",
"Mm.	c #616873",
"Nm.	c #363E42",
"Om.	c #71766E",
"Pm.	c #545B4F",
"Qm.	c #747971",
"Rm.	c #6B7574",
"Sm.	c #474747",
"Tm.	c #817C76",
"Um.	c #BEB9B7",
"Vm.	c #D0C7C3",
"Wm.	c #44494D",
"Xm.	c #4E5A65",
"Ym.	c #484947",
"Zm.	c #5B6E7F",
"`m.	c #879291",
" n.	c #8C8D7F",
".n.	c #838070",
"+n.	c #817E6F",
"@n.	c #8C897B",
"#n.	c #5C5C57",
"$n.	c #657182",
"%n.	c #C5CCD4",
"&n.	c #657286",
"*n.	c #4A596D",
"=n.	c #5D6463",
"-n.	c #4D514D",
";n.	c #6F7C8E",
">n.	c #AFB6C1",
",n.	c #AEAFB2",
"'n.	c #AAABAF",
")n.	c #B2B2B6",
"!n.	c #BEBCBC",
"~n.	c #44535F",
"{n.	c #50564B",
"]n.	c #676D67",
"^n.	c #262A2D",
"/n.	c #444641",
"(n.	c #43473F",
"_n.	c #50534C",
":n.	c #656965",
"<n.	c #C1BEBF",
"[n.	c #828998",
"}n.	c #3B4343",
"|n.	c #50594C",
"1n.	c #6A7069",
"2n.	c #5E6B6B",
"3n.	c #3F4243",
"4n.	c #67635D",
"5n.	c #9B948F",
"6n.	c #C0BAB8",
"7n.	c #D8CECB",
"8n.	c #666C75",
"9n.	c #515963",
"0n.	c #5E6F7F",
"an.	c #859597",
"bn.	c #8E9186",
"cn.	c #868375",
"dn.	c #939083",
"en.	c #6B675D",
"fn.	c #7C8FA8",
"gn.	c #B7B5B3",
"hn.	c #4D514C",
"in.	c #75869D",
"jn.	c #B3B4B7",
"kn.	c #A5A6A9",
"ln.	c #A2A3A7",
"mn.	c #ADADB1",
"nn.	c #8E8E91",
"on.	c #424850",
"pn.	c #414E5B",
"qn.	c #616860",
"rn.	c #485457",
"sn.	c #323944",
"tn.	c #292D2F",
"un.	c #464843",
"vn.	c #B7B4B6",
"wn.	c #A9AFBD",
"xn.	c #4F5552",
"yn.	c #616A61",
"zn.	c #5C6B68",
"An.	c #4E5E68",
"Bn.	c #454442",
"Cn.	c #726C63",
"Dn.	c #9B948D",
"En.	c #C4BEBB",
"Fn.	c #D1C3B8",
"Gn.	c #525458",
"Hn.	c #4D5561",
"In.	c #6F8394",
"Jn.	c #8F9EA0",
"Kn.	c #919489",
"Ln.	c #878574",
"Mn.	c #918F82",
"Nn.	c #7B7463",
"On.	c #95ABC6",
"Pn.	c #A9A9AA",
"Qn.	c #4F534E",
"Rn.	c #36393C",
"Sn.	c #7889A0",
"Tn.	c #AFB5C0",
"Un.	c #B0B1B5",
"Vn.	c #AAAAAE",
"Wn.	c #B0B0B4",
"Xn.	c #A2A0A1",
"Yn.	c #687374",
"Zn.	c #666C65",
"`n.	c #4B555C",
" o.	c #2D343C",
".o.	c #2E3233",
"+o.	c #4E504A",
"@o.	c #4F544C",
"#o.	c #485055",
"$o.	c #BABECA",
"%o.	c #525A4E",
"&o.	c #5F685D",
"*o.	c #636E6A",
"=o.	c #4D5A65",
"-o.	c #5C574F",
";o.	c #736B61",
">o.	c #867D72",
",o.	c #978D81",
"'o.	c #9E958B",
")o.	c #B0A8A1",
"!o.	c #9D9389",
"~o.	c #968A7D",
"{o.	c #92877A",
"]o.	c #867B6E",
"^o.	c #5D5953",
"/o.	c #506074",
"(o.	c #697C8C",
"_o.	c #8A9CA4",
":o.	c #99A29F",
"<o.	c #939386",
"[o.	c #868472",
"}o.	c #918E81",
"|o.	c #807865",
"1o.	c #4A5058",
"2o.	c #A0B6CE",
"3o.	c #BABABB",
"4o.	c #A1A3A5",
"5o.	c #4F606E",
"6o.	c #525A55",
"7o.	c #535854",
"8o.	c #708096",
"9o.	c #AFB6C0",
"0o.	c #AFB0B4",
"ao.	c #A1A2A6",
"bo.	c #B5B1B1",
"co.	c #5B696E",
"do.	c #797D75",
"eo.	c #656B65",
"fo.	c #414A52",
"go.	c #2D302E",
"ho.	c #646760",
"io.	c #555C5D",
"jo.	c #A2A1A4",
"ko.	c #BAB9BC",
"lo.	c #505550",
"mo.	c #6A716A",
"no.	c #6E7773",
"oo.	c #3F454F",
"po.	c #445062",
"qo.	c #404D5F",
"ro.	c #30373E",
"so.	c #536170",
"to.	c #63717A",
"uo.	c #7B8C96",
"vo.	c #93A1A4",
"wo.	c #989A90",
"xo.	c #918E7F",
"yo.	c #8E8B7C",
"zo.	c #83806E",
"Ao.	c #89877A",
"Bo.	c #8F8D80",
"Co.	c #837A67",
"Do.	c #4C545C",
"Eo.	c #ABADAF",
"Fo.	c #9C9D9E",
"Go.	c #5B6D79",
"Ho.	c #3D4140",
"Io.	c #A7ADB7",
"Jo.	c #B1B1B5",
"Ko.	c #ABACB0",
"Lo.	c #BCB9B8",
"Mo.	c #626770",
"No.	c #505E66",
"Oo.	c #5C6158",
"Po.	c #50574B",
"Qo.	c #52574D",
"Ro.	c #2E333B",
"So.	c #484B48",
"To.	c #444840",
"Uo.	c #585C58",
"Vo.	c #6F7071",
"Wo.	c #BCBABF",
"Xo.	c #252B31",
"Yo.	c #4F544E",
"Zo.	c #7D7F74",
"`o.	c #4B5257",
" p.	c #84959C",
".p.	c #939890",
"+p.	c #8E938B",
"@p.	c #8D9794",
"#p.	c #889392",
"$p.	c #869290",
"%p.	c #889492",
"&p.	c #8C9794",
"*p.	c #8B928C",
"=p.	c #90958E",
"-p.	c #919387",
";p.	c #919083",
">p.	c #8F8C7D",
",p.	c #8E8C7D",
"'p.	c #8D8B7B",
")p.	c #898778",
"!p.	c #7E7B6A",
"~p.	c #858272",
"{p.	c #827966",
"]p.	c #8B8881",
"^p.	c #5B6263",
"/p.	c #4C504D",
"(p.	c #546378",
"_p.	c #9CA6B5",
":p.	c #ABABAF",
"<p.	c #BBB8B8",
"[p.	c #808389",
"}p.	c #4A5966",
"|p.	c #666A62",
"1p.	c #6F736A",
"2p.	c #5E6559",
"3p.	c #676F6F",
"4p.	c #5D5F59",
"5p.	c #272D32",
"6p.	c #545852",
"7p.	c #6F746B",
"8p.	c #828275",
"9p.	c #5F6F7D",
"0p.	c #909286",
"ap.	c #8B8978",
"bp.	c #848170",
"cp.	c #7F7661",
"dp.	c #807E79",
"ep.	c #59605F",
"fp.	c #565B56",
"gp.	c #444D55",
"hp.	c #889CB7",
"ip.	c #ACADB1",
"jp.	c #B3B3B6",
"kp.	c #A09EA0",
"lp.	c #44515D",
"mp.	c #7A817E",
"np.	c #333738",
"op.	c #343531",
"pp.	c #333635",
"qp.	c #333636",
"rp.	c #454A49",
"sp.	c #3E403A",
"tp.	c #4D5047",
"up.	c #4E5147",
"vp.	c #5A5D54",
"wp.	c #6A6E66",
"xp.	c #5B605F",
"yp.	c #595D5B",
"zp.	c #64676C",
"Ap.	c #C2C1C5",
"Bp.	c #262C31",
"Cp.	c #535852",
"Dp.	c #79796C",
"Ep.	c #6B7A80",
"Fp.	c #8B8979",
"Gp.	c #868473",
"Hp.	c #7E7562",
"Ip.	c #4B535B",
"Jp.	c #ABB0B6",
"Kp.	c #797977",
"Lp.	c #5A5F5D",
"Mp.	c #434643",
"Np.	c #A7AEB8",
"Op.	c #A8AAAD",
"Pp.	c #AFAFB3",
"Qp.	c #B8B3B2",
"Rp.	c #515552",
"Sp.	c #70736B",
"Tp.	c #5C5F56",
"Up.	c #54564C",
"Vp.	c #53564C",
"Wp.	c #42443B",
"Xp.	c #40423A",
"Yp.	c #474C4C",
"Zp.	c #353734",
"`p.	c #343633",
" q.	c #333532",
".q.	c #677A8B",
"+q.	c #677887",
"@q.	c #647687",
"#q.	c #617384",
"$q.	c #576776",
"%q.	c #4C5A68",
"&q.	c #414D59",
"*q.	c #333B47",
"=q.	c #2E3337",
"-q.	c #2B2F31",
";q.	c #383B3B",
">q.	c #4A4C46",
",q.	c #585A52",
"'q.	c #5D5E55",
")q.	c #7C7F77",
"!q.	c #727166",
"~q.	c #656762",
"{q.	c #545856",
"]q.	c #BBB9BE",
"^q.	c #4B4F4A",
"/q.	c #6A7065",
"(q.	c #73786F",
"_q.	c #6D6D61",
":q.	c #758282",
"<q.	c #858371",
"[q.	c #817F71",
"}q.	c #8B897C",
"|q.	c #8F8C80",
"1q.	c #7A7260",
"2q.	c #A8ACB1",
"3q.	c #777877",
"4q.	c #5C6567",
"5q.	c #565B57",
"6q.	c #95A4B7",
"7q.	c #B8B8BB",
"8q.	c #8F887F",
"9q.	c #343B42",
"0q.	c #373F46",
"aq.	c #48586A",
"bq.	c #536476",
"cq.	c #586979",
"dq.	c #5F7181",
"eq.	c #637688",
"fq.	c #647788",
"gq.	c #677A8C",
"hq.	c #9EA6A0",
"iq.	c #9DA49E",
"jq.	c #99A09A",
"kq.	c #949B95",
"lq.	c #959C96",
"mq.	c #98A2A1",
"nq.	c #96A5A8",
"oq.	c #8C9BA0",
"pq.	c #788894",
"qq.	c #566576",
"rq.	c #313434",
"sq.	c #3D3F3C",
"tq.	c #51534B",
"uq.	c #4E5649",
"vq.	c #777A72",
"wq.	c #82837A",
"xq.	c #51524E",
"yq.	c #48505D",
"zq.	c #525654",
"Aq.	c #71736E",
"Bq.	c #5B5F5D",
"Cq.	c #616468",
"Dq.	c #BAB8BD",
"Eq.	c #565D52",
"Fq.	c #70766B",
"Gq.	c #7B7F74",
"Hq.	c #888574",
"Iq.	c #8E8C7B",
"Jq.	c #726B59",
"Kq.	c #767571",
"Lq.	c #A9AFBA",
"Mq.	c #B6B7BA",
"Nq.	c #ADABAA",
"Oq.	c #6E6B67",
"Pq.	c #556678",
"Qq.	c #697E92",
"Rq.	c #72838F",
"Sq.	c #7F919D",
"Tq.	c #8D9DA3",
"Uq.	c #98A8AC",
"Vq.	c #9BA6A5",
"Wq.	c #969D97",
"Xq.	c #949C96",
"Yq.	c #989F99",
"Zq.	c #9CA69E",
"`q.	c #9CA59E",
" r.	c #9BA29C",
".r.	c #959D97",
"+r.	c #929A93",
"@r.	c #939A94",
"#r.	c #949C95",
"$r.	c #9EA49F",
"%r.	c #9AA6AC",
"&r.	c #2F343B",
"*r.	c #282B2C",
"=r.	c #363834",
"-r.	c #636155",
";r.	c #3C4143",
">r.	c #777973",
",r.	c #41463E",
"'r.	c #575B59",
")r.	c #686B6F",
"!r.	c #2E322E",
"~r.	c #61685D",
"{r.	c #656C60",
"]r.	c #60685B",
"^r.	c #555D51",
"/r.	c #72786D",
"(r.	c #7E8075",
"_r.	c #525552",
":r.	c #49535E",
"<r.	c #83887F",
"[r.	c #8C8A79",
"}r.	c #8B8775",
"|r.	c #615F54",
"1r.	c #82817D",
"2r.	c #5C6364",
"3r.	c #3C3F3F",
"4r.	c #3A4555",
"5r.	c #8EA1BA",
"6r.	c #605F5D",
"7r.	c #5B6E81",
"8r.	c #758C9D",
"9r.	c #8FA4B1",
"0r.	c #9FAFB6",
"ar.	c #A1ABAB",
"br.	c #9AA09B",
"cr.	c #939B95",
"dr.	c #99A19B",
"er.	c #99A49B",
"fr.	c #99A29B",
"gr.	c #919993",
"hr.	c #929993",
"ir.	c #919892",
"jr.	c #A4AAA5",
"kr.	c #959891",
"lr.	c #90A8C8",
"mr.	c #B4C3D8",
"nr.	c #B8C6DA",
"or.	c #A2AEC0",
"pr.	c #828FA2",
"qr.	c #2A3036",
"rr.	c #2F3233",
"sr.	c #41433B",
"tr.	c #747870",
"ur.	c #6F6C5F",
"vr.	c #434749",
"wr.	c #646661",
"xr.	c #565A57",
"yr.	c #707377",
"zr.	c #B9BAC4",
"Ar.	c #2B302F",
"Br.	c #575E53",
"Cr.	c #757B70",
"Dr.	c #7D7E71",
"Er.	c #505D67",
"Fr.	c #7F7C6B",
"Gr.	c #807966",
"Hr.	c #514F48",
"Ir.	c #A7BCD4",
"Jr.	c #8F8D88",
"Kr.	c #595E5B",
"Lr.	c #555A56",
"Mr.	c #9DA3AC",
"Nr.	c #A09E9E",
"Or.	c #797671",
"Pr.	c #32373E",
"Qr.	c #526273",
"Rr.	c #728696",
"Sr.	c #97AEB9",
"Tr.	c #A6B3B2",
"Ur.	c #A5ADA6",
"Vr.	c #919992",
"Wr.	c #969E97",
"Xr.	c #99A19A",
"Yr.	c #98A09A",
"Zr.	c #969E98",
"`r.	c #97A099",
" s.	c #909891",
".s.	c #8D958F",
"+s.	c #8F9790",
"@s.	c #8D968F",
"#s.	c #8D958E",
"$s.	c #87887F",
"%s.	c #8197B4",
"&s.	c #CCCED4",
"*s.	c #C5C3C5",
"=s.	c #C3C9D5",
"-s.	c #9CA6B6",
";s.	c #2B2E2D",
">s.	c #6E726A",
",s.	c #787970",
"'s.	c #505049",
")s.	c #566270",
"!s.	c #565B5D",
"~s.	c #71746E",
"{s.	c #A09FA2",
"]s.	c #A8ACB7",
"^s.	c #2F363C",
"/s.	c #7B7A6B",
"(s.	c #888A7E",
"_s.	c #83816E",
":s.	c #8A8675",
"<s.	c #6D6654",
"[s.	c #4D5965",
"}s.	c #98AEC6",
"|s.	c #A2A2A1",
"1s.	c #596060",
"2s.	c #4D514E",
"3s.	c #627185",
"4s.	c #7C7873",
"5s.	c #474644",
"6s.	c #5E7285",
"7s.	c #7E909C",
"8s.	c #99AAAE",
"9s.	c #9FA6A0",
"0s.	c #9FA9A1",
"as.	c #9BA39D",
"bs.	c #909791",
"cs.	c #959D96",
"ds.	c #939B94",
"es.	c #8B938C",
"fs.	c #8B938D",
"gs.	c #8B948D",
"hs.	c #8E9790",
"is.	c #9DA39E",
"js.	c #A4A69D",
"ks.	c #757774",
"ls.	c #9EB3CE",
"ms.	c #C2C4CA",
"ns.	c #A2ACBB",
"os.	c #687588",
"ps.	c #292D31",
"qs.	c #4B4E45",
"rs.	c #6D695B",
"ss.	c #525B68",
"ts.	c #515C6D",
"us.	c #3F4342",
"vs.	c #565A56",
"ws.	c #333943",
"xs.	c #B5B3B6",
"ys.	c #848B98",
"zs.	c #414D5F",
"As.	c #3C4857",
"Bs.	c #2F3332",
"Cs.	c #53564E",
"Ds.	c #82867D",
"Es.	c #727266",
"Fs.	c #6C7A7F",
"Gs.	c #7E7C68",
"Hs.	c #7C7561",
"Is.	c #4D4A40",
"Js.	c #7994A9",
"Ks.	c #555F69",
"Ls.	c #7B8FA9",
"Ms.	c #5C6261",
"Ns.	c #91A6C0",
"Os.	c #ACACB0",
"Ps.	c #8E8C89",
"Qs.	c #595958",
"Rs.	c #384251",
"Ss.	c #576A7C",
"Ts.	c #81949F",
"Us.	c #97A2A1",
"Vs.	c #9BA59D",
"Ws.	c #8C948E",
"Xs.	c #8C948D",
"Ys.	c #8A938C",
"Zs.	c #A3A499",
"`s.	c #606566",
" t.	c #AFC2DB",
".t.	c #BCBBBD",
"+t.	c #BDBCBE",
"@t.	c #C7C9D0",
"#t.	c #282B2B",
"$t.	c #43453D",
"%t.	c #787566",
"&t.	c #464947",
"*t.	c #5F6E83",
"=t.	c #535C69",
"-t.	c #546175",
";t.	c #575D5D",
">t.	c #B2B0B2",
",t.	c #656C77",
"'t.	c #363933",
")t.	c #7D8076",
"!t.	c #63645D",
"~t.	c #8A8778",
"{t.	c #878474",
"]t.	c #898677",
"^t.	c #858170",
"/t.	c #5D5645",
"(t.	c #546476",
"_t.	c #97B0BE",
":t.	c #58646E",
"<t.	c #ACACAD",
"[t.	c #596B76",
"}t.	c #585D58",
"|t.	c #999EA7",
"1t.	c #7B7873",
"2t.	c #30353D",
"3t.	c #788B98",
"4t.	c #95A1A0",
"5t.	c #979F99",
"6t.	c #98A39A",
"7t.	c #97A29A",
"8t.	c #8F9891",
"9t.	c #8A928B",
"0t.	c #89928B",
"at.	c #8C958E",
"bt.	c #9D9E94",
"ct.	c #565E66",
"dt.	c #56677F",
"et.	c #BCC6D5",
"ft.	c #C7C5C7",
"gt.	c #BBC1CB",
"ht.	c #758193",
"it.	c #272B2F",
"jt.	c #33342E",
"kt.	c #62665D",
"lt.	c #7B7D73",
"mt.	c #4D5660",
"nt.	c #666863",
"ot.	c #4C5357",
"pt.	c #BFBDBF",
"qt.	c #DDD9DD",
"rt.	c #8091A8",
"st.	c #6E7D92",
"tt.	c #757A71",
"ut.	c #7D7F73",
"vt.	c #54595B",
"wt.	c #818987",
"xt.	c #807D6C",
"yt.	c #84806F",
"zt.	c #635D4D",
"At.	c #3D3F3E",
"Bt.	c #424F5E",
"Ct.	c #7B96A8",
"Dt.	c #A3B2B3",
"Et.	c #CBD1DA",
"Ft.	c #A09F9E",
"Gt.	c #66625C",
"Ht.	c #5D7181",
"It.	c #8D9CA1",
"Jt.	c #979F98",
"Kt.	c #96A199",
"Lt.	c #96A198",
"Mt.	c #939C95",
"Nt.	c #919A93",
"Ot.	c #909992",
"Pt.	c #98978A",
"Qt.	c #C4CAD3",
"Rt.	c #C0BFC1",
"St.	c #C9CBD1",
"Tt.	c #8B95A4",
"Ut.	c #2B3035",
"Vt.	c #333733",
"Wt.	c #5B5F56",
"Xt.	c #6B6F67",
"Yt.	c #706E61",
"Zt.	c #5F7089",
"`t.	c #60625C",
" u.	c #D5D2D6",
".u.	c #525D6F",
"+u.	c #86898D",
"@u.	c #C6C5C8",
"#u.	c #C3C7D0",
"$u.	c #8592A6",
"%u.	c #4B4D45",
"&u.	c #7B7B6D",
"*u.	c #868B83",
"=u.	c #807D6D",
"-u.	c #7F7D6F",
";u.	c #848172",
">u.	c #837F6D",
",u.	c #615B4B",
"'u.	c #6A8399",
")u.	c #9CB0B6",
"!u.	c #81867D",
"~u.	c #4B596B",
"{u.	c #BDC3CC",
"]u.	c #525559",
"^u.	c #A9A9AD",
"/u.	c #9E9D9D",
"(u.	c #65625D",
"_u.	c #35383A",
":u.	c #6B7E8C",
"<u.	c #94A09F",
"[u.	c #929B94",
"}u.	c #95A098",
"|u.	c #949E96",
"1u.	c #929287",
"2u.	c #899FBB",
"3u.	c #C5C7CC",
"4u.	c #C5C4C6",
"5u.	c #9DA7B7",
"6u.	c #414750",
"7u.	c #2A2F34",
"8u.	c #393C37",
"9u.	c #737365",
"0u.	c #4C586A",
"au.	c #565E68",
"bu.	c #5C6E87",
"cu.	c #666966",
"du.	c #61635D",
"eu.	c #636760",
"fu.	c #565B65",
"gu.	c #C0BFC3",
"hu.	c #A9A7A8",
"iu.	c #D2D8E6",
"ju.	c #8491A4",
"ku.	c #3A3B33",
"lu.	c #79776A",
"mu.	c #5C6C79",
"nu.	c #7A7666",
"ou.	c #514B3C",
"pu.	c #3A3B39",
"qu.	c #3E4A5B",
"ru.	c #657C8F",
"su.	c #98B0BA",
"tu.	c #9EA9A4",
"uu.	c #90968F",
"vu.	c #5C626A",
"wu.	c #505552",
"xu.	c #6A6864",
"yu.	c #738895",
"zu.	c #959E97",
"Au.	c #939D95",
"Bu.	c #94A097",
"Cu.	c #81837C",
"Du.	c #9FB4CF",
"Eu.	c #C3C1C3",
"Fu.	c #D0D2D8",
"Gu.	c #9EA9BA",
"Hu.	c #42453F",
"Iu.	c #5D5C50",
"Ju.	c #5D6C83",
"Ku.	c #55606F",
"Lu.	c #525B65",
"Mu.	c #535756",
"Nu.	c #5F635E",
"Ou.	c #6A6F75",
"Pu.	c #B2B4BE",
"Qu.	c #C8C4C3",
"Ru.	c #CCC9C8",
"Su.	c #D8D6D8",
"Tu.	c #D5DAE5",
"Uu.	c #8A97AA",
"Vu.	c #2F312E",
"Wu.	c #727267",
"Xu.	c #697986",
"Yu.	c #908F85",
"Zu.	c #827F6F",
"`u.	c #7C7765",
" v.	c #615B4A",
".v.	c #444139",
"+v.	c #6C8495",
"@v.	c #94A8AD",
"#v.	c #9BA7A1",
"$v.	c #989D93",
"%v.	c #9BB0C8",
"&v.	c #7E7E7C",
"*v.	c #626B6B",
"=v.	c #4B4F4B",
"-v.	c #8397B0",
";v.	c #777471",
">v.	c #768C9A",
",v.	c #929C94",
"'v.	c #949F97",
")v.	c #949E97",
"!v.	c #A0A399",
"~v.	c #6E7373",
"{v.	c #B1C4DC",
"]v.	c #BBBABC",
"^v.	c #CFD1D6",
"/v.	c #959FAF",
"(v.	c #3C4859",
"_v.	c #3E403B",
":v.	c #61635A",
"<v.	c #6D6D63",
"[v.	c #6C695C",
"}v.	c #474B4C",
"|v.	c #474A49",
"1v.	c #6C6E68",
"2v.	c #BCB9BC",
"3v.	c #6E7582",
"4v.	c #C7C3C2",
"5v.	c #CAC6C5",
"6v.	c #CFCCCB",
"7v.	c #D3D0CF",
"8v.	c #D0CDCC",
"9v.	c #C1C3C9",
"0v.	c #ACB9CE",
"av.	c #6B788C",
"bv.	c #47483F",
"cv.	c #67695F",
"dv.	c #6B695B",
"ev.	c #515453",
"fv.	c #929082",
"gv.	c #8A8879",
"hv.	c #8C8A7A",
"iv.	c #878372",
"jv.	c #7B7765",
"kv.	c #5E5848",
"lv.	c #403E36",
"mv.	c #53677A",
"nv.	c #809CAC",
"ov.	c #95A5A4",
"pv.	c #959C93",
"qv.	c #979E95",
"rv.	c #9AA299",
"sv.	c #687689",
"tv.	c #454844",
"uv.	c #8C9FB8",
"vv.	c #A0A2A5",
"wv.	c #8E8C8A",
"xv.	c #6E8391",
"yv.	c #95A097",
"zv.	c #9EA59F",
"Av.	c #A2A398",
"Bv.	c #626A71",
"Cv.	c #5A697C",
"Dv.	c #BFCAD8",
"Ev.	c #CACCD2",
"Fv.	c #768294",
"Gv.	c #2F3235",
"Hv.	c #57616D",
"Iv.	c #58677C",
"Jv.	c #474C4E",
"Kv.	c #5B6161",
"Lv.	c #BEBCBE",
"Mv.	c #565C67",
"Nv.	c #6D747B",
"Ov.	c #CECAC9",
"Pv.	c #D2CECD",
"Qv.	c #D2CFCE",
"Rv.	c #D4D0CF",
"Sv.	c #C5C1C0",
"Tv.	c #BEBBBA",
"Uv.	c #C4C3C6",
"Vv.	c #CBD1DE",
"Wv.	c #A4B3CA",
"Xv.	c #69768A",
"Yv.	c #393F43",
"Zv.	c #65655B",
"`v.	c #878373",
" w.	c #7E7969",
".w.	c #716B5A",
"+w.	c #5F5949",
"@w.	c #484438",
"#w.	c #34383D",
"$w.	c #56687A",
"%w.	c #7A94A5",
"&w.	c #93A7AB",
"*w.	c #95A19B",
"=w.	c #939B91",
"-w.	c #949C93",
";w.	c #99A198",
">w.	c #B1B0AF",
",w.	c #5A676D",
"'w.	c #90A3BB",
")w.	c #A3A2A2",
"!w.	c #565758",
"~w.	c #2F3640",
"{w.	c #5E7489",
"]w.	c #93A09F",
"^w.	c #939E96",
"/w.	c #9D9D91",
"(w.	c #56606B",
"_w.	c #75889F",
":w.	c #C8CED7",
"<w.	c #BFBEC0",
"[w.	c #C3C9D6",
"}w.	c #596372",
"|w.	c #596577",
"1w.	c #5A6470",
"2w.	c #596474",
"3w.	c #556275",
"4w.	c #5E6F87",
"5w.	c #474B4B",
"6w.	c #C6C3C8",
"7w.	c #D8D5D4",
"8w.	c #D7D4D3",
"9w.	c #D4D1D0",
"0w.	c #C8C5C4",
"aw.	c #C3C0BF",
"bw.	c #BBB8B7",
"cw.	c #BFBCBB",
"dw.	c #CDCDCF",
"ew.	c #D0D6E2",
"fw.	c #B3BFD1",
"gw.	c #8B99AF",
"hw.	c #6A7A92",
"iw.	c #3A3C3B",
"jw.	c #423F33",
"kw.	c #4A4538",
"lw.	c #4E493A",
"mw.	c #5F5B4E",
"nw.	c #5F5B4D",
"ow.	c #5F5C4D",
"pw.	c #5F5C4E",
"qw.	c #514C3D",
"rw.	c #4E493B",
"sw.	c #48473F",
"tw.	c #3E3D36",
"uw.	c #393B3A",
"vw.	c #718B9F",
"ww.	c #9AAEB2",
"xw.	c #99A49F",
"yw.	c #949B92",
"zw.	c #929A91",
"Aw.	c #919990",
"Bw.	c #949C92",
"Cw.	c #979F96",
"Dw.	c #B1B7BE",
"Ew.	c #485563",
"Fw.	c #464946",
"Gw.	c #95A9C2",
"Hw.	c #726D66",
"Iw.	c #3A3E45",
"Jw.	c #8FA3AD",
"Kw.	c #949F96",
"Lw.	c #939D96",
"Mw.	c #959588",
"Nw.	c #91A8C4",
"Ow.	c #CCCED3",
"Pw.	c #D4D5DA",
"Qw.	c #A8B1C2",
"Rw.	c #5A6C86",
"Sw.	c #5B6C84",
"Tw.	c #5E6D81",
"Uw.	c #5F728C",
"Vw.	c #62738A",
"Ww.	c #434D58",
"Xw.	c #5D636D",
"Yw.	c #B7B8C3",
"Zw.	c #4A515B",
"`w.	c #DAD6D5",
" x.	c #D5D1D0",
".x.	c #CDCAC8",
"+x.	c #C2BFBE",
"@x.	c #C9C5C4",
"#x.	c #BDBAB9",
"$x.	c #CAC9CC",
"%x.	c #C7CAD2",
"&x.	c #C7D0E0",
"*x.	c #B6C7E0",
"=x.	c #7A8AA1",
"-x.	c #5F6E82",
";x.	c #73839A",
">x.	c #8494AA",
",x.	c #8EA0B9",
"'x.	c #8695AB",
")x.	c #70899C",
"!x.	c #9DA7A3",
"~x.	c #99A097",
"{x.	c #919A90",
"]x.	c #90988F",
"^x.	c #8F988E",
"/x.	c #969E95",
"(x.	c #969B90",
"_x.	c #A3B8D2",
":x.	c #454F59",
"<x.	c #97AAC2",
"[x.	c #444646",
"}x.	c #758A98",
"|x.	c #9DA9A8",
"1x.	c #8F9690",
"2x.	c #A3A8A3",
"3x.	c #8E8E84",
"4x.	c #A9BFDA",
"5x.	c #D1CFD1",
"6x.	c #CBCDD3",
"7x.	c #687D9B",
"8x.	c #687586",
"9x.	c #616F81",
"0x.	c #627085",
"ax.	c #515555",
"bx.	c #606460",
"cx.	c #A7A9B0",
"dx.	c #6C7481",
"ex.	c #636A74",
"fx.	c #D8D4D3",
"gx.	c #D6D3D2",
"hx.	c #D9D6D4",
"ix.	c #C6C3C2",
"jx.	c #C2BEBD",
"kx.	c #BCB9B7",
"lx.	c #C8CBD2",
"mx.	c #D5D9E1",
"nx.	c #C4C9D2",
"ox.	c #C2C6CF",
"px.	c #C1C5CE",
"qx.	c #CCD0D9",
"rx.	c #D4D8E0",
"sx.	c #D0CCCB",
"tx.	c #CBC9CD",
"ux.	c #727781",
"vx.	c #6F828B",
"wx.	c #979E96",
"xx.	c #929B91",
"yx.	c #8E978D",
"zx.	c #959D94",
"Ax.	c #585E5F",
"Bx.	c #5C5F62",
"Cx.	c #5F6769",
"Dx.	c #90A2B9",
"Ex.	c #77726B",
"Fx.	c #4C5C6D",
"Gx.	c #8F9A9A",
"Hx.	c #98A099",
"Ix.	c #A4A7A0",
"Jx.	c #797A73",
"Kx.	c #B8CBE3",
"Lx.	c #A7AFBC",
"Mx.	c #5D6A7E",
"Nx.	c #596679",
"Ox.	c #5E6F85",
"Px.	c #647285",
"Qx.	c #647387",
"Rx.	c #5F6A79",
"Sx.	c #636F7F",
"Tx.	c #616C7B",
"Ux.	c #696C69",
"Vx.	c #C3C0C3",
"Wx.	c #D9D5D8",
"Xx.	c #CBC7C6",
"Yx.	c #BFBCBA",
"Zx.	c #C6C3C1",
"`x.	c #C4C0BF",
" y.	c #C0BCBB",
".y.	c #CDCAC9",
"+y.	c #CBC6C4",
"@y.	c #999695",
"#y.	c #586A76",
"$y.	c #939D98",
"%y.	c #8C958B",
"&y.	c #969D94",
"*y.	c #9AA198",
"=y.	c #868B84",
"-y.	c #566880",
";y.	c #8C9EB6",
">y.	c #A2A0A0",
",y.	c #778C9B",
"'y.	c #959F97",
")y.	c #3B3F40",
"!y.	c #3D3E3B",
"~y.	c #41433E",
"{y.	c #4D4E46",
"]y.	c #60635B",
"^y.	c #696A61",
"/y.	c #5E5E54",
"(y.	c #939EAA",
"_y.	c #C0C3CB",
":y.	c #535A63",
"<y.	c #626F81",
"[y.	c #5D6A7B",
"}y.	c #6E7F98",
"|y.	c #677588",
"1y.	c #586980",
"2y.	c #686A67",
"3y.	c #555952",
"4y.	c #BCBBC2",
"5y.	c #D0CDCB",
"6y.	c #C4C1BF",
"7y.	c #BAB7B6",
"8y.	c #D7D4D2",
"9y.	c #B8B5B4",
"0y.	c #C1BEBD",
"ay.	c #B0A9A5",
"by.	c #475664",
"cy.	c #8D968C",
"dy.	c #4E5359",
"ey.	c #585F5A",
"fy.	c #8195AE",
"gy.	c #98999A",
"hy.	c #8C9CA1",
"iy.	c #9CA29C",
"jy.	c #8F948C",
"ky.	c #808379",
"ly.	c #6E6F64",
"my.	c #64665D",
"ny.	c #4F4F47",
"oy.	c #43443E",
"py.	c #424442",
"qy.	c #3F4240",
"ry.	c #AEC3E2",
"sy.	c #A8BCDA",
"ty.	c #9DAFCA",
"uy.	c #8C9DB4",
"vy.	c #8392A8",
"wy.	c #6F7F95",
"xy.	c #7A7A78",
"yy.	c #CFCED0",
"zy.	c #C9C9CA",
"Ay.	c #B1B0B2",
"By.	c #C1BFC1",
"Cy.	c #CCCCD0",
"Dy.	c #7F8A9D",
"Ey.	c #4E545C",
"Fy.	c #5B6779",
"Gy.	c #5E6E86",
"Hy.	c #637184",
"Iy.	c #626E7D",
"Jy.	c #5F6E81",
"Ky.	c #5D6E85",
"Ly.	c #656763",
"My.	c #5E625C",
"Ny.	c #8B8E94",
"Oy.	c #787E88",
"Py.	c #CCC8C7",
"Qy.	c #CFCCCA",
"Ry.	c #C2BFBD",
"Sy.	c #C9C6C5",
"Ty.	c #B7B4B3",
"Uy.	c #B9B6B5",
"Vy.	c #C1BDBC",
"Wy.	c #C0B8B1",
"Xy.	c #3B4652",
"Yy.	c #7F8E8E",
"Zy.	c #90998F",
"`y.	c #545A5D",
" z.	c #575C57",
".z.	c #6F8096",
"+z.	c #77736D",
"@z.	c #5F768C",
"#z.	c #97A3A2",
"$z.	c #81837A",
"%z.	c #696A62",
"&z.	c #4A4B45",
"*z.	c #393A36",
"=z.	c #34383B",
"-z.	c #48566B",
";z.	c #6D7F97",
">z.	c #7D90AB",
",z.	c #8998AE",
"'z.	c #8C9BAF",
")z.	c #9EAFC7",
"!z.	c #A7BCD9",
"~z.	c #ACC1E0",
"{z.	c #D1CECF",
"]z.	c #CFCCCC",
"^z.	c #CECBCB",
"/z.	c #D0CDCD",
"(z.	c #D9DEE9",
"_z.	c #D5DAE6",
":z.	c #CFDAED",
"<z.	c #B7C6DD",
"[z.	c #98A9C3",
"}z.	c #7889A2",
"|z.	c #3B3D3E",
"1z.	c #615F59",
"2z.	c #9B9895",
"3z.	c #C2C0C2",
"4z.	c #A7AEBB",
"5z.	c #647081",
"6z.	c #687384",
"7z.	c #6A798E",
"8z.	c #65748A",
"9z.	c #656863",
"0z.	c #585C59",
"az.	c #C0BEC1",
"bz.	c #DDD8DB",
"cz.	c #58606D",
"dz.	c #D5D2D1",
"ez.	c #CFCBCA",
"fz.	c #C5BDB7",
"gz.	c #585D65",
"hz.	c #6D7E84",
"iz.	c #8E968D",
"jz.	c #939A91",
"kz.	c #878D89",
"lz.	c #636363",
"mz.	c #798F9D",
"nz.	c #57574D",
"oz.	c #363E46",
"pz.	c #3E4653",
"qz.	c #6A7D96",
"rz.	c #BBCEEA",
"sz.	c #D3DBE8",
"tz.	c #D7DDEA",
"uz.	c #CECBCC",
"vz.	c #CDCACA",
"wz.	c #CBC8C8",
"xz.	c #D0CDCE",
"yz.	c #CAC7C7",
"zz.	c #D1CECE",
"Az.	c #D3D0D0",
"Bz.	c #D3D4D9",
"Cz.	c #CED4E0",
"Dz.	c #B1BED4",
"Ez.	c #808EA4",
"Fz.	c #494844",
"Gz.	c #898580",
"Hz.	c #BAB8B7",
"Iz.	c #B6BAC5",
"Jz.	c #5F738F",
"Kz.	c #627084",
"Lz.	c #66768B",
"Mz.	c #626F80",
"Nz.	c #5B697D",
"Oz.	c #5D6775",
"Pz.	c #71736D",
"Qz.	c #4E534B",
"Rz.	c #4B535A",
"Sz.	c #C6C2C1",
"Tz.	c #CBC8C6",
"Uz.	c #D3CFCE",
"Vz.	c #BEBBB9",
"Wz.	c #BBB8B6",
"Xz.	c #C8C5C3",
"Yz.	c #CDC9C8",
"Zz.	c #C6BFB9",
"`z.	c #727376",
" A.	c #5C6D76",
".A.	c #90988E",
"+A.	c #586981",
"@A.	c #A9B0B9",
"#A.	c #A5A3A3",
"$A.	c #444341",
"%A.	c #8B9EA9",
"&A.	c #95A198",
"*A.	c #96A098",
"=A.	c #989E99",
"-A.	c #92968E",
";A.	c #74756A",
">A.	c #4B4A43",
",A.	c #3E4C5F",
"'A.	c #4A596B",
")A.	c #91A6C3",
"!A.	c #D7D9DF",
"~A.	c #D2CFD0",
"{A.	c #CDCACB",
"]A.	c #CCC9C9",
"^A.	c #CAC7C8",
"/A.	c #CCCACA",
"(A.	c #C9C6C6",
"_A.	c #C8C5C5",
":A.	c #D2CFCF",
"<A.	c #CECFD3",
"[A.	c #C9D1E0",
"}A.	c #99A2B3",
"|A.	c #5F6C80",
"1A.	c #4C4B46",
"2A.	c #9E9B99",
"3A.	c #C6C4C6",
"4A.	c #CECDCF",
"5A.	c #BDBEC2",
"6A.	c #586A82",
"7A.	c #606D7E",
"8A.	c #616D7C",
"9A.	c #5D6876",
"0A.	c #575F68",
"aA.	c #606F86",
"bA.	c #5A697E",
"cA.	c #404649",
"dA.	c #3E444B",
"eA.	c #70757E",
"fA.	c #5A6068",
"gA.	c #D4D1CF",
"hA.	c #CECBCA",
"iA.	c #C6C0BC",
"jA.	c #8F8C8C",
"kA.	c #485763",
"lA.	c #929991",
"mA.	c #616B7B",
"nA.	c #444847",
"oA.	c #A7ADB8",
"pA.	c #AEB0B3",
"qA.	c #9F9E9F",
"rA.	c #44515E",
"sA.	c #8E958F",
"tA.	c #97A299",
"uA.	c #84877D",
"vA.	c #515047",
"wA.	c #4E5E73",
"xA.	c #7A90A7",
"yA.	c #97ACBD",
"zA.	c #9EACB6",
"AA.	c #A3AFB8",
"BA.	c #A5B1BA",
"CA.	c #818C98",
"DA.	c #394451",
"EA.	c #A5B3C7",
"FA.	c #D4D1D1",
"GA.	c #CBC9C9",
"HA.	c #C9C6C7",
"IA.	c #C6CAD4",
"JA.	c #9BA6BA",
"KA.	c #596475",
"LA.	c #323434",
"MA.	c #67645F",
"NA.	c #B3B2B1",
"OA.	c #D2D0D2",
"PA.	c #B5B5B6",
"QA.	c #B3B3B4",
"RA.	c #C3C2C6",
"SA.	c #677183",
"TA.	c #57667C",
"UA.	c #616B79",
"VA.	c #65768D",
"WA.	c #5F6B7C",
"XA.	c #5F6975",
"YA.	c #5F6D80",
"ZA.	c #636F80",
"`A.	c #4E565F",
" B.	c #595D5C",
".B.	c #585D5B",
"+B.	c #C9C7CB",
"@B.	c #A6A6A7",
"#B.	c #CAC7C5",
"$B.	c #B9B7B5",
"%B.	c #A7A19E",
"&B.	c #404D5B",
"*B.	c #829090",
"=B.	c #949B93",
"-B.	c #888E87",
";B.	c #B5B7BB",
">B.	c #656E73",
",B.	c #525755",
"'B.	c #ADAFB2",
")B.	c #98989A",
"!B.	c #373B40",
"~B.	c #495B6F",
"{B.	c #97A199",
"]B.	c #99A39B",
"^B.	c #8F938B",
"/B.	c #646358",
"(B.	c #424341",
"_B.	c #98A9B6",
":B.	c #9BA1A2",
"<B.	c #9DA3A4",
"[B.	c #A1A29E",
"}B.	c #C8C5C6",
"|B.	c #C8C6C6",
"1B.	c #C6C3C3",
"2B.	c #C7C5C5",
"3B.	c #C7C4C5",
"4B.	c #CECDD2",
"5B.	c #C4CAD8",
"6B.	c #7F8B9E",
"7B.	c #5D5D5C",
"8B.	c #A2A09E",
"9B.	c #B6B6B7",
"0B.	c #B5B4B6",
"aB.	c #C3C3C6",
"bB.	c #808A9B",
"cB.	c #636E7D",
"dB.	c #5D697B",
"eB.	c #596573",
"fB.	c #535C6A",
"gB.	c #696C68",
"hB.	c #51564E",
"iB.	c #5D6168",
"jB.	c #ACADB4",
"kB.	c #B6B3B2",
"lB.	c #D1CDCC",
"mB.	c #404855",
"nB.	c #748589",
"oB.	c #464A4C",
"pB.	c #8F9BAB",
"qB.	c #959493",
"rB.	c #4D5B6D",
"sB.	c #918F8D",
"tB.	c #566673",
"uB.	c #82857A",
"vB.	c #585A53",
"wB.	c #414D5B",
"xB.	c #7189A4",
"yB.	c #7E8D9A",
"zB.	c #5E7187",
"AB.	c #A0A6A7",
"BB.	c #999FA0",
"CB.	c #A0A3A1",
"DB.	c #5D646B",
"EB.	c #CACBD1",
"FB.	c #C7C4C4",
"GB.	c #CED1D9",
"HB.	c #A3ADBF",
"IB.	c #A5A3A0",
"JB.	c #D3D1D3",
"KB.	c #AAAAAB",
"LB.	c #949CA9",
"MB.	c #494F57",
"NB.	c #5A626E",
"OB.	c #5F6B7A",
"PB.	c #5A6572",
"QB.	c #62748D",
"RB.	c #616E80",
"SB.	c #535B65",
"TB.	c #767872",
"UB.	c #BCBABC",
"VB.	c #575C64",
"WB.	c #8B8F95",
"XB.	c #B5B2B1",
"YB.	c #B4B2B0",
"ZB.	c #D3D0CE",
"`B.	c #C1B9B3",
" C.	c #525860",
".C.	c #677980",
"+C.	c #657489",
"@C.	c #847E75",
"#C.	c #9CA49D",
"$C.	c #9EA8A0",
"%C.	c #4B4B41",
"&C.	c #47576C",
"*C.	c #7F96AD",
"=C.	c #A2B1BC",
"-C.	c #A7A9A6",
";C.	c #979FA0",
">C.	c #73787B",
",C.	c #C0C4CC",
"'C.	c #D5D4D9",
")C.	c #B2BBCD",
"!C.	c #4A4A48",
"~C.	c #BDBCBB",
"{C.	c #B4B4B5",
"]C.	c #B4B3B5",
"^C.	c #AFAEB0",
"/C.	c #ABABAC",
"(C.	c #AAA9AA",
"_C.	c #9DA3AE",
":C.	c #59687E",
"<C.	c #546478",
"[C.	c #5C6777",
"}C.	c #5D6878",
"|C.	c #616E7E",
"1C.	c #59677C",
"2C.	c #566579",
"3C.	c #3D444A",
"4C.	c #535A5D",
"5C.	c #BEBCC0",
"6C.	c #DEDAD8",
"7C.	c #D6D2D1",
"8C.	c #D5D2D0",
"9C.	c #CBC8C7",
"0C.	c #C3BCB7",
"aC.	c #6C6E72",
"bC.	c #566874",
"cC.	c #9A9F95",
"dC.	c #A6AFBC",
"eC.	c #B4B1B0",
"fC.	c #55616A",
"gC.	c #515F74",
"hC.	c #ABB1BB",
"iC.	c #817B73",
"jC.	c #2D3238",
"kC.	c #6A7E8B",
"lC.	c #92978F",
"mC.	c #525247",
"nC.	c #455466",
"oC.	c #839AB1",
"pC.	c #9BA6AD",
"qC.	c #9FA5A6",
"rC.	c #8F9DA8",
"sC.	c #8A8F8E",
"tC.	c #B4BCC8",
"uC.	c #D5D4D8",
"vC.	c #B2BBCB",
"wC.	c #4C5461",
"xC.	c #686765",
"yC.	c #C1BFBF",
"zC.	c #B2B2B3",
"AC.	c #AFAFB0",
"BC.	c #AEAEAF",
"CC.	c #9CA3B0",
"DC.	c #5C6A7C",
"EC.	c #555C63",
"FC.	c #546376",
"GC.	c #5A6778",
"HC.	c #696E78",
"IC.	c #BFBBBA",
"JC.	c #CECBC9",
"KC.	c #D1CECD",
"LC.	c #CCC9C7",
"MC.	c #888787",
"NC.	c #465563",
"OC.	c #929D9C",
"PC.	c #747477",
"QC.	c #575B58",
"RC.	c #94A2B6",
"SC.	c #857F77",
"TC.	c #30343A",
"UC.	c #6A7E8C",
"VC.	c #949890",
"WC.	c #676960",
"XC.	c #373C40",
"YC.	c #48586B",
"ZC.	c #849BB2",
"`C.	c #99A4AA",
" D.	c #989E9F",
".D.	c #91A2B0",
"+D.	c #9CA2A3",
"@D.	c #9B9E9B",
"#D.	c #424F60",
"$D.	c #A1AEBE",
"%D.	c #D3D2D6",
"&D.	c #A4ACBC",
"*D.	c #373B3F",
"=D.	c #797774",
"-D.	c #ADACAE",
";D.	c #9AA1AF",
">D.	c #4A5767",
",D.	c #5C6E86",
"'D.	c #555F6B",
")D.	c #5D6774",
"!D.	c #676A66",
"~D.	c #6C6F68",
"{D.	c #5C605D",
"]D.	c #C8C6CA",
"^D.	c #D0CDD0",
"/D.	c #A7A2A0",
"(D.	c #455364",
"_D.	c #7E8C8E",
":D.	c #C2BEBC",
"<D.	c #5B6568",
"[D.	c #636863",
"}D.	c #939190",
"|D.	c #6B7F8D",
"1D.	c #727063",
"2D.	c #7F94A9",
"3D.	c #9CA7AD",
"4D.	c #9AA0A1",
"5D.	c #9FA19D",
"6D.	c #9BA5AA",
"7D.	c #8D9BAE",
"8D.	c #C6C3C4",
"9D.	c #C3C4CC",
"0D.	c #B6B5B7",
"aD.	c #969EAE",
"bD.	c #4C5460",
"cD.	c #4B5663",
"dD.	c #5F6F86",
"eD.	c #494F55",
"fD.	c #757772",
"gD.	c #636870",
"hD.	c #82858C",
"iD.	c #C0BDBB",
"jD.	c #8394AC",
"kD.	c #797C81",
"lD.	c #4C545B",
"mD.	c #72849B",
"nD.	c #9A9A9C",
"oD.	c #35393F",
"pD.	c #657886",
"qD.	c #4A4B46",
"rD.	c #4A5A6E",
"sD.	c #8C99A1",
"tD.	c #999D9D",
"uD.	c #91918C",
"vD.	c #516073",
"wD.	c #8DA5BE",
"xD.	c #9BB0C2",
"yD.	c #97A0A1",
"zD.	c #9CA5A6",
"AD.	c #697076",
"BD.	c #738296",
"CD.	c #C8C9CF",
"DD.	c #C5C3C3",
"ED.	c #5E6C81",
"FD.	c #4E5456",
"GD.	c #394351",
"HD.	c #C2C1C4",
"ID.	c #D8D3D6",
"JD.	c #DFDBDA",
"KD.	c #DDDAD8",
"LD.	c #CAC7C6",
"MD.	c #C5BFBA",
"ND.	c #7F7971",
"OD.	c #4C5B71",
"PD.	c #616A6D",
"QD.	c #5F615D",
"RD.	c #74869D",
"SD.	c #BBBBBE",
"TD.	c #B1B2B5",
"UD.	c #9E9E9F",
"VD.	c #576775",
"WD.	c #979D98",
"XD.	c #6D6C5F",
"YD.	c #555C5F",
"ZD.	c #A1A7A8",
"`D.	c #9EA4A5",
" E.	c #9B9F9D",
".E.	c #6A7D8F",
"+E.	c #A2AEB5",
"@E.	c #8E9798",
"#E.	c #8A9394",
"$E.	c #9AA2A3",
"%E.	c #9FA5A5",
"&E.	c #818587",
"*E.	c #606F82",
"=E.	c #C1C5CD",
"-E.	c #C1B6AB",
";E.	c #D0CFD2",
">E.	c #6E7888",
",E.	c #5C6D86",
"'E.	c #5E7089",
")E.	c #526072",
"!E.	c #626975",
"~E.	c #9699A2",
"{E.	c #4F4C47",
"]E.	c #918B82",
"^E.	c #B8B3AB",
"/E.	c #DFDCDA",
"(E.	c #B5ADA5",
"_E.	c #BEB7AE",
":E.	c #938A7D",
"<E.	c #585652",
"[E.	c #93A6C1",
"}E.	c #696C6F",
"|E.	c #475159",
"1E.	c #6C706C",
"2E.	c #787878",
"3E.	c #AFAFB1",
"4E.	c #AEAEB2",
"5E.	c #A4A3A4",
"6E.	c #404449",
"7E.	c #485A6D",
"8E.	c #98A4A3",
"9E.	c #494942",
"0E.	c #768FA9",
"aE.	c #A0AAB1",
"bE.	c #A3A8A9",
"cE.	c #A1A6A7",
"dE.	c #50524F",
"eE.	c #8BA0B2",
"fE.	c #949796",
"gE.	c #B6BECA",
"hE.	c #CDC1B4",
"iE.	c #797775",
"jE.	c #506173",
"kE.	c #4C5B6D",
"lE.	c #5E6673",
"mE.	c #5C6A7D",
"nE.	c #5B6574",
"oE.	c #60635E",
"pE.	c #B9B7BB",
"qE.	c #D8D4D6",
"rE.	c #38404C",
"sE.	c #464541",
"tE.	c #49453D",
"uE.	c #4C483F",
"vE.	c #514C42",
"wE.	c #554F44",
"xE.	c #575046",
"yE.	c #534D43",
"zE.	c #4F4A41",
"AE.	c #4F4A42",
"BE.	c #52504D",
"CE.	c #54524E",
"DE.	c #464644",
"EE.	c #404345",
"FE.	c #516071",
"GE.	c #687E95",
"HE.	c #6E8296",
"IE.	c #D3D7DF",
"JE.	c #5E6768",
"KE.	c #545E69",
"LE.	c #909090",
"ME.	c #484848",
"NE.	c #434F5A",
"OE.	c #7F8074",
"PE.	c #3A3E42",
"QE.	c #98B1C8",
"RE.	c #A4ABAF",
"SE.	c #8E9EAE",
"TE.	c #A1A8AB",
"UE.	c #A4A9AA",
"VE.	c #98978F",
"WE.	c #444545",
"XE.	c #667D96",
"YE.	c #9EA8AD",
"ZE.	c #99A2A3",
"`E.	c #9FA29F",
" F.	c #A8B4C5",
".F.	c #D0CBC8",
"+F.	c #A49A8D",
"@F.	c #5C7181",
"#F.	c #757F80",
"$F.	c #666F6F",
"%F.	c #4A5663",
"&F.	c #CBCBCE",
"*F.	c #5B6473",
"=F.	c #5C6775",
"-F.	c #556273",
";F.	c #63655F",
">F.	c #5D6269",
",F.	c #9A9CA3",
"'F.	c #647A90",
")F.	c #8097A9",
"!F.	c #8598A2",
"~F.	c #7F919B",
"{F.	c #758998",
"]F.	c #6C8091",
"^F.	c #60717E",
"/F.	c #5A6D80",
"(F.	c #586B7D",
"_F.	c #516376",
":F.	c #4D5C6B",
"<F.	c #576879",
"[F.	c #5E7283",
"}F.	c #647785",
"|F.	c #6D8294",
"1F.	c #788E9E",
"2F.	c #8498A4",
"3F.	c #90A5AF",
"4F.	c #9AA9AD",
"5F.	c #A2ADAC",
"6F.	c #A4ABA6",
"7F.	c #5A6063",
"8F.	c #94A7C2",
"9F.	c #5F6367",
"0F.	c #4A5867",
"aF.	c #717672",
"bF.	c #6A6C6A",
"cF.	c #747575",
"dF.	c #ABABAD",
"eF.	c #6A6A6A",
"fF.	c #404C5A",
"gF.	c #95A0A0",
"hF.	c #6A6A5F",
"iF.	c #566981",
"jF.	c #A0ABB2",
"kF.	c #A2A8AA",
"lF.	c #A1A7A9",
"mF.	c #6A7178",
"nF.	c #828B90",
"oF.	c #8A8980",
"pF.	c #677E97",
"qF.	c #9DA7AC",
"rF.	c #969FA0",
"sF.	c #939C9D",
"tF.	c #5F6872",
"uF.	c #C0B5A9",
"vF.	c #55585A",
"wF.	c #4C6074",
"xF.	c #676B64",
"yF.	c #666A63",
"zF.	c #676C65",
"AF.	c #525C60",
"BF.	c #45484A",
"CF.	c #C1C2C8",
"DF.	c #5E6C7E",
"EF.	c #57606C",
"FF.	c #5C6778",
"GF.	c #6C6F6B",
"HF.	c #B8B7BB",
"IF.	c #63798C",
"JF.	c #9CA6A5",
"KF.	c #939A95",
"LF.	c #959F99",
"MF.	c #909993",
"NF.	c #969F99",
"OF.	c #8F9792",
"PF.	c #979E99",
"QF.	c #949A96",
"RF.	c #D4D8E1",
"SF.	c #5D6566",
"TF.	c #606763",
"UF.	c #737671",
"VF.	c #525455",
"WF.	c #8E8E8F",
"XF.	c #817D78",
"YF.	c #8CA0AA",
"ZF.	c #979B93",
"`F.	c #9AA0A2",
" G.	c #A0A7A8",
".G.	c #898D8D",
"+G.	c #9CA6AB",
"@G.	c #8C9596",
"#G.	c #7A8083",
"$G.	c #CCCCCE",
"%G.	c #ADA7A2",
"&G.	c #B0AAA5",
"*G.	c #B3ADA8",
"=G.	c #B8B2AC",
"-G.	c #BBB4AF",
";G.	c #CCC2B9",
">G.	c #5F7078",
",G.	c #646862",
"'G.	c #61665F",
")G.	c #595E56",
"!G.	c #515A59",
"~G.	c #34373A",
"{G.	c #A8A8A9",
"]G.	c #5C6672",
"^G.	c #5F6F87",
"/G.	c #4E5458",
"(G.	c #5C6168",
"_G.	c #94959B",
":G.	c #4F5E6E",
"<G.	c #969D98",
"[G.	c #959C97",
"}G.	c #87908A",
"|G.	c #939E97",
"1G.	c #89918C",
"2G.	c #909893",
"3G.	c #929A95",
"4G.	c #99A09B",
"5G.	c #5E676F",
"6G.	c #8FA0B7",
"7G.	c #626870",
"8G.	c #5B697C",
"9G.	c #B0B0B3",
"0G.	c #9A9B9C",
"aG.	c #7A8F9C",
"bG.	c #4A4B47",
"cG.	c #98B1C9",
"dG.	c #707880",
"eG.	c #838887",
"fG.	c #4F6178",
"gG.	c #92A7BA",
"hG.	c #9BA1A3",
"iG.	c #909391",
"jG.	c #9F9FA0",
"kG.	c #B5AFA9",
"lG.	c #B4AEA8",
"mG.	c #B2ACA6",
"nG.	c #AFA9A4",
"oG.	c #474A4D",
"pG.	c #525251",
"qG.	c #57544C",
"rG.	c #686156",
"sG.	c #938D86",
"tG.	c #B0ABA7",
"uG.	c #ACA093",
"vG.	c #516573",
"wG.	c #5E635B",
"xG.	c #5D625B",
"yG.	c #595E57",
"zG.	c #51574F",
"AG.	c #4B5249",
"BG.	c #4C5349",
"CG.	c #363C42",
"DG.	c #A2A2A3",
"EG.	c #B2B1B3",
"FG.	c #7E8591",
"GG.	c #676B67",
"HG.	c #626560",
"IG.	c #BDBCC0",
"JG.	c #8B9593",
"KG.	c #969E99",
"LG.	c #8E9892",
"MG.	c #919C94",
"NG.	c #89938C",
"OG.	c #919C95",
"PG.	c #919E96",
"QG.	c #8D9590",
"RG.	c #89908A",
"SG.	c #D0D5DD",
"TG.	c #B9B7B7",
"UG.	c #5E6767",
"VG.	c #6E716E",
"WG.	c #5F6C7F",
"XG.	c #535455",
"YG.	c #949394",
"ZG.	c #A1A0A1",
"`G.	c #5A6F83",
" H.	c #959992",
".H.	c #424649",
"+H.	c #9FAEBB",
"@H.	c #A4AAAC",
"#H.	c #676E71",
"$H.	c #677C92",
"%H.	c #A1B6C8",
"&H.	c #A1ADB4",
"*H.	c #979D9E",
"=H.	c #7F817D",
"-H.	c #747875",
";H.	c #707474",
">H.	c #565757",
",H.	c #4B4E51",
"'H.	c #3E4144",
")H.	c #DCE8FE",
"!H.	c #C0C9DB",
"~H.	c #5B697F",
"{H.	c #B3C4DE",
"]H.	c #B6C9E8",
"^H.	c #383836",
"/H.	c #4A4843",
"(H.	c #746F68",
"_H.	c #9E9892",
":H.	c #C3BFBD",
"<H.	c #C4B8AC",
"[H.	c #606162",
"}H.	c #495C6F",
"|H.	c #637173",
"1H.	c #5A5F58",
"2H.	c #4E544C",
"3H.	c #444C42",
"4H.	c #484E46",
"5H.	c #4C524A",
"6H.	c #50554E",
"7H.	c #525750",
"8H.	c #4E564E",
"9H.	c #3C4651",
"0H.	c #909192",
"aH.	c #5A6370",
"bH.	c #606F83",
"cH.	c #616C7A",
"dH.	c #5E6876",
"eH.	c #495056",
"fH.	c #68717E",
"gH.	c #818691",
"hH.	c #97A09A",
"iH.	c #8E9B92",
"jH.	c #828B85",
"kH.	c #8F9992",
"lH.	c #909C95",
"mH.	c #5E6464",
"nH.	c #696E77",
"oH.	c #4B5763",
"pH.	c #717673",
"qH.	c #52585C",
"rH.	c #59677B",
"sH.	c #7C7D7D",
"tH.	c #B2B2B5",
"uH.	c #989593",
"vH.	c #9AA49C",
"wH.	c #92958B",
"xH.	c #8D9293",
"yH.	c #A2A7A9",
"zH.	c #A3ABB1",
"AH.	c #5F676C",
"BH.	c #525B66",
"CH.	c #6B7782",
"DH.	c #96A0A1",
"EH.	c #5C6773",
"FH.	c #63686B",
"GH.	c #728299",
"HH.	c #8DA2C0",
"IH.	c #9FB0CA",
"JH.	c #BCD1F3",
"KH.	c #CDE1FF",
"LH.	c #D7EAFF",
"MH.	c #D4E0F6",
"NH.	c #D8E4FA",
"OH.	c #C2BFC2",
"PH.	c #93908F",
"QH.	c #D4D7E2",
"RH.	c #D4D5DF",
"SH.	c #666D7A",
"TH.	c #383938",
"UH.	c #55524B",
"VH.	c #938E89",
"WH.	c #BAB6B5",
"XH.	c #CDC5C0",
"YH.	c #8F877E",
"ZH.	c #47576B",
"`H.	c #61727A",
" I.	c #666B64",
".I.	c #5A5F57",
"+I.	c #424A40",
"@I.	c #424940",
"#I.	c #454B43",
"$I.	c #454C43",
"%I.	c #474E45",
"&I.	c #4A5148",
"*I.	c #4D554B",
"=I.	c #4F574E",
"-I.	c #3C464E",
";I.	c #747678",
">I.	c #C3C3C8",
",I.	c #5C6774",
"'I.	c #5E6C7F",
")I.	c #5F6464",
"!I.	c #5E615D",
"~I.	c #C6C5C9",
"{I.	c #CECBCD",
"]I.	c #848E8B",
"^I.	c #8A928D",
"/I.	c #8C928B",
"(I.	c #5C635E",
"_I.	c #6D706C",
":I.	c #555D68",
"<I.	c #51504C",
"[I.	c #595752",
"}I.	c #8E9DA3",
"|I.	c #959F98",
"1I.	c #888877",
"2I.	c #545B60",
"3I.	c #6F787C",
"4I.	c #787D7F",
"5I.	c #878C8D",
"6I.	c #454747",
"7I.	c #4D5B6E",
"8I.	c #7C8FAA",
"9I.	c #A3B7D3",
"0I.	c #CEDFFC",
"aI.	c #DAE5F9",
"bI.	c #DDE1EE",
"cI.	c #959496",
"dI.	c #A1B1C8",
"eI.	c #B3ACAA",
"fI.	c #50637A",
"gI.	c #727D84",
"hI.	c #727675",
"iI.	c #6B6E6D",
"jI.	c #60686D",
"kI.	c #4F5A65",
"lI.	c #5A5650",
"mI.	c #A8A4A1",
"nI.	c #B5A99B",
"oI.	c #4F5661",
"pI.	c #556977",
"qI.	c #666D68",
"rI.	c #5B6058",
"sI.	c #545951",
"tI.	c #3E473C",
"uI.	c #3F473D",
"vI.	c #40493E",
"wI.	c #434B40",
"xI.	c #464E44",
"yI.	c #495147",
"zI.	c #4D544B",
"AI.	c #3F494F",
"BI.	c #747779",
"CI.	c #A7AAB1",
"DI.	c #5D6C82",
"EI.	c #5E6D82",
"FI.	c #606A77",
"GI.	c #4C4F48",
"HI.	c #6E757F",
"II.	c #6A707A",
"JI.	c #646E73",
"KI.	c #89918B",
"LI.	c #909A93",
"MI.	c #8E9C93",
"NI.	c #8B958E",
"OI.	c #88908B",
"PI.	c #696F6D",
"QI.	c #636D7A",
"RI.	c #78797A",
"SI.	c #767A77",
"TI.	c #566172",
"UI.	c #7C91A0",
"VI.	c #41464A",
"WI.	c #6B7F94",
"XI.	c #8C9FB1",
"YI.	c #9FB0BE",
"ZI.	c #99A9B5",
"`I.	c #9CABB7",
" J.	c #91A0AF",
".J.	c #77889B",
"+J.	c #667585",
"@J.	c #5B6C80",
"#J.	c #3F4447",
"$J.	c #5E6365",
"%J.	c #616E7C",
"&J.	c #9BABB7",
"*J.	c #97A7B3",
"=J.	c #717D89",
"-J.	c #4A5054",
";J.	c #808685",
">J.	c #858884",
",J.	c #585750",
"'J.	c #A1B6D5",
")J.	c #DEF1FF",
"!J.	c #E8EDFB",
"~J.	c #CFC9C7",
"{J.	c #B9BCC4",
"]J.	c #D4CECD",
"^J.	c #9F9894",
"/J.	c #62707C",
"(J.	c #7B7B76",
"_J.	c #686B68",
":J.	c #626A6E",
"<J.	c #4F4F4C",
"[J.	c #989490",
"}J.	c #C9BDB1",
"|J.	c #6B6864",
"1J.	c #4D5F70",
"2J.	c #626E70",
"3J.	c #61655E",
"4J.	c #5C615A",
"5J.	c #555B53",
"6J.	c #40483E",
"7J.	c #3D463B",
"8J.	c #3E463C",
"9J.	c #3E463B",
"0J.	c #424B40",
"aJ.	c #454E43",
"bJ.	c #4D544A",
"cJ.	c #3D464C",
"dJ.	c #949597",
"eJ.	c #686F7B",
"fJ.	c #5A687B",
"gJ.	c #59626F",
"hJ.	c #676D6E",
"iJ.	c #8C9990",
"jJ.	c #A7B0BD",
"kJ.	c #596264",
"lJ.	c #676A67",
"mJ.	c #596D84",
"nJ.	c #475361",
"oJ.	c #617893",
"pJ.	c #9EACB7",
"qJ.	c #A0A8AC",
"rJ.	c #A5B4BF",
"sJ.	c #A4B1BA",
"tJ.	c #747E86",
"uJ.	c #828E96",
"vJ.	c #6A757E",
"wJ.	c #838988",
"xJ.	c #8F9593",
"yJ.	c #777872",
"zJ.	c #4A4A45",
"AJ.	c #95AAC8",
"BJ.	c #BBC9E0",
"CJ.	c #BEBBBD",
"DJ.	c #D2CBC7",
"EJ.	c #B5C6DE",
"FJ.	c #9D9EA5",
"GJ.	c #767C84",
"HJ.	c #D4CBC8",
"IJ.	c #818081",
"JJ.	c #717D87",
"KJ.	c #787873",
"LJ.	c #73736D",
"MJ.	c #6A6B65",
"NJ.	c #64645F",
"OJ.	c #515C68",
"PJ.	c #CDC7C5",
"QJ.	c #A0968B",
"RJ.	c #5D6E74",
"SJ.	c #62665F",
"TJ.	c #565C54",
"UJ.	c #525850",
"VJ.	c #464C43",
"WJ.	c #3F463D",
"XJ.	c #454D43",
"YJ.	c #495146",
"ZJ.	c #4C544A",
"`J.	c #949AA5",
" K.	c #525761",
".K.	c #818782",
"+K.	c #8D8C8D",
"@K.	c #607089",
"#K.	c #57657A",
"$K.	c #99A4A5",
"%K.	c #474E54",
"&K.	c #617996",
"*K.	c #9DA7AE",
"=K.	c #9EA5A6",
"-K.	c #53616E",
";K.	c #777F84",
">K.	c #575D5F",
",K.	c #63758F",
"'K.	c #BED6F8",
")K.	c #E8EEFC",
"!K.	c #BFBCBE",
"~K.	c #616A78",
"{K.	c #89898B",
"]K.	c #69788E",
"^K.	c #C1C4CE",
"/K.	c #D5CFD0",
"(K.	c #C5C3C6",
"_K.	c #D3C9C3",
":K.	c #6B6F77",
"<K.	c #7A7A75",
"[K.	c #777771",
"}K.	c #74746E",
"|K.	c #70706A",
"1K.	c #56616B",
"2K.	c #474949",
"3K.	c #95918E",
"4K.	c #C7C2BF",
"5K.	c #B7AA9C",
"6K.	c #595F67",
"7K.	c #5A6E7C",
"8K.	c #5E635C",
"9K.	c #535951",
"0K.	c #4B5149",
"aK.	c #3D463A",
"bK.	c #3D453B",
"cK.	c #3F463C",
"dK.	c #40463E",
"eK.	c #40473E",
"fK.	c #42493F",
"gK.	c #434A41",
"hK.	c #464D43",
"iK.	c #4B5148",
"jK.	c #4F554D",
"kK.	c #515750",
"lK.	c #AAADB5",
"mK.	c #59616D",
"nK.	c #56606C",
"oK.	c #636869",
"pK.	c #545959",
"qK.	c #A2A3AA",
"rK.	c #45515D",
"sK.	c #939B96",
"tK.	c #8A968E",
"uK.	c #979F9A",
"vK.	c #4D5151",
"wK.	c #8C96A4",
"xK.	c #505C65",
"yK.	c #8197A8",
"zK.	c #9EA39E",
"AK.	c #5C6D83",
"BK.	c #9FA9B0",
"CK.	c #828687",
"DK.	c #69747E",
"EK.	c #81837B",
"FK.	c #687991",
"GK.	c #C8DAF6",
"HK.	c #DDDDE4",
"IK.	c #AFB6C7",
"JK.	c #5B626D",
"KK.	c #DCD5D2",
"LK.	c #ACA39A",
"MK.	c #8C847B",
"NK.	c #887F76",
"OK.	c #B7B2B0",
"PK.	c #DBD5D3",
"QK.	c #6B6763",
"RK.	c #D8E4F9",
"SK.	c #B9B7BC",
"TK.	c #606774",
"UK.	c #C2B7AF",
"VK.	c #605F59",
"WK.	c #575E65",
"XK.	c #71726E",
"YK.	c #686F74",
"ZK.	c #565655",
"`K.	c #515355",
" L.	c #536677",
".L.	c #535851",
"+L.	c #4D524B",
"@L.	c #494F47",
"#L.	c #41483F",
"$L.	c #3D453A",
"%L.	c #424840",
"&L.	c #444A41",
"*L.	c #434941",
"=L.	c #444B42",
"-L.	c #545952",
";L.	c #545A53",
">L.	c #5D626B",
",L.	c #58606B",
"'L.	c #59697E",
")L.	c #545C67",
"!L.	c #C1C0C5",
"~L.	c #8A938D",
"{L.	c #8D9A91",
"]L.	c #888F89",
"^L.	c #BCC0C7",
"/L.	c #A5A4A4",
"(L.	c #4C5155",
"_L.	c #57677D",
":L.	c #586678",
"<L.	c #58697D",
"[L.	c #A5AFAF",
"}L.	c #4E514F",
"|L.	c #A4AFB6",
"1L.	c #A6ABAC",
"2L.	c #9EA09D",
"3L.	c #9A9E9D",
"4L.	c #9B9E9C",
"5L.	c #979B98",
"6L.	c #8D8E89",
"7L.	c #878882",
"8L.	c #888983",
"9L.	c #7C7D77",
"0L.	c #80827D",
"aL.	c #8B8B85",
"bL.	c #65645C",
"cL.	c #97A2A8",
"dL.	c #8F928D",
"eL.	c #595952",
"fL.	c #393E43",
"gL.	c #63748D",
"hL.	c #C1D3EF",
"iL.	c #D1D2D9",
"jL.	c #ECE7E8",
"kL.	c #EAE5E6",
"lL.	c #E4DFE1",
"mL.	c #CACCD9",
"nL.	c #455366",
"oL.	c #5A5855",
"pL.	c #435165",
"qL.	c #4B5A70",
"rL.	c #8FA1BD",
"sL.	c #B6B6BB",
"tL.	c #535961",
"uL.	c #596A7F",
"vL.	c #636D76",
"wL.	c #6A7172",
"xL.	c #565D61",
"yL.	c #515B64",
"zL.	c #52514B",
"AL.	c #6C6D69",
"BL.	c #70706B",
"CL.	c #646D75",
"DL.	c #575C55",
"EL.	c #444A42",
"FL.	c #494F46",
"GL.	c #474D45",
"HL.	c #4D534B",
"IL.	c #585E59",
"JL.	c #4E565D",
"KL.	c #C7C6CA",
"LL.	c #5D6D84",
"ML.	c #627186",
"NL.	c #5D6D83",
"OL.	c #626868",
"PL.	c #42463E",
"QL.	c #68707C",
"RL.	c #777B83",
"SL.	c #616B71",
"TL.	c #909C94",
"UL.	c #676D6C",
"VL.	c #686A6E",
"WL.	c #626865",
"XL.	c #6B6E6A",
"YL.	c #4C5666",
"ZL.	c #525E71",
"`L.	c #97AAB7",
" M.	c #9FA5A0",
".M.	c #62635B",
"+M.	c #A3B2BF",
"@M.	c #A5A8A8",
"#M.	c #97958D",
"$M.	c #4A4F51",
"%M.	c #4F5251",
"&M.	c #4B5056",
"*M.	c #959A98",
"=M.	c #706F67",
"-M.	c #3B3E3F",
";M.	c #C0D9FC",
">M.	c #E0E0E8",
",M.	c #EBE6E8",
"'M.	c #F0EBED",
")M.	c #E4E0E1",
"!M.	c #798CA6",
"~M.	c #9FADC4",
"{M.	c #BDCEE8",
"]M.	c #E8E8F0",
"^M.	c #8C8B8F",
"/M.	c #687177",
"(M.	c #4C555E",
"_M.	c #676965",
":M.	c #53595A",
"<M.	c #3E484E",
"[M.	c #5E625D",
"}M.	c #4A4F48",
"|M.	c #454B42",
"1M.	c #555A52",
"2M.	c #696E74",
"3M.	c #8A8F9B",
"4M.	c #5E6E85",
"5M.	c #5F6976",
"6M.	c #586370",
"7M.	c #555E69",
"8M.	c #5A5E5A",
"9M.	c #BFBCBF",
"0M.	c #909D94",
"aM.	c #929F96",
"bM.	c #9FA7B3",
"cM.	c #566166",
"dM.	c #6A8299",
"eM.	c #A1A6A1",
"fM.	c #98A19A",
"gM.	c #9BA19C",
"hM.	c #76756B",
"iM.	c #7C8FA1",
"jM.	c #6F6C63",
"kM.	c #718399",
"lM.	c #74869A",
"mM.	c #67778B",
"nM.	c #62748A",
"oM.	c #607286",
"pM.	c #8393A0",
"qM.	c #91948F",
"rM.	c #52524C",
"sM.	c #95ABCA",
"tM.	c #E9F5FF",
"uM.	c #E9E4E6",
"vM.	c #EEE9EB",
"wM.	c #E5E5EC",
"xM.	c #DEDADD",
"yM.	c #D6D3D8",
"zM.	c #AABFDF",
"AM.	c #D3E4FF",
"BM.	c #E5E4EA",
"CM.	c #E2D9D6",
"DM.	c #939090",
"EM.	c #5A6978",
"FM.	c #61625B",
"GM.	c #62635D",
"HM.	c #6B6D69",
"IM.	c #626769",
"JM.	c #41474C",
"KM.	c #3A3F3D",
"LM.	c #565B54",
"MM.	c #444D42",
"NM.	c #414A3F",
"OM.	c #3F483D",
"PM.	c #464C44",
"QM.	c #474D44",
"RM.	c #4A5048",
"SM.	c #484F46",
"TM.	c #4E544B",
"UM.	c #52574F",
"VM.	c #585D56",
"WM.	c #515958",
"XM.	c #8D9095",
"YM.	c #CCCACD",
"ZM.	c #657386",
"`M.	c #A1A4AB",
" N.	c #778283",
".N.	c #909D95",
"+N.	c #929E96",
"@N.	c #7E837D",
"#N.	c #B7B5B6",
"$N.	c #8E8D8E",
"%N.	c #6F7370",
"&N.	c #59667A",
"*N.	c #5A6980",
"=N.	c #A1ABAC",
"-N.	c #6D8098",
";N.	c #91A2B6",
">N.	c #ABBED2",
",N.	c #B3C0CC",
"'N.	c #B2C2D2",
")N.	c #A7B9CC",
"!N.	c #ABBED1",
"~N.	c #B4C2CF",
"{N.	c #B3BABF",
"]N.	c #ABAEAE",
"^N.	c #A2A29E",
"/N.	c #A1A4A3",
"(N.	c #999C9C",
"_N.	c #6D6C66",
":N.	c #5D6874",
"<N.	c #7B7A71",
"[N.	c #C9DCF9",
"}N.	c #E0E0E7",
"|N.	c #E2DEE1",
"1N.	c #DDE0ED",
"2N.	c #EBE6E7",
"3N.	c #E8DFDB",
"4N.	c #7F7F82",
"5N.	c #6E7474",
"6N.	c #5B5C55",
"7N.	c #5B5B55",
"8N.	c #61615A",
"9N.	c #525B63",
"0N.	c #646A6A",
"aN.	c #636969",
"bN.	c #686D6C",
"cN.	c #272D2A",
"dN.	c #485046",
"eN.	c #454D42",
"fN.	c #4C5249",
"gN.	c #50564D",
"hN.	c #535850",
"iN.	c #595F57",
"jN.	c #485054",
"kN.	c #9EA0A8",
"lN.	c #58606A",
"mN.	c #5E6979",
"nN.	c #58626D",
"oN.	c #5B6572",
"pN.	c #4A5154",
"qN.	c #8A8B91",
"rN.	c #555F67",
"sN.	c #88908A",
"tN.	c #929F97",
"uN.	c #93A097",
"vN.	c #94A098",
"wN.	c #768393",
"xN.	c #535657",
"yN.	c #4E555D",
"zN.	c #7D92A2",
"AN.	c #484C4F",
"BN.	c #5E728C",
"CN.	c #9EB1C5",
"DN.	c #AFB4B6",
"EN.	c #8E8B81",
"FN.	c #575C61",
"GN.	c #52585D",
"HN.	c #6C6B63",
"IN.	c #8F8D85",
"JN.	c #7F7C71",
"KN.	c #5B5D5D",
"LN.	c #424648",
"MN.	c #7E8892",
"NN.	c #656359",
"ON.	c #8297B6",
"PN.	c #DDE8FC",
"QN.	c #929AA8",
"RN.	c #EDE8E9",
"SN.	c #EADFD8",
"TN.	c #737D83",
"UN.	c #575751",
"VN.	c #5A5B55",
"WN.	c #5D5E57",
"XN.	c #595A57",
"YN.	c #5D5D57",
"ZN.	c #545C62",
"`N.	c #292D2D",
" O.	c #484E45",
".O.	c #52584F",
"+O.	c #555B52",
"@O.	c #535950",
"#O.	c #565B53",
"$O.	c #61665E",
"%O.	c #525A66",
"&O.	c #617086",
"*O.	c #5D6B7E",
"=O.	c #657283",
"-O.	c #646F7E",
";O.	c #627289",
">O.	c #586575",
",O.	c #696C65",
"'O.	c #CACACF",
")O.	c #CCC8CB",
"!O.	c #8E9590",
"~O.	c #949E98",
"{O.	c #959E98",
"]O.	c #98A49C",
"^O.	c #99A49D",
"/O.	c #989F9A",
"(O.	c #B9BDC4",
"_O.	c #646965",
":O.	c #6F736E",
"<O.	c #9CA29D",
"[O.	c #5E605B",
"}O.	c #839CBA",
"|O.	c #8FA6C1",
"1O.	c #98AFCA",
"2O.	c #AEC2D7",
"3O.	c #B0B7BD",
"4O.	c #A6A7A3",
"5O.	c #506076",
"6O.	c #8E9AA6",
"7O.	c #A2A5A3",
"8O.	c #5E605C",
"9O.	c #B6CFF3",
"0O.	c #E2E3EA",
"aO.	c #4A4F56",
"bO.	c #ECE7E9",
"cO.	c #E2D3C6",
"dO.	c #6E706F",
"eO.	c #5B5C56",
"fO.	c #565650",
"gO.	c #585953",
"hO.	c #272C2E",
"iO.	c #575C54",
"jO.	c #545A52",
"kO.	c #747A81",
"lO.	c #C4C2C4",
"mO.	c #A6A7AC",
"nO.	c #616D7D",
"oO.	c #4C535E",
"pO.	c #575E63",
"qO.	c #878C94",
"rO.	c #535B69",
"sO.	c #747F81",
"tO.	c #8F9691",
"uO.	c #9AA59D",
"vO.	c #9AA39D",
"wO.	c #9EA8A1",
"xO.	c #9FA9A2",
"yO.	c #A0A9A3",
"zO.	c #808581",
"AO.	c #45515F",
"BO.	c #848485",
"CO.	c #5C6060",
"DO.	c #8599A9",
"EO.	c #A0A5A0",
"FO.	c #949B96",
"GO.	c #7F7E73",
"HO.	c #506073",
"IO.	c #ADBAC5",
"JO.	c #B0B4B5",
"KO.	c #AEB1B3",
"LO.	c #A1A19D",
"MO.	c #78766E",
"NO.	c #4B5A6F",
"OO.	c #5B6D83",
"PO.	c #7187A1",
"QO.	c #A6BCD2",
"RO.	c #9CA3A6",
"SO.	c #CDE0FC",
"TO.	c #A59B91",
"UO.	c #616769",
"VO.	c #686863",
"WO.	c #51524B",
"XO.	c #52544C",
"YO.	c #54554E",
"ZO.	c #5C5C56",
"`O.	c #555B5C",
" P.	c #595953",
".P.	c #52534D",
"+P.	c #292F33",
"@P.	c #3D413C",
"#P.	c #50564E",
"$P.	c #4D534A",
"%P.	c #575D54",
"&P.	c #636860",
"*P.	c #4D5456",
"=P.	c #61738C",
"-P.	c #586472",
";P.	c #62748C",
">P.	c #5F6D7F",
",P.	c #505657",
"'P.	c #92939A",
")P.	c #3B4249",
"!P.	c #3A4146",
"~P.	c #383D3F",
"{P.	c #3A3D3B",
"]P.	c #3C3E3A",
"^P.	c #414645",
"/P.	c #424544",
"(P.	c #424646",
"_P.	c #404341",
":P.	c #87909E",
"<P.	c #4C4F52",
"[P.	c #4A555B",
"}P.	c #4E5D73",
"|P.	c #4D5864",
"1P.	c #A3ADAE",
"2P.	c #536273",
"3P.	c #979D9F",
"4P.	c #A1A099",
"5P.	c #7A776D",
"6P.	c #617183",
"7P.	c #96AFC9",
"8P.	c #A9B7C3",
"9P.	c #A9B3BB",
"0P.	c #A2B2C0",
"aP.	c #8192A3",
"bP.	c #8296AC",
"cP.	c #9BB1C9",
"dP.	c #9BB2CB",
"eP.	c #AEC1D4",
"fP.	c #AEB5B9",
"gP.	c #E2F4FF",
"hP.	c #7E7E82",
"iP.	c #606A78",
"jP.	c #7F8185",
"kP.	c #B3A99F",
"lP.	c #8A9CB7",
"mP.	c #555D66",
"nP.	c #556067",
"oP.	c #50524B",
"pP.	c #54554F",
"qP.	c #626461",
"rP.	c #2B3239",
"sP.	c #404540",
"tP.	c #555A53",
"uP.	c #575D55",
"vP.	c #545A51",
"wP.	c #585E56",
"xP.	c #5C6159",
"yP.	c #5D625A",
"zP.	c #A6A6AC",
"AP.	c #5E6C80",
"BP.	c #535E6B",
"CP.	c #656B6C",
"DP.	c #6B6E68",
"EP.	c #CDCCD1",
"FP.	c #5E6C79",
"GP.	c #59646B",
"HP.	c #586976",
"IP.	c #51606E",
"JP.	c #4E5C68",
"KP.	c #495764",
"LP.	c #C2CCDA",
"MP.	c #5D6565",
"NP.	c #7F92A0",
"OP.	c #505F72",
"PP.	c #90A7BE",
"QP.	c #A2ADB4",
"RP.	c #A8ADAE",
"SP.	c #ABB0B1",
"TP.	c #727575",
"UP.	c #667891",
"VP.	c #EAFCFF",
"WP.	c #EBE7E8",
"XP.	c #BEB6B0",
"YP.	c #878481",
"ZP.	c #918C88",
"`P.	c #B9B1AD",
" Q.	c #D2D0D6",
".Q.	c #A8A9AF",
"+Q.	c #DFD7D5",
"@Q.	c #999593",
"#Q.	c #4B5C70",
"$Q.	c #636668",
"%Q.	c #646F77",
"&Q.	c #5A5A54",
"*Q.	c #545B5C",
"=Q.	c #4E4F48",
"-Q.	c #4F5149",
";Q.	c #51534C",
">Q.	c #575852",
",Q.	c #696B67",
"'Q.	c #282E33",
")Q.	c #414641",
"!Q.	c #5B615C",
"~Q.	c #81888F",
"{Q.	c #536074",
"]Q.	c #8B919C",
"^Q.	c #586163",
"/Q.	c #6C726E",
"(Q.	c #6E7470",
"_Q.	c #6D736F",
":Q.	c #6B716D",
"<Q.	c #737B7A",
"[Q.	c #646D70",
"}Q.	c #818B8F",
"|Q.	c #8F8F92",
"1Q.	c #3B4755",
"2Q.	c #4E5457",
"3Q.	c #505864",
"4Q.	c #4B5866",
"5Q.	c #4F5B6D",
"6Q.	c #7E97B4",
"7Q.	c #ACBFD1",
"8Q.	c #949B9B",
"9Q.	c #6D6E6A",
"0Q.	c #6B7D96",
"aQ.	c #E6F7FF",
"bQ.	c #C1B6AD",
"cQ.	c #999797",
"dQ.	c #C9C0BA",
"eQ.	c #827F7E",
"fQ.	c #444E5E",
"gQ.	c #BFC3CD",
"hQ.	c #B1B0B4",
"iQ.	c #C4C1C2",
"jQ.	c #867C70",
"kQ.	c #8C8276",
"lQ.	c #90867A",
"mQ.	c #959390",
"nQ.	c #53585F",
"oQ.	c #575858",
"pQ.	c #727572",
"qQ.	c #4C4D46",
"rQ.	c #505149",
"sQ.	c #4E5048",
"tQ.	c #6A6B68",
"uQ.	c #282F35",
"vQ.	c #5F645C",
"wQ.	c #60655D",
"xQ.	c #999BA0",
"yQ.	c #717572",
"zQ.	c #86878B",
"AQ.	c #424C51",
"BQ.	c #666D69",
"CQ.	c #646B67",
"DQ.	c #6D7370",
"EQ.	c #666760",
"FQ.	c #434F5C",
"GQ.	c #7F8787",
"HQ.	c #5F666B",
"IQ.	c #7F8EA3",
"JQ.	c #5A5D62",
"KQ.	c #4D555A",
"LQ.	c #71746F",
"MQ.	c #778998",
"NQ.	c #959A91",
"OQ.	c #5E7484",
"PQ.	c #73828A",
"QQ.	c #5B6873",
"RQ.	c #58636C",
"SQ.	c #A9AEAF",
"TQ.	c #A4AAAB",
"UQ.	c #E2F3FF",
"VQ.	c #AFA397",
"WQ.	c #5F6267",
"XQ.	c #4C535D",
"YQ.	c #8A8E94",
"ZQ.	c #D7CEC8",
"`Q.	c #585D66",
" R.	c #C0C6D4",
".R.	c #C3BEBE",
"+R.	c #C4BCB7",
"@R.	c #B2A9A1",
"#R.	c #A49C94",
"$R.	c #8A7F73",
"%R.	c #83796D",
"&R.	c #82786D",
"*R.	c #44515F",
"=R.	c #515556",
"-R.	c #495258",
";R.	c #4E5049",
">R.	c #4A4B44",
",R.	c #2D343A",
"'R.	c #4F554C",
")R.	c #585E55",
"!R.	c #737C86",
"~R.	c #CDCACC",
"{R.	c #5B6367",
"]R.	c #36414C",
"^R.	c #626965",
"/R.	c #5C605F",
"(R.	c #AEB7C5",
"_R.	c #5B6464",
":R.	c #636765",
"<R.	c #9FA9AA",
"[R.	c #72746D",
"}R.	c #6A7D86",
"|R.	c #70756F",
"1R.	c #717670",
"2R.	c #787F7E",
"3R.	c #6A777E",
"4R.	c #686C6A",
"5R.	c #9BA1A1",
"6R.	c #45494B",
"7R.	c #5D636E",
"8R.	c #D8D9E1",
"9R.	c #B2A8A0",
"0R.	c #958B80",
"aR.	c #44474B",
"bR.	c #7F9197",
"cR.	c #8499A3",
"dR.	c #8AA1AE",
"eR.	c #8CA4B4",
"fR.	c #86A1B3",
"gR.	c #7C95A9",
"hR.	c #546575",
"iR.	c #303539",
"jR.	c #353530",
"kR.	c #4A4942",
"lR.	c #4E5255",
"mR.	c #4D5458",
"nR.	c #4B4D46",
"oR.	c #494A43",
"pR.	c #4B4C45",
"qR.	c #5F605C",
"rR.	c #30383C",
"sR.	c #5F645D",
"tR.	c #525857",
"uR.	c #BDBEC1",
"vR.	c #84868C",
"wR.	c #4E5966",
"xR.	c #4E514A",
"yR.	c #A6A8AE",
"zR.	c #5D6562",
"AR.	c #616864",
"BR.	c #6B726E",
"CR.	c #9E9EA0",
"DR.	c #65788A",
"ER.	c #949991",
"FR.	c #52626B",
"GR.	c #6A706A",
"HR.	c #6B706A",
"IR.	c #6C716B",
"JR.	c #737974",
"KR.	c #747D7E",
"LR.	c #5C6A75",
"MR.	c #7E8382",
"NR.	c #828481",
"OR.	c #4C5A69",
"PR.	c #82909E",
"QR.	c #5D6366",
"RR.	c #A8B9D5",
"SR.	c #C9C4C3",
"TR.	c #4D5156",
"UR.	c #9DACC2",
"VR.	c #A0ACC1",
"WR.	c #808FA6",
"XR.	c #67768B",
"YR.	c #BECFE8",
"ZR.	c #B1A599",
"`R.	c #7D7367",
" S.	c #545351",
".S.	c #43474B",
"+S.	c #809CB0",
"@S.	c #839DAD",
"#S.	c #87A0AF",
"$S.	c #8197A2",
"%S.	c #7C8E95",
"&S.	c #7E8986",
"*S.	c #828D8A",
"=S.	c #86918E",
"-S.	c #8B9794",
";S.	c #8D9996",
">S.	c #94A3A4",
",S.	c #96A8AC",
"'S.	c #92A8B1",
")S.	c #7F95A6",
"!S.	c #62768A",
"~S.	c #2D2F2E",
"{S.	c #3B3A34",
"]S.	c #64655E",
"^S.	c #4A4F50",
"/S.	c #595A52",
"(S.	c #43433E",
"_S.	c #5A5E61",
":S.	c #31393A",
"<S.	c #606A76",
"[S.	c #CBCBCC",
"}S.	c #5C697D",
"|S.	c #50585F",
"1S.	c #6C737E",
"2S.	c #6A6D74",
"3S.	c #4B5458",
"4S.	c #5E6661",
"5S.	c #69706B",
"6S.	c #727772",
"7S.	c #51585C",
"8S.	c #6B7C92",
"9S.	c #737476",
"0S.	c #49545E",
"aS.	c #727571",
"bS.	c #97A6AC",
"cS.	c #666860",
"dS.	c #5B6360",
"eS.	c #6C7370",
"fS.	c #636F73",
"gS.	c #546170",
"hS.	c #4C5769",
"iS.	c #3E4448",
"jS.	c #91A1B0",
"kS.	c #78766D",
"lS.	c #CFE2FE",
"mS.	c #E9E5E8",
"nS.	c #F0EEF5",
"oS.	c #646A75",
"pS.	c #EAE5E7",
"qS.	c #BDB8B5",
"rS.	c #C1C8D7",
"sS.	c #CDD5E8",
"tS.	c #BDD4F7",
"uS.	c #E3F2FF",
"vS.	c #E8F0FF",
"wS.	c #C3CAD8",
"xS.	c #C2C5CE",
"yS.	c #CBC2BC",
"zS.	c #9B8E7F",
"AS.	c #635F59",
"BS.	c #5B6B79",
"CS.	c #72828D",
"DS.	c #707C86",
"ES.	c #8CA4B0",
"FS.	c #86908D",
"GS.	c #808A87",
"HS.	c #7A8582",
"IS.	c #7D8885",
"JS.	c #7F8B88",
"KS.	c #818F8B",
"LS.	c #81918D",
"MS.	c #83918D",
"NS.	c #84928E",
"OS.	c #869490",
"PS.	c #879591",
"QS.	c #889491",
"RS.	c #899793",
"SS.	c #8B9999",
"TS.	c #8CA0A6",
"US.	c #546372",
"VS.	c #393933",
"WS.	c #555955",
"XS.	c #484A42",
"YS.	c #5A5B53",
"ZS.	c #434748",
"`S.	c #5C605E",
" T.	c #3B4240",
".T.	c #5D635B",
"+T.	c #B4B8BE",
"@T.	c #CACACB",
"#T.	c #979699",
"$T.	c #656C68",
"%T.	c #626A65",
"&T.	c #656C6C",
"*T.	c #939FB0",
"=T.	c #586165",
"-T.	c #4F5E6D",
";T.	c #A2A8A3",
">T.	c #8E9288",
",T.	c #5D635C",
"'T.	c #5D6A73",
")T.	c #4D5251",
"!T.	c #7E8282",
"~T.	c #606D7A",
"{T.	c #828077",
"]T.	c #B4CCEF",
"^T.	c #D7D1D3",
"/T.	c #C5C5CB",
"(T.	c #E1E3EC",
"_T.	c #B0A7A1",
":T.	c #B8BCC5",
"<T.	c #9D8F80",
"[T.	c #595858",
"}T.	c #505E6B",
"|T.	c #6C7C86",
"1T.	c #818A8B",
"2T.	c #7C7B72",
"3T.	c #71716E",
"4T.	c #404E5D",
"5T.	c #829296",
"6T.	c #838D8A",
"7T.	c #7D8784",
"8T.	c #76817E",
"9T.	c #7A8683",
"0T.	c #7D8A87",
"aT.	c #7D8986",
"bT.	c #7D8B88",
"cT.	c #7E8B88",
"dT.	c #7F8E8A",
"eT.	c #808D8A",
"fT.	c #7F8A88",
"gT.	c #818D8A",
"hT.	c #818B89",
"iT.	c #808B88",
"jT.	c #848F8C",
"kT.	c #889697",
"lT.	c #82959E",
"mT.	c #2F3335",
"nT.	c #454641",
"oT.	c #68675F",
"pT.	c #42474B",
"qT.	c #595F60",
"rT.	c #50565C",
"sT.	c #464C46",
"tT.	c #585D55",
"uT.	c #636861",
"vT.	c #5F6B79",
"wT.	c #ACACB1",
"xT.	c #4F565D",
"yT.	c #46525E",
"zT.	c #A1A3AB",
"AT.	c #69706C",
"BT.	c #626964",
"CT.	c #71756F",
"DT.	c #C7D1DF",
"ET.	c #505456",
"FT.	c #5D697C",
"GT.	c #7E92A0",
"HT.	c #64665E",
"IT.	c #57605C",
"JT.	c #575F57",
"KT.	c #5C625B",
"LT.	c #656C67",
"MT.	c #677375",
"NT.	c #596774",
"OT.	c #404547",
"PT.	c #596065",
"QT.	c #8AA1C1",
"RT.	c #E5E5ED",
"ST.	c #E5DFE0",
"TT.	c #5B616C",
"UT.	c #4F545C",
"VT.	c #B2ACA7",
"WT.	c #727274",
"XT.	c #818EA1",
"YT.	c #A49A91",
"ZT.	c #46566B",
"`T.	c #9B9B9E",
" U.	c #5D7083",
".U.	c #77858B",
"+U.	c #7B7E79",
"@U.	c #78776D",
"#U.	c #77766C",
"$U.	c #75746A",
"%U.	c #7A796F",
"&U.	c #7E7C73",
"*U.	c #777468",
"=U.	c #75898F",
"-U.	c #858F8D",
";U.	c #7C8985",
">U.	c #7A8884",
",U.	c #7B8B87",
"'U.	c #798582",
")U.	c #798481",
"!U.	c #74807D",
"~U.	c #737E7B",
"{U.	c #7B8683",
"]U.	c #81908C",
"^U.	c #83928E",
"/U.	c #859490",
"(U.	c #8B9B9A",
"_U.	c #889DA5",
":U.	c #343737",
"<U.	c #494B4C",
"[U.	c #58646A",
"}U.	c #2D3538",
"|U.	c #4A5149",
"1U.	c #60655E",
"2U.	c #5B605D",
"3U.	c #B3B7BD",
"4U.	c #5A6576",
"5U.	c #516076",
"6U.	c #41474D",
"7U.	c #676E6A",
"8U.	c #9C9C9E",
"9U.	c #656A66",
"0U.	c #5A687A",
"aU.	c #445164",
"bU.	c #A0A9AA",
"cU.	c #93968C",
"dU.	c #4E5F67",
"eU.	c #585E57",
"fU.	c #5E655D",
"gU.	c #545A54",
"hU.	c #686D67",
"iU.	c #767E7C",
"jU.	c #6A7880",
"kU.	c #4B5765",
"lU.	c #E0EBFF",
"mU.	c #B5B1B4",
"nU.	c #9CA3B2",
"oU.	c #626E7F",
"pU.	c #E2E3EB",
"qU.	c #A49B93",
"rU.	c #5F6061",
"sU.	c #5B6B7C",
"tU.	c #79878E",
"uU.	c #80837E",
"vU.	c #79786E",
"wU.	c #78776C",
"xU.	c #747368",
"yU.	c #706F64",
"zU.	c #727167",
"AU.	c #757469",
"BU.	c #787569",
"CU.	c #647A84",
"DU.	c #859390",
"EU.	c #788481",
"FU.	c #798A85",
"GU.	c #798985",
"HU.	c #778480",
"IU.	c #727E7B",
"JU.	c #778380",
"KU.	c #7C8885",
"LU.	c #7E8E8A",
"MU.	c #80908C",
"NU.	c #879592",
"OU.	c #8B9995",
"PU.	c #53544C",
"QU.	c #585850",
"RU.	c #5B5E5A",
"SU.	c #555855",
"TU.	c #343D3A",
"UU.	c #676C64",
"VU.	c #707883",
"WU.	c #757981",
"XU.	c #57606B",
"YU.	c #606767",
"ZU.	c #54595C",
"`U.	c #A8AAB2",
" V.	c #777981",
".V.	c #535D63",
"+V.	c #606762",
"@V.	c #6D7E93",
"#V.	c #727374",
"$V.	c #48545F",
"%V.	c #59626D",
"&V.	c #59626C",
"*V.	c #5E7081",
"=V.	c #6E726E",
"-V.	c #58615D",
";V.	c #525A52",
">V.	c #676D66",
",V.	c #767C77",
"'V.	c #737C7C",
")V.	c #C6D9F5",
"!V.	c #DFD9DA",
"~V.	c #6B7582",
"{V.	c #9DA7B6",
"]V.	c #9A938D",
"^V.	c #71828E",
"/V.	c #828885",
"(V.	c #717065",
"_V.	c #6A695E",
":V.	c #68685B",
"<V.	c #6D6C61",
"[V.	c #6F6E64",
"}V.	c #706F65",
"|V.	c #747266",
"1V.	c #546875",
"2V.	c #84928F",
"3V.	c #788581",
"4V.	c #788884",
"5V.	c #788683",
"6V.	c #788784",
"7V.	c #798683",
"8V.	c #76827F",
"9V.	c #7B8A86",
"0V.	c #7C8D88",
"aV.	c #7F8F8A",
"bV.	c #82918D",
"cV.	c #869591",
"dV.	c #8B9895",
"eV.	c #82877C",
"fV.	c #48576B",
"gV.	c #475362",
"hV.	c #343635",
"iV.	c #4B5053",
"jV.	c #444C45",
"kV.	c #BABBBF",
"lV.	c #B4B3B6",
"mV.	c #535C62",
"nV.	c #5F6361",
"oV.	c #7F8186",
"pV.	c #46515A",
"qV.	c #5C645F",
"rV.	c #6A706C",
"sV.	c #595E61",
"tV.	c #5A6777",
"uV.	c #59687F",
"vV.	c #899AA7",
"wV.	c #91978E",
"xV.	c #4C5D67",
"yV.	c #5A6159",
"zV.	c #515951",
"AV.	c #565C55",
"BV.	c #6E726C",
"CV.	c #95AED0",
"DV.	c #DBDBE2",
"EV.	c #C8C7CF",
"FV.	c #D7E3F6",
"GV.	c #BBB4B0",
"HV.	c #5C6F83",
"IV.	c #7B8588",
"JV.	c #7B7C74",
"KV.	c #717066",
"LV.	c #6B6B5F",
"MV.	c #6B6A5F",
"NV.	c #6E6E63",
"OV.	c #707065",
"PV.	c #6C6B60",
"QV.	c #6C6C61",
"RV.	c #6E6D62",
"SV.	c #5F5F5B",
"TV.	c #475765",
"UV.	c #808E8D",
"VV.	c #7E8A87",
"WV.	c #788380",
"XV.	c #7B8784",
"YV.	c #788783",
"ZV.	c #788985",
"`V.	c #788582",
" W.	c #76827E",
".W.	c #7A8B86",
"+W.	c #7C8C88",
"@W.	c #869491",
"#W.	c #879089",
"$W.	c #525653",
"%W.	c #455263",
"&W.	c #646C70",
"*W.	c #6B6D6D",
"=W.	c #575D62",
"-W.	c #455265",
";W.	c #4C4E48",
">W.	c #5D5E58",
",W.	c #5E5E56",
"'W.	c #30383A",
")W.	c #51564F",
"!W.	c #7D8692",
"~W.	c #D3D0D1",
"{W.	c #607087",
"]W.	c #747671",
"^W.	c #5F6661",
"/W.	c #B9C3D0",
"(W.	c #CCC8C6",
"_W.	c #566068",
":W.	c #6E726F",
"<W.	c #5B6A81",
"[W.	c #A0AAAA",
"}W.	c #787A71",
"|W.	c #5F6B6A",
"1W.	c #646B64",
"2W.	c #5D655D",
"3W.	c #596159",
"4W.	c #5C625C",
"5W.	c #474D4F",
"6W.	c #D7E2F6",
"7W.	c #898C96",
"8W.	c #C1B3A7",
"9W.	c #6A7A86",
"0W.	c #7C827F",
"aW.	c #737368",
"bW.	c #68675C",
"cW.	c #656558",
"dW.	c #69685D",
"eW.	c #76756A",
"fW.	c #706E64",
"gW.	c #3E4C5B",
"hW.	c #7A898A",
"iW.	c #77827F",
"jW.	c #6F7B78",
"kW.	c #717D7A",
"lW.	c #778481",
"mW.	c #788984",
"nW.	c #798884",
"oW.	c #808F8B",
"pW.	c #879491",
"qW.	c #41464E",
"rW.	c #565F65",
"sW.	c #64635D",
"tW.	c #63625D",
"uW.	c #595C5E",
"vW.	c #2F3538",
"wW.	c #4D4E4A",
"xW.	c #5D5C55",
"yW.	c #5D6568",
"zW.	c #54564F",
"AW.	c #474E4B",
"BW.	c #76797F",
"CW.	c #545F70",
"DW.	c #57606E",
"EW.	c #5B6F8D",
"FW.	c #6A6D67",
"GW.	c #6D7473",
"HW.	c #686D68",
"IW.	c #CCC9CB",
"JW.	c #757976",
"KW.	c #535A64",
"LW.	c #607387",
"MW.	c #4B5C6B",
"NW.	c #656B64",
"OW.	c #505850",
"PW.	c #5B615A",
"QW.	c #575A51",
"RW.	c #B3CBEB",
"SW.	c #8A93A1",
"TW.	c #C4B6AA",
"UW.	c #696561",
"VW.	c #75858F",
"WW.	c #7B7C75",
"XW.	c #6F6E63",
"YW.	c #646458",
"ZW.	c #66655A",
"`W.	c #67665B",
" X.	c #68685C",
".X.	c #757267",
"+X.	c #728185",
"@X.	c #747F7C",
"#X.	c #75817D",
"$X.	c #74807C",
"%X.	c #6E7A77",
"&X.	c #788682",
"*X.	c #7F867A",
"=X.	c #444D56",
"-X.	c #61615D",
";X.	c #5F5E58",
">X.	c #605E58",
",X.	c #5D5B56",
"'X.	c #585A59",
")X.	c #30373D",
"!X.	c #50514D",
"~X.	c #5C5C54",
"{X.	c #53616B",
"]X.	c #384249",
"^X.	c #A7ACB3",
"/X.	c #ADACAF",
"(X.	c #656B6D",
"_X.	c #535A60",
":X.	c #626B6F",
"<X.	c #6F7572",
"[X.	c #60738C",
"}X.	c #8D9198",
"|X.	c #707472",
"1X.	c #5E6262",
"2X.	c #8495A1",
"3X.	c #8B8F87",
"4X.	c #617074",
"5X.	c #686E67",
"6X.	c #656C65",
"7X.	c #555D55",
"8X.	c #485048",
"9X.	c #444743",
"0X.	c #64758B",
"aX.	c #D7D8DF",
"bX.	c #E1DBDB",
"cX.	c #5B6068",
"dX.	c #CCBEB1",
"eX.	c #68645E",
"fX.	c #76848B",
"gX.	c #797A72",
"hX.	c #747369",
"iX.	c #6D6D62",
"jX.	c #6F6F63",
"kX.	c #67675B",
"lX.	c #6A6A5E",
"mX.	c #69695E",
"nX.	c #757367",
"oX.	c #61747D",
"pX.	c #798581",
"qX.	c #6D7A76",
"rX.	c #798784",
"sX.	c #7A8986",
"tX.	c #86928C",
"uX.	c #565C5D",
"vX.	c #5C5A54",
"wX.	c #585751",
"xX.	c #5C5A55",
"yX.	c #5A5B5A",
"zX.	c #484B4A",
"AX.	c #504F48",
"BX.	c #525149",
"CX.	c #53544E",
"DX.	c #495251",
"EX.	c #63707F",
"FX.	c #58687F",
"GX.	c #617189",
"HX.	c #6A6D66",
"IX.	c #5F6466",
"JX.	c #5D676F",
"KX.	c #737975",
"LX.	c #555D5F",
"MX.	c #7F8D9F",
"NX.	c #70767F",
"OX.	c #3D403F",
"PX.	c #383932",
"QX.	c #5D605B",
"RX.	c #646864",
"SX.	c #707471",
"TX.	c #505D71",
"UX.	c #56606F",
"VX.	c #9EACB1",
"WX.	c #404F5F",
"XX.	c #69716E",
"YX.	c #596058",
"ZX.	c #585E58",
"`X.	c #585A50",
" Y.	c #B7C9E2",
".Y.	c #BDBBC1",
"+Y.	c #CCCED6",
"@Y.	c #D6C7BA",
"#Y.	c #746F6A",
"$Y.	c #79868C",
"%Y.	c #7B7C73",
"&Y.	c #6C6B5F",
"*Y.	c #626256",
"=Y.	c #636357",
"-Y.	c #68685D",
";Y.	c #75756A",
">Y.	c #526470",
",Y.	c #798984",
"'Y.	c #7B8985",
")Y.	c #818C89",
"!Y.	c #75796D",
"~Y.	c #5C5B55",
"{Y.	c #595852",
"]Y.	c #54534D",
"^Y.	c #51504A",
"/Y.	c #55544E",
"(Y.	c #5F5D58",
"_Y.	c #56626E",
":Y.	c #515A62",
"<Y.	c #5D6469",
"[Y.	c #61635E",
"}Y.	c #555651",
"|Y.	c #60615B",
"1Y.	c #3B4650",
"2Y.	c #5F645E",
"3Y.	c #5A6057",
"4Y.	c #515654",
"5Y.	c #B3B5B9",
"6Y.	c #666C74",
"7Y.	c #4D5763",
"8Y.	c #5F7284",
"9Y.	c #787D7A",
"0Y.	c #6F7571",
"aY.	c #4E565B",
"bY.	c #96A0AE",
"cY.	c #373C3F",
"dY.	c #373730",
"eY.	c #4E4F4A",
"fY.	c #666A66",
"gY.	c #7B7F7C",
"hY.	c #5E6875",
"iY.	c #616C7C",
"jY.	c #58697B",
"kY.	c #A2A7A2",
"lY.	c #989D95",
"mY.	c #556570",
"nY.	c #687990",
"oY.	c #CCCCD3",
"pY.	c #E3DBD9",
"qY.	c #B8C1D1",
"rY.	c #DED6D4",
"sY.	c #847D75",
"tY.	c #717F85",
"uY.	c #787971",
"vY.	c #737268",
"wY.	c #6C6C60",
"xY.	c #69695D",
"yY.	c #48555F",
"zY.	c #7F8A87",
"AY.	c #75807D",
"BY.	c #798682",
"CY.	c #7A8885",
"DY.	c #868E84",
"EY.	c #5E6160",
"FY.	c #5E5D57",
"GY.	c #575650",
"HY.	c #504F49",
"IY.	c #53524C",
"JY.	c #5C5B56",
"KY.	c #505355",
"LY.	c #676863",
"MY.	c #585954",
"NY.	c #4A4D4D",
"OY.	c #55534C",
"PY.	c #525A58",
"QY.	c #646861",
"RY.	c #9097A1",
"SY.	c #8F9197",
"TY.	c #97A5A1",
"UY.	c #57626B",
"VY.	c #525757",
"WY.	c #BFC8D6",
"XY.	c #30312C",
"YY.	c #3C3C34",
"ZY.	c #4F4D43",
"`Y.	c #647A99",
" Z.	c #768796",
".Z.	c #A1A7A2",
"+Z.	c #5C6767",
"@Z.	c #485049",
"#Z.	c #B3C3DC",
"$Z.	c #C3BFC1",
"%Z.	c #C0BCBE",
"&Z.	c #A1AABA",
"*Z.	c #DED7D5",
"=Z.	c #A3988C",
"-Z.	c #777870",
";Z.	c #6E6E62",
">Z.	c #726F64",
",Z.	c #38424C",
"'Z.	c #768384",
")Z.	c #7C8B87",
"!Z.	c #7B8C87",
"~Z.	c #7A8784",
"{Z.	c #88918C",
"]Z.	c #646B65",
"^Z.	c #686661",
"/Z.	c #55534D",
"(Z.	c #585650",
"_Z.	c #5A5E62",
":Z.	c #484C4C",
"<Z.	c #63645F",
"[Z.	c #6B6A63",
"}Z.	c #51514C",
"|Z.	c #4B5968",
"1Z.	c #3E4850",
"2Z.	c #424A51",
"3Z.	c #56667C",
"4Z.	c #5B6676",
"5Z.	c #626969",
"6Z.	c #363B3D",
"7Z.	c #4B5A6E",
"8Z.	c #565E69",
"9Z.	c #899AA5",
"0Z.	c #3C4956",
"aZ.	c #474E47",
"bZ.	c #515554",
"cZ.	c #627184",
"dZ.	c #D1D1D8",
"eZ.	c #C5C0C2",
"fZ.	c #CAC5C7",
"gZ.	c #A19E9F",
"hZ.	c #9AA5B7",
"iZ.	c #C2B3A4",
"jZ.	c #667680",
"kZ.	c #7D7E77",
"lZ.	c #6A695D",
"mZ.	c #68675B",
"nZ.	c #6B6B60",
"oZ.	c #717166",
"pZ.	c #78756A",
"qZ.	c #6B7A7D",
"rZ.	c #818E8B",
"sZ.	c #7F8C89",
"tZ.	c #7E8C88",
"uZ.	c #7E8176",
"vZ.	c #5E6467",
"wZ.	c #4D5966",
"xZ.	c #6B6964",
"yZ.	c #62615B",
"zZ.	c #5E5C57",
"AZ.	c #5F5D57",
"BZ.	c #57554E",
"CZ.	c #656665",
"DZ.	c #50575E",
"EZ.	c #6A6E6E",
"FZ.	c #56616E",
"GZ.	c #6B767E",
"HZ.	c #737877",
"IZ.	c #676861",
"JZ.	c #686A65",
"KZ.	c #5B636A",
"LZ.	c #545A59",
"MZ.	c #565E63",
"NZ.	c #97A8C2",
"OZ.	c #A7B3C7",
"PZ.	c #A7B2C7",
"QZ.	c #9EAABD",
"RZ.	c #9A9B9E",
"SZ.	c #798792",
"TZ.	c #6B7A89",
"UZ.	c #5E6B78",
"VZ.	c #8E9EA7",
"WZ.	c #4A4F52",
"XZ.	c #4B5B64",
"YZ.	c #535B53",
"ZZ.	c #565D55",
"`Z.	c #B0C7E7",
" `.	c #D7CECA",
".`.	c #A8A09A",
"+`.	c #8895A8",
"@`.	c #D5C6B9",
"#`.	c #787E7A",
"$`.	c #7E7D73",
"%`.	c #656559",
"&`.	c #69685C",
"*`.	c #6B6A5E",
"=`.	c #67675C",
"-`.	c #7A786D",
";`.	c #68787E",
">`.	c #7A8481",
",`.	c #828C89",
"'`.	c #7C847F",
")`.	c #7B837E",
"!`.	c #85928F",
"~`.	c #85938F",
"{`.	c #878E89",
"]`.	c #515659",
"^`.	c #606E7C",
"/`.	c #666F77",
"(`.	c #6E6C68",
"_`.	c #6A6863",
":`.	c #676660",
"<`.	c #6C6A65",
"[`.	c #666560",
"}`.	c #66645F",
"|`.	c #666461",
"1`.	c #3F484E",
"2`.	c #62635E",
"3`.	c #676762",
"4`.	c #6E6E68",
"5`.	c #666259",
"6`.	c #464848",
"7`.	c #6C6D67",
"8`.	c #63645E",
"9`.	c #404C51",
"0`.	c #516177",
"a`.	c #516176",
"b`.	c #5F758D",
"c`.	c #6B8192",
"d`.	c #7D92A0",
"e`.	c #414E61",
"f`.	c #63696B",
"g`.	c #969FAD",
"h`.	c #A9A6A6",
"i`.	c #6B7B91",
"j`.	c #D8D5D6",
"k`.	c #808388",
"l`.	c #747D82",
"m`.	c #82837C",
"n`.	c #74756E",
"o`.	c #758086",
"p`.	c #637485",
"q`.	c #566676",
"r`.	c #8998A0",
"s`.	c #A6ABA6",
"t`.	c #A5ABA6",
"u`.	c #92978D",
"v`.	c #5A686A",
"w`.	c #565E56",
"x`.	c #53554D",
"y`.	c #DDE2EF",
"z`.	c #D7D0D0",
"A`.	c #C7B8AC",
"B`.	c #666E7A",
"C`.	c #5F6A78",
"D`.	c #98918B",
"E`.	c #838278",
"F`.	c #66665B",
"G`.	c #807F75",
"H`.	c #5E5E5A",
"I`.	c #4D5C65",
"J`.	c #777F7A",
"K`.	c #7F8883",
"L`.	c #43453E",
"M`.	c #454740",
"N`.	c #4C4F47",
"O`.	c #6D756D",
"P`.	c #818A87",
"Q`.	c #899290",
"R`.	c #707570",
"S`.	c #55677C",
"T`.	c #696969",
"U`.	c #82807C",
"V`.	c #807E7A",
"W`.	c #6A665E",
"X`.	c #59554D",
"Y`.	c #6B6963",
"Z`.	c #6E6C67",
"``.	c #74726D",
"  +	c #61625F",
". +	c #6A6964",
"+ +	c #6A6760",
"@ +	c #4C5151",
"# +	c #625F55",
"$ +	c #6D6D67",
"% +	c #38434C",
"& +	c #7E8A99",
"* +	c #87888C",
"= +	c #4F6078",
"- +	c #516173",
"; +	c #5D7185",
"> +	c #698294",
", +	c #8BA2AB",
"' +	c #96A8AD",
") +	c #97A5A0",
"! +	c #98A29C",
"~ +	c #9A9C92",
"{ +	c #575B5A",
"] +	c #70787A",
"^ +	c #8B919B",
"/ +	c #88909C",
"( +	c #DAD7D8",
"_ +	c #5D636C",
": +	c #777770",
"< +	c #686961",
"[ +	c #6E6F68",
"} +	c #6F7069",
"| +	c #72736C",
"1 +	c #777A75",
"2 +	c #7B807E",
"3 +	c #83919C",
"4 +	c #74808C",
"5 +	c #555C65",
"6 +	c #A0A49F",
"7 +	c #A9AEA9",
"8 +	c #7A7C74",
"9 +	c #616965",
"0 +	c #484E53",
"a +	c #8B9FBA",
"b +	c #5D636B",
"c +	c #595951",
"d +	c #707064",
"e +	c #79776C",
"f +	c #777366",
"g +	c #575753",
"h +	c #484B43",
"i +	c #44473E",
"j +	c #40433B",
"k +	c #637289",
"l +	c #393E3E",
"m +	c #4D514B",
"n +	c #6B726D",
"o +	c #7B8380",
"p +	c #87908E",
"q +	c #83857A",
"r +	c #51514F",
"s +	c #5C666E",
"t +	c #63625C",
"u +	c #6D6B66",
"v +	c #575652",
"w +	c #737069",
"x +	c #4A4F53",
"y +	c #5D7086",
"z +	c #5C646B",
"A +	c #65665F",
"B +	c #5E5E59",
"C +	c #525B59",
"D +	c #61675F",
"E +	c #696D66",
"F +	c #5D6B7C",
"G +	c #B3B2B4",
"H +	c #A1A0A2",
"I +	c #60778C",
"J +	c #6E8799",
"K +	c #7E96A0",
"L +	c #8CA3A8",
"M +	c #92A5A4",
"N +	c #92A19A",
"O +	c #919C92",
"P +	c #898F80",
"Q +	c #898D81",
"R +	c #878D7D",
"S +	c #93978B",
"T +	c #8B9083",
"U +	c #5A6266",
"V +	c #79807E",
"W +	c #6A7A90",
"X +	c #808289",
"Y +	c #D6D3D5",
"Z +	c #565D5E",
"` +	c #6A6B63",
" .+	c #686A61",
"..+	c #61625A",
"+.+	c #5D5F56",
"@.+	c #5D5F57",
"#.+	c #62645B",
"$.+	c #66675F",
"%.+	c #65665E",
"&.+	c #6A6C64",
"*.+	c #707169",
"=.+	c #767770",
"-.+	c #7F7F79",
";.+	c #59697F",
">.+	c #505B6C",
",.+	c #42423C",
"'.+	c #55554B",
").+	c #808279",
"!.+	c #979C95",
"~.+	c #555A5D",
"{.+	c #455561",
"].+	c #555C54",
"^.+	c #C2D3EC",
"/.+	c #D5CECD",
"(.+	c #AFA193",
"_.+	c #636C79",
":.+	c #576273",
"<.+	c #556378",
"[.+	c #667688",
"}.+	c #B0C8E2",
"|.+	c #AABACA",
"1.+	c #64635A",
"2.+	c #656459",
"3.+	c #6F6D60",
"4.+	c #646052",
"5.+	c #504B3F",
"6.+	c #3C3B35",
"7.+	c #495568",
"8.+	c #E1E7F7",
"9.+	c #E2E8F8",
"0.+	c #9698A0",
"a.+	c #4E5C6B",
"b.+	c #3E454B",
"c.+	c #464A46",
"d.+	c #67685E",
"e.+	c #737575",
"f.+	c #75736F",
"g.+	c #6D6C67",
"h.+	c #56524B",
"i.+	c #6D6B68",
"j.+	c #4D5457",
"k.+	c #6E695F",
"l.+	c #5F6972",
"m.+	c #747C80",
"n.+	c #5B6269",
"o.+	c #494F51",
"p.+	c #606058",
"q.+	c #3F4A50",
"r.+	c #5C625A",
"s.+	c #6A6E67",
"t.+	c #C0C2C6",
"u.+	c #8B9082",
"v.+	c #868B7E",
"w.+	c #808678",
"x.+	c #7E8474",
"y.+	c #7C8472",
"z.+	c #818778",
"A.+	c #626762",
"B.+	c #5E6164",
"C.+	c #ACB4C1",
"D.+	c #636A6A",
"E.+	c #585A51",
"F.+	c #585B52",
"G.+	c #5E6057",
"H.+	c #5F6159",
"I.+	c #63655D",
"J.+	c #73746D",
"K.+	c #60666C",
"L.+	c #606D81",
"M.+	c #393C3B",
"N.+	c #3C3D35",
"O.+	c #525249",
"P.+	c #7E8077",
"Q.+	c #8C9088",
"R.+	c #989C96",
"S.+	c #88877A",
"T.+	c #4F5F68",
"U.+	c #404941",
"V.+	c #464D46",
"W.+	c #BBBEC7",
"X.+	c #D8D2D1",
"Y.+	c #B1A498",
"Z.+	c #ACC7E0",
"`.+	c #AAADAD",
" ++	c #9EA2A2",
".++	c #9DA4A7",
"+++	c #84919E",
"@++	c #53524A",
"#++	c #6D6C60",
"$++	c #646051",
"%++	c #484439",
"&++	c #363839",
"*++	c #6F7F97",
"=++	c #A8BDDC",
"-++	c #CDDDF8",
";++	c #D9E6FD",
">++	c #DFE7F9",
",++	c #E1E7F8",
"'++	c #A39C99",
")++	c #7E97A3",
"!++	c #9CA9A4",
"~++	c #7E8C91",
"{++	c #687680",
"]++	c #807D78",
"^++	c #7C766F",
"/++	c #737C85",
"(++	c #6B675F",
"_++	c #717373",
":++	c #72706A",
"<++	c #757979",
"[++	c #767671",
"}++	c #72726C",
"|++	c #505354",
"1++	c #626258",
"2++	c #565347",
"3++	c #4D4D45",
"4++	c #B5BBC3",
"5++	c #465462",
"6++	c #8A9081",
"7++	c #83877A",
"8++	c #818679",
"9++	c #808578",
"0++	c #79806F",
"a++	c #767E6C",
"b++	c #7C8272",
"c++	c #7F8576",
"d++	c #878B7D",
"e++	c #545B5B",
"f++	c #859292",
"g++	c #989E94",
"h++	c #BDC6D2",
"i++	c #C7C3C1",
"j++	c #686A62",
"k++	c #55574E",
"l++	c #56584F",
"m++	c #5A5C53",
"n++	c #6F7169",
"o++	c #656A6E",
"p++	c #32332E",
"q++	c #44443C",
"r++	c #58584E",
"s++	c #777464",
"t++	c #576362",
"u++	c #545C54",
"v++	c #464B4D",
"w++	c #738298",
"x++	c #CFC2B8",
"y++	c #606772",
"z++	c #7C8FAB",
"A++	c #687280",
"B++	c #7389A1",
"C++	c #B6C2C9",
"D++	c #A6AAAA",
"E++	c #919696",
"F++	c #6D7A88",
"G++	c #393A35",
"H++	c #737267",
"I++	c #6E6D61",
"J++	c #6C685A",
"K++	c #575244",
"L++	c #353531",
"M++	c #CFE0FB",
"N++	c #D9DFEE",
"O++	c #D7D7DE",
"P++	c #D6D3D7",
"Q++	c #898583",
"R++	c #889999",
"S++	c #89928D",
"T++	c #929E9B",
"U++	c #78858A",
"V++	c #5E6D7A",
"W++	c #6D6A65",
"X++	c #7B766F",
"Y++	c #5F6B7B",
"Z++	c #627187",
"`++	c #747A80",
" @+	c #7A7976",
".@+	c #5A5C5C",
"+@+	c #72706B",
"@@+	c #585958",
"#@+	c #626B73",
"$@+	c #6F6D68",
"%@+	c #5D6D7F",
"&@+	c #7F868B",
"*@+	c #5E5F5F",
"=@+	c #747775",
"-@+	c #51585F",
";@+	c #59615F",
">@+	c #696E67",
",@+	c #686C65",
"'@+	c #6B6F68",
")@+	c #656860",
"!@+	c #58584D",
"~@+	c #4A493E",
"{@+	c #3F3E35",
"]@+	c #32322C",
"^@+	c #313331",
"/@+	c #99A3B0",
"(@+	c #5E646E",
"_@+	c #4E5E6B",
":@+	c #888D80",
"<@+	c #838A7A",
"[@+	c #7E8376",
"}@+	c #7B8072",
"|@+	c #797F70",
"1@+	c #737A68",
"2@+	c #727A67",
"3@+	c #737B68",
"4@+	c #7B8371",
"5@+	c #808676",
"6@+	c #4C5459",
"7@+	c #717C7F",
"8@+	c #9D9EA3",
"9@+	c #5B5D54",
"0@+	c #606259",
"a@+	c #5C5E55",
"b@+	c #5F6158",
"c@+	c #595B52",
"d@+	c #6B6D65",
"e@+	c #65696A",
"f@+	c #58616E",
"g@+	c #61748D",
"h@+	c #AAC2D7",
"i@+	c #9EB3C6",
"j@+	c #8499AF",
"k@+	c #677889",
"l@+	c #5B6B7F",
"m@+	c #626A66",
"n@+	c #4B534C",
"o@+	c #575D57",
"p@+	c #565A50",
"q@+	c #BBCBE4",
"r@+	c #5E6775",
"s@+	c #C2C6D0",
"t@+	c #DBCFC6",
"u@+	c #8C8783",
"v@+	c #5C687B",
"w@+	c #BCD5F9",
"x@+	c #9DB4CB",
"y@+	c #B2B8B7",
"z@+	c #8F9594",
"A@+	c #989F9E",
"B@+	c #97A4AF",
"C@+	c #6B6658",
"D@+	c #4C483D",
"E@+	c #798DAA",
"F@+	c #D0E1FC",
"G@+	c #DDE3F1",
"H@+	c #6E747D",
"I@+	c #899591",
"J@+	c #919A95",
"K@+	c #939D9B",
"L@+	c #7A8991",
"M@+	c #66625A",
"N@+	c #72716E",
"O@+	c #797773",
"P@+	c #676969",
"Q@+	c #696865",
"R@+	c #4A4C4D",
"S@+	c #696966",
"T@+	c #73706A",
"U@+	c #4D5D6F",
"V@+	c #7C7F7E",
"W@+	c #7F7E7A",
"X@+	c #5C5E60",
"Y@+	c #575C5E",
"Z@+	c #63635C",
"`@+	c #394248",
" #+	c #606157",
".#+	c #56564B",
"+#+	c #424137",
"@#+	c #37372F",
"##+	c #2F302B",
"$#+	c #6F7E90",
"%#+	c #77787B",
"&#+	c #4A5863",
"*#+	c #858A7D",
"=#+	c #7F8577",
"-#+	c #7A7F71",
";#+	c #757B6D",
">#+	c #707865",
",#+	c #717966",
"'#+	c #7F8477",
")#+	c #83887A",
"!#+	c #5A6062",
"~#+	c #697377",
"{#+	c #C3C9D4",
"]#+	c #929499",
"^#+	c #606159",
"/#+	c #5E6058",
"(#+	c #63676B",
"_#+	c #5C6B82",
":#+	c #A8BFD1",
"<#+	c #B8BFBF",
"[#+	c #B8C1C3",
"}#+	c #B7C2C6",
"|#+	c #686E73",
"1#+	c #9AB0C3",
"2#+	c #8FA3B5",
"3#+	c #788CA2",
"4#+	c #66788D",
"5#+	c #4B5A69",
"6#+	c #6C726C",
"7#+	c #474F48",
"8#+	c #585B53",
"9#+	c #CED3DF",
"0#+	c #979AA3",
"a#+	c #737982",
"b#+	c #E3DCDA",
"c#+	c #AEA6A1",
"d#+	c #E2F6FF",
"e#+	c #EBEBF2",
"f#+	c #95908C",
"g#+	c #667B93",
"h#+	c #ABB5BD",
"i#+	c #8E9393",
"j#+	c #9DA3A2",
"k#+	c #A9B1B0",
"l#+	c #AAB2B1",
"m#+	c #ABB3B2",
"n#+	c #B1BDC1",
"o#+	c #8292A1",
"p#+	c #383933",
"q#+	c #6D685A",
"r#+	c #A7BEDE",
"s#+	c #DDE6F7",
"t#+	c #5A6A78",
"u#+	c #88918A",
"v#+	c #858E87",
"w#+	c #929C98",
"x#+	c #89969A",
"y#+	c #525F6C",
"z#+	c #73716C",
"A#+	c #676765",
"B#+	c #676C6E",
"C#+	c #7C7971",
"D#+	c #4F514A",
"E#+	c #64645D",
"F#+	c #4A4E52",
"G#+	c #333735",
"H#+	c #414037",
"I#+	c #35352E",
"J#+	c #2F3230",
"K#+	c #424F62",
"L#+	c #4C5D73",
"M#+	c #60748F",
"N#+	c #778FAD",
"O#+	c #92A8C5",
"P#+	c #A5BAD4",
"Q#+	c #59697D",
"R#+	c #48535A",
"S#+	c #85897D",
"T#+	c #7E8375",
"U#+	c #6F7864",
"V#+	c #7C8371",
"W#+	c #3D4750",
"X#+	c #4F524B",
"Y#+	c #4E5357",
"Z#+	c #667379",
"`#+	c #B7BDC8",
" $+	c #C7C2C2",
".$+	c #595C53",
"+$+	c #6C6D65",
"@$+	c #797973",
"#$+	c #63758A",
"$$+	c #B0B3AD",
"%$+	c #AAB4B5",
"&$+	c #B1B5B2",
"*$+	c #B3BAB9",
"=$+	c #B9C1C3",
"-$+	c #A9B1B4",
";$+	c #4F606F",
">$+	c #6A6F6A",
",$+	c #CBCED6",
"'$+	c #555C68",
")$+	c #BBBABE",
"!$+	c #E7E0DF",
"~$+	c #C8B9AA",
"{$+	c #606975",
"]$+	c #6D7B8D",
"^$+	c #D4E3FA",
"/$+	c #DEDADC",
"($+	c #E5D6CB",
"_$+	c #91ABC5",
":$+	c #ADB2B2",
"<$+	c #9A9F9F",
"[$+	c #A2A8A8",
"}$+	c #A6ADAC",
"|$+	c #A7B0AF",
"1$+	c #AEB7B7",
"2$+	c #A9B7C0",
"3$+	c #5C6979",
"4$+	c #54544B",
"5$+	c #75756B",
"6$+	c #706B5D",
"7$+	c #4D4B43",
"8$+	c #BFD5F6",
"9$+	c #DFE6F4",
"0$+	c #DAD1CD",
"a$+	c #5E6F78",
"b$+	c #848D86",
"c$+	c #868E88",
"d$+	c #98A09B",
"e$+	c #909B9E",
"f$+	c #566377",
"g$+	c #747573",
"h$+	c #757370",
"i$+	c #646A6C",
"j$+	c #4C5257",
"k$+	c #4F5866",
"l$+	c #515B62",
"m$+	c #65645F",
"n$+	c #686A66",
"o$+	c #555756",
"p$+	c #62768F",
"q$+	c #7A91AE",
"r$+	c #92A8C3",
"s$+	c #9FB4CD",
"t$+	c #AABACD",
"u$+	c #ACB8C6",
"v$+	c #ABB4BE",
"w$+	c #A7AAAC",
"x$+	c #5E6774",
"y$+	c #C6C8CD",
"z$+	c #A7A6A8",
"A$+	c #3E4955",
"B$+	c #828779",
"C$+	c #7A8071",
"D$+	c #808677",
"E$+	c #727968",
"F$+	c #6F7764",
"G$+	c #797E70",
"H$+	c #747C6B",
"I$+	c #50565A",
"J$+	c #5B666D",
"K$+	c #ABAAAC",
"L$+	c #687B93",
"M$+	c #747880",
"N$+	c #525A5F",
"O$+	c #575950",
"P$+	c #66685F",
"Q$+	c #6C6E66",
"R$+	c #787871",
"S$+	c #51575D",
"T$+	c #596A81",
"U$+	c #8697A5",
"V$+	c #ADB0A9",
"W$+	c #B1B4AD",
"X$+	c #BAB7AD",
"Y$+	c #576770",
"Z$+	c #6D716A",
"`$+	c #4E555A",
" %+	c #A6A9B2",
".%+	c #A6A5AB",
"+%+	c #969BA4",
"@%+	c #E2DBD9",
"#%+	c #ABA39C",
"$%+	c #5A626B",
"%%+	c #90A1AF",
"&%+	c #959B9B",
"*%+	c #A3A9A9",
"=%+	c #A6AFAE",
"-%+	c #A6AEAD",
";%+	c #9AA1A0",
">%+	c #949A9A",
",%+	c #A4ABAB",
"'%+	c #ADB7B8",
")%+	c #94A4B3",
"!%+	c #404952",
"~%+	c #41413A",
"{%+	c #696457",
"]%+	c #575449",
"^%+	c #BCD3F3",
"/%+	c #DCE1EF",
"(%+	c #C5BDB8",
"_%+	c #708287",
":%+	c #A3ADA6",
"<%+	c #87959B",
"[%+	c #4C5259",
"}%+	c #6B6B6A",
"|%+	c #7B7975",
"1%+	c #717170",
"2%+	c #676661",
"3%+	c #514E48",
"4%+	c #5F6262",
"5%+	c #434B54",
"6%+	c #666E71",
"7%+	c #484E50",
"8%+	c #627792",
"9%+	c #859DBB",
"0%+	c #9AB1CD",
"a%+	c #A9BED7",
"b%+	c #ADBCCF",
"c%+	c #A8B3C0",
"d%+	c #A8B0BA",
"e%+	c #A0A4A6",
"f%+	c #939699",
"g%+	c #BBC1CA",
"h%+	c #858C82",
"i%+	c #8A8F81",
"j%+	c #82877A",
"k%+	c #757B6C",
"l%+	c #7B8172",
"m%+	c #717967",
"n%+	c #757C6C",
"o%+	c #777E6D",
"p%+	c #7B8272",
"q%+	c #394555",
"r%+	c #525656",
"s%+	c #50606B",
"t%+	c #676E6E",
"u%+	c #949BA7",
"v%+	c #71839A",
"w%+	c #67696C",
"x%+	c #565C5E",
"y%+	c #71726B",
"z%+	c #5C6C83",
"A%+	c #A0ABB1",
"B%+	c #B2B5AF",
"C%+	c #A7ABA4",
"D%+	c #AFB2AC",
"E%+	c #BAB8AD",
"F%+	c #65717D",
"G%+	c #5F6C70",
"H%+	c #636862",
"I%+	c #586058",
"J%+	c #6F726A",
"K%+	c #4E5257",
"L%+	c #756F66",
"M%+	c #9D948B",
"N%+	c #5A5F65",
"O%+	c #9F9890",
"P%+	c #817D79",
"Q%+	c #5F6B7D",
"R%+	c #7A828D",
"S%+	c #99A0AF",
"T%+	c #A5AFB4",
"U%+	c #ADB5B4",
"V%+	c #A7AEAD",
"W%+	c #A5ADAC",
"X%+	c #9EA5A4",
"Y%+	c #9FA7A6",
"Z%+	c #A4AAAA",
"`%+	c #B3BFC6",
" &+	c #A6BDDD",
".&+	c #D6DCEA",
"+&+	c #969394",
"@&+	c #778786",
"#&+	c #7B867E",
"$&+	c #909B94",
"%&+	c #6D7881",
"&&+	c #646360",
"*&+	c #74726E",
"=&+	c #626463",
"-&+	c #62615D",
";&+	c #575750",
">&+	c #6F6E66",
",&+	c #A9BBD0",
"'&+	c #9DA1A3",
")&+	c #84897B",
"!&+	c #84897C",
"~&+	c #747B6A",
"{&+	c #707965",
"]&+	c #707866",
"^&+	c #777D6F",
"/&+	c #767C6C",
"(&+	c #747A6B",
"_&+	c #7B8171",
":&+	c #6F7A7D",
"<&+	c #8D939E",
"[&+	c #96969A",
"}&+	c #515761",
"|&+	c #585D5E",
"1&+	c #64655D",
"2&+	c #5C5E56",
"3&+	c #53554C",
"4&+	c #55584F",
"5&+	c #52554C",
"6&+	c #51534A",
"7&+	c #52554B",
"8&+	c #53564D",
"9&+	c #6E7068",
"0&+	c #536278",
"a&+	c #657285",
"b&+	c #A9B3B7",
"c&+	c #ACAFA8",
"d&+	c #9D9E95",
"e&+	c #535551",
"f&+	c #9FA39E",
"g&+	c #BAB9B1",
"h&+	c #61686F",
"i&+	c #727E88",
"j&+	c #636D6C",
"k&+	c #73787E",
"l&+	c #B3B0AF",
"m&+	c #AEABAD",
"n&+	c #8A8785",
"o&+	c #5B616A",
"p&+	c #7D94AA",
"q&+	c #AFB5B4",
"r&+	c #ACB4B3",
"s&+	c #A7B0AE",
"t&+	c #929998",
"u&+	c #A5AEAD",
"v&+	c #A4ACAB",
"w&+	c #AAB1B0",
"x&+	c #AFB6B6",
"y&+	c #A5A5A0",
"z&+	c #798DA8",
"A&+	c #D1DAEA",
"B&+	c #86888A",
"C&+	c #7C877F",
"D&+	c #839087",
"E&+	c #8A978E",
"F&+	c #939C96",
"G&+	c #A0A6A2",
"H&+	c #50504E",
"I&+	c #566472",
"J&+	c #65635E",
"K&+	c #6D6A63",
"L&+	c #59564F",
"M&+	c #53606D",
"N&+	c #4C4D49",
"O&+	c #323538",
"P&+	c #5E5F59",
"Q&+	c #65778C",
"R&+	c #A3A4A4",
"S&+	c #6F7A74",
"T&+	c #7A8171",
"U&+	c #787F6F",
"V&+	c #707966",
"W&+	c #73796A",
"X&+	c #6F7765",
"Y&+	c #7B806F",
"Z&+	c #585B57",
"`&+	c #767F7F",
" *+	c #858B97",
".*+	c #878A8F",
"+*+	c #596061",
"@*+	c #54564D",
"#*+	c #51544A",
"$*+	c #50534A",
"%*+	c #52544B",
"&*+	c #60625A",
"**+	c #7B7B75",
"=*+	c #616F83",
"-*+	c #9B9E98",
";*+	c #97968B",
">*+	c #89897F",
",*+	c #9FA39D",
"'*+	c #B1B4AE",
")*+	c #B6B8B1",
"!*+	c #868785",
"~*+	c #727C81",
"{*+	c #62645C",
"]*+	c #627389",
"^*+	c #ABBFD7",
"/*+	c #9DB0C8",
"(*+	c #7F90A5",
"_*+	c #5D6879",
":*+	c #8D9EAD",
"<*+	c #929797",
"[*+	c #A3AAA9",
"}*+	c #9CA2A1",
"|*+	c #A3ABAA",
"1*+	c #878E8D",
"2*+	c #9BA0A0",
"3*+	c #ADB0AC",
"4*+	c #88877D",
"5*+	c #C7D8F2",
"6*+	c #778188",
"7*+	c #7F8A82",
"8*+	c #A7ACA5",
"9*+	c #676D72",
"0*+	c #515863",
"a*+	c #5B5851",
"b*+	c #504D45",
"c*+	c #433F36",
"d*+	c #3E3B33",
"e*+	c #6A7275",
"f*+	c #55554F",
"g*+	c #50514B",
"h*+	c #4F514F",
"i*+	c #73726C",
"j*+	c #627489",
"k*+	c #7E8C9D",
"l*+	c #63716C",
"m*+	c #737A6A",
"n*+	c #737A69",
"o*+	c #78806E",
"p*+	c #535A57",
"q*+	c #72839A",
"r*+	c #828388",
"s*+	c #8F99A7",
"t*+	c #606866",
"u*+	c #575951",
"v*+	c #6B6C65",
"w*+	c #5B6571",
"x*+	c #606F85",
"y*+	c #515961",
"z*+	c #73818B",
"A*+	c #A3ACAB",
"B*+	c #A6ACAA",
"C*+	c #B2B5AE",
"D*+	c #AFAFA7",
"E*+	c #8F8E87",
"F*+	c #606970",
"G*+	c #3C4854",
"H*+	c #656A64",
"I*+	c #636962",
"J*+	c #575A56",
"K*+	c #B6C6D7",
"L*+	c #BEBEBD",
"M*+	c #C1C6CB",
"N*+	c #C0C9D4",
"O*+	c #BDCBDC",
"P*+	c #B1C2D7",
"Q*+	c #9CAFC8",
"R*+	c #8395AD",
"S*+	c #94A0A8",
"T*+	c #ACB2B2",
"U*+	c #909696",
"V*+	c #939999",
"W*+	c #A0A6A6",
"X*+	c #98988F",
"Y*+	c #D7DDEB",
"Z*+	c #8A988E",
"`*+	c #88978D",
" =+	c #86938A",
".=+	c #A2A9A3",
"+=+	c #777E82",
"@=+	c #60605D",
"#=+	c #58544C",
"$=+	c #433F35",
"%=+	c #383630",
"&=+	c #2C2D2C",
"*=+	c #485766",
"==+	c #414E5D",
"-=+	c #414F5F",
";=+	c #6B6C68",
">=+	c #53544F",
",=+	c #696A64",
"'=+	c #71716B",
")=+	c #515558",
"!=+	c #5B6A7C",
"~=+	c #6B7A8D",
"{=+	c #51565F",
"]=+	c #5E6C6B",
"^=+	c #7A816F",
"/=+	c #717867",
"(=+	c #707766",
"_=+	c #4F5654",
":=+	c #63655E",
"<=+	c #828983",
"[=+	c #77797E",
"}=+	c #8C96A3",
"|=+	c #696E69",
"1=+	c #565950",
"2=+	c #6B6C64",
"3=+	c #74736B",
"4=+	c #627288",
"5=+	c #616F82",
"6=+	c #B8C1C4",
"7=+	c #B5C1C4",
"8=+	c #AFB5B2",
"9=+	c #A6A9A3",
"0=+	c #5F615E",
"a=+	c #3D4A56",
"b=+	c #687A8F",
"c=+	c #B8BABA",
"d=+	c #B7B5B2",
"e=+	c #C7CACC",
"f=+	c #CAD0D6",
"g=+	c #CEDAEA",
"h=+	c #C5D3E6",
"i=+	c #B4C6DD",
"j=+	c #94A3B7",
"k=+	c #627488",
"l=+	c #A2ABB0",
"m=+	c #ADB4B4",
"n=+	c #A5ABAB",
"o=+	c #868D8C",
"p=+	c #A1A8A7",
"q=+	c #9EA4A4",
"r=+	c #9EA4A3",
"s=+	c #838279",
"t=+	c #C5D6EF",
"u=+	c #DAD8DB",
"v=+	c #D3CDCB",
"w=+	c #829897",
"x=+	c #8B998F",
"y=+	c #89978D",
"z=+	c #808B83",
"A=+	c #87948B",
"B=+	c #88958C",
"C=+	c #848989",
"D=+	c #475768",
"E=+	c #556978",
"F=+	c #647D8E",
"G=+	c #738C9B",
"H=+	c #7F949D",
"I=+	c #86979C",
"J=+	c #889699",
"K=+	c #525D65",
"L=+	c #3B4756",
"M=+	c #626663",
"N=+	c #575853",
"O=+	c #706F6A",
"P=+	c #505E6F",
"Q=+	c #676C73",
"R=+	c #667486",
"S=+	c #ACABAD",
"T=+	c #5E636A",
"U=+	c #5E6967",
"V=+	c #7A8270",
"W=+	c #777E6C",
"X=+	c #737B69",
"Y=+	c #707864",
"Z=+	c #747C6A",
"`=+	c #777D6E",
" -+	c #707867",
".-+	c #4B5251",
"+-+	c #9DA89D",
"@-+	c #87908B",
"#-+	c #6D6E66",
"$-+	c #55584E",
"%-+	c #6E6F69",
"&-+	c #AEB1AB",
"*-+	c #A1A69E",
"=-+	c #A0A49D",
"--+	c #727779",
";-+	c #5D6D7B",
">-+	c #8496A6",
",-+	c #8695A1",
"'-+	c #A5B6C0",
")-+	c #85929D",
"!-+	c #414E58",
"~-+	c #696F68",
"{-+	c #464E52",
"]-+	c #738496",
"^-+	c #B5B3B0",
"/-+	c #C8C9CA",
"(-+	c #6F849A",
"_-+	c #8E9493",
":-+	c #838989",
"<-+	c #A1A9A8",
"[-+	c #A5ACAC",
"}-+	c #9C9D97",
"|-+	c #656664",
"1-+	c #67778D",
"2-+	c #D3DAE9",
"3-+	c #B6B2B1",
"4-+	c #87958B",
"5-+	c #88968C",
"6-+	c #626A6F",
"7-+	c #5D6E83",
"8-+	c #52647A",
"9-+	c #5F748B",
"0-+	c #687E90",
"a-+	c #7590A5",
"b-+	c #7F98A8",
"c-+	c #788583",
"d-+	c #7A8480",
"e-+	c #6F7772",
"f-+	c #4C4E46",
"g-+	c #4F5252",
"h-+	c #403F39",
"i-+	c #5C5950",
"j-+	c #504F4B",
"k-+	c #A4ACB5",
"l-+	c #6C6F72",
"m-+	c #5B6A7D",
"n-+	c #5B6666",
"o-+	c #7A8072",
"p-+	c #717968",
"q-+	c #495151",
"r-+	c #666B74",
"s-+	c #A4ACB8",
"t-+	c #51544B",
"u-+	c #5B5D55",
"v-+	c #63645C",
"w-+	c #6B6D68",
"x-+	c #5D6776",
"y-+	c #647286",
"z-+	c #484F5A",
"A-+	c #5D6F81",
"B-+	c #AAADA7",
"C-+	c #6E7C86",
"D-+	c #626565",
"E-+	c #475763",
"F-+	c #C1BBB3",
"G-+	c #74899C",
"H-+	c #8C9190",
"I-+	c #A3A9A8",
"J-+	c #9CA4A3",
"K-+	c #A4ABAA",
"L-+	c #A9A89E",
"M-+	c #91A3BC",
"N-+	c #D5D5DC",
"O-+	c #87928A",
"P-+	c #909A92",
"Q-+	c #758C9B",
"R-+	c #9DA49A",
"S-+	c #576575",
"T-+	c #8099AF",
"U-+	c #8DA2AC",
"V-+	c #8FA1A7",
"W-+	c #8A989A",
"X-+	c #7D8783",
"Y-+	c #78827E",
"Z-+	c #76807D",
"`-+	c #798580",
" ;+	c #757C75",
".;+	c #555B5A",
"+;+	c #A1A9B3",
"@;+	c #717374",
"#;+	c #76797E",
"$;+	c #55656B",
"%;+	c #757D6C",
"&;+	c #747A6A",
"*;+	c #757B6B",
"=;+	c #6F7865",
"-;+	c #747A6C",
";;+	c #7D8375",
">;+	c #4A5254",
",;+	c #9FA99E",
"';+	c #939C93",
");+	c #A8B1BD",
"!;+	c #696B68",
"~;+	c #627590",
"{;+	c #5E6773",
"];+	c #9EA39B",
"^;+	c #A5A69C",
"/;+	c #99A5A7",
"(;+	c #5A5E60",
"_;+	c #445461",
":;+	c #8B9CAE",
"<;+	c #B9B3AA",
"[;+	c #758898",
"};+	c #878D8C",
"|;+	c #979F9E",
"1;+	c #9DA4A3",
"2;+	c #979E9D",
"3;+	c #808686",
"4;+	c #7E8484",
"5;+	c #9FA6A5",
"6;+	c #9DA3A3",
"7;+	c #8D8C84",
"8;+	c #787570",
"9;+	c #616765",
"0;+	c #87938B",
"a;+	c #919B90",
"b;+	c #5A6974",
"c;+	c #9FA498",
"d;+	c #4F5963",
"e;+	c #6D8493",
"f;+	c #8A928F",
"g;+	c #848D89",
"h;+	c #77827D",
"i;+	c #77837F",
"j;+	c #75817C",
"k;+	c #7A8078",
"l;+	c #34383E",
"m;+	c #9FA8B1",
"n;+	c #767778",
"o;+	c #B0AFB1",
"p;+	c #7B7B7E",
"q;+	c #526064",
"r;+	c #78806D",
"s;+	c #717868",
"t;+	c #4A545A",
"u;+	c #98A4A0",
"v;+	c #546477",
"w;+	c #59606A",
"x;+	c #B8C1CE",
"y;+	c #6C6D66",
"z;+	c #61635B",
"A;+	c #65675E",
"B;+	c #6E6F67",
"C;+	c #5F6E85",
"D;+	c #A3A69F",
"E;+	c #4F5456",
"F;+	c #43535E",
"G;+	c #626962",
"H;+	c #515751",
"I;+	c #4F574D",
"J;+	c #B6ADA1",
"K;+	c #788A98",
"L;+	c #878C8C",
"M;+	c #848A89",
"N;+	c #8C9392",
"O;+	c #7C8382",
"P;+	c #7D8483",
"Q;+	c #A6ADAD",
"R;+	c #898E8D",
"S;+	c #83847D",
"T;+	c #68808E",
"U;+	c #76919C",
"V;+	c #677B82",
"W;+	c #4C5B5F",
"X;+	c #4C4F50",
"Y;+	c #676460",
"Z;+	c #928D87",
"`;+	c #B6B0AC",
" >+	c #565A61",
".>+	c #757D79",
"+>+	c #8C978F",
"@>+	c #525E6A",
"#>+	c #879492",
"$>+	c #989B90",
"%>+	c #55616E",
"&>+	c #5E7380",
"*>+	c #7B8887",
"=>+	c #6D7B76",
"->+	c #7B8783",
";>+	c #76817D",
">>+	c #777E76",
",>+	c #4A5457",
"'>+	c #444A50",
")>+	c #9FA8B2",
"!>+	c #7B7C7B",
"~>+	c #808186",
"{>+	c #506067",
"]>+	c #757C6A",
"^>+	c #808577",
"/>+	c #727969",
"(>+	c #4C575D",
"_>+	c #8F948D",
":>+	c #C0C9D6",
"<>+	c #D5D0CD",
"[>+	c #70716A",
"}>+	c #5F6977",
"|>+	c #5E697A",
"1>+	c #677A8D",
"2>+	c #91A1A7",
"3>+	c #4B4F51",
"4>+	c #44535D",
"5>+	c #49514A",
"6>+	c #50574E",
"7>+	c #9BA6B0",
"8>+	c #B3ABA0",
"9>+	c #7B8A95",
"0>+	c #888D8D",
"a>+	c #9AA0A0",
"b>+	c #919796",
"c>+	c #818887",
"d>+	c #7D8383",
"e>+	c #898F8F",
"f>+	c #8B8E8B",
"g>+	c #858681",
"h>+	c #7F9291",
"i>+	c #899789",
"j>+	c #869386",
"k>+	c #839488",
"l>+	c #81948D",
"m>+	c #798D8D",
"n>+	c #617272",
"o>+	c #566365",
"p>+	c #767474",
"q>+	c #A5A09B",
"r>+	c #D5D0CF",
"s>+	c #C3B9B2",
"t>+	c #4E5759",
"u>+	c #70818D",
"v>+	c #87918C",
"w>+	c #505658",
"x>+	c #848E89",
"y>+	c #96A29A",
"z>+	c #93968B",
"A>+	c #545D66",
"B>+	c #576E7B",
"C>+	c #6D7C76",
"D>+	c #667570",
"E>+	c #64756F",
"F>+	c #687470",
"G>+	c #6C7A75",
"H>+	c #78827F",
"I>+	c #757D76",
"J>+	c #4C5559",
"K>+	c #666661",
"L>+	c #5C5E5B",
"M>+	c #8B8F93",
"N>+	c #989C9E",
"O>+	c #505F68",
"P>+	c #727B68",
"Q>+	c #818879",
"R>+	c #93A2A3",
"S>+	c #9BA398",
"T>+	c #BFC7D3",
"U>+	c #D3CECC",
"V>+	c #71726A",
"W>+	c #696A63",
"X>+	c #6C6E6C",
"Y>+	c #667889",
"Z>+	c #AAAEA6",
"`>+	c #A3ABA7",
" ,+	c #494D51",
".,+	c #44535C",
"+,+	c #575E56",
"@,+	c #4F564D",
"#,+	c #9CA6AF",
"$,+	c #B1AA9F",
"%,+	c #7E8B93",
"&,+	c #A0A6A5",
"*,+	c #7A7C7A",
"=,+	c #7E918F",
"-,+	c #889387",
";,+	c #859085",
">,+	c #829082",
",,+	c #7F8C7F",
"',+	c #7E8C7E",
"),+	c #7E8E7E",
"!,+	c #7F9285",
"~,+	c #738882",
"{,+	c #667168",
"],+	c #929690",
"^,+	c #A5A6A5",
"/,+	c #8C8278",
"   .  +  @  #  $  %  &  *  =  -  ;  >  ,  '  )  !  ~  {  ]  ^  /  (  _  :  <  [  <  :  }  |  1  2  3  4  5  6  7  8  9  0  a  b  0  9  8  c  d  e  f  g  h  i  j  k  l  m  n  o  p  q  r  o  s  t  u  v  w  x  y  z  A  B  C  D  E  F  G  H  I  J  J  K  L  L  M  N  O  P  Q  R  S  T  U  V  W  X  Y  Z  `   . .. +. @. #. $. %. &. *. =. -. ;. >. ,. '. ). !. ~. {. ]. ^. /. (. _. :. <. [. }. |. 1. 2. 3. 4. 5. 6. 7. 8. 9. 0. a. b. c. d. e. f. g. h. i. j. k. l. m. n. o. p. q. r. s. t. @  u. v. w. x. y. z. A. B. C. D. E. F. G. H. I. J. K. L. M. N. O. G. P. Q. R. S. T. U. V. W. X. Y. Z. `.  + .+ `. ++ @+ #+ $+ %+ &+ *+ =+ -+ ;+ >+ ,+ '+ )+ !+ ~+ {+ ]+ ^+ ^+ )+ /+ (+ _+ :+ <+ [+ }+ |+ 1+ 2+ 3+ 4+ 5+ 6+ 7+ 8+ 9+ 0+ a+ b+ c+ d+ e+ f+ g+ h+ i+ j+ k+ l+ m+ n+ k+ o+ p+ q+ r+ s+ ",
"t+ u+ v+ w+ x+ y+ z+ A+ B+ C+ D+ E+ F+ G+ H+ I+ J+ K+ L+ M+ N+ O+ P+ Q+ [  R+ S+ <  T+ [  U+ 1  2  V+ W+ X+ Y+ Z+ `+  @ .@ +@ @@ .@ #@ $@ %@ &@ *@ =@ -@ ;@ >@ ,@ '@ )@ x  !@ o  ~@ {@ )@ ]@ w  s  s  o  ]@ ^@ /@ (@ _@ :@ <@ [@ }@ |@ 1@ 2@ 3@ 4@ 5@ 6@ 2@ 7@ M  8@ 9@ 0@ a@ b@ .. c@ d@ e@ f@ g@  . h@ +. @. i@ j@ k@ l@ m@ n@ o@ p@ q@ r@ s@ t@ u@ v@ w@ x@ y@ z@ A@ B@ C@ D@ E@ F@ G@ H@ I@ J@ K@ L@ M@ N@ O@ P@ Q@ R@ S@ T@ U@ V@ W@ X@ Y@ Z@ `@  # .# +# @# ## $# %# &# *# =# -# ;# ># ,# s. '# )# )# !# ~# {# ]# ^# /# (# _# I. H. :# <# [# E. F. }# |# 1# 2# 3# 4# 5# 6# 7# 8# 9# @+ 0# a# b# c# c# d# e# a# Z. f# g# h# i# j# k# l# m# n# '+ )+ ~+ ~+ ~+ ~+ o# l# p# q# r# s# t# u# v# w# x# y# 9+ 4+ z# A# B# C# 7+ D# E# F# G# H# I# J# K# L# M# N# N# O# P# Q# R# P# l+ S# T# U# V# ",
"W# X# Y# Z# Y# `#  $ x+ .$ +$ @$ #$ $$ %$ &$ *$ =$ -$ ;$ >$ ,$ '$ )$ !$ ~$ {$ T+ ]$ ]$ ^$ /$ ($ ,$ _$ :$ <$ [$ }$ 7  |$ 1$ 2$ 3$ 4$ $@ 5$ 6$ 7$ 8$ 9$ 0$ a$ b$ c$ d$ e$ f$ g$ w  h$ i$ j$ k$ w  ~@ ]@ g$ !@ ^@ l$ m$ n$ o$ p$ q$ r$ s$ t$ M  5@ M  N  u$ v$ v$ 3@ 9@ w$ x$ y$ z$ A$ h@ B$ B$ C$ D$ E$ i@ j@ F$ G$ H$ I$ J$ K$ L$ M$ N$ O$ P$ Q$ R$ S$ T$ T$ U$ U$ U$ V$ W$ T$ X$ Y$ Y$ Z$ `$  % .% +% @% #% $% %% &% &% *% =% -% -% =% ;% >% ,% '% )% !% ~% {% ]% ^% /% (% _% :% <% [% }% |% 1% (% 2% 3% 4% 5% 6% 7% 8% 9% 0% (# a% |# P. b% c% 0% d% N. O. G. e% f% D. g% h% i% j% 8# k% l% m% n% o% p% c# p% e# q% m% r% s% t% u% v% w% ]+ =+ x% y% ^+ ~+ ~+ {+ z% ^+ A% q# B% C% D% E% F% 5+ G% H% I% J% K% L% y# M% N% F% |+ O% P% Q% R% S% T% U% V% W% X% Y% Z% `% Z% Q#  & O# k+ .& +& @& ",
"#& $& %& && W# $& #& X# `# w+ w+ X# #& *& =& -& [% ;& >& ,& '& 1  T+ )& !& ~& O+ _$ U+ ]$ {& ]& ^& /& (& _& :& 8$ <& [& Z+ }& Z+ |& 1& }$ 2& 3& 4& 5& 6& *@ 7& 8& d$ e$ x  r  r  9& r  0& a& o  w  h$ n  ]@ ]@ b& c& d& G  2@ 2@ e& 7@ 4@ f& f& L  3@ e& t$ g& N  h& i& j& k& l& m& n& o& p& q& r& s& t& u& v& L$ w& x& y& z& A& B& C& X$ Y$ D& E& F& G& H& I& J& K& L& M& N& O& P& Q& R& S& T& U& V& W& t% :. X& M& Y& Z& `&  * .* +* @* #* $* %* &* ** =* y# -* ;* >* ,* '* )* !* ~* {* ]* ^* /* (* _* :* <* [* }* |* 1* 2* L. G. 3* 4* 5* 6* 7* 8* 9* 0* a* b* 3# c* d* e* f* g* 8# h* 9# i* n% a# `. j* k* a# ++ X. l* m* n* >* w% o* p* k# q* r* s* {+ z% s* t* ]+ >+ u* v* w* x* y* z* A* 8+ D# D# B* 2+ C* |+ -* D* E* F* G* H* I* J* K* L* M* N* l+ O* P* Q* R* S* Q# `%  & n+ o+ S# T* ",
"Y# X# Z# U* w+ X# V* W* W* X* Y* $& Z# && %& Z* `*  = .= += @= #= U+ $= %= &= ~$ *= {& )& )& == -= >$ ;= >= ,= '= )= != 8$ d  d  &@ <& ~= {= ]= ^= d  /= (= _= := <= [= r  [= i$ f$ }= 0& f$ h$ w  ^@ [= [= {@ )@ |= 1= 5@ 5@ 4@ u$ M  2= N  M  u$ 4@ g& 3= 5@ h& 4= 4@ 5= 6= 7= 8= l& 9= 0= a= b= c= d= e= f= g= h= i= j= k= l= m= n= o= 7% p= h# q= r= s= t= u= v= w= x= y= z= A= B= C= D= E= F= G= H= I= I= J= K= L= M= N= O= P= Q= R= S= T= U= V= <. W= X= Y= Z= <+ 2+ y# `=  - .- +- x& @- #- $- %- &- *- =- -- ;- >- f% 1# 0% 8* 0% ,- '- 8* 8* )- d% b* !- ~- {- ]- ^- U. U. /- (- _- l% :- ++ a# n% :- <- $+ f# [- }- o= |- w% 1- p* !+ 2- z% !+ ~+ t* v% t* 2- '+ u* 3- 4- 5- 6- 7- 8- 0+ 9- 0- a- b- i. c- d- e- f- g- U@ h- i- j- k- l- m- T# n- M# o- o- p- R* q- Z%  & P# n- r- s- ",
"t- && u- v- $& w- x- y- U* w- %& %& #& z- Y* A- B- C- D- E- F- !$ U+ <  S+ <  P+ ]& !$ T+ {$ G- ,& H- I- J- K- L- '= /= 8$ M- N- O- P- Q- R- S- <& 8$ T- U- V- W- X- /@ }= {@ {@ m  Y- m  h$ f$ {@ m  Z- `- )@  ; .; +; @; 5@ 4@ L  f& N  3@ #; 3= K  L  $; 8@ w$ M  u$ %; &; *; =; -; w& ;; >; ,; '; ); !; X@ ~; {; ]; h= ^; /; (; _; :; <; [; E= }; G= |; 1; 2; 3; 4; 5; 6; 7; 8; 9; 0; a; |; b; c; q$ d; 9; e; f; I= g; h; G  d; i; j; a; f; k; l; m; n; o; -- p; $- q; r; s; t; u; v; w; x; y; z; A; B; C; D; E; F; G; H; 1# (# E. I; J; K; G. G. M. L; M; N; m= O; P; Q; R; S; T; U; V; W. Z. W; a# `. <- ++ $+ l* k% X; Y; Z; {+ `; =+ m#  > o# y% -+ j# .> k# ;+ q# +> 3- @> #> $> %> &> *> => -> ;> >> ,> '> )> !> ~> {> ]> ^> /> (> _> :> <> [> }> |> o- 1> 2> 3> 4> Q# 5> P# n- 6> 7> ",
"$& $& $& && t- W* `# 8> 8> x- y- Y# %& $& 9> 0> a> b> c> d> e> f> T+ Q+ _  !$ {& ~$ g> &= |  h> ,& i> j> k> l> m> n> o> p> q> r> s> != t> &@ u> d  /= v> w> x> y> z> A> B> [= r  C> D> ]@ ]@ r  m  }= m  )@ /@ E> F> G> w$ K  M  5@ 5@ u$ #; 2@ 6@ H> f& @; w$ K  M  I> J> K> L> M> N> '; O> P> Q> R> S> T> U> V> W> X> Y> Z> `>  , B  ., +, 3; 1; a; G= [; 0; +, I= #; @, g; #, +, b; f; [; b; $, B= J= d; [; %, z= A= &, d; 2@ *, i; =, 2; =, &, c; &, -, ;, >, ,, ', I* ), ,, &+ 5& !, ~, {, }+ ], 2+ ^, /, (, _, :, <, [, 2# }, (# |, 1, Q. 2* 2* P. 2, 3, 4, 5, 6, 7, 8, 9, X; T. /- 0, 0, #+ i* a, m% $+ b, c, 9# d, S; e, f, g, l# '+ h, p# i, j, >+ =+ k, q* A% l, m, n, o, p, q, r, s, t, (, u, v, w, x, y, z, z, A, B, C, D, E, F, G, H, I, J, K, L, X% M, N, O, R* Q# P, P# r- Q, v+ ",
"t- #& R, $& v- %& U*  $ x- #& $& W# Y* S, T, U, V, W, X, ]$ Y, Z, [  :  T+ T+ _  $= `,  ' .' +' @' #' $' %' &' *' =' -' ;' >' ,' '' )' !' ~' {' ]' >@ ^' /' 5  (' _' :' Y- Z- m  m  D> h$ ]@ r  m  m  [= Z- /@ E> <' [' w$ K  }' L  2@ #; u$ f& |' 8@ w$ w$ 1' 2' 3' 4' 5' 6' 7' '; 8' 9' 0' a' b' c' d' e' G= f' j; D= $, g' h' g; I= z= i' 9; [; j' a; k' C= l' I= ., g; m' f; K  &, k' j' K  h' G  c; u$ 9; n' h' A= A= o' 9; e; b; 9; =, D= }; i' H= p' q' r' s' $- t' u' v' w' x' y' z' A' B' C' D' E' F' G' H' I' J' K' L' M' ^# N' O' P' Q' R' S' T' U' V' W' 9% X' Y' Z' `' T; 7# V; 0, X. W; @+ l% W. 9# 0, d,  ) 6# .) +) @) '+ u* #) $) i, A% '+  > %) j# i, '+ &) *) =) -) ;) >) ,) ') )) !) ~) {) ]) ]) ^) /) () _) :) <) C, [) }) |) 1) K# 2) L, Y% 3) P* p- R* Z% |> n+ n- 4) v+ ",
"X* v- #& u- && V* W* W* #& Z# R, S, 5) 6) 7) 8) 9) 0) X, a) b) _  &= <  _  c) %= d) <  /$ e) f) g) h) i) j) k) l) m) n) o) p) q) J- r) s) t) u) v) w) x) y) z) A) B) C) D)  ; `- `- a& w  ]@ r  {@ a& }= `- D) E) m= F) 8@ f& G) e& H) 5@ w$ 0; h& I) J) K) L) M) N) 7' P> O) P) Q) ~; R) S) T) 7; ., ., A= A= o' l' f; U) G= c; @, d; V) e& f; U) 0; m' q$ z= W) X) @, f& M  C= |; =, Y) 3; ., B= B= o' i; l' 8; g; Z) Z> o' *, N  5@ f& }; G= l' l' I= H= `) ~#  ! .! +! @! #! $! %! &! &! *! =! -! ;! >! ,! '! )! !! ~! {! ]! _, ^! /! (! _! :! <! [! }! |! 1! C. 2! 3! 4! 5! d, /- 6! /- U; W. b, 7! 8! U; V; j% 9! 0! a! b! c! d! q# n, e! m# x% ;+ /+ f! ]+ p* r* !+ ;+ h, m, g! h! i! j! k! l! ~) ]) m! n! o! p! q! q! r! s! ^) B, [) t! u! v! w! x! w! M# 1> P* y! `% 5> |> r- n- z! x- ",
"R, W# Y* W# v- A! #& W# W# t- B! S, C! D! E! 7% F! G! H! I! e) J! K! L! $= `, M! [  <  P+ N! O! P! Q! R! S! T! U! V! W! X! Y! Z! `!  ~ .~ +~ @~ #~ $~ %~ &~ *~ =~ -~ A> E> 0& 0& 0& C> o  o  9& w  {@ 0&  ; ;~ >~ ,~ '~ |' N  )~ e& f& 8@ !~ ~~ {~ ]~ ^~ /~ (~ _~ :~ <~ [~ w& }~ |~ 1~ 2~ W) 3~ `> #, I= B  h' G  +, +, o' j; C= b; u$ 4~ #, c; H  ., 5~ 6~ 7~ p$ g; B= u$ 1; !~ |; 0; 8~ 9~ 9~ m' G  o' j; H  8; B= Z> c; 2@ *, 3; 0; o' f& e; l' H  2~ d; 0~ g= a~ b~ c~ r$ d~ e~ %! f~ g~ %! h~ i~ i~ j~ k~ l~ m~ n~ o~ p~ q~ r~ s~ t~ u~ v~ w~ W' x~ y~ z~ W' A~ B~ C~ D~ E~ F~ g* G~ 6# H~ 8# k% V.  ) X; 6# I~ J~ K~ L~ M~ N~ O~ P~ 3- j, A% m# l# l# f! i, =+ o# {+ z% ^+ A% Q~ R~ S~ T~ U~ V~ {) r! W~ X~ Y~ Z~ `~ W~  { p! q! () /) .{ +{ @{ #{ ${ %{ &{ *{ P* 2> Z% P# |> r- ={ -{ `# ",
"Z# v- t- A! A! ;{ >{ t- W# #& W# ,{ T, '{ ){ S& !{ ~{ {{ ]{ ^{ /{ (  _  &= `, M! <  ({ _{ :{ {{ <{ [{ }{ |{ 1{ 2{ 3{ 4{ 5{ 6{ 7{ 8{ 8{ 9{ 0{ a{ b{ c{ d{ e{ f{ g{ C) D) h{ D) a& }= w  i{ t  ]@ h$ f$ a& ;~ j{ k{ l{ m{ i& 4= n{ 2@ o{ p{ q{ r{ s{ t{ '; u{ v{ w{ Y& x{ y{ z{ o' h' W) 7~ <@ :@ A{ A= B{ d; d; b; j' j' }; G= *, Z> o' A= I= d; :@ C{ p$ D{ A{ 6; D{ #; 4@ E{ =, l' 8@ @, g; V) m' 5@ e; @, B{ F{ 8; B{ G{ 5@ 2@ d; m' 3; 4@ 2@ 3; I= h; I= H{ I{ J{ K{ L{ M{ $! N{ O{ P{ Q{ P{ e~ R{ i~ S{ d~ T{ U{ V{ A  W{ X{ Y{ Z{ `{  ] .] +] @] #] $] %] &] *] =] -] ;] >] ,] '] )] 0! 0! !] 9! i% ~] {] ]] ^] /] (] _] :] <] [] q# h, 3- A% i, !+ !+ m# f! i, l# l# l# -+ )+ }] |] 1] J~ ^> 2] 3] X~ 4] 5] 6] 6] 7] 5] 8] 9] X~ p! s! ^) 0] a] b] c] d] e] K, 1> o- q- f] g] L, h] i] y- ",
"y-  $ w- W* #& V* #& R, X* A! Y* j] k] l] m] n] o] p] q] r] s] @= t] ($ g> _  ({ ~$ {$ u] F- v] w] x] y] z] A] B] C] D] E] F] G] H] I] F] J] K] L] M] F] N] O] P] Q] /@ R] a& m  ]@ s  s  S] h$ ^@ x  Z-  ; b& T] U] V] W] $; X] Y] Z] `]  ^ .^ +^ @^ #^ $^ %^ &^ *^ i' k' &, d; z= :@ <@ =^ -^ ., A= b; m' l' B= K  }; a; ;^ >^ l' I= @, A= 8; ,^ W) 7~ 5~ D{ q$ M  1; 9@ j; f; o' I= G{ g; n' 3; M  Z> 9~ Z> c; 4@ m' I= 3; I= c; B{ =, 0; 4@ B= A= I= '^ )^ !^ ~^ {^ ]^ ^^ g~ P{ /^ (^ _^ :^ <^ %! i~ [^ R{ N{ :^ Q{ %! }^ |^ 1^ <$ 2^ 3^ ~! 4^ 5^ 6^ 7^ 8^ 9^ 0^ a^ b^ c^ d^ e^ f^ g^ d. h^ i^ j^ k^ l^ m^ n^ <$ N] o^ p^ O; q^ r^ n, s^ $) ;+ -+ ^+ y% >+ $) t^ m# m# g, l# -+ g, u^ v^ w^ x^ C, _) Y~ 9] 6] 5] 5] y^ z^ A^ B^ C^ D^ E^ n! .{ F^ G^ H^ I^ J^ J, K^ L^ M^ S# V% L, N^ O^ w+ ",
"x- P^ Y# W* Q^ #& $& $& W# W# R^ S^ ~# T^ U^ V^ W^ X^ Y^ Z^ `^ J! a)  / {& ./ _{ h> G- O+ v] +/ @/ #/ $/ %/ &/ */ =/ -/ ;/ >/ J] ,/ '/ )/ !/ ~/ {/ ]/ ^/ // (/ -~ ;~ )@ }= f$ w  w  ~@ ~@ t  s  f$ }= /@ A> j{ _/ :/ </ [/ }/ X& |/ 1/ u{ 2/ 3/ 4/ h= 5/ 6/ 7~ J= &, V) c; m' A= g; q$ B= B{ @, o' b; c; @, 2@ b; 4@ =, m' =, !~ >^ +, q$ W) 7/ C{ h' 8/ F{ m' e; O  }; +, =, b; q$ I= c; Z> z= u$ @, G{ q$ 4@ l' I= c; B= z= 9/ Z> G  9~ q$ ., h' 0/ 5; a/ b/ c/ d/ e/ f/ #! h~ f~ P{ (^ (^ /^ Q{ f~ h~ g/ &! N{ /^ T{ e~ S{ ^^ r$ h/ i/ j/ k/ l/ C& z# m/ n/ o/ p/ q/ r/ s/ t/ u/ v/ w/ x/ y/ z/ A/ B/ /! ,~ C/ D/ E/ F/ G/ H/ V= I/ J/ '+ A% i, -+ l# f! e! 3- $) $) $) /+ l# )+ g, K/ 1. L/ x^ C, ^) M/ 9] 6] Z~ D^ N/ O/ O/ P/ z^ y^ 4] Q/ () V^ R/ S/ T/ K^ U/ V/ W/ X/ Y/ Z/ `/  ( .( Y# ",
"w+ `# w+ $& X* W# X* $& +( @( #( $( %( &( ^) n! n! *( =( -( ;( >( ,( ,$ f> )& ]& s] '( v] )( !( ~( {( ]( ^( /( ^( (( F] P, _( :( <( [( }( [( '/ G] |( 1( {- 2( l$  ; m  3( x  ]@ h$ w  ~@ w  !@ !@ [=  ; E> 4( 5( ;! 6( 7( 8( t{ 9( 0( a( b( c( d( |; I= e( f( 2~ +, +, I= e; }; [; 9@ e; @, B= d; @, e& 3; 0; }; o' c; [; 4@ 9; E{ a; 3; u$ B= B= b; K  K  5@ o' Z) ., ., g; B{ c; @, c; G{ d; 5@ B= d; @, 8; 2@ u$ G  7~ g( h( h' d; I= G{ W) 9/ h' z= i( j( :/ k( l( m( h~ &! &! e~ Q{ T{ T{ n( o( p( o( e~ <^ P{ q( &! r( s( t( u( v( w( x( y( z( A( B( C( D( O$ E( F( G( H( t% I( J( K( L( L( M( N( O( P( Q( R( S( T( U( V( W( X( Y( '+ A% i, ^+ -+ i, /+ j, '+ 3- '+ /+ i, /+ 3- Z( `(  _ ._ +_ {) r! 4] 6] D^ 9] A^ P/ A^ @_ @_ z^ 8] W~ () B, #_ $_ Z& %_ &_ x! w! w! *_ f+ =_ I' && v+ ",
"x- Y# X# V* && && >+ -_ ;_ >_ x* ,_ '_ () o! )_ Y~ 4] Y~ r! !_ ~_ {_ ]_ ^_ ]{ s] /_ (_ __ ^  :_ =' <_ [_ }_ |_ 1_ 2_ 3_ J] 7{ 4_ 5_ 6_ [_ 7_ 8_ 9_ 0_ a_ b_ c_ l$ D) }= x  Z- {@ q  g$ h$ r  [= e$ Z- ;~ Q] d_ +] e_ f_ g_ 2/ h_ i_ j_ k_ l_ m_ @, [; m' 5~ n_ 7~ e& j; 3; =, 9@ =, 3; 3; l' 9; m' f& 0; w$ j; +, B{ B{ Z> i; c; u$ m' +, H  B= 2@ o' c; c; B= Z> d; g; I= Z> 4@ 4@ o' b; e; 3; @, G  B= g; q$ ., 3~ X) o_ p_ q_ ,^ V) b; 8/ X) z= h' r_ s_ t_ t/ u_ v_ w_ x_ N{ N{ N{ y_ N{ n( n( T{ /^ z_ A_ (^ Q{ y_ h~ B_ s( C_ s( D_ S{ &! E_ F_ G_ H_ I_ J_ K_ L_ M_ ,> [! N_ O_ P_ Q_ R_ S_ T_ U_ V_ W_ X_ Y_ Z_ `_  : U( .: :/ +: '+ A% x% !+ q* q* q* 2-  > $) j, t^ m# $) @: #: $: b( %: D, z, _) D^ 8] 8] B^ &: A^ *: B^ N/ N/ 5] W~ s! ^) =: -: ;: y( >: ,: ': ): T% !: ~: {: W# v+ ",
"X# #& #& e! ]: ^: /: (: r, _: :: <: s! s! q! o! o! X~ C^ 5] Q/ [: }: |: 1: 2: v] 3: 4: 5: 6: 7: 8: 9: 0: a: b: |_ c: d: e: &/ f: g: h: i: /( j: k: l: m: n: o: l$ j$ m  r  e$ k$ r  m  )@  ; D) ;~ l$ p: q: r: s: t: 7' u: v: h# w: j~ Z> A{ x: 4; }; A= g; z= G  z= #, #; +, 0; 0; j; G= K  d; e& 3; 0; E{ 0; e; K  2@ #, g; o' m' o' o' o' o' u$ l' o' m' =, 3; o' 3; b; =, e; 4@ m' =, l' c; B= B= @, B= #; y: V) B= z: f( A: z: q$ d; W) 3~ #, A= &, B: C: D: r: E: I  t( N{ <^ y_ f~ e~ q( y_ F: z_ G: G: :^ <^ T{ q( h~ r( [^ %! N{ <^ T{ N{ e~ d~ H: I: O& J: K: A& L: M: h# U' N: O: P: Q: R: S: T: U: V: W: X: W: Y: Z: `:  < .< +< A% i, !+ j# p* v% v% j# x% f! m# g, p# @< n, #< $< %< &< 2] ^) D^ 5] B^ A^ O/ z^ 8] 7] 4] 4] D^ M/ o! m! ]) x^ *< b~ =< p= -< ;< >< ,< '< )< Y* W# ",
"!< ~< {< ]< ^< /< (< _< :< << [< Y~ 4] E^ q! }< s! M/ N/ 5] |< B, 1< 2< 3< 4< 5< 6< 7< 8< 9< u_ 0< a< b< c< d< }_ e< 7{ f< i: g< 0_ h< i< j< k< l< m< n< o< l$ C) )@ j$ p< Y- )@ Z- 0& E> l$ Q] q< r< s< t< u< 7' v< w< _, x< y< 4; @, I= -^ z< Z> b; G  d; D{ Z> @, F{ h' p$ #, G  2@ #; A= @, e; }; 8@ j; }; Y) j' N  Z> ., z= o' b; u$ #; e& e& b; m' K  [; e; 3; M  5@ =, =, 3; 5@ o' B= B{ I= B{ q$ z= n_ :@ H  n_ q_ q_ A< ,^ 4@ z= 8/ C{ z= d; B< C< D< E< F< G< ^^ t( s( y_ O{ q( o( e~ n( <^ T{ n( n( e~ n( F: (^ y_ %! N{ /^ H< I< I< z_ J< K< P{ %! L< M< A' N< O< P< Q< R< t/ S< 9+ T< U< V< W< X< Y< Z< `<  [ X< .[ W< +[ ,> @[ A% i, ^+ {+ s* t* w% p* q* i, ;+  > x% g, A% '+ #[ $[ %[ +_ /) r! M/ C^ z^ A^ C^ D^ Z~ Z~ 4] Y~ p! q! m! _) C, &[ *[ =[ -[ ;[ {_ >[ ,[ '[ )[ ![ ~[ ",
"{[ ][ ^[ /[ ([ _[ :[ <[ [[ ~) 3] Y~ z^ 5] q! }[ _) M/ C^ 5] |< {) |[ |[ 1[ 2[ 3[ 4[ 5[ 6[ 7[ 8[ 9[ c: 0[ 0[ }_ b: a[ b[ c[ d[ %] %] b_ e[ f[ g[ h[ i[ j[ k[ D) E> l[ k$ e$ }= C> [=  ; l$ m[ n[ o[ p[ q[ _~ r[ s[ t% t[ u[ E{ i; @, d; g; -^ 7~ H  3; Z> B= @, B  -^ 3~ -^ v[ x: 7/ w[ d; m' e; w$ 1; a; 1; i; m' i; 3; m' I= A{ z= A= h' ., X) #, Z> @, @, e& 3; 9@ *, [; }; j; e; D= m' #, l' Z> g; @, :@ x[ V) A= y[ z: z[ e( 3~ +, A[ g; h' A= B[ C[ D[ Y& E[ F[ G[ H[ H[ D_ I[ e~ n( N{ N{ N{ q( I[ B_ s( i~ y_ O{ <^ P{ <^ J< G: J[ K[ L[ M[ N[ _^ Q{ y_ h~ s( O[ P[ (< Q[ R[ S[ T[ U[ V[ W[ X[ Y[ U(  :  [ Z[  [ W:  [ `[  } =* .} +} A% i, -+ ^+ !+ ~+ `; w% z% !+ -+ y% y% x% i, t^ @} #} $} %} |[ ]) s! D^ 8] 5] Z~ Y~ X~ M/  { W~ |< () () () &} *} =} -} ;} >} ,} '} )} </ !} ~} {} ",
"]} ^} /} (} _} :} <} D, C, [} () E^ z^ 8] _) <) {) }} y^ B^ W~ ]) z, |[ C, |} 1} 2} 3} J* 4} 5} 6} 7} 3_ 2_ a: 8} 9} 0} a} 0} 0} 0} b} c} d} 7} e} f} g} h} X- ;~ i} Y- m  x  [= Z- D) j} k} l} m} '; n} o} N] p} q} r} s} j; [; $, g; ., n_ C{ H  5@ e& p$ Z> ., 7~ 3~ t} 5~ A{ 3~ 8/ =, =, c; c; o' l' #; #; +, M  C= 4@ +, o' q$ B= o' l' @, G  M  D= !~ 1; a; D= K  =, C= e; G= C= m' I= e& 3~ W) W) x: 7/ A{ 9/ :@ B  q$ g; d; &, z= *, A= B= u} v} s# K> w} x} y} *! h~ D_ D_ z} R{ R{ R{ &! g/ I[ I[ g/ q( O{ f~ I[ R{ I[ q( P{ F: /^ J< A} A} :^ P{ N{ %! i~ D_ B} C} D} E} F} G} H} I} J} ~} K} Y[ V< Z: Y:  [ W: L} Y: M} V< N} O} A% g, l# P} 2- q* t* %) s* ]+ ^+ 2- l# x% l# g, /+ Q} R} S} |[ z, ]) p! Y~ X~ X~  { `~ T} p! E^ }} () ]) U} V} W} X} Y} Z} `}  | .| +| @| #| $| ]} ",
"%| &| *| {& =| V^ C, ]) m! r! o! M/ C^ 9] }} -| ;| [} M/ z^ Z~ ]) +_ V~ V~ >| ,| '| E< p^ )| !| G] I] 6{ c: F] ~| {| ]| ^| /| (| _| :| <| [| }| || 1| 2| 3| C) E> 4| 5| A> `- Z- 6| 7| [| 8| 9| 2/ 0| X+ a| b| c| D= }; 2; }; e; l' A= 5~ d| C{ c; +, o' @, 7~ e| <@ :@ :@ Z> H  4@ K  *, m' b; i; U) 8@ C= }; o' q$ c; =, +, +, e& %, m' +, m' 3; U) j' r} r} 8~ 1; |; 1; Y) F= f| [; g; I= -^ C{ ., W) e( y: 5; d; B{ B{ V) d; @, #, c; +, 2~ p' g| h| i| ~; h! j| M{ &! p( H[ [^ q( q( p( I[ h~ %! F: F: <^ <^ q( p( z} B_ D_ B_ H[ [^ I[ e~ <^ F: Q{ O{ n( q( %! h~ i~ k| D_ l| m| P; n| o| p| q| r| K- w# T:  } s|  [ `[ t| M} u| v| w| x| /+ i, )+ =+ !+ r* %) t* ~+ ^+ 2- i, i, -+ l# g, $) y| z| A| ~) ]) r! W~ W~ M/ `~ T} r! r! r! q! () B, B| C| D| E| F| G| H| I| J| K| L| M| N| O| ",
"P| Q| R| S| T| U| |[ _) E^ D^ Y~ 4] 5] 6] M/ E^ `~ V| ;| _) 3] W| A, [} D, T~ X| Y| Z| `|  1 .1 |_ J] +1 @1 #1 $1 %1 &1 (( e< ^( +1 L] *1 =1 -1 ;1 >1 ,1 '1 A> C) ;~ l$ )1 D) !1 ~1 {1 ]1 9| ^1 /1 (1 _1 f| |; j; }; G= |; E{ i; c; c; 7/ :1 B  =, 2@ c; +, w[ 5~ B  <1 d| G{ 3; m' o' h' W) 8/ e& o' b; G= m' q$ G  d; o' G= G= 9; 3; =, i& i; 2; i& f; f; b; &, d; i' [1 }1 |1 11 21 31 41 51 61 71 81 91 01 a1 b1 c1 d; H= o' H= g' i& A= B= f; d1 e1 P& h! f1 g1 #! e~ e~ p( O{ :^ z_ (^ (^ A} G: G: T{ q( o( h~ r( H[ D_ h1 h1 h1 s( h1 r( &! e~ q( e~ f~ h~ H[ i~ %! &! i~ D_ B} i1 j1 T! '[ k1 l1 U& m1 +[ n1 U: W< M} o1 p1 q1 r1 R} s1 A% g, P} o# ]+ r* w% r* ~+ ^+ )+ ;+ i, -+ 2- l# i, t1 u1 v1 w1 /) |< E^ E^ p! o! }} r! q! s! _) ]) x1 y1 z1 A1 E| B1 C1 D1 E1 F1 G1 H1 I1 I1 J| ",
"J1 K1 K| L1 M1 N1 B, s! M/ 5] 9] 6] C^ C^ D^ Z~ 4] Y~ M/ r! 3] 3] q! [} O1 P1 Q1 R1 S1 T1 U1 c: +1 V1 W1 X1 Y1 Z1 c: `1 F] c<  2 (( .2 0_ +2 @2 #2 $2 )1 /@ /@ A> C) -~ %2 &2 q^ *2 2/ =2 -2 r) ;2 c| Y) 2; j; U) 0; i; O  N  K  2@ d; t} :@ G  $, d; l' +, A= Z) 2@ l' C{ z< G  l' F{ 8; q$ V) B{ U) G= A= #, C= 9; @, f; +, [; 0; D= 0; 0; >2 ,2 '2 )2 !2 ~2 {2 o/ ]2 ^2 /2 >! (2 _2 :2 <2 [2 }2 |2 12 22 32 T! 42 52 62 $[ m1 72 82 92 02 a2 b2 c2 V& u@ d2 E< e2 w( h~ P{ T{ _^ H< A} /^ F: f2 H< f2 <^ R{ g/ z} H[ H[ H[ g2 g2 g2 D_ h1 D_ B_ h~ I[ I[ h~ g2 h1 [^ e~ f~ h~ ^^ w( h2 u( i2 w| %' @] j2 t/ ,> k2 l2 Y[ m2 T: q1 n2 n2 o2 p2 q2 ;+ -+ ]+ j# r* t* k# ^+ P} i, /+  > l# 2- ^+ =+ l# 7/ o= r2 s2 m! m! s! |< |< V| s! 3] 3] () t2 u2 v2 w2 x2 y2 z2 A2 B2 B2 C2 D2 E2 F2 E1 G2 ",
"H2 F1 I1 I2 J2 K2 /) s! M/ 6] 5] y^ C^ 6] 5] 6] 4] Z~  { M/ M/ p! :) W^ L2 Q1 M2 N2 O2 P2 Q2 R2 S2 T2 U2 V2 W2 b< <( X2 c< [( Y2 7_ Z2 1_ +1 `2  3 .3 ;~  ; 3| C) +3 @3 #3 $3 %3 &3 *3 r) =3 -3 f| ;3 U) e; [; 0; N  e; j; 3; 2@ 2@ X) d| A[ @, c; 4@ o' +, 4@ b; u$ m' H  6; z< y[ v[ B= B= B{ @, @, @, 4@ C= U) >3 &, i' i; ,3 '3 )3 !3 ~3 {3 Y& ]3 ^3 /3 (3 _3 :3 <3 [3 }3 |3 13 23 23 33 33 |3 43 53 43 |3 }3 53 63 73 83 93 03 a3 b3 c3 d3 ,> e3 f3 $[ g3 g= w} a2 d| h~ g~ P{ T{ T{ _^ H< H< A} A_ z_ T{ f~ R{ [^ [^ [^ [^ h~ z} H[ D_ h1 g2 i~ &! &! [^ g2 s( i~ %! &! D_ h3 i3 j3 k3 M{ l3 m3 n3 E; r: o3 f3 p3 q3 R: r3 m2 T: m2 s3 >1 t3 /+ )+ {+ j# j# ~+ o# )+ i, m# p# t^ g, y% o# ^+ )+ /+ u3 T2 v3 )_ n! |< r! |< _) :) A, <) w3 x3 y3 z3 I1 A3 B3 C3 D3 E3 E3 F3 F3 G3 H3 B2 I3 ",
"J3 K3 x2 J| L3 M3 [} s! M/ 4] 5] B^ B^ 6] C^ 5] Y~ o! s! }} s! [} N3 T~ O3 P3 Q3 R3 S3 T3 U3 |: V3 W3 X3 Y3 Z3 }_ `3 Y2  4 .4 +4 @4 )/  2 #4 $4 %4 &4 4( '1 3| *4 =4 -4 ;4 >4 ,4 '4 )4 !4 ~4 Y) ;3 +, c; d; l' e; =, [; *, m' B= q$ t} x: z= l' m' Z) B= I= g; Z) d; U) j; h' 8/ B  -^ 2@ 3; c; g; G  I= l' U) {4 ]4 ^4 /4 (4 _4 :4 E; <4 [4 }4 |4 14 24 34 |3 44 54 54 54 64 74 84 54 94 04 a4 }3 53 53 b4 c4 13 d4 d4 54 e4 13 |3 f4 g4 h4 i4 j4 k4 l4 m4 n4 x* 4} E; p2 o4 p4 h~ &! q4 f2 r4 r4 A_ H< H< z_ T{ e~ I[ I[ %! e~ N{ q( h~ g2 g2 z} [^ h~ g/ h~ s4 s( r( I[ s4 t4 u4 u4 C_ x_ e~ v4 w4 x4 y4 d3 u@ p^ z4 A4 h< B4 C4 C4 D4 X[ E4 F4 G4 x% q* !+ o# 2- -+ y% ;+ /+ p# /+ t^ t^  > l# x% x% t^ H4 I4 J4 Q/ n! r! q! :) <) ~) V~ K4 ){ L4 J| G1 K3 B2 M4 N4 O4 O4 O4 O4 P4 P4 P4 F3 ",
"Q4 E2 F1 I1 R4 S4 [} 3] E^ 9] y^ z^ P/ B^ 5] Y~ E^ }< :) 3] W| x^ >| T4 U4 M~ V4 W4 X4 Y4 Z4 `4  5 .5 +5 @5 #5 $5 %5 &5 *5 =5 c< @4 [( -5 ;5 >5 ,5 '5 )5 b& !5 ~5 {5 t: ]5 ^5 /5 (5 +, U) _5 |; C= c; H  G  B= =, e; =, 3; e& @, D{ e( z= F{ @, z= -^ V) v[ <@ g; I= +, E{ D= m' o' *, C= k' G= 4~ p$ :5 <5 [5 }5 |5 15 25 35 45 %- 55 65 75 85 3) }3 33 95 05 94 a5 b5 b5 95 c5 b5 d5 e5 f5 b5 04 95 95 b5 f5 94 94 g5 h5 i5 j5 94 e4 k5 |3 14 l5 m5 n5 o5 p5 q5 r5 s5 k) t5 D% f- u5 v5 Q{ :^ :^ _^ _^ _^ _^ :^ /^ F: :^ /^ /^ (^ /^ f~ s4 i~ I[ %! g/ z} r( s4 h1 H[ [^ w5 u( t4 h1 h~ N{ /^ T{ &! k3 7@ x5 y5 b( z5 A5 B5 u_ C5 D5 E5 F5 m2 }5 G5 i, -+ )+ )+ P} l#  > m# f! f! /+ /+ /+ ;+ i, y% i, ;+ H5 I5 J5 K5 L5 *( ^) A, ~) W^ M5 N5 O5 P5 I1 Q5 C2 G3 R5 S5 O4 O4 O4 O4 O4 O4 O4 P4 ",
"T5 B3 F1 I1 U5 V5 g* ^) o! 4] B^ z^ P/ *: Z~ o! |< :) [} |[ W5 X5 Y5 Z5 `5 (4  6 k2 t/ .6 +6 e< +1 @6 #6 $6 %6 &6 *6 =6 -6 ;6 b< >6 [_ ,6 '6 )6 !6 '5 ~6 {6 ]6 ^6 /6 (6 _6 :6 <6 o' e; e; j; j; o' u$ +, b; H  +, e; b; f; b; A= =^ p$ Z> @, d; z< A{ e| -^ u$ 8~ C= +, u$ M  e; 0; r} D= [6 }6 |6 16 26 36 46 56 66 76 86 s' 96 06 a6 b6 c6 d6 k5 e6 f6 g6 h6 i6 j6 k6 l6 h5 05 54 m6 l6 e5 n6 o6 k6 p6 p6 l6 q6 r6 p6 l6 h5 s6 m6 n6 t6 s6 c5 13 }3 u6 v6 53 m5 w6 x6 x6 w6 y6 z6 A6 t/ 5& B6 C6 D6 :^ T{ T{ Q{ T{ /^ z_ A} f2 f2 z_ T{ p( [^ %! e~ f~ &! [^ H[ h1 g2 H[ t4 C_ i~ [^ g/ O{ J< :^ N{ D_ v$ k3 E6 F6 X@ N< G6 H6 I6 J6 K6 R: L6 M6 b' N6 x% x% x% y%  > /+ f! f! f! t^ t^ t^  > y% l#  > t^ p# O6 P6 Z& Q6 m! z, +_ x^ R6 S6 T6 U6 J| G1 F2 B2 E3 O4 O4 V6 V6 V6 V6 V6 V6 O4 P4 ",
"W6 X6 Y6 I1 Z6 `6  7 {) |< Y~ C^ z^ P/ B^ Y~ 3] A, W| C, ^> .7 +7 @7 B6 #7 $7 %7 &7 *7 -5 `1 X2 =7 -7 ;7 >7 ,7 '7 )7 )7 %5 !7 Z2  2 ~7 {7 ]7 ^7 /7 (7 _7 V> :7 >4 <7 s) [7 }7 m' +, C= b; i& c; o' C= C= 3; o' 2@ [; b; 8; V) A{ :@ @, o' f& d; x: :@ p$ o' Y) |; |; e; G= i& b; |7 17 27 $[ 37 47 57 67 77 87 97 07 a7 g! b7 y4 c7 d7 e7 f7 g7 h7 h5 i7 j7 k7 l7 m7 n7 o7 p7 i7 54 84 q7 04 04 q7 r7 s7 t7 s7 n7 u7 r7 v7 i5 q7 v7 w7 p6 x7 y7 z7 d5 a5 A7 c4 33 B7 C7 D7 E7 F7 G7 53 24 H7 I7 3[ J7 K7 L7 E) g~ %! e~ <^ _^ z_ z_ _^ (^ P{ O{ y_ o( f~ o( R{ r( w5 H[ w5 M7 H[ o( %! o( N{ P{ N{ p( D_ k| %! v$ N7 O7 ^; P7 Q7 R7 S7 T7 U7 V7 W7 X7 Y7 g, x% l# l# g, f! f! p# f! ;+ ;+ g, y% l# y% g, m# p# $) l' Z7 26 `7 d.  8 .8 +8 @8 #8 Q| J| A3 D2 F3 P4 O4 O4 V6 V6 V6 V6 V6 V6 O4 P4 ",
"W6 A2 C1 $8 %8 &8 *8 <) ^) E^ 7] z^ B^ 4] V| |[ =8 -8  8 ;8 >8 ,8 '8 )8 !8 ~8 2_ 2_ 0[ c< )/ Y3 d< Z2 {8 ]8 ^8 /8 '7 (8 _8  4 +1 .2 :8 <8 [8 }8 |8 18 28 38 2/ 48 58 68 i& o' f; i; M  +, c; +, e; 8~ E{ D= G= @, f; b; W) h' h' W) q$ =, +, 8; -^ :@ V) 3; =, }; a; r} E{ 78 88 98 08 a8 b8 87 97 c8 77 d8 e8 f8 g8 h8 i8 j8 k8 c= _< l8 m8 u6 n8 o8 j6 p7 u7 p8 q8 q8 r8 s8 t8 s7 s7 u8 s7 s7 u8 v8 v8 u8 r8 n7 o7 w8 n7 x8 u7 u7 o7 e5 c5 04 x7 r6 y8 k6 n6 z8 n5 G7 y! F7 A8 63 13 B8 k5 }3 C8 D8 E8 3[ !} F8 G8 S{ &! N{ :^ J< J< _^ (^ f2 A_ P{ &! R{ %! g/ B_ g2 H8 I8 z} N{ y_ f~ f~ f~ &! [^ R{ N{ :^ i~ M7 u4 J8 @] K8 L8 M8 N8 {^ O8 P8 Q8 R8 S8 x% l# l# i, A% >+ A% t^ m#  > x% y% x% x% i, m# f! >+ $) T8 U8 V8 W8 X8 Y8 Z8 `8  9 .9 K1 A3 C2 F3 P4 O4 R5 O4 O4 V6 V6 V6 V6 O4 O4 ",
"+9 @9 #9 $9 %9 &9 *9 ]) /) s! Y~ B^ 8] q! W| +_ N3  8 =9 -9 ;9 >9 ,9 %8 '9 )9 !9 ~9 c: <( {9 =5 b: 3_ ]9 ]9 ^9 /9 (9 &6 _9 Z3 f: :9 @_ <9 [9 }9 |9 19 29 39 49 59 69 b; o' c; b; K  b; *, C= 8~ a; k' U) O  79 9@ M  o' ., B= V) 9~ #; u$ m' h' X) A{ A= l' o' $, 89 99 09 k( a9 b9 c9 77 67 d9 f8 d8 c8 d8 e9 c8 d9 f9 $: g9 ){ h9 i9 j9 k9 l9 b5 x8 i6 m9 q8 r8 q8 n9 w8 n7 u8 w8 n7 q7 r8 p8 u8 i6 k7 w8 w8 p8 n7 t8 t8 t8 w8 v8 v8 o9 p9 p7 v8 u8 u7 x8 04 }3 84 j6 04 43 63 z8 v6 q9 r9 a4 c5 33 33 *5 s9 t9 <9 u9 v9 w9 O{ T{ :^ _^ A} A_ N[ r4 Q{ g/ &! y_ o( p( h~ z} s4 %! e~ p( &! &! R{ e~ _^ N[ I< e~ C_ w( w4 x9 y9 z9 A9 B9 C9 _, D9 E9 F9 G9 H9 )+ l# i, /+ t^ ;+ ;+ ;+ g,  >  >  > x% i, ;+ ;+ t^ ;+ t^ I9 J9 K9 L9 M9 N9 O9 P9 Q9 J| F1 E2 B2 F3 R9 R5 R5 R5 O4 O4 O4 O4 O4 O4 ",
"S9 T9 U9 V9 W9 X9 Y9 Z9 [} ^) o! 7] M/ :) +_ x^ ^> `9  0 .0 +0 @0 #0 $0 (( a[ %0 &0 *0 b< =0 )/ a: d< -0 ]9 ]9 ]9 ;0 >0 ,0 @4 4{ '0 )0 *~ `& b( !0 ~0 {0 ]0 ^0 m' m' f; *, b; M  b; M  3; e; C= e; i& 3; i& =, M  H  Z> I= A{ B= A= +, l' q$ g; 5~ 3~ g; Z> /0 (0 l{ _0 :0 (^ <0 g8 [0 c9 c9 }0 d8 [0 |0 c8 10 20 30 87 a7 40 50 e3 60 70 80 i4 q9 j7 90 x8 n7 t8 p8 w8 t8 n7 n7 w8 v8 i5 r8 w8 t8 p9 i6 t8 q8 q8 q8 u8 m9 p8 t8 w8 q8 v8 u8 u8 v8 00 v8 k7 c5 x7 n7 a0 p7 54 b0 A8 z8 g5 z7 b5 c0 r9 a4 e4 k5 d0 e0 f0 S4 g0 d* h0 T{ :^ _^ :^ f2 A_ f2 T{ %! q( O{ N{ (^ O{ z} R{ f~ p( R{ R{ q( r4 i0 i0 M[ N{ s( C_ ^^ H[ H[ j0 T2 k0 M8 l0 m0 n0 o0 S& p0 l# l# i, ;+  >  > g, ;+ g, i, i, x% x% i, i, x% x% l# 2- o# q0 }^ r0 g= u@ s0 t0 u0 W9 I1 A3 F2 v0 w0 x0 W6 F3 E3 y0 M4 M4 S5 S5 ",
"z0 @9 C1 A0 Q| B0 p= C0 <) *( n! L5 |< |[ D0 E0 F0 G0 -4 ,> H0 %0 F] I0 #6 b: #6 ^( J0 h: 0[ K0 )/ |_ ^8 L0 b: {8 M0 N0 O0 F] P0 >> Q0 -' R0 t: S0 T0 U0 V0 *, b; e; i; +, u$ $, 3; 4@ [; f& f& 3; b; +, K  3; o' #, W) W0 A{ g; l' D= d; W) 7~ x: n_ X0 Y0 Z0 `0  a f8 f8 g8 77 [0 .a [0 |0 c9 +a @a |0 }0 10 [0 97 f8 #a $a %a &a *a =a -a m5 05 x8 t7 p8 q6 u8 u8 u8 q8 n7 i7 o7 t8 p9 i6 p8 q8 s7 j6 u8 q8 m9 t8 v8 90 q6 m9 q8 00 k7 v8 w8 w8 t8 p8 u8 w7 v8 t8 t8 v8 i5 ;a A8 v6 24 05 i6 >a o6 z7 ,a 'a h7 )a d0 u6 L! !a %] 6. ~a y_ e~ N{ P{ /^ J< O{ o( <^ q( H< G: g/ g/ e~ o( &! I[ F: K[ K[ {a I< y_ h1 H[ &! f~ &! i~ ]a :/ ^a /a (a _a :a <a [a }a x% ;+ /+ m# i,  > ;+  > x% P} 2- 2- -+ P} -+ )+ )+ -+ q* l# A% |a 1a 2a 3a 4a 5a .9 6a I1 x2 F1 E1 K3 E2 D2 B2 z0 #9 7a U9 8a ",
"C3 9a 0a L| aa g+ h# ba C, B, /) ^) /) ca da ea /! fa ga ha ia 8} a: ja b< -7  2 b: ka N~ la ma Y3 `3 >7 a< na a< oa  2 pa qa ra sa $~ k_ ta ua va Y& wa H= u$ *, +, m' *, m' m' b; 3; !~ G= D= +, @, A= #, A= A= W) :1 -^ p$ 2@ f; f; I= 7/ 6~ xa ya za Aa (^ <0 67 c8 Ba .a d9 10 Ca Ca Ca @a Ca Da |0 Ea 10 |0 d8 67 Fa Ga Ha b( Ia Ja Ka i4 j5 x7 La p8 p8 q7 u8 v8 w8 p8 m9 Ma o7 u8 q6 x8 La k7 s7 i6 q6 r8 00 w8 u8 s8 La 90 u8 v8 q8 t8 r8 q8 w8 r8 w8 u8 q8 k7 m9 m9 i5 24 o9 m9 o7 r7 t7 l7 Na Oa Pa b5 q9 h5 54 c5 u6 Qa Ra %] Sa Ta i~ i~ h~ P{ <^ R{ O{ f~ <^ M[ q( r( q( <^ o( R{ n( M[ Ua M[ G: p( D_ I[ Q{ q( [^ D_ r$ Va .! Wa Xa Ya Za `a  b .b H9 '+ '+ /+ i, i, ;+  > i, )+ !+ j# z% ~+ ~+ o# 2- 2- !+ )+ /+ +< +b @b #b $b %b &b *b W9 6a J| I1 I1 x2 G1 =b -b A2 z0 @9 @9 ",
";b >b ,b aa 'b )b !b ~b {b D, ]b ^b /b (b _b :b <b [b }b |b 1b }> -7 pa O0 2b 3b |_ K] 4b /! 4. 5b 6b  4 7b -7 b< (( */ 0[ 8b Y1 9b 0b ab bb cb db eb +, i' m' m' 4@ $, m' M  i; b; l' 8~ j; }; *, A= <1 <@ h( z< f( e( 4~ A= [; o' B= ., fb gb ^2 hb ib Ba 77 f8 c8 30 jb |0 +a @a [0 .a }0 Ca Ea kb Ea +a lb 10 10 g8 87 mb nb ~; ob T6 X, F7 33 h5 q7 m7 u8 p8 x8 t8 q8 w8 u8 q6 p9 x8 o7 u8 v8 i7 j6 n7 u8 m7 v8 u8 t8 v8 s8 m9 r6 v8 q8 t8 u8 q8 n9 n9 n9 t8 u8 i5 La w8 00 j6 p8 n9 w8 w8 t8 a0 a0 pb l7 p6 i7 j6 c0 r9 B8 23 33 qb rb sb tb ub k| %! P{ p( e~ O{ &! r4 y_ s4 h~ z_ Q{ g/ o( Ua vb M[ r4 e~ [^ p( T{ e~ H[ s( C_ w( wb F> xb yb zb Ab Bb Cb Db h, s^ f! g, ;+ m# i, i, y% !+ w% %) v% p* j# ~+ ~+ q* -+ ;+ '+ q# n, Eb Fb Gb 16 Hb Ib Jb Kb Lb `} Q| W9 X} Mb Nb Ob Ob G| ",
"Q| R| Pb Qb Rb Sb Tb Ub Vb Wb Xb n= Yb Zb `b  c J] ^( .c +c @c Y3 M0 0[ #c b: 7} d< 3_ ~/ $c %c &c *c =c c< -c 8} 2_ <( ;c #3 >c ,c S0 'c B6 )c d; e& z= #; +, 4@ l' K  m' e& l' I= I= =, 3; w$ b; ., t} z: !c o_ ,^ 4~ A= b; e; H= ~c {c ]c ^c n( 77 d8 .a e8 .a |0 10 .a 10 kb Da @a Ea Ea @a 10 /c Ca Ca @a 10 @a [0 Ba h8 (c _c :c <c [c }c |c 1c i5 x8 m7 q8 La k7 q8 q8 r8 t7 La m9 90 m9 n7 u7 j6 h5 p7 m7 s7 v8 v8 r8 q8 q8 u8 q8 00 90 w8 n9 n9 n9 n9 n9 r8 q9 La q8 u8 s8 q8 n9 n9 n9 n9 w8 t8 q8 u7 s7 2c j7 3c h6 m6 94 54 c5 63 4c 5c 6c 7c 8c e~ N{ P{ <^ h~ Q{ p( C_ D_ n( A_ %! g/ z_ i0 L[ N[ z_ T{ q( O{ %! s4 g2 D_ C_ M7 M7 9c 0c ac bc cc d/ a] dc h, n# p# p# f! ;+  > y% 2- r* t* `; p* s* q* ~+ k# q* i, '+ q# q# ec x% fc gc hc ic jc kc lc mc nc oc pc qc rc Q| sc Q| ",
"tc uc vc wc xc yc e/ q, i| zc Ac Bc Cc Dc c: 3_ a: Ec Fc Gc Hc ja ^8 >7 Ic }_ ]9 /9  2 d< }( %0 Jc O; Kc ia (( Lc k: Mc Nc $~ Oc Pc Qc Rc Sc 5; h' Z> #, B= 3; 9; H  @, e& Tc n' X) A{ Z> 3; +, 3; V) x: o_ p_ v[ p$ A= l' 3; Uc Vc Wc Xc <^ 87 Yc 67 e8 Zc Zc }0 .a `c Ea Da lb  d [0 .d kb +d Ea Ea kb @a /c @d |0 |0 30 #d $d %d &d *d =d }c 63 95 c5 h5 i6 o7 -d j6 k7 ;d ;d ;d >d -d m9 ,d i6 -d r6 54 q6 >d p6 v7 ;d >d s7 s7 o7 o7 m7 x8 o7 w8 w8 w8 w8 n9 w8 00 n7 v8 u8 w8 r8 n9 n9 n9 w8 w8 q8 r8 r8 u8 t7 o7 La x8 m6 h5 s6 1c z8 'd k9 )d !d E} ~d {d O{ Q{ &! h~ o( M7 h3 B_ (^ N{ o( O{ J[ K[ ]d {a Ua (^ F: o( [^ g/ [^ H[ v( ^d D_ /d t/ (d L8 _d N~ z9 :d s^ '+ n# A% t^ m# i, -+ !+ ]+ ]+ ~+ !+ 2- q* s* j# -+  > p# >+ /+ x% t^ p# <d [d }d |d a' 1d 2d 3d 4d 5d 6d 7d 8d 9d ",
".} M& Q& 0d ad bd cd ^} dd ed fd gd I] +1 a: hd b< id jd )/ Hc kd ld md nd od ]9 ^8 a: -5 }( d< pd qd rd sd 6{ k: td ud Q0 vd wd xd yd zd q$ p$ C{ h' H  d; K  E{ l' G  q$ <1 7/ z[ z[ y: G  K  D= Z> :@ Ad v[ V) A= #; Bd Cd ^2 Dd K[ Yc Yc c8 c9 d8 .a +a 10 [0 10 +a @a Da /c /c |0 .a |0 .d kb +a 10 [0  d |0 d8 [0 d8 Ed Fd Gd D: Hd Id ): 63 43 43 23 94 j6 3c i6 i5 p9 x7 j6 h6 Jd e5 s6 i5 d5 d5 54 95 i5 j6 Jd g6 Jd o6 Kd i7 j6 k6 -d v7 p7 r7 Ld w8 w8 w8 u8 q8 t8 w8 q8 t8 n9 n9 t8 w8 w8 q8 u8 r8 r8 q8 v8 90 La x7 c5 24 v6 Md G7 }c }c m8 Nd Od >! Pd Qd E_ D_ E_ C_ M7 M7 p( N{ n( N{ F: A_ K[ I< Ua ]d L[ z_ P{ f~ %! R{ Rd i3 M{ &! Sd U= Td Ud Vd Wd Xd Yd h, 3- n# f! /+ m#  > y% P} l# )+ P} )+ -+ q* z% !+ ~+ !+ i, m# m# m# ;+ ;+ A% Zd `d  e .e J7 $b +e @e =< X& #e /. ",
"$e %e &e *e .| =e -e /( .1 J] I] ~/ +1 Z2 sd ;e a< [_ >e ,e 'e #5 _8 )e c6 od 7_ ]9 -5 !7 od }( l: !e ~e {e {/ ]e ^e /e (e _e :e <e [e z= z= h' y: 7~ q$ B{ u$ k' [; l' w[ z< A[ 4~ -^ n' h' M  8~ @, 9/ e| W) h; @, }e |e 1e 2e 77 67 c8 d8 Zc @a |0 Ca 10 `c .d @a Ea `c 10 3e Da `c .a [0 [0 4e |0 10 [0 `c 10 +a .a d8 f9 5e 6e ;& 7e 8e 9e L^ |c 53 ;a 33 94 a5 r9 j5 j5 }3 95 a4 h7 54 13 23 e4 0e 54 ;a 53 ae B8 0e 0e 0e be e6 a5 c5 x7 Jd i6 r6 y8 ;d ce r7 p7 r8 q8 t8 w8 w8 n9 w8 t8 00 k7 s8 r8 v8 r8 q8 s8 q7 e5 i5 }3 de ee A8 fe i4 n5 B7 ge 6_ he ie je ke w4 D_ r$ Rd u( i~ y_ q( y_ %! p( I< {a I< L[ le me A} P{ y_ %! C_ ne h1 e~ e~ oe I{ pe qe re ;& m1 se q# 3- n# p# /+  > i, g, ;+ g, i, l# y% o# s* p* `; `; ~+ )+ l# i, i, i, f! Zd &) te ue ve R% we xe ye ze Ae Be ",
"ia Ce a> De Ee Fe Ge 8{ J] He K0 7_ Ie Je Ke e: -c Le Me Ne ,0 Ke Oe Pe L0 .4 Qe ^8 sd ,0 Re  4 @6 Se Ub Te Ue Ve B/ We u{ Xe Ye Ze f; W) C{ 4~ W) 6~ `e I= +, 8~ b; I= <@ x: W) ., ., A= o' m' D= 9; g; W) 4~  f .f +f @f Yc Yc d8 .a .a Ca [0  d .a |0 +a lb kb #f .a 10 10 @a Ea |0 10 .a d8 .a }0 Ea Ea 10 #f |0 .a 67 $f %f &f *f ^; =f -f ;f A8 53 53 53 13 d0 24 43 >f 33 43 43 ,f 23 63 |c 43 'f )f z8 !f ~f nd nd h4 Qe {f v6 u6 53 ]f 05 a4 o9 b5 Pa >a ^f v7 l7 t7 u7 a0 r8 t8 q8 /f i7 i6 v8 v8 u8 s7 q7 p9 h5 c5 b4 }3 24 (f v6 z8 l9 l9 i4 _f :f _f <f D: 1{ [f }f Rd w( i3 C_ P{ o( o( o( g/ z_ K[ |f 1f 2f 3f M[ G: r4 T{ H[ 4f C_ O{ <^ T{ 5f C: 6f 7f 8f Z0 42 9f Zd @< ec f!  > i, ;+ g, i, i, l# P} k# o* o* .> k, r* !+ P}  > x% g, A% Zd 0f m, af bf cf df 8_ I] gd ef sd ",
"ff pa c> gf hf if jf kf lf mf nf of ,0 pf =c b< ^( sd qf rf sf Hc kd tf 0[ pa Y2 ~/ )e uf kd hd b< vf W& wf xf -4 yf _~ zf Af Bf p$ 4; 8; 5~ W0 3~ W) z[ Z> j; f& p$ 7~ A{ p$ q$ Z> B= G  H= l' =, $, c; J= Cf T2 Df i0 Ba Fa d9 .a d8 |0 .a Ef Ef .a @a lb Ff [0 c8  d .d 10 +a +a `c .d 4e  d +a |0  d |0 10 Ca }0 c8 d8 Yc Gf Hf If Jf Kf Lf Mf }c A8 C8 C8 Nf Of Pf Qf Rf Sf Tf Uf Vf Wf Xf Yf Zf `f  g .g +g @g #g $g %g &g O* F7 G7 f7 ;f m5 M, 14 *g h7 a5 d5 h6 k6 h5 04 =g i7 o7 a0 00 o7 u8 u8 r8 k7 e5 h5 i5 h5 c5 }3 34 c5 b4 24 14 ae 24 63 i4 i4 i4 w6 -g K( ;g B' >g B} v$ 7@ N{ Q{ g/ e~ T{ z_ 1f 3f ,g 3f 2f 'g 2f le Ua p( h3 Rd <^ :^ _^ :^ )g 6c !g 7f ~g t/ {g ]g 3- ^g /+ i, i,  > x% )+ i, =+ {+ /g (g (g _g `; q* -+ i, f! x% /+ 3- 9> 0f v* :g <g [g }g !/ 1b 6b hd hd ",
"Ke 'e Z3 od -5 6b -5 ff |g 1g 2g <c 3g 4g O0 a: .2 Pe gd 5g 6g 7g 8g _8 9g 3b #c  4 )e kd Ke ff 8{ -0 0g ^; ag bg +^ cg dg eg c; z= fg 3~ h' A{ :@ z< W) @, 5@ e; A[ <1 ., V) u$ q$ H  B= g; h' 9; &, gg hg ig k  e8 f8 c8 e8 .a }0 |0 Ea .a [0 Ca Ea Da kb +a [0  d 4e @a jg [0 .a [0 @a @a |0 `c e9 [0 [0 [0 .a 67 30 67 f9 a7 kg T= l{ P; P; lg mg ng og pg qg rg sg 6c tg ug vg wg xg yg zg Ag Bg Cg J> Dg Eg Fg Gg Hg ,> 52 Ig Jg Kg Lg Mg Ng Og i4 z8 /8 d0 e4 r9 n8 h5 1c j5 d4 04 x8 u7 a0 r8 u8 q8 La i5 h5 c0 x7 04 }3 24 34 Pg (f v6 24 05 05 33 l5 L^ Qg Rg Sg R} 7% P& Tg q_ u4 #! /^ T{ z} n( {a i0 I< 2f |f M[ M[ |f 2f f2 g/ Ug C_ (^ _^ G: T{ h~ Vg 16 Wg Xg Yg X& Zg z  h, A% ;+ l# P} 2- y%  > =+ p* %) p* r* k# 2- P} -+  > f!  > >+ ,+ 9> 0f u* `g H_  h !/ .h Ke kd kd 8g ",
"_8 +h kd _9 @h nd uf Ke Ke #h 'e $h %h /! &h 0[ 2_ ,/ *h d: =h -h 8g ;h >h Z2 =0 ,h 'h )h of ,/ 7{ !h ~h X@ bg u{ {h G, ]h D= ^h b; ., /h n_ q$ #, A{ g; z= @, 3; f& c; :@ V) B= Z> B= u$ b; d; J= (h J5 m; z_ 67 g8 .a Zc Ca  d Ea `c `c `c Da @a |0 .a |0 @a +a 10 jg kb Ea Ea `c Ea Ea |0 [0 e9 _h [0 c8 d9 c8 :h Yc Ed <h [h ie }h }h |h |h ;] 1h 2h 3h 4h 5h 6h 7h ,# 8h 9h 0h ah bh ch dh dh _e eh 02 fh gh hh ih U] jh t% kh lh mh nh oh I{ ph v1 qh rh sh 23 23 }3 )a a4 04 24 33 c5 o6 2c pb u7 r7 q6 r9 x7 i5 x7 i5 64 24 l9 z8 M, }3 i5 q6 q7 54 63 O* th uh vh {; wh xh yh ]~ zh M7 %! Q{ h~ I[ J[ M[ z_ K[ I< z_ H< i0 |f f2 i~ Ah i~ z_ A_ I< P{ i~ M{ Bh Ch Dh Eh Fh </ Gh Hh 3- Ih x% -+ o# -+ m# l# p* s* q* -+ y%  >  > P}  > >+ t^ m# ec 3- q# Jh Kh Lh Mh ff @5 Nh %6 Oh %6 ",
"3_ 3_ )e _9 _8 Ph Qh Oe Oe Rh Rh ja ,0 Sh Th Uh 7_ ,/ [( 0: Vh Wh 8g _8 Xh d< na Yh ja Zh ,/ `h  i .i +i @i >4 #i $i %i A= #; =, r} =, V) h( <@ u$ A= 4~ B  G{ 2@ e; e; W) :@ g; Z> B  f; @, d; &i *i =i 77 Yc 77 67 c8 [0 .a Ca +a kb kb .d -i |0 Ef .a .d kb @a @a Ff `c +a jg |0 [0 Ea _h @a c8 d8 67 77 Yc ;i 87 >i ,i 'i *~ )i !i ~i {i ]i ^i eh /i (i (i _i (i :i <i [i }i |i /i 1i 1i /i dh 2i 3i 4i 3i Z0 J5 5i O_ 6i 7i 8i 9i 0i ai k= bi Hd w& Z& +e ci di ei fi Pg d0 gi B8 04 t6 q9 h6 Kd Na >d q6 i5 o9 x7 x7 e5 q9 }3 1> i5 64 84 p9 -d h6 B8 I0 X/ hi ii ji ki ;) a~ li H( mi ni D_ h~ i~ i~ :^ ]d i0 {a A_ z_ {a i0 1f vb [^ u4 I[ A_ G: M[ <^ i~ p( f~ oi p2 pi qi ri o3 52 si ti n# Ih l# x% /+ g, ]+ o# P} i, m# /+ /+ ;+  > j, '+ $) A% ec 3- Ga ui vi wi .h #5 ;h *6 +h e: ",
"^8 >7 L0 a: #c xi &6 &6 yi zi ;6 'h N0 3_ Ai 6c Bi I] Ci Di Ei pa #5 Oe Qh a: #6 O0 gd J] Fi Gi o; Hi Ii 8' Ji ~3 wa f; A= h' d; b; 2; [; F{ 7~ 6~ #, 3~ B{ A= Z) =, C= @, 7~ d; H  W) d; Ki 2. i= Li ;i 30 Fa Fa c8 .a |0 |0 10 kb lb 3e @a 4e d8 Ca .d Da @a lb Mi kb kb 10 [0 .a c8 .a c9 Ni 77 #d Yc Oi Pi Qi Ri  3 Si Ti Ui Vi _e Wi Xi |i Yi /i Zi `i 0h  j `i _i .j )c +j h_ @j #j $j %j &j *j  j =j -j ;j >j ,j 'j )j !j ~j {j ]j ^j ;! /j (j _j :j <j [j }j |j <i 1j 2j 3j 4j 13 5j 54 e6 a5 6j Pa i5 04 h5 i5 04 04 04 (f 14 p9 p9 La La 3c 7j /8 n5 8j {. y5 1^ S& `5 9j z' 0j aj z' 4. bj k3 s( h1 i~ <^ N[ M[ N[ J[ ]d i0 G: H[ t4 e~ A_ Ua M[ <^ h~ N{ Q{ :^ cj (< dj ej fj O_ 3. gj hj Zd t^ /+ A% /+ g, i, l# i, t^ m# m# ;+  > /+ $) 3- 3- '+ '+ ij jj kj lj mj kd Oh 'h ^9 >7 ",
"nj ^9 ^8 ]8 ^8 d: od ;6 K0 =0 oj >0 )e pj a: )$ qj rj sj y0 /( He Ke Rh Ke {9 %0 na tj uj vj wj xj yj 9( zj {3 Aj i' f; o' q$ h' Z) u$ |; 0; m' 8/ <@ I= l' Bj H  o' =, i; g' 4@ z= 8; Cj Dj Ej <^ g8 [0 10 20 [0 Da `c Ea @a Da Ea 10 jg [0 [0 @a .d @a Da Ff kb kb Da Ea .a d8 f8 77 97 30 67 <0 Fj Gj l{ ]~ Hj Ij Jj Kj Lj Mj |i _e ch Nj @j Oj  j ]5 `i Pj 0h  j ah ch Qj Rj ;/ Sj Tj Uj Vj Xi dh Wj Xj dh Mj Yj Yj Zj `j 1i  k .k +k @k #k $k %k &k *k =k -k l  ;k >k ,k 'k -4 )k !k ~k 13 *g B8 h7 e6 23 24 c5 }3 l9 ;a 1> l9 ee c5 j6 m7 w7 d5 *g {k ]k ^k /k X@ {; U& }. w& (k _k :k <k [k jc }k k3 D_ H[ H[ T{ I< G: G: N[ N[ :^ D_ g2 n( A_ N[ Ua q( f~ F: f2 H< P{ |k $^ 1k 2k 3k 4k o; 5k 6k t* '+ '+ $) >+ y% q* =+ )+ l# P} y% ;+  > m# $) 3- h, 7k 8k 9k 0k ak @c kd bk d: ^9 3b ",
"pa }( ~/ }( d: /9 =5 9g d: =0 ck xi /9 |_ b: a: ($ dk ek fk =0 hd hd of gd e: 2_ gk hk ik jk R~ kk u{ lk d/ mk -^ Z> o' c; 4@ o' I= q$ c; E{ 1; 8; V) w[ Z> #; =, b; d; i' m' I= d; 81 )0 nk 67 d9 d8 d9  d  d kb kb .d `c @a Ff 10 10 4e .a [0 jg 10 kb lb Ff Da |0 .a c8 c8 Ba #d ok :h pk qk (. ;& rk sk tk N] uk Yi vk `j wk bh eh Wj Pj xk Oj 9h @j Xj @j 9h  j |i yk zk Ak Bk Ck (i Dk Ek Fk Fk Yj Zj wk Gk Hk Zj Ik Lj Xi |i Jk Kk N2 y( Lk Mk Nk Ok Pk ;k Qk y  Rk Rk Sk Tk Uk Vk y5 _. Wk Xk Yk c5 i4 {k 63 ;a Md A8 fe ee A8 v6 x7 v7 Kd 74 3) Zk `k n; f3 X@ {3 u@ </  l .l +l @l #l $l %l s< &l s( H8 h1 Q{ z_ z_ _^ z_ J< q( h~ y_ _^ A_ G: z_ q( T{ z_ {a G: N{ i~ *l 62 =l -l ;l >l jh j( ,l 'l q# 3- n# i, P} l# P} -+ 2- 2- i, ;+ ;+ /+ '+ Zd )l !l 6c ~l !/ hd Re &6 %5 )e 9g ",
"9g 5j {l ]l sd 7} /9 )e =0 sd ^l /l 75 Z3 |_ >6 =5 (l _l ef gd :l Pe }g f< <l [l }l |l 1l 2l 3l +^ 4l oh 5l d; z= 7~ @, B= o' b; m' g; G{ l' k' }; B{ 8/ 8/ q$ K  k' 9; c; l' {4 6l 7l 8l Ni d8 e8 d8 .a d8 d8 |0 |0 `c |0 lb @a [0 Da kb  d .a [0 @a lb kb 10 [0 c9 e8 .a 20 Yc ok 9l 0l M& al bl cl =j =j _i B/ dl Uj el Zj fl |i @j =j gl hl `i ~0  j _e Yi @j il jl kl @j 8' dh ua Ck Jk ll ml ml nl ml ol Zj pl /i O> O> Xi ql Mj rl sl e/ e/ tl ul =k vl wl wl wl xl xl Qk ;k *k yl zl Al p; )4 :( Bl E7 :f B7 i4 53 ee ee z8 A8 fe ae j6 a5 u6 G7 Cl u& c/ Dl V= p2 7e {# El Fl Gl Hl Il Jl Kl Ll ic Ml Nl H[ N{ P{ <^ J< :^ n( i~ q( (^ (^ /^ A} J< <^ _^ r4 K[ Ua N{ h~ h~ Ol Pl Ql Rl Sl M~ Tl Ul Vl Wl t* 3- /+ /+ ;+ x% l# P} -+ l#  > m# /+ $) Xl Jh Yl B/ Zl 7_ O0 kd Oh =6 oj sd ",
"oj `l  m d0 d: L0  4 =0 d: d: pa }( na =5 a: c< K0 .m !/ *h ,/ J] Ge +m @m {. &d #m $m %m &m g_ *m =m -m I= l' Z> n_ ., Z> Z> m' M  M  ., G  c; 9@ ;m +, @, I= i' D= j' s} >m ,m 'm G: d8 [0 .a |0 |0 `c |0 Ca }0 jg kb 10 lb 10 |0 Da 10 }0 |0 [0 @a Ea [0 c9 |0 [0 .a g8 )m !m ~m {m +e ]m 9h =j 9h _i Pj &3  3 Dk `j Zj ^m Zj ]j Xj /m (m _m gl =j 2/ dh ah :m <m [m dh Pj Pj Wj Pj 9h }m 'c |m 1m ol Fk vk Yi Xi Wi Xi Xi 2m Jk Ik 3m 8) L$ 4m 5m 6m 7m 8m 9m q  9m 9m p< )@ [= wl l  cj 0m -~ >k am mh bm cm dm F7 i4 53 z8 z8 A8 fe i4 23 k5 I0 em fm }5 Y@ ,> _+ ,> i) gm hm im jm km lm mm nm om pm qm C: rm e~ %! e~ F: O{ i~ i~ F: P{ I[ O{ z_ z_ (^ r4 {a K[ A} e~ &! x_ i~ sm tm um vm wm +] xm ym }5 zm Am Bm 3- A% ;+ ;+ i, y% l# l# m# A% n# 3- Ga Cm +f Dm Em [_ @4 'h )e pa Ic ",
"=5 Fm ma Ic od Ic Gm =0 /9 /9 d: 7b 2b  2 7_ >6 0: Hm Im 6} ia Jm Km Lm ji Mm ,> Nm Om Pm Qm Rm Sm Tm l' f; o' B= Z> y: x: W) n' u$ f& u$ 4~ h' d; 2@ j; 8~ b; d; o' }; Um Vm R0 o( 77 Wm |0 Ea `c |0 kb Da |0 4e -i |0 .d 10 `c lb |0 [0 10 kb 10 c8 [0 |0 c9 [0 d8 )m Xm Ym V= Zm `m D:  n .n 0h  j ]5 2/ +n @n el fl #n #n #n wk ch `i _m $n =j Pj @j Zi %n &n *n el =n ch Yi Xi Yi ah Mj ol |m `j el vk Yi Xi 1i |i Xi |i Xi eh |i -n ;n 7% %4 >n Pk xl 8m !@ ,n 'n n  p< xl p< 9m vl )n 3| !n ~n {n ]n ^n {; /n (n _n ~f |c i4 L^ {k ee 33 :n Zk <n [n S& If }n |n O; 1n 2n 3n 4n lm 5n 6n 7n 8n 9n 0n an }~ ]~ bn H[ p( N{ H[ H[ N{ <^ r( z} :^ A} G: {a M[ L[ I< /^ e~ f~ &! i~ D_ cn -; dn en 7l fn gn hn in jn kn ln mn A% '+ p# ;+ g, i, ;+ $) 3- q# nn Vc on pn qn rn 7_ -5 od oj =0 ",
"sn Fm /l &5 =5 7_ Y3 tn ja 7_ @4 0[ b< 7b 2_ 7_ .2 un vn wn xn yn zn An Bn |% l= ~; ik Cn Rm Dn En i; f; z= A= &, 8; I= -^ 6~ W0 A{ +, G= 4@ @, h' p$ @, l' l' B{ G  }f Fn Gn Fa 77 g8 e9 @a Ff @a .a Ff .d [0 10 |0 10 @a |0 3e Da |0 +a +a .a  d .a [0 [0 d8 Hn In Jn 96 Kn Ln vk Mn Nn w& On Pn Wj @j Xj Qn Rn =n #n Ek #n Zj el {j @j =j Ck 9h ]5 dh Sn Tn Un }m Mj wk #n 1m #n Dk Wi Lj Mj Fk `j =n Dk Wi /i Vn 1i Xi bh Lj 2m dh Wn Xn b= Yn Zn ;k Qk 9& ,n g$ `n ,n ,n 'n q   o .o Qk vl cj 0m 0m cj wl +o @o #o 26 $o %o F7 m5 >f 14 z8 'd &o *o U= n; p2 =o y5 -o ;o >o ,o 'o )o !o ~o {o )o ]o ^o /o (o _o )k :o &! i~ s( e~ N{ H[ h1 h~ J< Ua i0 me K[ M[ G: F: q( f~ p( h~ H[ D_ <o [o bc }o ie |o bh 1o 2o 3o N~ 4o 5o 6o n# 7o A% p# p# 7o 3- )l 8o Q3 9o 0o ao bo 3_ |_ >6 c< pa ",
"L0 na sn )/ Z2 ^8 7_ >6 Z3 }( >6 6{ F] b: c: /( co do eo fo li go ho io ob jo h= }. ko Oj lo mo @! 3; b; c; C{ z= e& I= V) h' fg 7/ ., o' e; C= =, @, #, z= q$ B= no oo po f8 f8 f8 [0 qo kb .d .a }0 `c |0 [0 Ea 4e Ca Ca |0 Da  d  d @a _h c8 ro .a e8 f9 so to g= uo vo =n Mj wk wo xo yo zo Ia Ao 2/ @j Bo ]5 ch `j #n fl `j vk Co eh `i 9h Pj Zi Do Eo Fo Vn vk vk Jk `j Ek Hk Hk =n dh @j wk Gk wk Ik bh /i Go Mj Dk Lj 1i /i Ho Io p^ b( Jo Ko vl Qk  o q  9& ,n 'n 9m ,n q  q  'n n  q  B> yl )n e$ Lo wl wl Mo No zk j( Oo [3 h4 i4 id Po Qo W@ Ro So To kh u~ Uo Vo Wo 4n Xo Yo Zo Zo `o  p .p 9n +p @p #p $p n= %p v$ S{ p( h1 I8 s( h~ (^ J[ |f 1f K[ I< f2 Q{ N{ y_ y_ %! h~ S{ &p 60 *p =p -p $k ;p Nj Uj >p ,p 'p )p !p ~p {p ]p +< 3- s^ h, )l ^p Hd /p (p _p :p 6{ e< }_ b: 7_ ",
"}_ 3_ a: b: +1 2_ 8} .2 F] F] c: +1 <p [p }p |p ud 3} 1p 2p 3p 4p 5p 6p ;! 7p j= 8p '; 9p 0p ap 3; $, j; l' @, h' :@ Z> 8; Z> x: e| e| p$ Z) +, 9@ [; i; 3; &, bp cp dp d9 d8 c8 d8 10 Ea +a .a d8 10 Da /c 10 @a 10 [0 |0 +a Ea }0 Ea e9 jb 77 d8 Ni ep fp ,> gp hp vk Dk vk Go ql 1i ch Lj ip j2 jp dh ml kp 0h @j Dk ql 1i |i |i ch dh _i ~0 _i dh lp mp Xi |i 1i 1i Lj Dk `j fl Yj Gk =n _i (i el Fk `j |i Vn Mj Mj `j Mj np 1i op pp Jf <4 qp rp )n 8m 9m 3( j$ C> sp l[ 8m 9& 9m  o n  `n i$ Pk vl q  8m 8m xl Qk ;k Mo tp V& up vp wp xp yp zp Y@ o3 Ap Bp Cp Dp Ep Fp Gp Hp Ip Xo  p lm  p Jp Kp ]o Lp jd Mp Np Op T! Pp S{ s( Rd C_ D_ f~ f2 1f |f 1f K[ H< /^ O{ N{ y_ e~ %! %! &! i~ Qp Z0 Rp Sp D+ Tp Uj Up 9( _e /6 Vp Wp Xp q^ Yp Zp `p  q .q +q @q A. F! #q $q %q &q i4 *q 0: >6 ",
"=q -q ;q >q ,q 'q )q !q C$ ~q {q ]q ^q /q N~ (q _q f  :q <q X= [q }q |q 1q +] 2q 2/ 3q K> 4q 3; +, +, U) D= *, e& V) D{ d; ., y[ A< g( d| 7~ p$ %, 3; D= j; 5q 6q 7q ;i 67 Ba f8 [0 10 [0 Ea d8 [0 lb Da Da kb Ff Ea Ca +a +a }0 c8 d8 20 ro d9 8q 9q k> sb 0q pl Lj |i 1i Jk Dk aq bq Wj /6 cq q^ dq Vj eq fq Wj Pj ch Dk |i 2m 2m eh eh 2/ _i 0h gq hq eh Yi ah ch /i Uj Lj Vj vk el Hk wk ch iq dh jq kq 1i el vk Mj ql ql Vn bh lq mq nq oq pq qq -~ )n ;k cj 4| D> D> 3( rq sq sq 8m [= 'n 9& )n )n 9m n  ^@ xl xl wl Pk ;k tq uq N9 g= vq wq ){ 3} g} xq yq zq Aq Bq Cq Dq Eq Fq Gq 4n 4n Hq ]o Iq Jq Kq Lq Mq Nq Oq Pq (< Qq v( u( Rd h~ /^ L[ |f 1f I< /^ /^ <^ q( o( %! %! e~ e~ &! i~ H[ Rq 4, Sq Tq Uq Vq Nj 9( 9( Wq Nj Nj Xq X@ Yq Zq 26 `q  r I( J( .r +r @r #r /( $r %r 7_ sd -5 ",
"&r *r =r -r ;r >r H( +f 5& ,r 'r w& )r !r ~r {r ]r ^r /r (r _r :r <r [r }r }n |r /6 1r 2r l' H  c; f; B= G= 1; =, l' B{ z= 8; 7~ v[ 3~ 3~ -^ A{ #, d; b; 3r %] 4r c8 f9 d8 .a c8 10 kb Ff `c #f Da kb 10 |0 Da `c [0 10 10 d8 f8 67 f8 .a f8 5r A/ 6r 7r 8r 9r /6 @j Xj ah ch 0r ar br cr dr Ck er y( fr gr hr ah Pj Xj Yi Yi 2m 2m Yi dh eh 2/ Pj ir jr 2/ Xj dh 2m 2m ch Xi Xi Xi 1i wk 1m Vj hl dh Hk el ]j `j Mj vk vk Dk _~ Uj kr lr mh mr nr yl *k l$ D> j$ or wl 8m 9& `n 9m B> 3( )n i$ 'n 8m ;k .o q  i$ 9m i$ p< )n ;k Q] 6m pr qr ^; $- rr }5 sr tr yq ur vr .p wr xr yr zr z( Ar N3 Br Cr Dr mm Er mm Fr ^o Gr n3 Hr Ir Jr u4 C_ e~ N[ 1f i0 I< o( %! n( e~ %! %! p( p( f~ %! &! [^ M{ r$ Kr Lr 7f Mr /[ Nr _~ /i Uj {j {j Or Pr >4 Qr Rr Sr Tr E} Ur d/ q^ Vr Wr Xr Yr Zr `r  s .s ",
"+s U> R) @s li O;  b Y& #s $s u@ ;& %s &s *s =s -s g% ;s >s ^r ,s 's )s !s ~s ]5 {s ]s i' @, g' I= d; H  B= G= e; +, o' B= G{ W) p$ 7~ @, q$ #, I= @, ^s /s (s c8 97 jb 10 @a Ea Da kb `c .d Da kb Da |0 [0 `c 10 Ea Ea d8 30 87 Fa c8 8q _s :s <s [s (m }s |s 1s 2s `i 3s 4s 5s 6s ;( 7s 8s 9s 0s as d3 bs cs ds Pj _i  j Xj Yi Yi Yi O> 2m u{ es fs _i _i (i @j _e Zi dh dh dh eh 2m Mj Hk =n @j |i Yj Mj vk Ik Vn vk vk Wi Xj /i gs Q3 hs is js ks ls ;k B> ;k ;k 9& `n n  q  xl 3( yl D> )n B> 'n .o sq 'n i$ sq 9m i$ wl ;k vl )5 Ok ms ns 7% O; t_ os ps @l qs rs ss .p xr ts us vs ws xs ys zs yr ]o As #l km 4n Bs B/ Cs Ds rg Es k| :^ M[ M[ I< T{ h~ N{ P{ e~ p( p( %! e~ T{ O{ %! h~ D_ ^^ ^^ Fs Gs 7f Hs W& Is Uj Vj {j Js Ks Ls +^ O> _e _e Ms Ns Os Ps Qs Rs Ss Ts 'k Us f= r: Vs ",
"Ws Xs Ys Zs `s  t .t Sg +t @t #t $t %t &t *t =t -t g% >s ;t >t ]r ,t 't )t !t ~t {t ]t 2~ 4~ h' I= I= c; G  d; 3; +, @, m' #, z= 7/ 7~ #, m' c; B= ^t /t (t c8 c8 c8 .a +a kb @a Da +a kb _t @a 10 @a [0 Ca @a Ea Da c9 d8 97 <0 67 :t 7c <t [t @j @j ~0 iq }t |t ih 1t 2t 3t [! ,> 4t <4 S& ;) l] 5t 6t xk Ck 7t 8t 9t ~0 _i @j eh dh Yi ah 0t n. eh &3  j  j (i 2/ ]5 Xj ]5  j  j Wj Dk ql np Yi ch 1m =n 1i =n Lj Dk Lj eh (i Xj at $( qj bt Ok =k ls 8m q  l[ 3( 9& 9& ;k ct )n C> vl !n Pk dt 9& `n n  ,n 9& n  !@ .o ^@ j$ wl wl ks Ok et Mo ft gt ht it jt @l Aq zq kt lt jt mt nt ot V8 u_ pt Kp qt rt st 8n ]o tt ut vt wt xt ht yt _^ H< A_ _^ f~ &! Q{ <^ e~ q( %! o( o( e~ %! &! [^ g2 &! &! /7 k> zt 7f At Bt Uj Wq Ct Dt Et 9( +^ 9( /6 u{ +^ u{ '; '; O> 9( u{ '; Ft Os Gt Ht It ",
"(~ /i Uj Uj _~ +^ >4 Jt @8 Kt h! x* <4 Lt *t Mt >t >s Nt Ot ^r _r Pt Qt Rt St ;! Tt d; 4; B{ B  #, I= B{ o' $, m' o' G  #; Z> B= A{ D{ X) 4; M  Ut |9 Vt Ba d8 Ca Zc d8 +a 3e `c `c @a Mi lb .a d8 jg #f .a [0 Ea 10 [0 ;i 07 Wt Xt <m Yt (m ua Pj _i _i ~0 ua Zt V[ ie `t  u jn u_ .u <] 3% +u Hd @u #u ua =j dh |i $u %u &u *u =u -u ;u >u ,u 'u )u Xj _i Pj (i _i _i  j  j (i (i 2/ ch Lj pl Lj eh el =n Nj ]j Lj (~ dh Pj ~0 !u ~u ;! {u ]u ^u *k wl xl x  Qk 9& 9& .o 3( ;k .o 9m 8m .o )n i$ 'n 8m .o 'n `n q   o n  !@ 9& 8m ;k ;k )n cj /u (u _u D: :u <u [u }u Er |u 1u 2u 3u 6. u~ J7 4u 5u ^o qt 6u 7u 6u 8u Hq 9u 0u /q au bu mi cu :^ :^ T{ f~ e~ Q{ n( T{ /^ q( o( %! %! p( h~ i~ p( Q{ N{ d~ du )0 eu fu /k gu hu Fg iu Nj _~ 9( _~ '; 8' O> P> 7' '; 9( _~ (~ _~ 8' _e ju ku P> ",
"Up {j lu Nj (~ O> Wj ]5 mu nu ou pu {; qu ru su tu g% uu vu _r wu -$ xu db Cb yu 0; zu K  I= Z> M  l' C= l' B= B= c; M  G  H  c; g; 5~ ., W) Au Bu Cu .a .a .a +a Du [0 10 Ca Da Da Ff kb 10 +a [0 `c d8 c8 Ba .a g8 67 07 _t Eu M& Fu Gu Hu =j  j _i Iu 0h ~0 Ju Ku Lu Mu G^ Nu Ou Pu Qu Ru 0h Su Tu Uu =j  j Yi |i 1i /i Vu Wu Xu Yu Zu Yi Kj Zi `u  v _i .v +v @v #v $v qk %v ,l &v *v =v -v ;v >v ,v 'v )v !v ~v {v ]v ^v /v (v I{ _v }5 a8 :v -~ l  ;k .o 8m i$ p< Qk B>  o xl p< B> Qk sq 'n Qk l[ )n p< 'n 9& sq Qk Qk  o B> x  xl Pk cj -k 4( ks <v k= [v }v |v 1v <i D~ 2v 3v 4v 5v 6v 7v <q 8v ]o 9v 0v av bv  p jm cv (* =' 5k dv ^! ev P{ O{ f~ f~ f~ Q{ (^ /^ N{ f~ %! %! R{ g/ o( Q{ :^ Q{ N{ &! fv gv Tq hv iv jv kv lu lu {j Wq Up /i Wq Wi ah Wi Zi Kj _~ (~ 9( Zi 8' lv mv Wq ",
"Up lu _~ ah 9( 8' /6 7' /6 nv ov pv qv ho rv sv tv su =t uv vv wv W@ +]  ! R8 xv G= 2; N  i& d; M  b; 3; +, d; 8; A= c; c; @, c; I= ., -^ yv zv Av f8 e8 [0 d8 @a Ff .d /c [0 `c lb Da [0 10 .d Da 10 Ef 77 Fa 77 <0 a7 Bv Cv Dv 6c Ev Fv Pj eh Zi @j _i 0h Pj Gv Hv ua Iv Jv ta Kv 2m 2m eh  j 0h Lv Mv gl Wj 2m ah /i Uj Lj Xi dh Wj Xj 8' Nv Ov Pv {3 Qv jh (< Rv e/ Sv Tv Uv Vv Wv Xv Yv Zv `v  w .w +w @w #w $w %w Ch M& J* f3 ;& &w *d *w G( Ok Ko l  vl [= xl yl .o i$ 3( ^@ rq 'n 9& 9m  o  o wl cj B> n  'n 'n 9m n  ,n ,n .o p< x  cj )n ;k =w -w ;w >w g0 ^2 A' ,w 'w )w !w ~w {w ]w us ^w 4n lt /w 0v (w st 6n _w :w <w [w }w |w 1w Z& 2w N{ %! &! I[ T{ (^ T{ e~ %! %! p( h~ R{ n( Q{ /^ /^ N{ i~ t4 r, 3w B9 4w 5w Zi bh {j Vj bh bh lu 6w 6w Nj O> P> P> (~ _~ 9( O> 8' Ul 7w (~ ",
"Up P> 9( ah 9( O> O> 8' /6 .^ 8w cn &d 9w 0w W& aw bw cw dw ew t' fw gw ii hw 2; r} e; 3; o' 3; c; 4@ #; e; N  l' 9~ Z> c; 0; 3; d; q$ iw jw kw 87 f9 c8 d8 d8 Da _t lw |0 |0 Da kb [0 |0 mw +a .d |0 d9 Fa Ed nw a7 ow X& pw N~ qw rw 0h Yi Lj 1i 2m 2/ `i Pj s[ sw gl $n gl 2/ ah Xi Wi u{ Xj (i *f tw `i Ck ch ah dh Yi Xi Lj (~ uw vw ww Jn X@ t@ j- Bn xw yw zw Aw Bw Cw Dw Ew Fw x~ Gw Hw Iw Jw Dw Kw Lw Mw Nw Nw Ow Pw Qw Rw Sw Tw Uw O; +e 4o Vw Ww )n wl 7m )n 0m ;k cj x  Qk .o  o 9& 9& i$ 9m  o 9m 'n 'n n  n  n  `n `n 9& C> n  xl l[ )n wl Qk ks 4( Xw Rv 62 Yw Zw `w Wo  x Gl Gl .x +x @x #x $x %x &x $l ~o *x 9v nm =x nm I( -x ;x E; >x x_ h~ h~ o( o( p( p( p( p( &! D_ g2 g/ e~ <^ O{ &! D_ C_ ,x -' 'x )x Tl !x Up {j 6w Uj Wq Wq Up Uj Vj /i (~ Wq (~ _~ +^ +^ ~x -' {x Wi ",
"7' _~ (~ P> Wi P> O> +^ +^ >4 ]x ^x /x (x 4' pu _x 1^ :x <x A  [x /x }x |x 0; ^h U) i; &, #; m' Z> +, o' N  E{ N  I= 9~ 8/ Z> 1; *, i' 1x s' 2x .a d8 .a d8 |0 +a .d +d [0 @a .d @a 10  d .a +a @a .a 30 <0 Ed 3x 4x o. 5x 6x ;& 7x 8x _e bh vk vk Xi Xj 9h `i 9x 0x `i ~0 (i Zi Lj Uj Xi Yi Xj @j H( ax /m (m `i 0h (i bx cx dx ex l{ fx gx hx V8 3} o3 ix jx kx lx mx nx ox Iw px qx px qx x~ Ew rx Cw Cw sx tx tx ux lx vx wx xx yx yx zx Ax Bx Cx Dx dg Ex Fx Gx Hx !n )n wl vl X- Qk 9m 9m i$ j$ !n yl C> Ix `n ,n g$ n  Ix `n .o 9m 9m sq i$ wl wl .o wl 6m Ko Jx W& Kx Lx zq Mx Nx 4n Hp Hp Ox Px 7n Qx Rx Sx Tx Ux Tx As st Vx .p Wx Xx Yx Zx `x h~ S{ R{ &! p( I[ p( p( I[ o( %! i~ H[ i~ p( r( r( D_ k3 #!  y .y Tq +y Z0 @y Uj Co /i Uj {j {j Vn #y Uj Vj 6w Uj _~ O> $y %y G^ &y _~ ",
"_e (~ _~ 9( ah ah _~ (~ P> +^ *y =y -y ;y >y ,y 'y R& )y !y ~y {* {y ]y ^y D= i; *, +, u$ K  Z> B= d; #; K  *, B{ B= G  A{ z= 4; k' /y u~ A_ 67 c9 e9 Ea |0 Da .a jg +a `c `c @a |0 Da  d |0 10 d8 f8 30 #d (y _y b' :y <y [y </ }y ~0 dh Lj ]j }m ch @j |y 1y 2y 3y @j ]5 Kj Lj {j Co |i Kj Xj 2/ 4y 5y `i `i @j 6y 7y 8y 9y 0y ay by cy dy ey fy nu 'r gy hy iy vx jy ky ly ly my ly ly ox ny ux oy py qy tx ny ry sy Kw Iw Fw ty uy vy sx sx wy iy xy yy zy r{ >c Ay By Cy 7m cj 6m Qk '1 ;k q  vl Dy Ey 5| 9m 8m 9m n  `n Ix `n p< sp 8m 9m !@ n  .o 9& vl ls l  -w Fy |% j( Gy yr Hp 'o 'o Hy Iy Jy Ky Sx Ly My Ny Oy Py av 8u 9v Qy Ry 16 Sy Ty yh Uy k| h~ &! f~ e~ y_ N{ q( F: G: H< Q{ p( h~ h1 g2 H[ s( D_ i~ P& Vy Ud Wy Xy Nj {j Vn Vj lu {j Up (~ O> /i Uj /i (~ .v Yy $~ Zy Nj O> ",
"9( 9( _e '; P> Uj Uj Uj Nj _~ u{ `y l= P_ ;( ~2 /*  z s/ P_ .z +z S& @z G= e; =, u$ l' 3; m' d; o' G{ @, H  h' Z> l' G  g; 6; q$ #z a} $z Fa 67 |0 .a  d [0 [0 .a kb /c _t .a .a `c 10 d8 |0 [0 Yc 30 ;i %z &z e3 {; j= $- If *z =z gl Xj 2m |i Vj -z ;z >z 0} ,z `i 2/ eh 2m Lj 1i 1i |i 2m Kj Yi 'z )z !z ~z {z 9b ]z ^z /z (z _z U* :z u- R, <z [z y5 }z |z 1z px Fw 2z 3z 4z 5z 4z Fw rx oy 6z 7z Bw oy 6z rx Dw vx Dw 2z ky Kw 8z ty Nw Nw uy tx Fw sy 9z tx 0z az bz Y1 /q cz dz wl Pk !n )@ j$ ez Dy 5| p< l[ Pk ;k !@ p  n  Qk )n wl p< xl n  n  i$ cj p< xl wl )n fz gz hz iz mm Hq Xo Xo jz kz Vx lz mz My 0v nz oz pz av 5n qz rz sz tz uz vz wz xz [^ %! P{ P{ O{ F: _^ G: L[ i0 I< _^ y_ H[ h1 i~ g2 D_ i~ yz 0} zz Az sg Bz {j Vn Vj Wq P> _~ _~ u{ _~ Wi Kj Cz Dz Ez Fz /i _~ u{ ",
"Wi Nj Nj bh lu Vn Vj lu Vj Uj _~ Gz 8) }n Hz Iz Jz Kz R8 Lz Mz Nz Oz }; G= f; c; G  o' G  @, b; +, g; Z> h' F{ o' o' o' $, m' Pz Qz Rz ro 67 97  d  d Da Da |0 jg  d Ca `c .a }0 kb .a d8 d8 e8 Yc #d Sz K) o3 Tz Z& $k 7% E; Uz Vz gl 0h 2/ dh Wz Xz B' k> U0 }s Oj Pj  j Wj 2m |i Uj /i Wi ch Xi Yz Zz 9k `z  A .A +A @A #A $A %A _z &A w- u- *A =A  n -A ;A >A >A Kw ry 2z ,A Gw ky 'A iy 6z tx oy >A 8z 6z ry Fw Jw Jw 2z 2z Jw rx 7z oy vy Nw uy )A 2z iy ux ox vx !A ~A {A p2 ]A ^A /A !n ;k cj !n 0m Z- .o 9& xl sp )n 8m sq Qk sp cj C> xl ^@ `n Qk (A [= xl  ; Pk 4( _A :A e{ <A Hq [A Xo Il }A |A 1A mz My 2A Oy Oy st Ux Ny $l Vx 3A 4A @x .p 5A |9 6A N{ _^ f2 _^ H< Ua Ua {a i0 le 7A A_ g/ h1 [^ r( h1 i~ &! 8A 9A 7f 0A 7e _~ bh /i 9( _~ (~ P> P> 9( _~ Kj aA bA Up {j Uj O> 9( ",
"Uj Vj #y #y 6w Up Uj #y #y Vj P> cA dA eA fA gA hA iA u. 9| jA ,> kA f| f| 4@ i' I= $, =, 8~ =, c; w[ B= l' b; l' f; o' b; 4; lA Ks #d f8 f8 .a d8 d8 |0 Da |0 Ca /c 10 4e kb  d jg mw c8 f8 c8 87 mA nA oA j- K{ y( h= Wd pA 7% qA Pj Pj Pj rA sA gt w| 1{ tA Oj /m }s /m `i (i Xj Yi ch ch uA vA 4. wA xA yA zA AA BA BA CA DA EA FA #A &A :z GA HA t/ IA JA KA 'A ry Fw ky ox LA )A 6z 6z qy MA 8z rx 8z 'A 6z Fw Dw Fw ly LA 7z ny ny qy Nw NA vy ny ky qx Dw qx Fw oy ty Nw OA PA QA 62 RA SA (u vl Qk ;k :' /@ x   o i$ D> x  p< D> 4| yl q  .o TA p< cj !n vl .o !n ~n {n ks UA B' VA Jp Jp Ip WA XA YA YA Rx ZA 8u st st Ux 8u 9v `A  B .B +B 7n @B om #B :^ N[ J[ G: I< ]d i0 ]d i0 2f 3f M[ f~ B_ h~ i~ D_ i~ y_ $B qg %B 7f .i &B O> +^ u{ (~ P> Uj (~ (~ _~ *B =B Uj lu Nj Kj +^ _~ ",
"Vn Co Uj Up (~ (~ Nj 6w Uj Nj Wq -B ;B li >B ,B 'B !# )B !B !^ ~B {B 8~ Y) j; d; Z> h' 3; 8~ 5@ o' z= Z> 2@ K  I= B= l' I= sv Ub :^ 30 .a [0 @a @a .d +a Mi /c Da [0 Da [0 Da .a .a 20 f8 67 30 ]B ^B /B (B _B :B <B [B }B |B 1B 2B 3B 4B 5B Zg T! j_ 6B 7B Jf Xj Xj `i }s iq 8B _m  j 9B 0B aB bB cB dB DA eB fB FA _z _z fB gB _z hB fB DA iB u- jB p2 U' kB lB >A mB ky Fw sy 8z 6z 6z 6z 8z 8z qy rx Jw tx 8z Fw 2z ly Gw ky tx sy ky )A MA nB qy ry px )A Ew Fw iy Bw oB Lw 9z ty pB qB rB O& sB tB 4( uB vB wB 0m B>  o B> ;k 9m )n or l[ 8m B> sq 'n .o )n wl p< 8m )n !n wl =w xB yB zB AB Fr  B BB Yo Zo CB DB CB CB EB Ux rt Ny As  B FB GB 7n rz HB IB JB N[ KB M[ M[ 7A 2f 2f |f |f |f K[ <^ z} h~ z} g2 [^ N{ N{ LB MB Tq NB P; OB 7' 9( Wi (~ Uj (~ /i (~ PB QB P> 9( Zi _~ Wi 6w ",
"Up Uj Uj _~ (~ Uj #y Vn {j Uj Nj RB SB TB UB VB WB XB YB ZB `B |; |; D= Y) 3; #; z= G  9@ E{ 0; K  h' 8/ o' &, V) p$ Z>  C .C +C h8 Fa f8 [0 .a [0 lb .a .a @a `c +a @a .a @a .a  d .a d9 d9 @C 7^ #C $C %C &C *C Xi Xi =C -C Jf :/ ;C D< ,~ U0 >C ,C 'C )C !C ~C Xi ah dh Xj Pj {C ]C ^C >B /C (C %A _C _z zA :C fB %A %A <C fB AA FA :C [C @A Q^ }C |C ){ 1C hy sx MA >A rx 8z Dw qy MA tx 8z qy 8z 6z oy 6z ky 2C ly Gw Gw ly Gw Dw 6z 6z ry ux 'A Jw Iw ry vx Dw 'A 3C vy tx sx Nw iy >A 4C 5C 6C ,> 7C /@ 8C b& wl .o x  Z- q  8m B> j$ j$ rq i$ Qk sq 'n p< n  'n i$ 8m 9m xl vl wl 9C `t 0C ]o #p aC bC `o 5n cC ZA Tx 7u nz pz 7u st YA dC eC #p Vx mm fC 4i gC vb i0 1f hC |f ,g 3f |f iC 7A (^ &! &! [^ h1 i~ e~ f~ %! jC kC B9 lC mC 7' Wq Nj nC oC pC qC rC sC 9( Kj '; O> (~ Uj Vj ",
"/i (~ Wq 6w Vn Vn pl Up Uj Up Wq 9( tC Ia Bn 3p y4 uC Ho ^; vC ^h >3 0; 8~ c; d; H  m' |; E{ f& o' A= A{ 9~ d; g' A= wC [! V= #a $f 77 c8 c8 .a 10 Ea Da Da lw kb .a +a @a Ca d8 67 77 Ed Sz xC yC eh eh Yi |i pl Dk Lj Nj zC <g Z& m~ AC BC CC 0h 9h 0h @j DC e3 %, |i |i Xi EC FC j= GC HC BA %A FA fB AA zA IC :C AA G; JC KC LC AA MC NC _z :z OC PC 1. QC RC 9z vy 7z oy Dw Fw iy sy qy qy 8z ny nB SC 6z Fw 2z Fw Gw 4z TC 2z 6z ny 6z 6z ny 6z 'A ry Dw Dw ox Dw 'A rx MA 8z py Lw ny tx UC VC WC XC b= YC X- -w -k wl 8m xl 8m 8m x  x  rq ,n 8m xl 'n sq q  Qk i$ .o 9& 9m xl ls -k ZC }h `C #p  D &c  p 6n Ly .D As Ny Oy +D pz EB 8u @D #D $D 9v  B  B %D )0 &D r4 N[ G: vb |f mk mk ,g 7A J< I[ I[ R{ H8 g2 e~ e~ &! *D =D -D ;D >D ,D 'D )D !D ~D {D ]D D~ i| Wq u{ 8' O> P> {j Uj ",
"O> 9( {j Vn lu (~ Uj Up _~ P> ah +^ ^D l= q, xj /D (D _D :D c| _5 |; K  D= b; Z> V) f; !~ 0; u$ l' G  ., A{ <D d; l' [D 62 }D |D a7 $f 97 [0 Ea Ff lb Ff |0 kb kb @d d8 10 d8 d9 Ni f8 ]p 1D 2D _i eh Yi Co vk vk vk Dk Lj 3D 4D 62 E} J7 5D Zi Xj (i  j Wj _e J( Zg 6D 7D 8D 9D 0D aD BA bD _z _C fB 2! zA LC JC <C zA AA <C cD JC FA zA fB eB &A dD eD f1 fD gD iy sy Jw Dw ry qy qy 8z 8z qy hD MA iD jD )A ry Gw Gw kD 2z 4z 2z )A ry lD 8z rx mD nD oD iy rx Fw Fw ry 6z oy oy MA 8z Kw 'A Lw oB pD qD &- }5 rD sD ks cj ;k .o 9& !@ sq 'n ,n `n  o .o 9& i$ q   o q  8m 8m rq 9m .o vl *k tD uD vD Gl ;  wD xD yD Sx 2A zD 8u 7u +D nz %x AD BD As $D CD DD #p ED FD P{ _^ A} I< |f GD HD 2f KB J< &! [^ &! w5 s( e~ y_ %! H[ ID JD Xa KD i) LD Nj Nj Wi u{ MD ND OD PD _e O> _~ u{ Uj Up ",
"ah Uj 6w Up _~ O> Kj Uj Uj bh Nj QD {3 yh l= |. RD SD 7% TD k' _5 j' 8@ C= m' A= z= =, 1; }; l' d; z= A= G  I= B= UD :6 t% VD WD XD ok 77 |0 Da lb Ca `c 10 Ea +a }0 [0 d8 e8 d8 e8 YD ZD `D 9h @j Yi |i Mj Mj Mj Mj }m 1i cq  E .E Tn +E @E Zi eh Xj @j @j  j #E $E 4A yd 1e %E bD &E EA _z _C FA NC fB FA MC *E <C FA %A LC =E cD <C G; zA FA bD -E ;E $- >E ,E ty KA MA ux MA MA jD 8z qy iy nB 'E nB uy )A rx Dw 4z )E Gw 2z ry Jw Fw ny 'A ry 7z nD nB uy ny sy sy >A 8z 7z 6z qy >A Fw ly tx !E ~E RC {E ]E ^E /E (E b& rp wl Qk [= 9m n  'n 9m sq 'n TA `n 9&  o `n !@ [= 8m 9m 9m xl vl )n _E C: :E <E [E }E |E 1E CB 2E %x Ny nz rt Vx 3E ]= #l Jp mm $l Vx 4E @] 5E _^ N[ {a M[ 1f 2f 'g {a F: s4 B_ g/ g2 H8 q( <^ N{ x_ 6E !} 7E 8E E} @i (~ /i 7' u{ Kj 9E I( 0E _e _~ O> _e bh _~ ",
"6w Up O> u{ &3 >4 Wj +^ aE bE cE dE 0u .i eE fE YB gE D} 2~ i; j' j' hE C= =, Z> z= m' e; E{ j; c; 8; Z> l' m' iE 26 t/ P& ]~ jE g8 %f Ed d9 .a Ca |0 .d kb |0 |0 .a d8 d9 c8 ;i Wt kE lE mE ]5 Zi Xi Mj Mj Ik `j `j vk Lj dh nE oE pE qE Yi dh dh Zi dh Wj @j .v rE G, sE tE bD _z _z #A gB LC MC MC LC fB :C *E KC 2! #A 1* :C uE vE MC zA _C gB y- jb p^ wE xE !E yE uy zE oD 7z iy Jw Fw Dw Dw iy 7z 6z rx vx ry Fw 4z ly Dw 6z iy 'A oy 6z rx uy oD oy rx 6z lx ry >A qy 7z sy 6z Fw ox 4z qy AE BE CE DE sl 06 e3 EE FE GE Pk ;k vl Qk i$ q  8m 8m  o `n `n q  e$ .o sq  o p< i$ 8m 9m Qk 0m Bh HE a~ IE JE KE Zo Ly 2A CB Ny EB 7u 1E 6n LE ME NE NE 7n Jl wr Bq OE <9 b& N[ N[ M[ ]d 7A {a f2 n( H[ D_ h~ r( I8 %! J< :^ e~ M{ PE QE RE SE .E TE UE $v VE WE XE YE jo ZE 9( u{ '; (~ {j ",
"`E  F .F +F @F #F $F rv %F d/ Lk &F *F T> *z =F -F _c ;F ., I= 4@ C= j' =, 5@ l' V) d; C= 1; i& @, c; =, E{ 2; >F vh zo ;& p^ P& ,F 'F a7 <0 d8 d9 .a |0  d @a kb [0 f8 .a c8 Ed )F *- !F 2/ Yi Lj vk ql Xi Kj 1i Uj Kj dh ~F )0 {F Kj 2m Wi Xi (~ |i ch 2m ]F 09 ^F /F (F BA #A gB AA G; _F MC :C fB FA 2! MC KC *E :F AA <F G; :C [F }F LC _z _z |F 1F 2F zn 3F 4F 5F Nw sx rx sy rx 'A >A ry Cw ry ry rx Bw ny wx rx kD 2z ny qy Bw qy MA 6z 'A uy Lw qy 6z 6z 8z ry Dw rx oy 8z ny 2z Fw Iw 3C Lw BE 6F 7F zk |j 8F 9F Hj 0F aF ;k vl wl Qk 8m 9m Qk Qk wl p<  o n  8m wl 8m  o 8m p< 9m xl B) bF cF dF o/ eF Xo `o yD My 2A rt rt Ux 8u /w fF gF hF #l wr Jl nm iF jF kF lF N[ vb K[ K[ M[ I< H< <^ h~ g2 g/ g/ h1 s( T{ _^ &! s( mF D~ nF .[ J* L( p3 iv k> /2 s@ ]- r| oF pF qF rF sF tF ",
"uF vF wF xF yF zF  b z5 vh AF BF CF DF EF yC 9| FF GF HF z< 3~ ., c; C= f& 3; l' A{ z= f; m' d; Z> d; =, j; IF t/ JF 1^ o^ Dl 3. ic KF LF Ni h8 77 e8 c8 Ef 20 Ca c8 f8 f8 97 MF NF OF @j ch vk Mj Mj 1i PF =j Xj eh Yi Yi QF jo ch ah (~ |i |i Lj 1i /i RF Y1 SF TF UF &E VF gB _C _C zA 2! KC KC fB _F FA FA MC WF <C fB %A <F AA KC cD fB DA U* (F XF YF  b ZF xx |z ux Bw tx 6z lx iy ux tx iy tx KA 8z `F vx rx rx Iw Cw )A sy qy MA MA ny ny oD nB 'A 6z 6z sy rx )A Fw Fw 6z qy Gw Gw 2z `F tx :C  G >, 15 .G +G @G #G $G %G &G vl Sk wl xl .o vl  ; B> .o q  q  i$ q  j$ xl .o i$ n  .o *G Vg et =G -G +* 'o lm Zo mz Sx ;G 8u 8u Vx 8n >G 6c ,G :w 'G nm )G C' !G ~G 1{ {G N[ vb M[ L[ 7A i0 A_ O{ R{ I[ %! p( Rd s4 _^ e~ s( u( ]G 3< ^G /G T2 `t (G _G :G <G [G }G |G 1G {% 2G 3G 4G ",
"5G 6G 7G 8G 9G 0G S> e3 }x aG bG cG dG $t eG ll fG gG A{ z[ v[ C{ H  3; b; C= [; I= A{ p$ +, i& C= |; U) hG iG 16 jG kG lG S> U& *d n; mG nG oG h8 :h 07 67 c8 Ba c8 g8 67 pG ]6 qG rG {j =n Lj ch Yi `i Pj dh ch Lj vk Dk sG tG Nj /i Co Vj 1i =n uG vG wG xG yG AA %A gB zA _C zA _F FA ^# KC *E <C FA gB G; LC <C IC :C _F %A %A LC *E NC @A zG :z AG BG 15 CG DG Lw lB vy tx lx ux Bw 'A kx tx ux ty tx `F mB Ew >A sy wx `F Cw lx iy qy ny qy 7z nB MA MA 7z iy mB Gw ly ly rx ky ky ry EG mB iy FG GG ik HG IG lu {j {j JG KG K( LG MG -w Ko Pk q  q  q  9m 8m rq q   o C> 3( 3( 9& !@ 8m )n NG OG l| PG Z0 QG Xo RG ~o 0v Oy SG st Ny $D #l TG UG .p $l Jl VG WG kt ,o XG G^ )5 _^ r4 J[ 1f L[ A_ F: %! I[ f~ <^ [^ t4 P{ T{ i~ t( H8 yd YG ZG ;& `G  H .H +H @H #H $H %H &H .y *H =H -H ",
";H #H .H >H ,H 'H )H +z sl !H ~H {H 5p ]H 9| ^H /H A{ x: f( z: x: I= @, =, 3; U) j; o' G  ., l' b; =, G= (H _H :H d~ v4 <H {x [H 4t t% I{ Z& }H |H c9 h8 Fa f8 67 87 :h %z #3 1H 2H Lj ch  j _i 2/ 2/ 3H =n Hk Gk 4H Yj 5H 6H 7H 1i 1i vk Go el 8H 9H 0p 0H :C <C :C NC hB MC 2! LC FA FA MC <C *E KC MC _z %A zA fB MC MC fB AA <F %A [C hB @A zG aH Q^ bH Bn cH dH eH fH 5F uy gH hH iH jH kH lH mH nH oH pH 1z iy kx uy sy qH Lw uy py 9z oy oy MA uy 'A )A Jw ly rH ly ly )A lD Gw 2z )A mB Kw sH tH M~ uH vH Kj 7' 7' Nj O> 6w wH xH Ay yH )n vl )n xl 9m i$ i$ 9& 9& i$ 9& cj sp 9& 9& 'n .o wl ~n wB Vg zH Tn AH 8n 8u BH F+ CH Py pz (w DD DH EH FH GH HH IH JH mm  B vr J: KH O{ A} K[ M[ A_ _^ /^ e~ &! o( J< o( h1 P{ (^ P{ i~ w4 LH .* MH NH OH PH QH RH SH RH TH 7G UH $~ =H VH WH ",
"7G XH XH YH $H ZH `H o=  I .I +I k, @I eG #I kh $I h' 6~ f( o_ 7/ V) @, U) +, 5@ j' 8~ j; @, *, 4@ $, %I G^ &I E  E  *I =I -I ;I >I $k 7e @u /E ph ,I 'I #a h8 %f %f )I !I ~I {I ]I Kj `i ch vk =n Lj vk ll ^I /I ml Gk ~u /5 (I Mj ]j Ik kq _I :I 7l <I AA <C KC cD *E <C JC *E <C fB LC MC <C KC :C FA DA &E %A 1* G; zA AA _z &E DA bD %A UF [I }I |I 1I $k c= 2I 3I 4I 5I 6I 7I 8I W&  ! d2 50 p2 9I Xd 0I KF 't aI bI cI dI eI 4F sx oB vy qy 6z Kw ny Jw fI gI ly 2z ry Dw 4z TC Gw Cw lx hI iI ~* :. jI kI 9( lu Kj Nj ~0 &3 Wq lI mI 5  nI ;k !n !n p<  o 'n ,n n  q  n  ct xl 8m 9& g$ 9m n  wl )n cj 3| oI pI qI bv rI pz sI tI uI vI wI FH xI yI l> ]3 zI $D 9v 7n mm AI %] b& H< KB L[ r4 z_ (^ y_ p( e~ r4 n( I[ (^ A_ _^ e~ M{ g2 4i BI CI DI EI FI GI HI II JI KI 6G 2F LI WH MI ",
"UH NI @H 6G OI PI QI h= p^ T> RI SI TI UI VI WI &, A= x: =^ 7~ -^ g; d; D= N  j; 2; r} D= f& @, @, i' XI tA K< YI J[ iC HD hC ZI `I  J .J w} n3 D: 2v LG +J g8 @J #J Eu %^ vo $J %J Oj @j =n fl #n 1m Yj ol nl Fk Gk &J Ir `t *J Zj xo }m =J -J ;J >J @A _z NC fB KC ,J cD [F [F =E MC FA MC JC <C 2! <F DA DA bD _z _z bD DA 'J @A $A 8> UF @A )J !J ~J If {3 k= R} {J ]J ^J /J (J _J :J <J [J }J |J 1J uH  b 2J 3J 4J zk h9 I{ 5J 6J 7J 8J 9J 9z Bw lx iy >A qx TC Gw ox Fw ry 0J rH Hw Iw wy aJ bJ !^ cJ dJ Zi {j bh bh Vn +^ (i !t eJ fJ gJ 52 hJ Pk *k Pk wl .o n  !@ 9m 9& yl 8m 8m  o `n n  q  xl 9m e$ vl 5f iJ jJ qt CD NE DD CH kJ lJ (w mJ nJ oJ pJ qJ rJ NE 9v qt 5n Qy sJ tJ f2 KB L[ r4 f2 z_ Q{ y_ <^ G: _^ q( F: A_ A_ /^ %! #! 7h uJ vJ wJ xJ yJ GI yJ zJ AJ XH BJ CJ DJ >H EJ ",
"NI GI FJ GJ #H 6G HJ IJ JJ j= li Ia LD KJ pA LJ ., A{ x: -^ 4~ V) A= I= j; i; *, =, =, f& e; 3; +, MJ {_ NJ L[ KB {a J[ iC {a ZI 'g <6 OJ PJ QJ N~ j/ RJ SJ UE TJ m= iv UJ VJ WJ gl Pj 2m Mj Ik fl Fk nl nl nl XJ 4H YJ r) ZJ wk fl `j `J  K .K +K @K :z @K DA AA fB [F #K $K %K JC MC FA MC KC KC fB _z DA bD >- EA EA DA @A &K $A w- *K =K -K ;K x] >K ,K 'K )K !K ~K {K ]K 2l ^K /K (K _K :K <K [K }K |K 1K ;! 2K 3K =# K9 3. 25 4K :] j( 5K 6K 7K 8K Bw wx mx ky ky qx mB vx px Dw mx vx 9K 0K y( aK bK pl ]j Vn Nj UI gl YB /i +^ 2/ cK dK eK e{ fK Rk Pk Pk vl i$ n  i$ 8m (A sp  o 9& `n `n xl vl ^@ wl ;k Rk gK /! hK SG $D $D nz iK jK DD kK lK 9n Fr Xo 8u $l $l {o qz mm mK nK oK J[ G: F: n( <^ <^ P{ /^ A_ _^ N{ f~ q( F: (^ Q{ e~ pK yI qK rK ]c sK tK uK GI @H vK )i wK xK yK @H ",
"FI GI NI zK AK #H YH BK f3 4} V& CK 29 DK EK h' 4~ n_ x[ y: -^ g; c; H  }; =, j; C= f& C= C= C= FK 1s GK q4 /^ vb 3f ]d HK me 3f IK hC =I JK KK LK {^ K{ X& 1B MK 26 NK |@ OK PK _e 2m Vj xo =n Mj Yj QK ll ol Hk RK >D <9 SK TK Zj UK 3' VK WK &A 'J 'J %A FA bD 2! XK [F ,J [F JC MC FA fB KC <C zA bD &E bD &E DA bD UF (F y- YK ZK `K U0  L .L +L @L #L $L %L &L *L =L -L -L ;L >L ,L 'L )L !L (! ~L {L ]L ^L 96 /L (L uH _L :L <L [L }L |L 1L J( 2L 3L 4L mx 3C lx >A ky rx Fw Iw `F mB 5L 6L 7L 8L 9L Vj ]j Ik Vn Oj 0L 0L aL .^ _~ bL Uj cL dL eL fL Rk 0m D) p<  o rq i$ )n l[ ;k 9& n  `n xl B>  o xl wl wl Rk gL !p hL BH iL jK jL kL lL mL nL 7n /w Qx qt DB Sx 9v #l /w Il oL {_ {a _^ N{ f~ q( y_ T{ z_ f2 (^ y_ p( g/ I[ P{ /^ T{ P{ pL qL /a rL sL tL tL AK uL rg vL !E FA 0^ wL ",
"xL yL zL QH AL UH OI BL CL DL !^ EL 2/ FL GL 7~ 7~ v[ z[ y: y: p$ f& =, +, }; U) C= m' m' [; U) HL IL JL C_ g~ _^ 3f Q{ 2f Li KL HK LL mk iC ML NL OL PL QL |: 1B MK =' RL 02 SL Dk =n Mj vk Dk ]j wk Yj Hk Ek TL UL l> $^ VL WL XL YL ZL `L UF  M zA NC KC JC zA zA JC *E XK uE JC FA AA fB :C MC zA bD DA &E DA DA _z .M +M @M #M $M %M &M *M =M -M ^K ;M (! &L >M ,M 'M )M !M ~M &L {M ]M ^M /M (M Fh _M :M <M [M }M |M 1M 2M 3M 4M 5M 6M 7M 8M 9M 0M $t D: xf aM bM Bw px rx mB mB Jw cM dM L$ eM fM Vj Ik gM Go ql (~ hM wd aL iM P> jM kM lu lM mM 1{ xz -~ z> )n 8m 'n 'n `n Ix p  sq g$ 'n .o i$ 'n i$ .o xl vl =k nM oM bv NE As pM CD ,= qM @x CD (w iK +D 7u rM %x qt qt #x [A {= sM T{ f~ p( f~ P{ A_ I< A_ T{ y_ o( p( [^ [^ &! %! x_ cj ]6 tM uM u~ KI >H vM -' wM xM &H UH TH yM ",
"zM <' AM yL yL yJ EJ ,H  > =3 o. ]5 #j i= n_ z[ t} x[ y[ z< D{ F{ }; 9@ b; C= U) [; i& i; r} r} BM {A S{ %! f~ e~ J[ %! f2 3f CM DM DM IK EM FM GM HM IM So Hj Jf Jf P; T= JM KM =n ql `j Vn 1i 1i Co Ik kq LM fp MM NM OM Op PM E} Q_ QM _z AA MC :C MC :C <C :C <F MC JC XK vE KC FA DA fB 2! AA AA EA @A 'J UF .M RM SM gt TM UM 3k VM WM XM YM ZM `M  N .N +N +N @N _M )M #N $N %N &N *N =N ^M .N -N ;N >N ,N 'N )N *- !N ~N {N ]N ^N /N (N _N :N <N [N }N |N Sg KF 1N 2N Kw mB kx [C 3N {3 4N 5N (m Vj Ik Ik Vn ql 6w Ik Ik UI 0L 6N Vj [z ]j Nj lM 7N #M `n (u 0m ;k 8m sq 'n `n Ix p  Ix sq ,n ,n 'n  o 9m 8m Qk )n 8N m1 @p 9v NE Vx $l /r 9N 9v $D rI oz tI pz st Oy Ux NE NE #l 0N w| e~ h~ &! N{ z_ I< I< A_ :^ <^ q( o( I[ h~ z} h~ h~ i~ aN bN cN 0c dN eN fN gN hN #H iN jN AL kN ",
"lN mN Fc nN II oN NI 6G pN qN rN 8' sN tN f( uN vN z< f( x: g; K  U) }; b; U) }; C= e; D= Y)  f wN xN _^ T{ *I ]d H< R{ /^ /^ 'g yN zN Aj yN AN BN =I #[ k8 j_ D: CN DN Vj Vn EN zm FN GN HN IN JN KN LN MN {* NN Ik ON PN 8A ,~ QN QM #A [C RN MC :C MC 2! SN KC <F bD fB IC KC KC MC DA _C :C #A bD bD &K $A TN UN [v VN WN XN (M >M YN ^K -M ZN `N  O .O +O @O #O $O GB bu >N %O WM &O >M -N !L !L @N Yg bu *O =O -O L) _a ;O >O ,O _N 'O )O !O ~O {O ~O ]O ^O /O (O e3 _O :O <O [O }O |O 1O 2O 3O 4O +^ #y Vj ]j Ik 6w 5O ql Up aL 0L /6 6O 7O Vn lu 8O 9O (< 0O Pk )n )n i$ sq 'n `n Ix p  ,n n  `n Ix 'n n  9m xl ;k ;k aO @] bO mm 9v #p cO {! BH vI CH oz lJ pz pz av Oy wI dO DD Jl eO fO H[ R{ n( z_ N[ Ua r4 A_ z_ O{ y_ <^ <^ N{ e~ f~ %! gO |w hO iO Xn jO kO TH jN @H NI lO kN mO ",
"nO oO pO qO rO sO tO AL uO j/ vO wO .u x: fg <@ h( <@ :1 B  o' E{ xO j; j; =, +, w$ E{ [; 1; yO zO vb f2 /^ /^ 7A f2 f2 n( /^ T{ ,g ,g 'g ,g FM BN KB AO >! gx BO CO Mj ]j =n vk DO EO FO GO HO IO JO ov KO ql vk Dk ah LO MO }w NO OO AA FA FA _C fB MC fB 2! *E zA @A @A %A #A 1* 1* UF bD NC _z 'J |F PO QO m~ RO SO TO ,N Ur UO *L -N (! VO WM WO XO YO ZO `O  P WM .P +N +P @P #P !L $P T[ %P &P *P T[ =P ,N -P ;P >P ,P rK %  'P )P -} -} !P ~P {P ]P W2 ^P /P (P _P :P h# <P [P }P ,, |P 1P /6 4O iM O> Vn Ik 7' Co ah Vj +^ 0L 0L Pc Vj 2P _~ Vn Vn 3P 4P <i 5P cj ~n E> Z- sq ,n `n p  Ix rq 'n p  `n g$ 9& e$ wl Qk ks }. 6P Gl 7P 8P 't 9P 0P vI Py aP CH pz oz oz +D bP wI BH (w cP {_ H[ D_ &! (^ G: I< I< I< _^ n( <^ _^ z_ (^ F: :^ J< P{ &n @N dP {^ Cw 8G jN eP GI fP gP lN hP ",
"iP jP gP kN kP io lP yJ ke mP '; nP oP -^ -^ 7~ x: D{ 5~ ., 4@ 8~ 1; 3; 8@ b; 8@ r} [; U) pP qP rP i~ 3f K< h3 %! G: Q{ E_ R{ O{ _^ sP *l GD 7A {a le tP @] uP vP wP wk `j vk Mj #n xP 1m Hk yP Vn ch Xi |i |i ch ch 2m zP := AP EA %A AA FA FA G; 2! SN FA fB IC <C 1* DA BP CP _z UF (F (F _C DA DP EP Vm FP GP HP IP {L JP KP ^! *L LP MP !M T[ ZN NP OP ZO PP QP RP .N !L *N SP eA $O *L GB TP GB UP @N VP WP XP YP tg ZP `P  Q -} .Q -} +Q @Q #Q $Q %Q &Q *Q =Q -Q ;Q >Q ,Q 'Q Ia $k &+ )Q Uj Nj (m !Q O> &3 38 Vj Ik /i ~Q (~ ua 0L aL >4 {Q >4 Nj {j Vn ]Q <g k8 Rk ks rp E> 8m 'n `n Ix p  !@ n  ,n Ix 'n 9& xl .o wl =w KM Q0 ^Q /Q (Q _Q :Q <Q rJ jK _p CH nz Py jL jK rJ 9v 7P Jl [Q }Q |Q D_ M{ N{ :^ f2 N[ I< z_ Q{ J< z_ (^ F: f2 {a N[ :^ 1Q 2Q Q7 3Q 4Q 5Q AL oN 6Q 7Q 8Q 9Q 0Q ",
"pO mO aQ lO NI @H bQ cQ dQ eQ 8' 52 fQ x: A{ h' ., ., F{ l' @, 5@ j; 8@ C= C= 8~ e; D= C= gQ hQ iQ jQ P{ le p( h1 r( kQ lQ mQ y_ Ua y_ L[ J[ H< K< A} R. nQ Go kq oQ #n Zj Go ql wk #n Zj 1m 1m Lj 2m 2m 2m Yi dh eh pQ <m qQ OO VF gB %A AA _C _F MC fB zA FA MC KC fB FA _F %A 1* EA $A $A %A rQ sQ OD tQ uQ &L vQ *L wQ xQ (! yQ wJ Fh bu >N zQ +N  N AQ AQ AQ BQ !L CQ DQ @O EQ FQ GQ VO !L HQ +P GB IQ JQ KQ :M LQ [a MQ NQ +Q +Q qc +Q 4c E| )O OQ PQ t0 QQ RQ SQ #Q TQ :N fu UQ #k <g VQ WQ Wi YB 6w Zi Vn ]j Ik ql Vj #y ]j UI 0L 0L XQ YQ 7' ah ]j {j Vn ZQ Z& `Q ;k X- {n vl n  'n `n TA 8m 9& n  Ix 'n 9m p< q  vl ks *k {s %]  R vr lt #l .R +R EB +D F+ wI CD rJ wt @R 7P #R @B $R %R &R C_ s( R{ e~ F: A_ I< z_ :^ A_ H< A_ z_ vb KB J[ _^ :o *R 2k =R j( 6G -R kN zL pO 7Q 8Q oO ",
"7Q HI mO GI RH @H tK ;R 7% Ms >R E< :@ x: 3~ I= B= l' c; 2@ l' d; l' w$ i& 1; }; i; }; ,R a} 'R q4 H< Q{ L[ /^ 2f I8 )R kQ lQ p( ]d _^ _^ %! g~ d~ !R mh ~R el fl {R ^m Zj el Dk vk Mj Mj el `j Lj ah 2m ah ah Kj ]R Tn ^R UF BA %A AA %A %A zA _C G; %A G; _F fB <C <C SN :C hB G; _C BA 8> /R (R _R :R <R YN [R vQ @N _M IQ Fh }R p= bu |R !M VP $O *N .O +O 1R RP 2R DQ !L 3R 4R 5R mh Fh +P 3R 6R CQ !M xt 7R 8R 9R r' 0R aR %q 'O qc +Q bR .Q +6 +6 cR 'O qc 'O dR eR  Q fR TQ gR hR iR ^; jR +^ /6 7' YB `i Wq {j ~Q {j bh kR 29 6N lR mR nR Ms Up Ik Vn Vn _~ oR %~ pR ;k Qp !n B> 9m g$ ,n j$ q  9& ,n `n n  q  q  )n 3| Ok qR Op rR  B rz #l #l sR tR uR NE vR 'G wR xR |9 )0 yR {[ 7. Z8 <9 /7 C_ k| h~ f~ <^ A} r4 f2 Ua I< M[ K[ 7A 7A K[ _^ %! zR AR BR S/ CR .H @H FJ oN DR ER 8Q ",
"6Q 6Q iP oN FI uK lO FR GR 29 HR IR =^ 7/ :@ V) c; +, +, j; @, B= o' e; }; k' b; o' i' JR KR me 3f hC H< ]d (^ 2f 2f 3f K[ H[ mQ J< J< N{ k3 ^^ Q} LR MR wk NR OR PR QR wk Mj pl Dk pl Dk Vn Co |i 2m ch Xi ch $y RR )6 SR iB &K _z 1* <F >- _z bD bD %A FA fB MC FA <C <C MC fB FA FA TR UR I( VR WR *N XR YR ^M #O 2R ;N =P =P =L }h ZR :M `R -P -N !L *N  S EQ 3R ^K /M .P .S +S >M @S Dq +P #S ^M GB $S xt >N %S &S *S =S -S ;S >S #Q )O )O ,S 'S +6 )S !S 'O )O .Q ~S {S ]S ^S  Q :N L8 /S (S _S ^m Rm >4 YB ~0 (~ gM ql Vn ]j 29 gl :S <S ]j >4 Up ql ]j ]j Wi [S }S @] n  yl 0m Pk p< 'n 9m wl l[ 9& n  Ix ,n  o q   ; 0m wB |S 1S 2S 3S Kp mm 7n $l 4S 5S wJ `@ 6S /2 G^ 7S 8S 9S 0S aS bS Zx cS u( s( H[ h~ I[ q( A} f2 J< z_ A_ G: KB |f KB _^ %! dS eS fS tz gS &H XH GI II hS yL hS ",
"AK @H lO mO yL zL RH FL iS jS kS lS f( 7/ 6; V) B{ c; o' M  c; $, e; k' }; #; I= h' mS NF nS k| d~ f~ R{ f2 H< k3 f2 'g oS |f f2 h3 I8 h1 w_ pS qS rS sS _y L( Y1 tS h= Ek Mj Vn pl 1i 1i |i ch ch 2m Wi Xi O> uS ]6 vS [I iB y- @A CP 'J &E _z >- gB SN SN fB MC AA %A NC MC hB CA wS xS Dv yS zS *N 3R ZN  N 5R @O AS -N bu =P !M BS &L CS DS :M -P bu >N *L .N ES FS %N GS {M (M ZR HS IS +P .N !L &P JS !M KS LS MS NS OS PS QS QQ RS cR cR SS cR cR +6 qc )d qc bR !S +Q TS {S +Q US {O VS WS MK XS YS Rm UI hM &3 Wq ]j gM ]j 2/ `i ZS `S ]j >4 9( xo kR Ik O> Nj PN  T $k -k ;k vl .o  o Qk 9m cj i$ 9m 'n Ix n  8m C> ez .T +T |S b~ @T ]o km mm #l $l RG Aq .x #T $T ,~ P; P; #3 %T &T *T =T  3 -T C_ r( e~ I[ g/ e~ <^ Q{ z_ /^ %! N{ le 1f r4 N{ O{ O; ;T >T $[ WH 8G &H lO QH RH zK ",
"#H UH UH .H XH .H lH ,T ~0 'T W- ., `e n_ /h :@ Z> u$ b; i& }; w$ C= =, g; g; h' h' )T zn w_ ^d I8 p( R{ [^ Ua /^ k| H< IK 1f KB f2 O{ !T g~ ~T {T ]T ^T /T (T r{ _T :T <T `j vk Vn Dk Dk Co Xi ah 2m ch ch [T }T |T 1T v- u- iB UF bD %A zA 1* bD LC MC G; _z [C _C &E |F DA &E uO 2T b( )K 3T YN 4T 5T `N 6T @O +S +P 2R ,M IP =P 7T sg kh 8T 9T 0T aT bT cT kK dT I& eT fT gT hT iT jT kT /M .N &L (! JP bu /M CS lT mT nT QS oT pT *| cR SS qT qT SS )S .Q rT sT eR qc qc eR ~S ~S tT uT ^S vT wT {3 xT yT gl !t 29 u{ Vj ql {j wd gl zT Oj Vn u{ _e Ik ]j kR 9( O> 5H AT cp BT -w wl e$ 3( 3( 9& Qk .o 8m n  Ix 'n 9m xl 0m CT DT uB dS )k ET #l qt 9v #l 9v zq FT GT HT I( 3G Mm B' *~ %~ Ay 8  IT JT t( H[ p( &! [^ B_ H[ %! _^ e~ t4 R{ me |f vb J< q4 KT LT /a MT NT ,H OT 6G >H XH XH ",
"PT QT RT ST TT UT m= VT S0 R> WT X) n_ 7/ e( I= e; a; 79 U) b; 5@ n' g; #, ., g; B= XT YT v( M7 t( k| _^ k| R{ H< Q{ f~ 7A GD mk me Ua x_ S{ ZT `T [% Et Vj Dk  U Dk Go .U lr +U `j vk vk Jk bh Xi 2m Kj @U Rj OD #U $U >{ R, @K 8> UF EA _z bD %A [C bD DA >- #A #A EA |F w- %U ,l 7l &U -L ]K (M >M *U =U -U RP ;U &P >U ,M (! ,U +] 3G b( 1B ^[ G^ e{ k> 'U )U !U ~U {U ]U ^U 4} h= 4. /U (U -N Fh _M )M (! an _U oq :U <U [U }U pT |U qT qT qT qT SS cR qc sT 4c 'O )S cR .Q 1U 1U 2U {S 3U <N <N 4U 5U 6U 7U ua 29 (~ ]j Uj (D 0L 8U 9U 0U {j (~ &3 Vn #y Vn 6w '; aU bU cU dU eU -~ :' cj 9m 9& ^@ 'n i$  o g$ `n 9& 9m )n 0m Q] :' X- M& fU Hq Il Ky Qy vr uz L. gU hU k> p2 iU jU kU wh *~ OD T! C: M7 s( H[ [^ i~ H8 B_ e~ (^ H[ lU /^ me 'g J[ A} P{ mU nU oU pU .u qU rU sU tU Zp Zp ",
"uU vU wU xU yU zU .u AU BU CU DU I= -^ d| n_ I= o' c; Z> 4~ ., -^ 9/ W) A= I= A= EU fN FU ^^ k| )R x_ J< D_ [^ I8 {a H< L[ y_ O{ 3f mk ]d GU HU IU JU ch Xi |i |i Lj 1i Go KU LU wo Zj `j ]j 1i 1i /i Yi MU (S {^ :/ NU OU PU W* :z &A &K CP QU AA zA EA 'J bD bD DA @A y- RU SU V8 &R TU UU 3T VU DQ ^M RP ZN  O 6R [R DQ &L DQ WU XU 'M YU ZU `U  V .V +V @V #V $V %V &V *V Z| !^ eE U= =V DS =L >N )M WP $L -V ;V ho >V ,V ]O 'V )V PQ *| +6 +6 cR +6 SS rT .Q eR !V qT ~V !S .Q eR eR -} )O %q SQ {V ]V ^V j- /V (V Wi Vn `i 4O _V :V <V }s 6w (~ YB lu Vj Vn #y [V }V +^ lu =m 3[ 4( ;k x  rq 9& 'n 'n 8m 8m 9& `n sq rq wl Qk wl vl vl |V ^! 1V 2V 2V ss ur 3V 4V K) =' =' 62 5V 6V 7V 8V 9V 0V L( aV bV t( M{ r( I8 u( s4 T{ O{ h1 I[ r4 K[ M[ G: J< P{ cV ^! dV eV z| fV V= Y& gV hV iV ",
"jV kV R] ]@ lV mV {3 Zi nV d2 J= I= 9/ e| 7~ A= W) fg e( e| z: 6; o' +, Z> l' 9; oV pV k3 S{ h1 )R [^ [^ M{ g2 qV T{ H< *l H< Q{ M{ t4 h~ rV d3 sV Yi 2m ah ch Nj |i |i |i Vn tV uV jq #n el Ik Dk (~ vV I( r: wV :4 n; xV yV zV aH Q^ U* (F _z zA G; _z DA &K @A @A y- RU ;K AV BV (* 9b CV DV ,N Fh ;M #O .S EV RP !L +N +N FV GV !M XP HV =O bu IV <M JV KV LV MV NV OV o; `5 PV QV RV Tz SV TV 'M UV -L VU VV WV XV YV ZV `V W2 &Q  W t0 *| .W qT 'S 'S -} 4c )d 'O )S +W qc )S !V @W qc -} .Q _N #W `V $W wM `t %W &W *W =W -W ;; ;W 8t >W ,W +^ 38 Up 6w 'W )W !W u{ Wq 5O ~W xC {W wl .o 8m n  sq i$ p<  o i$ sq `n 9m ^@ n  9& xl yl (u Z] ]W uz Wo ^W /W (W )v -' -' -' g} j= _W :W (o <W [W }W |W 1W 2W v( C_ Ug M7 i~ F: q( B_ q( A_ H< z_ J< /^ N{ &! 3W 4W Rl 5W 6W If ~2 W& 1, 7W ",
"8W 9W 0W Y- aW Om bW P> cW dW <D ., 7~ 7/ n_ 9/ x: eW eW d| x: c; b; c; b; i; fW .E gW k3 S{ H8 t( R{ r( M7 R{ R{ P{ K[ G: H< h~ hW iW h2 jW kW  j (i 0h  j Xj Yi |i Lj |i Lj lW mW Zj vk bh Xi Kj nW oW .u 7L h9 pW ik -G qW rW sW R, Q^ y- #A %A #A _z DA $A &A $A tW uW vW wW xW yW .b $[ w| zW !M Fh &L .N  N  N WM =N AW BW bu _M CW ,M ,M Fh =L <M xW DW EW FW R& ~2 GW HW IW JW KW LW MW NW OW PW QW RW SW TW UW VW WW XW YW ZW }U `W QQ  X .W .X #Q eR +X .Q qc dR )S qc qc @W 'S 'O .Q @Q aR *Q @X -  #X $X wq %X &X &X &X &X }t *X =X -X ;X >4 >X ,X 'X Up P> {j ]j ]j Vn )X !X ~X y  8m 9m 9m C> e$ n  q  9& `n n  9& n  sq Qk b& et {X ]X jt ^X /X (X qW w| -' w| _X :X <X [X 0} }X |X 1X 1X 2X 6q 3X w( i~ R{ &! N{ <^ &! H[ P{ /^ O{ T{ /^ T{ N{ E_ 4X 5X 6X 7X 8X 9X 0X L$ w} aX ",
"bX 9W 0W cX dX p> eX (~ =' lS C{ 3~ 6~ 5~ e( z< fX gX f( =^ p$ m' o' @, e; i& Q> hX t( t( x_ [^ )R r( r( h1 H8 &! /^ {a 2f r4 r( iX iW 78 j[ jX dh Xj (i _e 2m Xj _e ch |i 1i el kX lX mX nX (i 0h oX K( Q& #k 35 pX qX bz rX +e sX &V tX uX &E DA y- UF @A w- :z vX wX X( xX TV yX zX AX BX /! s, *O IV Fh vQ #S &O /M CX I_ LP >N LP -N +N 2R VU -L UU DX EX eE g= FX {; GX HX I4 5& 2a ), Nz +] ud -G A. l] IX }x h! JX KX LX MX NX OX PX QX `W )O -} -} +Q .Q 4c RX SX +6 +6 dR SX rT qc )d eR dR `W PX TX UX VX WX XX YX ZX (m aL /I `X 38 {j  Y @F .Y +Y Vn _~ Nj ]j ql ]j Nj ah @Y #Y 7m .o 8m 8m wl q  `n sq 8m  o `n 9& q  sq p< !n Vg $Y Dt %Y &Y ;> =' -' *~ %~ *Y =Y Fl jt Aq -Y V5 ;Y $R <W >Y r, ,Y k| &! e~ <^ N{ I[ i~ R{ z_ <^ %! q( Q{ Q{ N{ h~ f~ 'Y zb )Y p2 !Y ~Y 1q o^ MK ",
"{Y ]Y h{ ^Y {E  3 (~ /Y I6 ., 6; n_ W0 3~ 7~ h( z[ W0 n_ 7~ z= A= l' $, |; b; (Y _Y g~ x_ M7 :Y lQ h3 r( I8 h~ {a {a mk IK iC -I iW <Y [Y }Y _e _~ Wi ch pl =n Zi Pj 2/ 0h 2m `j Mj Mj |Y YE )u 1Y 2Y N~ h9 x& 3Y 4Y 5Y 6Y 1q s' D; ii 7Y 8Y uX Q^ zG &A U* [I 9Y 0Y tm aY -P -P HV -L {L bY cY b( dY v| {L |R ,M >U eY fY |R >N ;N &L >M an (M ,M gY hY N~ $k C; iY l= 0w S& jY kY lY mY nY oY pY qY rY sY tY uY vY wY xY yY zY AY BY ~O CY (N ~O %q ;S >S -} +Q @Q .Q RX +6 ,S #Q +W DY !S EY +Q SX $Q US ;S PS FY GY Tl HY IY Zi 38 JY &3 Kj Up (i KY LY lu lu >4 Nj Ik Uj _~ '; _e MY NY OY xl xl q  vl q  TA 'n 'n q  ,n 'n 9& 9& 9& ;~ ^u PY QY RY Xd mi 62 =' $~ SY TY UY VY @l .p #p WY XY YY P1 ZY `Y  Z C_ h~ y_ Q{ n( &! f~ :^ G: <^ &! %! N{ P{ N{ [^ k3 So .Z +Z bi @Z #Z $Z $^ Sg ",
"%Z D) &Z i} *Z =Z 9( nP -Z 4~ :@ n_ C{ 6; 5~ 8; @, n_ t} h( 6; A= @, m' |; ;Z n3 >Z g2 k| D_ R{ t4 ,Z r( y_ T{ K[ 1f 'g 'Z 3f le k| )Z 0} !Z ch |i 1i Lj Mj `j Lj 2m (~ 2/ 9h Yi |i {j |i ~Z {Z ]Z ic (4 ^Z 45 /Z %# (Z >u _Z |j 25 rX Z] :Z <Z zV [Z Q^ :z u- }Z DL +L IV !M |Z =L 1Z 2Z 3Z 4Z 5Z p^ 6Z 7Z 8Z ,N 9Z [n XP _M MP (! vQ (! Fh ,M 0Z aZ 7e h# bZ cZ dZ eZ fZ gZ hZ '; 8' Wj Ms Wj '; u{ O> .^ Pc 0U iZ jZ kZ lZ mZ nZ ,r oZ pZ qZ /N _N RQ )O qc )O .Q rZ rT +6 +W sZ !V +W )O .Q 'O )S OQ Qb tZ uZ {V PS vZ Ub wZ .^ LO xZ lu {j &3 yZ 3W h# zZ (~ 2/ {j Uj /6 ]5 >4 Uj /i AZ b' ls xl x  wl xl `n 'n  o 9& n  `n 9& n  9& cj {n BZ CZ T! DZ 62 %' ^2 EZ FZ GZ HZ 9n Er wr Vx rJ IZ JZ ~r KZ EE ~3 LZ D_ h~ %! y_ f~ T{ Ua H< %! [^ R{ &! e~ y_ R{ ^^ MZ NZ zb OZ PZ QZ RZ SZ bi ",
"`6 TZ )@ ]Y UZ VZ .^ |n WZ H= #, A{ <1 5~ D{ z= 3; e& C{ ,^ h( -^ I= 8; B{ XZ Q& h~ Q{ T{ Q{ O{ O{ mQ y_ YZ h3 p( L[ 7A y_ T{ H< g~ LN ZZ ch Xi |i Uj Xi Dk Mj Co 1i Vn _e gl 9h Xj 2m 2m Yi `Z wV  ` Nz {% !N .` +` n. `B ,# @` #` $` 1^ li [v %` &` *` =` -` FL ;` =P WP KQ IV 'M 2Z >` ,` '` 2a !^ )` 2Z !` 'M ~` {` XP =P bu -N IP :M ]` ^` q; =< /` (` _` :` <` [` }` hq |` Ms u{ 8' /6 _e 7' Zi 9( _e 0h hM }s Oj 38 9| 1` 2` 3` 4` K> 5` 6` 7` 8` 9` 'P 'O +Q @Q +Q +6 +W +6 #Q )O )d SX SS cR 'S *| 0` a` =Q b` c` d` /! e` f` g` 9| (i >4 h` If O; i` YS .^ {j 7' u{ #y Vn Co 6w j` k` l` Sk .o xl )@ 'n n  9m 9m sq ,n n  ,n 8m 0m NG m` n` o` =' p` q` r` s` mt im Nx  B jm #p @R t` Od ur u` v` ;g ~3 w` s( D_ g2 h~ O{ A} z_ o( s4 s4 g/ R{ %! %! h~ M{ x` ^; y` z` A` B` C` D` P& ",
"E` F` G` E> V8 H` jS Dv 0; 9; 4; w[ #, <@ 9/ 9/ o' e; A= x: e| y: g' d; 4; I` J` -I _^ /^ e~ R{ e~ G: f2 P{ H8 I8 t4 H8 M7 [^ Q{ T{ 3' K` 2m eh eh Yi Kj Uj Lj Xi Lj Dk Yi Pj Oj Pj ]5 u{ dh L` TB (4 M` rX JJ N` )N O` $` i` [* P` SZ >, *z .I u~ Q` R` xS |: S` T` XP KQ WP U` zM V` W` X` J( S& Bn Y` Z` ``   .. .:M =L -P (! 3T iT + .@ .wV # .$ .% .<| & .* .= .- .; .> ., .&3 38 2/ &3 >4 '; /6 '; 8' '; '; .^ 9| .^ '; _e 7' 7' ' .) .! .-y ~ .{ .] .:N 'P vT -} 'S RQ OQ )S @W )S 'S SS SS sZ 'O ^ .|U 0` ;S _N NX ZV / .N9 ( .Uj Uj Nj Wq _ .: .R& ;! < .Vn /6 Wj lu Vj Vj #y Vn Co [ .3< 3| ls [= vl x  sq Qk  o j$ vl xl vl 5| } ..T uB | .1 .2 .3 .4 .5 .vr 6 .Nx 7 .rz mm lt 8 . 3 9 .0 .a .b .,> ,> [% C_ s( g2 o( F: A} q( B_ h1 r( &! g/ h~ [^ r( H[ ^^ J( c .d .,~ e .f .g .=' ",
"_H 4G h .i .ig gl j .x* G= 0; +, @, q$ W) W0 :@ G  e; G  fg h( A{ 8; #; l' ^C k .x_ k| mQ t4 R{ 7A 7A *l oS R{ p( f~ mQ kQ h1 YI l .i< m .ah _i 9h (i eh Lj Vn 1i Lj |i Yi Pj Ck `i Xj Yi n .+j .I o .bz p .l~ ^* (Z q .r .s .%d y4 A; t .u .Lv K> u@ w} v .w .x .'M 1K <M 'M y .z .A .ic Q3 b' {; {; E< B .C .52 D .,N =P bu 3T E .F .I( G .H .I .J .K .L .L .M .N .O .P .a> Q ._e .^ YB UI 9| 38 9| 29 ]5 8' u{ '; Ms _e _e _e /6 /6 Wj >4 R .S .T .Ur U .V .;Q W .~O X .RQ RQ #Q )O )O SS SS qT +6 Y .)O +W DY #Q X .Z .`V ` .Uq B/  ..lu lu Uj ...:. +..eE :/ @..Wi /i {j ]j kR kR 5O Vj #..NF $..3| xl Qk wl n  i$ B> )n l[ Qk %..(A sp Pk ;k X- ul Y1 &..xr xr wr FH *..=..-..;..>..,..'..`w )..!..@B P; u_ T! v$ C_ i~ n( z_ J< &! s( s( B_ B_ h1 s( s( s( D_ #! ~..{..]..^../..(.._..h= ",
">! :..<..[..}..hM |..1..;3 j; 0; M  l' p$ fg 9/ 3~ 4@ $, h( :@ 9/ I= h' 2..Hg N{ P{ ne lQ lQ H8 H< ,g 3..'g 3f L[ [^ :^ e~ O{ {a 4..!i Co |i eh =j 9h @j |i vk Mj Dk Zi 5..=j ~0 eh 2m Wj 6..7..}. 96 !* 35 8..9.._* _Z 0..a..,# ^* b..qv !; 60 c..d..Hd <4 e..8Z UV f..g..g..h..Y& ;) Lv z' 7..i..j..9j k..4} {; l..TV m..iT n..o..p..q..r..s..t..=R u..v..w..v..x..L .y..z..A..(~ Wq _e >4 ]5 Wj '; '; ]5 O> ah _e .^ Ms 8' +^ _~ Kj 8' Ms !Q S0 B..S> <] M9 C../N ^N QS $Q $Q dR RQ #Q !V sZ SS cR #Q #Q 'O .Q qc D..'V ^P E..F..A' G..(~ 8' &3 H..E< I..J..&+ t_ Pd K..6w }m Vn Vj pl {j O) L..M..(u -w .o Qk 9& 9m cj B> j$ 9m C> n  x  9m vl Vg rp sN N..[Q =x l! ci O..P..Q..R..S..0} T..U..Zw V..W..Tb n3 G^ b9 u( h~ T{ (^ f~ s4 I8 ,Z I8 I8 I8 Rd Rd I8 C_ C_ X..,> Y..Z..`.. +..+.++.",
"@+.s1 #+.{^ $+.gl r, %+.2; e; N  +, o' A= :@ 7~ fg d; f& 8/ 6; 7/ x: ., &+.*+.i~ M{ h3 jQ i~ f2 HK =+.2w 7A :^ 'g H< :^ Ua ML -+.5  ;+.Jk 1i (~ (i  j dh /i Dk ]j Xi @j Pj 9h _e ch _e >+.,+.96 L) '+.o .~# 8..)+.^% [H !+.x{ ~+.{+.m0 c= XC ho S= M$ eA ]+.^+./+.(+._+.:+.<+.^; !^ nh L$ [+.}+.|+.1+.2+.3+.4+.s# u@ 5+.w# 6+.7+.8+.9+.0+.M .a+.b+.c+.d+.e+.e+.f+.g+.x..L .h+.i+.j+.Vj {j O> ah Up 6w 6w O> {j 6w O> .^ Ms +^ Uj kq ql P> Wj 0h ua k+.-G l+.m+..u n+.-S FY o+.}U )V p+.)S sZ SS qT SS +W SS +6 #Q 'O #Q tZ q+.NX r+.s+.w& t+.'; (~ u+.U> v+.w+.x+.w& N] Q0 PG pl lu Up Wq y+.jl *~ )k z+.yl =w Z- .o 9& 'n 9& Qk q  .o sq xl 9m [= B) -~ A+.mL B+.Ym C+.D+.Qy rz Il @x ss E+.F+.]2 G+.H+.I+.J+.X& )k K+.h2 i~ <^ e~ H[ H8 t4 t4 ,Z C_ C_ I8 Rd t4 u( v( :o L+.I4 M+.N+.O+.P+.Q+.",
"R+.k$ [= S+.T+.U+.wq V+.0; i; j; f; g' n' z= :@ y: A= b; g; 6; n_ h( <D W+.X+.h~ h1 r( g~ :^ Y+.zN HK Z+.mk Q{ O{ r4 Q{ O{ 'Z `+. @..@.2m Dk pl bh /i {j Dk Dk Lj Zi eh Yi Wi Nj 2m wd ]R Ia !^ +@.59 (4 @@.1M #@.$@.x. F9 %@.&@.&- #@.*@.=@.-@.25 ic ;@.>@.!` /+./+.B4 ,@.N& o3 '@.b~ )@.!@.G` ~@.{@.]@.zX ]L ^@./@.(@._@.:@.<@.[@.}@.|@.1@.2@.3@.c+.4@.5@.5@.6@.7@.8@.9@.0@.Bo a@.Vn ]j lu P> Vj ql ql (~ ]j ql ]j lu Nj lu ql b@.jq Vj _e .^ c@.d@.z4 e@.Gp f@..i g@.h@.i@.^P j@.k@.t0 *| qT qT ~V ^ .l@.!V +W #Q .W pT &Q Z .^N 4M :4 m@._~ u{ n@.}. Ia wE o@.p@.MK Z& Fs q@.(~ _~ =2 r@.AC |h |h s@.&D -w wl 8m 'n Ix Ix  o 4| !n q  `n sq q  3| ^u t@.s< u@.v@.CD Jl qt Yo KE  B @x Gl #l w@.b_ x@.y@.z@.Ul :6 g3 I  D_ N{ &! s( Rd u( Rd I8 H8 s( lU I8 t4 u( w( 7@ pA H( /E A@.B@.C@.]Y ",
"D@.{@ E@.H( wd F@.y5 G@.zu [; 9; &, Z> h' C{ -^ ., A= @, g; z= Z> A= H@./! I@.S{ x_ g~ L[ KL 3..HK J@.3f IK ,g P{ [^ y_ x_ R{ K@.L@.>4 eh |i Vj Dk ]j Mj vk Dk 1i |i |i Lj |i Yi =j 0U M@.R8 t .q, >, [x 59 +z PL n$ `B N@.Dd O@.ft qm  I P@.Q@.$- pu R@.S@.!` 2Z T@.u> ,~ (< U@.V@.W@.X@.Y@.Z@.`@. #.8Z {L 'M _+..#.60 +#.@#.##.$#.t..%#.&#.*#.=#.-#.;#.>#.>#.,#.'#.)#.!#.~#.D; {#.5O ]j (~ O> {j ql kq /i ]j wo jq wo fl kq fl Ek 4H ]j Wj /6 ]#. l ^#./#.(#._#.:#.<#.[#.}#.c` ^P j@.)V PQ *| qT RX Z} SS |#.~V cR 1#..X )V j@.2#.3#.4#.e3 5#.]5 6#.7#.2J 8#.9#.$C 0#.a#.AC b#.c#.d#.e#.,~ f#.n3 k> g#.Ko -w wl q  ,n 'n 'n p< 5| ct 9m .o Qk q  [= :' B) w< h#.rJ 6u $D $l ~o i#.8n 7n jm yr @B j#.k#.l#.m#.){ W& $^ n#.k3 %! h~ H8 t4 mQ Rd C_ s( g2 h1 C_ Rd C_ s( r$ OV ;g W& Z0 o#.p#.q#.",
"f$ r#.s#.t#.wd u#..u h9 m_ ^y D= v#.+, Z> 0/ ., I= V) B= 2~ Z> H= m' w#.wV i3 t( k| /^ Ua J@.x#.3f M[ J< H< 3f L[ /^ R{ ^^ %! HU 62 y#.dh |i {j Lj Dk vk Ik }m =n Dk 1i Xi ]5 Oj z#.A#.B#.o= !; 60 C#.p; D#.kw E#.F#.`B G#.H#.I#.J#.K#.L#.%- [* F6 M#.N#.O#.P#.Q#.EX K{ R#.S#.T#.U#.V#.]L W#.X#.:M =L =L IV <M 8J Y#.Z#.`#. $..$.+$.b+.@$.e+.#$.;#.$$.%$.&$.>#.*$.he =$.-$.;$.>$.,$.Vn Vn _~ 9( lu ]j kq bh Co XJ '$.'$.'c wo ql kq )$.Ik _e !$.~$.{$.]$.^$./$.($._$.:$.<$.[$.}$.c` Z .}U )V *| DY #Q |$.+W @W 'O 'O )O #Q t0 1$.2$.^P 3$.4$.F9 5$.9( 6$.eE v+.7$.u{ _~ 8$.9$.J* 0$.P; N& a$.b$.4t [* yd c$.=k wl q  sq n   o p< d$.xl ;k cj xl 9m q  wl (u e$.f$.g$.BH SG Vx %x Qx As As 7n h$.zq v; J} i$.j$.e3 @I {3 k$.k3 &! H[ C_ u( u( t4 I8 lU g2 g2 s( C_ D_ k| s( l$.]A r| AC m$.n$.KV ",
"o$.p$.q$.r$.!Q KY Sg TB s$.t$.u$.v$.w$.x$.o' l' i' $, m' 4; d; *, fW y$.z$.pS k3 r( {a ]d KL ]d Q{ y_ y_ p( y_ J< J< J< d~ A$.]2 B$.l{ C$.2m (~ 1i ]j =n =n Ik vk 1i 2m Pj $n }s Oj D$.!^ gV ]E $- WU o .E$.JB F$.G$.#@.H$.'# I$.J$.K$.MM ft L$.M$.N$.{@ h$ O$.P$.l{ M& Q$.R$.S$.T$.U$.V$.jC IV |Z |R IV W$.X$.7Y z5 Y$.Z$.`$. %.t...%.+%.5@.@%.#%.$%.%%.&%.>#.*%.=%.-%..$.;%.>%.,%.bh ]j Up 9( Up Vj Go ~Q Nj fl '%./I )%.kq Up Vn wo np !%.~%.I{ Vl p= v~ {%.]%.^%./%.(%.ji _%.:%.^N W2 tZ )S SS SS #Q RX <%.[%.[%.l@.+6 )S >S QX Z .^N `P |: }%.(~ Zi |%.z9 ~# 1%.P> 2%.3%.w& {3 4%.5%.6%.7%.8%.9%.bL $N '1 wl 9m  o 9m sq .o d$.l[ .o q  !@ rq rq Z- *k 'Z f$.U$ BH 9v #l 8u $l NE CD qt zq 0%.a%.>l M& b%.c%.KH @I d%.B} i~ D_ H8 u( u( mQ ,Z C_ s( B_ g2 [^ &! &! i~ e%.,~ ig sa f%.g%.m  ",
"h%.{@ i%.j%.YB /E t% y5 d/ k8 K( *d A/ k%.l%.m%.n%.o%.x$.i' *, f' qS 4t p%.J  v( p( y_ L[ 7A vb f2 /^ Q{ N{ D_ )R Rd g~ x_ q%.r. `i r%.<m s%.Go 2m |i vk Dk =n vk Xi @j Ck Ck 0h !u t%.zk eE |% u%.#@.kw |. E#.v%.*- bz gZ _B )* [H w%.x%.Eo y%.z%.A%.B%.C%.Z| li N~ D%.E%.F%.1Z DS G%.H%.I%.*O ZR =P J%.8- K%.L%.M%.N%.5W 4@.O%.P%.Q%.R%.S%.&$.@%.T%.Ql U%.V%.W%.;%.X%.)#.;%.Y%.Z%.(~ ]j {j +^ +^ Uj ]j `%.6w Up }m ]j 6w _~ u{ Vj ^m Ik  &.Yb .&.+&.@&.#&.$&.%&.>%.&&.*&.o^ 9b =&.tZ @X >S RQ t0 |U cR !V @Q rZ Nb X} +Q .Q qc QQ *Q {V -&.;&.>&.,&.Uj '&.o; y5 )&.P> !&.~&.w& {&.]&.^&./&.(&.p2 _&.:&.u~ <&.7m .o i$ q  .o i$ [&.d$.d$.xl n  'n n  ;k 4( Ok 09 }&.|&.#l mm qt DD Vx 'G 1&..x 2&.3&.4&.6Z IC 5&.dM -4 6&.#! F  [^ g2 Rd Rd ,Z C_ C_ s( H[ h~ q( Q{ q4 &! ZI N_ j_ 7l 7&.e .k$ ",
"k$ r#.8&.9&.0&.Sg K{ {3 a&.), li S& S+.u@ .u  n jh b&.c&.d&.e&.f&.~h J* g&.h&.Rd g2 mQ ]d N[ T{ /^ Ua 2f f2 t4 :Y g2 g2 t( i&.j&.Oj =j k&.J- 9k l&.ch |i ch Wi /i Xi Wj ]5 Yi _~ m&.h= ), 9w n&.{* l~ [n A  |. o&.p&.XC WJ q&.,# r&.s&.t&.+` ]y u&.v&.w&.g3 -@.x&.7..y&.z&._+.|Z A&.!p @L ,N B&.#N C&.D&.E&.F&.G&.H&.I&.L$ J&.K&.K&.L&.U%.M&.S%.U%.N&.R%.O&.P&.Q&.R&.S&.YG T&.U&.V&.nR Vj /i 8' +^ (~ {j Ik ]j _~ O> Kj u{ O> 9( Vj ]j W&.X&.Y&.!q Z&.`&.gk gk `&.Z&. *..*.+*.@*.BC #*.$*.RQ ~P )V PQ sZ +W 'O F| rZ Y} C1 %*.&*.Y} vT TQ CY **.DZ =*.Wq -*.;*.dQ ik >*.lq wq $^ ,*.'*.38 )*.1B !*.Nj ~*.ie {*.)n vl C> 8m vl n  xl ]*.d$.3( 'n n  xl Pk =k Ko ^*.]c /*.,o rs kt Qy wr lt (*.|O _*.:*.<*.U& [*._O $k -4 }*.w4 h~ &! g/ D_ s( h1 s( lU s( s4 &! P{ (^ Q{ x_ s( n3 O; |*.j/ 1*.2*.",
"N- SJ 4i 29 3*.N9 {3 7e yh -$ Mm ), 3. 4*.5*.&+ f1 E; -G 6*.h! 7L :. Dl h&.h&.D_ )R 7*.p( f2 P{ P{ J< oS Ua mQ H8 s( iW 8*.4, 9*.{C 0*.a*.`t ]c [v oi Yi Kj ah (~ |i Uj bh 1i Uj b*.4} r' c*.&- oq d*.u%.*z ~* e*.|j f*.g*.h*.i*.j*.k*.>&.t' -@.l*.m*.#- y4 Nz 96 {y p..n*.1K o*.p*.q> DS Fh |Z <M JV q*.o= r*.s*.t*.u*.v*.w*.N .x*.(d y*.R%.N&.z*.A*.B*.%#..%.C*.$#.D*.E*.F*.G*.H*.I*.Wq _e /6 7' _~ Uj Ik gM (~ 8' 8' Zi u{ O> P> J*.K*.L*.M*.gk N*.O*.P*.Q*.P*.R*.S*.T*.U*.V*.W*.!p X*.-Q b` {O dR @Q ~S Y*.Z*.eR +Q -} rZ $9 ~S ~S eR fR `*.Fc  =.u{ (~ .=.{3  n eX +=.){ @=.#=._e $=.%=.=- &=.9( Co *=.==.Pk ;k wl 4| cj vl 9& j$ d$.l[ 8m ;k sp .o Qk )n -=.Qz ;=.>=.,=.'=.)=.!=.~=.G^ {=.]=.^=.{m /=.j- 7e ]X E< 32 (=.F  f~ %! h~ r( g2 w5 lU w5 i~ %! T{ A_ :^ %! M{ _=.&~ :=.%' /q ,! ",
"<=.[=.R#.hM }=. n |=.1=.2=.3=.4=.5=.)D 6=.59 m0 v%.d2 #k 7=.|. pW eE 8=.9=.j3 r( ne )R 0=.lQ lQ h3 [^ i0 le R{ [^ H8 9=.a=.Q0 b=.:4 c=.d=.e=.f=.g=.X7 _e Yi Yi eh /i vk vk Dk Xi h=.d/ 35 y4 {* A   I i=.*-  ! ~# /x c( j=.k=.45 h*.u1 MM PL l=.ik y. *- +] |. [. 8) m=.n=.o=.p=./2 q=.|Z XP :M TV r=.s=.t=.u=.v=.Ql w=.-U x=.O .M .y=.v..V%.z=.A=.$%.3@.Q&.C*.}@.B=.C=.D=.E=.F=.06 G=.8' Ms Wj /6 u{ Uj Ik Ik P> _e 8' 7' '; '; '; H=.<#.I=.T*.N*.O*.J=.K=.L=.L=.M=.N=.Q*.R*.O=.P=.Q=.R=.S=.7M /N dR @Q T=.2U @Q !V +6 U=..Q Y*.2U eR eR vT b` V=.On W=.9( X=.Y=.A. Z=.`=. !  -.P> 9| .-.;& +-.bh (~ {j @-.$b yl vl 0m #-.!n Pk 8m xl %..$-.q  (A i$ Qk Rk cj %-.Q0 %] &-.*-.=-.--.;-./[ >-.V8 X@ w& E; U& $k $^ .r D: o^ ,-.k| y_ y_ f~ [^ s4 g2 h1 g2 g/ O{ A_ A_ J< N{ S{ '-.)-.!-.26 ~-.{-.",
"]-.1N ^-.S0 /-.t/ (=.(-._-.:-.<-.[-.MS Nz t#.o&.}-.|-.y. p&.Eo wA d2 1-.h&.ne h~ )R lQ lQ h3 r( f~ /^ 7A Aj 7A p( w_ h2 2-.!X ;2 dh dh Zi ]5 9| 2/ 3-.4-. v ]5 Wj Dk Mj Dk Wi 5-.K( 1^ #@.*- )+.+` D#.&+ R8 >, $- b' 6-.[% rX pX 7-.4P 8-.>, 9-.o; 25 0-.|% ho qv Tl $k a-.b-.z9 c-.d-.C&.f..e-.F% f-.QJ c-.g-.h-.<` i-.T$ X& j-.k-.L .he l-.)#.h-..%.Q&.C*.}@.m-.n-.o-.s/ [a p-.q-.r-./6 $y s-.@U t-.Up {j 6w P> 8' '; '; /6 Wj u-.v-.(3 `&.gk O=.w-.N=.x-.y-.z-.z-.A-.B-.C-.P*.D-.E-.6p F-.G-.-S )O @Q #{ Y} ~S !V qT SS )O )O -} !P fR aR -S H-.5U I-._e +^ J-.Sg K-.W& L-.M-.u{ N-.u .O-.(~ lu 6w /i P-.<9 Q-.=w 0m } .R-.S-.p< 9& D> d$..o 4| 9& vl y  (u | .T-.-' V[ U-.ys 8%.j_ ]~ D: V-.t% b( N~ W-.X-.Y-.Z-.`-.#M  ;.k| q4 /^ F: y_ h~ H[ s4 [^ q( _^ A_ :^ T{ e~ h~ aO b} .;.zR +;.@;.",
"#;.$;.%;.gl &;.*;.=;.-;.;;.mW '+._% &- >;.E#.d*.,;.q&.';.);. ! 1q 96 !;.j3 ~;.Rd H8 lQ lQ M7 R{ Q{ M[ Y+.{;.GD O{ h~ L  ];.$~ ^;./;.2m 2m dh Xj Xj 2/ (;._;.:;.<;.{j Wi 2m Wj [;.S& 4*.};.-@.|;.1;.O` :4 JJ 2;.3;.d*.L) 4;.5;.6;.7;.%@._* 8;.*a 9;.0;.,-.n; Hi -$ eE 7% }l a;.EE b;.e-.g..c;.d;.e;.f;. ! y4 g;.h;.i;.j;.k;.y5 l;.U%.k-.Q%.$%.m;.n;..$.R&.}@.o;.p;.nq [a 35 _4 &- q;.r;.s;.t;.u;.v;.u;.w;.x;.y;.z;.A;./6 Ms /6 '; B;.C;.D;.E;.F;.G;.H;.N=.L=.y-.I;.J;.K;.L;.M;.N;.P*.O;.P;.rg Q;.,O ~O @Q R;.{S %*..Q SX ~V +6 cR cR .W S;.T;._N CY U;.59 M-.ab V;.0u W;.W@ e3 X;./6 Y;./j kG gl 38 P> /i Z;.HU `;.cj Pk !n 0m %..)n 'n ;k d$..o Pk x  ;k wl *k  >..>.Dt Dt `6 >1 d3 o^ +>.>P @>.#>.$>.%>.&>.*>.=>.0h ->.<i ;y i~ e~ /^ :^ <^ n( f~ I[ q( T{ _^ :^ P{ N{ %! h~ ;>.`t >>.,>.'>.)>.",
"!>.<# ~>.~0 N~ {>.]>.^>.|% o .[% 4P s# 59 3% />.$` qX *z {* (>.l= ){ _>.:>.ne hW )R kQ lQ )R J< ]d 'Z KL CM vb N{ i~ pS <>.=' hz [>.}>.|>.1>.2>.3>.Xi Xi Nj 4>.5>.6>.7>.8>.n} 9>.4*.q, rX %d bz p; y. t .59 0>.[x ,T &- XC aK `B a>.`B K9 b>.c>.d>.e>.f>.g>./k #k 7% h>.P& $^ i>.]@.j>.JV k>.l>.-s  ` o= Gh  ! w& m>.n>.o>.p>.q>.tm r>.O .|@.+$.s>.+$.t>.o;.(> u>.v>.w>.x>.y>.qX Eo {+.z>.A>.B>.C>.D>.:. S& +k E>.Cf F>.G>./6 H>.I>.J>.K>.gk L>.M>.N>.O>.K=.L;.P>.Q>.R>.R>.J;.S>.;5 T>.U>.V>.W>.X>.b` Y} Y>.Z>.2U @Q ^ .SS qT qT qT `>.t0 `W 'P US  ,.*f 1% bL .,.+,.@,.#,.0u 59 $,.}x %,.Vz >4 gl hM gl &,.8A *,.=k ;k vl j$ /@ 0m q  3( d$.xl .o B> B> cj ;k =,.-,.&n p= ;,.>,.,,.',.),.!,.~,.{,.u{ &3 UI 2/ 9| UI &3 ],.4i H[ &! e~ <^ F: Q{ n( N{ n( n( y_ q( o( o( &! h~ `e 1{ ^,./,.ME (,.",
"_,.:,.<,.29 d3 [,.},.1+.~* 8-.|,.1,.5;.N` 3% 2,.I$.3,.4,.6*.K> d/ bi 5,.6,.h&.iX 7*.I8 lQ jQ f2 L[ le DM J@.Ua jQ j3 7,.w| k> H( j_ :6 sg 8,.9,.0,.a,.b,.c,.HX E} d,.e,.f,.g,.y( ho v%.6% Q@.4;.E#.Q@.L) IX Bb L$.|. .` IX r. 1,.4% m0 h,.i,.e-.B&.j,.k,.l,.m,.A  :Q @u ;& J* n,.o,.-L p,.q,.r,.o3 ic z. 0w J( X@ >B X{ s,.t,.$S u,.v,.w,.x,.y,.z,.z,.A,.B,.C,.D,.E,.F,.G,.aK H,.I,.J,.K,.L,.M,.N,.O,.LY P,.Q,.R,.S& /1 S,.T,.U,.V,.W,.`&.N*.R*.P*.X,.Y,.Z,.`,. '..'.+'.I;.@'.#'.w-.P*.O=.$'.o/ %'.;Q !O Y} R;.&'.Y*.bR DY )S +6 dR +6 OQ )O qc TQ +D .* *'.0-.='.(i 38 -'._v q, ), !^ ;'.u{ u{ gl aL ZX >'.[i 0p ,'.-k vl vl wl 4| 9m l[ d$.q  `n xl q  cj ls X- Aj *~ sa ''.{,.)'.&3 >4 /6 9| Wj _~ O> /6 &3 >4 2/ &3 !'.$~ ~'.^^ r( &! o( e~ n( n( f~ h~ r( z} i~ h~ h~ i~ k| j_ {'.]'.^'.)>.",
"_,.}T /'.('.MK _'.:'.Nz bz p&.]y K-.Tb <'.uH F6 |C ['.}'.|'.1'.2'.4t 3'.4'.iW :Y 7*.I8 jQ lQ O{ {a 'g 7A 'Z 3f q4 v( 5'.G^ 62 P; b= mi Op P; 52 G^ 4, D~ @] _v iA 6'.7'.8'.)^ ic ]% ]% 96 <% 9'.k=.A  t . I Cb Fs >, 0'.#@.2a a'.rB W& U& qU b'.VG c'.d'.e'.f'.g'.50 h'.i'.]E j'.k'.$L T$.l'.m'.y( +z {# !^ n'.o'.3S p'.n3 q'.r'.s'.rS T%.;#.w=.t'.u'.&z v'.w'.x'.y'.L$.z'.A'.B'.C'.+, D'.E'.F'.F'.F'.G'.H'.I'.J'.K'.Sl k= .u Ub L'. *.`&.M'.P*.N'..'.O'.M9 P'.Q'.R'.M;.L;.C-.S'.Q'.T'.U'.V'.C+ W'.X'.~O -} &*.&'.+Q qc ~V sZ +6 )S sZ *| 'O vT %q -S Y'.Z'.`'.8' }s  )..).W& -G I{ h# +).ua @).A#.#).$).%).Zg O; &).'1 )n )n ;k D> q  *).D> !@ `n .o 9m vl Qk b& =).DZ 2J -).38 >4 /6 u{ 8' ]5 8' Nj bh _~ >4 >4 Wj &3 X=.%] ;).^^ h1 g2 i~ r( h~ I[ &! H[ h1 w5 H8 D_ D_ D_ D_ Op V$.<& /t >).",
"!>.%~ >4 ,).7l ').[* (>.+..+z 5;.)).XC r' 59 };.l} !).m' b; i& ~).{).:>.]).^).:Y 7*.kQ H8 lQ H[ f2 1f Q{ HK A} t( ^^ /).=' XC ()._).:).<).[).N~ `t ,~ i) E} p3 q^ O; -v [. ~^ f= ho +j {% }).|).1).Q@.2). ! lT 3).n$ k. 1,.l~ 2} E$. b 4).5).p= N] ,@ n3 b~ 6).7).Q3 wE 8).9).*} 0).0).=L G* h= ~; JJ +] a).#l b).c).d).e).>$.f).g).C: f;.uh h).{3 i).XU j).k).l).j1 U= li m).yv D'.n).o).p).D'.q).q).r).s).t).t).u).v).G%.w).o^ x).y).`&.M'.H;.N'.z).T>.=( A).B).C).N=.N=.D).E).F).R*.gk Z&.T>.5& G).<N H).2U &*.2U .Q SS cR sZ cR cR .W #Q .Q %q %  I)./E J).6N K).L).W& Hd E< 2} M).TB N).O).P).Q).R).Ub 1^ O_ S).X- '1 ;k cj ;k j$ T).q  sq `n i$ 9m B> wl z> U).Fs V).]5 Wj 8' u{ O> u{ >4 u{ Nj {j Nj /6 /6 _e ]5 Ms W).X).H[ h1 h1 D_ H[ i~ g/ I[ i~ w5 I8 Rd I8 C_ k3 D_ _=.Lt Y).Jf Z).",
"!=.]c >4 `). !..!.nh E$.$` j= |% p; 9w +!.@!.#!.m0 3; $, *, o' $!.%!.6,.<Y iX :Y kQ t4 H8 lQ s4 N{ Ua f2 Aj e~ M{ ^^ &!.gt *!.(i 29 =!.-!.;!.>!.,!.'!.)!.!!.~!.+i o3 ;& IX ), {!.50 35 XC [* j1 ,;.%# L) 1% c7 1M N` #@.|,.-@.]!.JJ Nm ^!./!.G@ (!._!.!H ;! E` :!.<!.[!.}!.|!.A@.-L 1!.5+ 2!.3!.]z (O 4!.5!.6!.7!.8!.9!.0!.Ny a!.){ b!.U& c!._, d!.e!.f!.k1 g!.h!.i!.j!.k!.l!.#o m!.'2 q* n!.p).F'.o!.p!.q!.r!.s!.t!.u!.v!.*@ w!.:/ x!.y!.N*.P*.F).V'.z!.A!.B!.C!.D!.E!.F!.G!.H!.I!.J!.K!.L!.M!.N!.O!.P!.Q!.Y} {S Y} rT SS qT qT qT qT qT 1#.dR US CY Ux V= R!.gs S!.T!.+s u@ *&.&d U!.y5 Vr E} V8  n 0u 'r q^ ;! V!.Ko Q] 0m 5| B> l[ [&.9& 'n Ix 8m 9& wl wl Qp  >.W!.X!./6 '; Zi Kj Kj 8' /6 u{ (~ {j Uj 8' 8' 8' >4 /6 Y!.Z!.H[ s( s( D_ s4 h~ %! y_ f~ R{ h1 Rd t4 Rd I8 D_ `!. ~..~.+~.@~.",
"#~.Dx .^ $~.l*.f= 6=.Mm $- +z %~.7% &~.1=.UJ Qd *~.c; o' 4@ c; =~.-~.pS ^).iX :Y I8 N{ ;~.lQ R{ &! /^ 'Z DM J< f~ v( >~.u>.u{ Ms 2/ /6 Nj u{ .^ 2/ ,~.=!.'~.)~.!~.~~.{~.96 R& : .U= h! {&.|j |C H*.p&.o .9..+..]~. I -@.^% qr ^~.Nz /~.(~.)M $S xQ bY _~.:~.<~.6( [~.dX !` }~.j2 p,.:M |~.jF TB XT 1~.2~.3~.c).4~.5~.6~.7~.8!.8~.9~.0~.TB jJ R& a~.b~.c~.6;.d~.e~.H5 H5 H5 H5 lQ f~.g~.f= h~.yv F'.#< @S i~.j~.k~.l~.m~.n~.o~.p~.W[ X@ q~.r~.s~.t~.u~.v~.^$.T*.w~.x~.y~.z~.A~.T*.T*.B~.t~.C~.D~.E~.M1 x..!O ^S @Q eR .Q qT qT qT qT qT qT *| ~P /N F~.G~.H~.D: Q[ e3 r, :. w& M& I~.h# t% J~.K~.L~.M~.N~.O~.P~.*d Q~.'5 X- 5| S-.q  (A d$.q  9& .o C> .o C> wl Qp R~.S~.q&./6 /6 8' 8' 8' eh 8' u{ _~ {j {j _~ u{ _e >4 /6 T~.U~.i~ s( s( D_ z} &! n( (^ F: n( o( h1 Rd t4 u( C_ Vq BS T- D< V=.",
"V~.W~.9| X~.4} w& k8 f= {y %~.z' 9j Y~.Z~.`~.r, W~.@, 2@ Tc #;  {..{.<Y ^).jQ :Y h1 Ah lQ lQ y_ /^ z_ +{.HK Ua %! w_ @{.#{._~ Kj '; Wj /i Wq '; /6 '; 8' +^ 9( u{ _e ${.%{.[a 1q c= d2 2;.pv b..b..K-. ! &{.L) 7L |=.bz Z'.2B +..E< Bb *{.W$.VP IQ ,N ={.-{.;{.oo >{.,{.bY yX I( P#.'{.){.!{.D#.};.f= ~{.{{.]{.^{./{.({._{.:{.8!.<{.[{.zt .! R% }{.|{.1{.2{.3{.n).n!.4{.4{.4{.4{.5{.4{.)R 6{.){ L7 7{.8{.t!.k~.9{.0{.a{.b{.n~.c{.d{.a2 j_ e{.f{.g{.P*.N=.h{.J!.s~.i{.j{.k{.l{.m{.Pl n{.o{.p{.q{.r{.;L s{.t{.9` -} .Q 'O ~V qT qT qT SS +6 1#.u{.QS 3#.H+ v{.8%.4t 7e $k zn w{.x{.y{.z{.A{.B{.C{.D{.E{.F{.G{.Cq [k <c H{.uB cj vl q  5| d$.;k B> D> n  ;k x  xl !n -~ I{.N~ /6 8' 8' Wj /6 8' Zi u{ Wi {j {j Nj Wi O> _e 8' J{.gV &! r( D_ D_ h~ &! y_ A} A_ J< Q{ o( H[ C_ u( v$ K{.L{.>>.M{.N{.",
"O{.P{.YB Q{.#k *z l= xj 9w }. l= R{.S{.<Y T{.:6 U{.l' c; g; Z> kh V{.<Y iX :Y 7*.H8 lQ lQ lQ H< ]d P{ yN 3f _^ k3 W{.$~ X{.(~ P> O> u{ 9( #y Up Kj +^ +^ O> _~ _~ 8' &3 Y{.A. 96 JJ d2 jo >, ~* o; }M lT i= ~# };.|C o; rX Z{.1q `{.U&  ].a. .].+].@].#].$].%].J7 &].*].=].,{.B/ -].;].>].,].6*.S> .I '].)].!].~].{].]].^]./].(]._].:].<].[].15 yh ,T 1l }].4{.|].4{.|].5{.)l |].1].|].4{.7k 2].3].E; 4].b{.5].6].7].8].9].b{.s!.0].a].Pt q> b].C-.c].d].S'.e].&o f].g].:/ A$ h].i].j].k].3} |: Bn e3 l].m].n].]S @Q +Q DY !V SS qT SS dR 'S $Q -S FY o].Kl |n Y& p].q].r].s].t].u].v].w].x].y].z].A].B].C].D].E].4. F].z> '1 B> 8m 5| d$.Pk n  sq q  C> 8m 9& Rk yl G].IL H].O> O> 8' /6 8' u{ O> (~ {j {j Uj Nj (~ _~ 8' I].&~ %! h~ g2 D_ z} p( N{ f2 Ua r4 _^ O{ &! D_ t4 M7 J].K].L].M].IE ",
"RW N].0h 8A ~h 7% 3} .I ik Bb :* O].P].2@ Q].R].S].T].Z> W) A[ U].V].iW iX :Y jQ H8 lQ lQ h3 G: 'Z Q{ *l 'g H< h3 W].eL X].P> 9( +^ Kj +^ {j Vn Vj /i Wq (~ _~ (~ Zi .^ Y].,,  b h=  b L) &- jo ft >, Tb 8) Z].p&.s# +@.`5 60 1q $t <g o^ X@ ph &u `]. ^..^.+^.Op @^.#^.]@.Z` (>.$^.&` !N 7L P@.c7 :4 %^.&^.*^.=^.-^.;^.>^.,^.'^.)^.!^.!  ~^.i| o; `5 {^.v$ 4{.iE ]^.^^.7k 7k 5{.1].5{./^.iE (^._^.:^.<^.9].8].[^.}^.7].0{.|^.1^.2^.3^.4^.R. 5^.6^.7^.8^.9^.0^.a^.b^.c^.d^.e^.i].f^.g^.h^.i^.j^.#].k^.l^.m^. Q TS @Q -} +Q n^.)d #Q @W )O )O dR ~O 7M o^.p^.W& q^.r^.s^.t^.u^.v^.A].w^.w^.x^.y^.8< z^.A^.B^.C^.D^.4, E^.l  ;k xl sq 9& i$ q  p< xl `n 9m .o q  .o wl F^.w| G^.(~ Nj _~ 8' 8' u{ O> (~ Uj {j {j bh /i _~ 8' H^./! e~ h~ H[ g2 r( %! <^ A} G: I< I< (^ q( [^ Rd h2 I^.b} 0$ J^.K^.",
"L^.M^.29 {y &a ), -- -$ Ia t/ N^.O^.l' @, a*.P^.Z) 9~ Bj w[ A= ]2 Q^.mQ C_ Rd I8 kQ lQ lQ mQ Ua 3f 'g CM 3f L[ h1 <d wz R^.+^ Zi '; 8' +^ Up 6w ]j 5O Vn Nj Nj lu (~ u{ S^.T^.xh (4 h9 Nz D#./* #` 1q Bb R8 R8 !^ t5 R8 }x 25 Ia d/ U^.V^.W^.X^.Y^.@I Z^.Jf r| <i `^. /.&-../.+/.@/.#/.25 ~* |j p&.[x lT @&.8!.$/.%/.;^.&/.*/._].=/.-/.;/.h) k= >/.2a ,/.n' H5 4{.7k +< ^g P~ 5{.5{.]^.|].1].'/.(^.)/.|^.9{.7].}^.}^.@M !/.9{.5].k~.~/.{/.]/.,> ^/.//.z!.p{.(/.A!._/.:/.</.A~.[/.}/.|/.1/.2/.3/.4/.5/.jh 6/.W .]S .Q dR )O )S #Q 'O #Q 'O )O )O dR CY 7/.8/.9/.0/.G{.a/.b/.c/.d/.e/.f/.g/.z^.h/.i/.j/.8< d/.w^.CD vh k/.l  ls 9m 9& [= xl `n C> )n 9m 'n 8m vl )n X- l/.<m ;I Wi Uj Xi u{ 8' 8' O> Wi Nj {j Uj (~ (~ _~ 8' u-.n3 P{ e~ h~ H[ r( o( T{ A_ G: H< vb I< _^ o( C_ w_ 3f _H >>.m/.n/.",
"o/.p/.29 q/. z *z iY [. L$ r/.s/.I8 #; Z) t/.u/.I= I= @, p$ v/.Tn <Y ne ne jQ w/.lQ lQ lQ )R P{ 'g oS x/.,g O{ x_ y/.p3 /6 /6 /6 Wj '; +^ Wi Uj {j Wq Nj #y lu Vj (~ u{ z/.eE &d 25 Nz ic };.]% r' 6;.k. A/.s# L$ 7%  ! .! S& 5& `z B/.C/.D/.E/.F/.um G/.H/.I/.J/.K/.L/.k> je ;' n; n; !^ L$.+@.pX QA  b +N M/._].(].N/.5~.O/.N/.(].P/.Q/.R/.S/.T/.6*.y4 )@ U/.H5 5{.1].]^.a=.1].5{.]^.5{.^^.H5 V/.W/.5].X/.[^.}^.[^.7].Y/.6].X/.9{.Z/.n~.EW `/.u!  (..(.+(.@(.#(.s$.t/ $(.3/.%(.&(.*(.=(.-(.;(.>(.,(.^E '(.PS !O qc p+.1#.dR sZ )O #Q dR qc .Q dR (N FY )(.!(.~(.x].{(.](.^(.8< /(.((.j/.j/._(.`P `P `P A^.^(.w^.,w :(.wl .o q  i$ xl xl n  sp wl q  TA n  vl Pk yl -w j_ <(.O> |i (~ Zi 8' 8' u{ _~ Nj Vj Uj _~ O> _~ O> u{ *R [(.y_ R{ h~ o( <^ z_ H< f2 F: J< M[ I< n( s( M7 }(.Vl *@ |(.1(.",
"2(.3(.Rm ik +z 25 >P L$ 4(.5(.6(.9~ g; A[ 7(.8(.G{ w[ g; 4~ 9(.NF <Y iW ne jQ w/.lQ lQ lQ lQ r( f2 IK *l IK L[ D_ 0(.a' .^ .^ Ms _e 7' u{ Kj 7' 8' _~ Nj Up {j (~ _~ 9( a(.,, b(.60 m0 c(.R8 2B d(.#@.9-.|C f= 1q e(.25 t' `5 ^; A6 f(.g(.h(.i(.j(.k(.j(.l(.m(.n(.o(.p(.q(.r(.s(.>l R& 35  ! Bo />.=3 6L t(.u(.v(.w(.0!.x(.y(.z(.A(.P/.B(.C(.A  D(.E(.P,.F(.s( H5 4{.5{.^^.G(.7o I) 7k s^ |].^^.(^.H(.!/.@M }^.I(.}^.[^.[^.[^.@M X/.~- 2^.J(.{/.: .62 K(.L(.M(.t% 55 N(.O(.P(.Q(.R(.S(.T(.v~ z' U(.V(.1^ W(.X(.-S  Q QQ .W )S cR +W )O @W .Q !S Y(.*Q ^P XW Z(.`(.A]. _.._.gR +_.`P @_.#_.+_.$_.$_._(.`P 8< e/.%_.&_.*_.Rk ;k `- wl j$  o Qk C> i$ n  Ix  o ;k ;k l  -k =_.-_.O> (~ ah dh 8' 8' u{ O> Nj Vj {j (~ O> _~ O> O> +e ;_.e~ f~ y_ /^ (^ (^ <^ e~ I[ q( G: ]d F: i~ H8 Bj m~ >_.2!.,_.",
"'_.)_.~0 ik t' I*  z ]% !_.~_.Z> A= #, 9/ d| {_.A= g; n' A[ ]_.>c v( ne iX :Y lQ lQ lQ lQ kQ h1 y_ +{.^_.]d E_ g~ /_.r{ &3 /6 7' 9( P> +^ (~ Wq Uj Vn #y Vj 6w Wi +^ 9( (_.96 =@.t .XX t' #o 4J Q@.__./* |;..` 59 b(.ik 7L QJ =o :_.<_.[_.}_.|_.1_.2_.3_.4_.5_.{b 6_.7_.8_.9_.0_.a_.p^ ]% b_.h*.Ks *- }x c_.d_.6!.e_._].0!.'^.~]./].f_.g_.h_.i_.j_.k_.{y a' l_.|].|]./^.^^.]^.a=.1].]^.]^.)l 1].m_.n_.X/.[^.o_.o_.I(.I(.o_.[^.7].8].p_.|^.r!.q_.sJ 55 r_.s_..] t_.u_.v_.w} Op .r w_.x_.y_.z_.A_.B_.C_.D_.>9 E_.{V ;S OQ .W +6 +6 cR sZ +6 +W )O t0 &Q Z .^N F_.c+ G_.d/.H_.nT +_.j/.j/.I_.@_.J_.J_.@_.K_.8< L_.M_.N_.O_.ks cj Pk D> wl sq 3( C> q  `n 'n sq Qk )n Pk ks P_.Q_.u{ O> O> 8' 8' 8' u{ _~ Nj {j {j Nj O> Kj u{ O> {m R_.e~ e~ n( T{ q( R{ i~ D_ h1 z} z_ ]d A} e~ i~ C_ *R S_.2!.T_.",
"U_.V_.(D -- h! :. eE h!.W_.c; 9~ n' g; 8/ 6; X_.Y_.q$ n' <1 Z_.Rc q4 y_ t4 :Y w/.lQ lQ lQ mQ r( 7A cu 7A R{ d~ I8 `_. :.]5 O> /i Nj (~ u{ O> 9( {j }m Vn ]j 6w 7' .^ Zi .:.m0 (>.+:.jo Nz +@.-@.p&.hq j=.n$ _* c= 3;.$- #- r, o^ @:.g(.#:.$:.%:.&:.}_.*:.=:.-:.;:.>:.,:.':.):.!:.~:.>, 2B 06 n$ 2% Bo 1. {:.]:.5~.z(.^:./:.f_.(:.%/.z(._:.::.<:.[:.}:.Kr 3. |:.1:.p).^^.I) ^g 2:.5{.2:.]^.)l 1].MJ p_.6].}^.o_.I(.I(.I(.[^.7].X/.X/.Y/.3:.j~.4:.5:..r 6:.7:.8:.W@ 9:.0:.a:.b:.c:.d:.e:.|D |D f:.g:.h:.i:.4t j:.]O b` )O #Q 'O qc .Q -} !S )d #Q p+.a` W2 k:.l:.m:.n:.A^.A^./(.`P o:.@_.K_.p:.q:.p:.p:.@_.8< H_.d/.#* W- ;k 0m )n sp sp .o q  Pk xl 9& Qk vl p< xl Sk =k r:.s:.u{ u{ u{ 8' 8' O> ch Nj {j Vj {j /i u{ 8' /6 Kj 4. t:.%! f~ O{ T{ %! z} B_ s( s( h~ A} M[ H< P{ x_ h~ G^ '= u:.v:.",
"-G !Z ~0 7% $k +..w:.x:.w( B= F{ Z) 8/ h' 9/ Z) y:.z:.V) 8/ A:.:6 %! p( /^ p( h3 lQ lQ kQ h~ L[ Y+.zN /^ N{ h1 C_ B:.C:._e lu #y {j (~ Zi Zi P> Wq {j 6w Uj Up _~ Ms Ms D:.), ik ;n %^ @# +z 8-.MS 6s ;@.=@.gZ E:.mI F:.59 TB 5*.G:.H:.j(.I:.J:.K:.w] P;.Pf L:.M:.N:.O:.P:.Q:.R:.S:.IB ik 59 |. +@.!N |;.-y T:.x~.U:.V:.W:.;/.X:.!].Y:.Z:.ik 2B |H `:. <. n k8 .<.+<.>m 1].s^ I) ^^.a=.^g /^.1].@<.9{.Y/.[^.I(.#<.#<.I(.[^.6].7].$<.}^.8].m~.%<.&<. b *<.=<.-<.;<.><.,<.'<.)<.!<.$: ~<.~<.$: XD {<.]<.^<.%G /<.(<.$Q qc )O )O qc @Q +Q n^.~V 'O Qb a` q+.NX Zk _<.:<.^(.<<.[<.}<.K_.e7 K_.J_.}<.+_.9e +_.|<.d/.it 1<.2<.3| vl ~n p< ;k e$ 9& j$ 3( 3( l[ cj !n 0m Qp rp >~.3<.O> O> u{ u{ Kj (~ {j Vj Vj {j Uj O> 8' _e /6 /6 _c 4<.&! p( N{ Q{ I[ H[ B_ s( H[ O{ A_ A_ f2 :^ N{ d~ Op 5<.6<.li ",
"nh 7<.8<.9<.a~ 0<.a<.b<.@, G{ g; B{ I= A[ z= F{ G  c<.g; g; d<.Ch y_ h1 [^ S{ g2 S{ y_ H< i0 x#.Z+.IK {a r( H[ x_ e<.f<.9( {j Uj Vn Nj 7' Wq {j 6w Vj #y Vj Up (~ 7' 0h g<.ik 9-.8-.Q@.1M *- O` zF H*.R0 E#.h<.i<./* 6;.Q@.LR  n N@ j<.j(.k<.J:.J:.$:.D] l<.;< m<.n<.o<.p<.q<.r<.s<.3} t<.u<.v<.59 w<.E; 15 u@ x<.y<.z(.z<.v(.A<.B<.C<.D<.%~.E<.F<.G<.H<.#o t/ c= I<.n).^^.1].+< ^^.I) 1].n!.1].!1 p_.8].$<.I(.J<.#<.}^.7].7].o_.K<.#<.!/.b{.4^.L<.M<.N<.O<.f:.mb P<.Q<.Ed Ed h8 Ed R<.S<.%f |D T<.U<.V<.)4 W<.b` #Q -} dR #Q )O .Q .Q SX 'O +W u{.1$.q+.YW X<.'r :<.M_.Y<.Z<.@_.e7 K_.`<. [.p:.J_.}<.J_.H_.A^.A^..[.4} -w '1 :' )n i$ C> 9& 9&  o  o  o q  ;k ~n Q] '1 +[.#b _~ _~ Kj u{ O> (~ 1i {j Lj Uj Nj O> 8' >4 _e >4 @[.X+.i~ S{ p( T{ N{ p( r( g2 &! :^ (^ P{ O{ :^ !T *! M& #[..~.$[.",
"L$ %[.&[.&+ 4} *[.=[.b; Tc Z> w[ 9~ I= X) q$ Tc Tc -[.;[.d; >[.3. J< d~ x_ f~ y_ y_ f2 H< M[ +{.7A f2 p( t( ,[.w( '[.)[.Wq pl Vj Vn Nj Up Vn ]j ]j Vn Vn #y Wq _~ u{ &3 ![.ho )y rB r .3;.'+._% ~[.{[.][.^[./[.J$.([.>u (>.T^.E; _[.:[.<[.$:.K:.[[.I:.}[.|[.1[.2[.3[.4[.5[.6[.7[.8[.9[.0[.a[.b[.:` c[.4k :. N9  n d[.e[.f[.g[.h[.k^.3I i[.:..j[.k[.l[.j$.zJ m[.n[.o[.p[.q[.r[.s[.+< 1].|].t[.u[.v[.0{.8].$<.}^.o_.[^.X/.!/.7].@M I(.I(.3:.b{.t).w[.z. x[.y[.Gf z[.ro A[.e8 Ba 97 ;i Ed R<.B[.S<.!<.@J C[.Sg D[.{O TQ #Q 'O )O n^.Nb Y} .Q +W cR PQ E[.F[.]O G[.2S H[.A^./(.I[.j/.J[.q:.p:. [.@_.j/.K[.K_.i/.8< H_.L[.M[.*k Ko Pk 0m %..S-.or yl dt p< q  'n vl ~n ~n ks N[.(; Nj Uj (~ O> ah Wi Nj (~ (~ _~ O> 8' >4 /6 /6 ]5 O[.P[.H[ H[ H[ y_ J< J< P{ p( e~ O{ N{ h~ &! q4 q4 }@ 7c Q[.R[.S[.",
"~^ T[.U[.{3 V[.W[.X[.Y[.c; c; I= q$ 9~ #, #, Tc B= Z[.k= ~a `[. }.GM .}.'Z HK HK i0 Aj 3..Y+.7A f2 H< e~ s( u( ^).+}.@}.O> Uj 6w Vn Jk ]j Vn Vj Uj Vj kR Vj Uj Up _~ 7' #}.Ia E$.@` g*.n&.gZ Fs t#.tA q&.$}.%}.w%.c' B,.c7 sl nu 'L &}.#:.*}.=}.$:.$:.-}.-:.;}.>}.,}.'}.)}.!}.~}.{}.G, ]}.a% ^}.b6 /}.(}.O_._}.wV .i :}.<}.[}.}}.|}.P& 1}.2}.3}.4}.5}.6}.7}.8}.9}.0}.a}.b}.c}.*T o>.d}.e}.*4 f}.g}.h}.0{.@M $<.$<.Y/.9{.0{.X/.X/.@M X/.i}.2^.t).j}.zR k}.J/ #a 87 c9 Du l}.m}.n}.o}.e9 g8 #d #a B[.R<.p}.: .q}.7M QS ~P dR qc bR ~S C1 .Q @W SS PQ `W PX NX r}.8%.s}.H_.H_.t}.#_.+_.u}.v}.#_.w}.}<.+_.h/.g/.A^.A^.L[.e_ R~.3| .o 8m p< l[ x}.%..D> 8m 9& 'n xl yl Qp Qp y}.z}.Vj Vn Vj Nj ah _~ _~ 8' /6 8' _e >4 >4 /6 >4 >4 _;.A}.D_ ^^ ^^ D_ e~ T{ K< T{ N{ %! E_ k3 k3 *! x_ }@ Z& D9 B}.;! ",
"U& 98 C}.ic D}.E}.F}.a] xT G}.H}.99 I}.J}.h' K}.L}.M}.N}.O}.P}.~; Q}..}..}.IK x#.LL ^_.CM R}.IK f2 J< {a 'g -I J< S}.T}.Ms O> Nj Vn }m 6w (~ bh #y Uj #y ]j bh Up P> u{ 5= zn #@.U}.V}.6;.|).,# 3% W}.R0 F=.n. X}.N@.Y}.P@.>P A. 'L :[.Z}.`}. |.=}..|.+|.M:.@|.>}.#|.$|.%|.&|.*|.=|.-|.;|.>|.,|.Lp '|.)|.!|.S> ~|.{|.]|.^|.^:./|.(|.l8 _|.2Q :|.<|.[|.0}.b}.}|.}|.}|.}|.}|.}|.||.1|.2|.D~.3|.4|.5|.6|.7|.8|.9|.0|.Y/.3:.8].8].!/.9{.k~.a|.n~.o~.b|.c|.d|.J/ R<.e|.f|.g|.h|.i|.h|.h|.h|.j|.k|.Wm ;i l|.m|.~h n|.(<.q+.1$..W qc Y*.~S Nb +W cR cR p+.`W *Q ]O o|..u p|.e/.q|.+_.J_.+_.}<.r|.}<.u}.@_.p:.s|.t|.H_.A^.u|.oq Ok 7m Qk  o i$ e$ vl 5| vl sq g$  o ^@ .o ;k 3| -u v|.]j Ik Ik ]j Vj Uj Uj O> Zi /6 >4 >4 /6 8' 8' u{ w|.x|.#! s( w4 u( C_ *! J}.y|.z|.A|.B|.C|.D|.E|.:Q t, F|.42 /. w& ",
"G|.H|.I|.J|.K|.L|./k M|.N|.O|.P|.Q|.%~.K{ V-.wq p> R|.S|.T|.U|.35 E  YI ZI P{ O{ 'Z Aj HK HK me mk HK *l CM LL K< V|.W|.Kj P> {j Vj Nj Wi Vj Vn 6w Vn Uj {j {j {j Nj Kj X|.e_ 6;.Eo 3Y Y}.L> _Z Y|.J#.;# Z|.r&.Dd `|. 1.[% 3;.]~._[.:[.<[.<[..1.+1.I:.r<.@1.>}.>}.#|.$|.#1.&|.*|.9} tS $1.%1.]{.]{.5~.&1.*1.=1.-1.e[.;1.>1.N/.,1.U:.'1.)1.!1.~1.{1.8}.}|.h^.]1.^1.1|.1|.h^./1.b}.||.(1.2|.h^._1.:1.<1.uK [1.zL }1.|1.11.21.31.o> 41.9{.n~.NV 4^.51.nh 61.71.R<.Yc _h j|.i|.h|.81.i|.91.h|.01.l}.a1.b1.c1. n d1.NX e1.a` u{.+Q Z*.eR ,S SS SS qT u{.X .*Q NX f1.-4 g1.d/.g/.r|.}<.4b @_.$_.q:.p:.I_.K_.h1.i1.._.w^.j1.Z].~n 7m xl 8m Qk n   o %..vl q  9m j$ Pk  ; -w 0m k1.Xc Vj ]j Vn Vj {j {j Uj O> /6 /6 /6 /6 8' u{ u{ 8' bf l1.m1.n1.o1.ya ]~ 7% 7% ~; p1.q1.r1.s1.1..d..!^ t1.u1.v1.w1.x1.",
"y1.z1.A1.B1.C1.D1.E1.B1.B1.F1.O% F1.P% G1.H1.I1.J1.wV K1.L1.Uw |n T2 M1.N1.O1.P1.*I Q1.3f IK LL +{.x/.R1.S1.*l ZI T1.U1._~ (~ Uj #y ah Nj ]j #y Vn Kj 9( Co Co lu Nj O> V1. ! ho Fs W1.G#.'y x%.Y}.X1.Y1.]y =# Z1.i` `1.b_.]% qv  2..2.#:.2_. |..|.k<.+2.@2.>}.>}.#|.$|.#1.#2.*|.$2.*R %2.M/.B<.B<.U:.&2.*2.:{.Q/.=2.-2.;2.>2.,2.'2.-1.)2.*&.!2.~2.9}.||.]1.{2.{2.]1.]1.h^.c}.]2.^2.]1.^1.||./2.AK (2._2._2.NI :2.<2.[2.}2.|2.12.22.32.Uq 42.52.62.a] 72.g:.a7 ;i e9 g|.h|.82.82.h|.92.h|.j|.bH l}.02.a2.{^ b2.c` 2#.{P RQ @Q -} cR c2.c2.qT .W p+.dR {O /P ,1.$i g1.H_.z^.[<.d2.#_.v}.4b p:.@_.@_.+_.h1.8< ^(.%_.L[.g3 uB 4( Qk .o rq Ix B> S-.wl 9& q  D> ~n ~n bF e2.f2.g2.Nj Uj Nj _~ O> _~ _~ u{ Wj ]5 .^ h2.i2.@k j2.nA FL Dx k2.l2.m2.n2.o2.p2.f1 T> {; q2.r2.s2.7% t2.u2.P% P% v2.w2.x2.",
"L( I( M& |: v .DZ j2 k> E} y2.vq z2..B A2.B2.C2.XK H( D2.E2.F2.G2.H2.I2.J2.8;.E} <$ d* K2.L2.J[ YI !T f2 7A x_ M2.<~ N2._~ (~ lu #y (~ {j Uj Nj 5O lu #y ]j #y Vj Wq 9( O2.Tl eA P@.-@.m; P2.r. 6;.Q2.J#.R2.Y1.S2.T2.U2.V2.};.*;.W2.X2.Y2.Z2.=}.k<.`2.~}. 3.>}.>}.#|.$|..3.+3.@3.#3.On $3.9!.v(.P/.V1 %3.&3.*3.=3.*^.-3.;3.9^.>3.,3.'3.v& ig )3.!3.7}.b}.h^.]1.]1.1|.||.c}.]2.c}.^2.^1.h^.}|.~3.tK (2.{3._2.[1.<2.]3.yL zL ^3.AK lO uK /3.(3._3.[7 _2 :3.@J |D 87 f|.o}.<3.g|.[3.82.91.}3.|3.bH k|.13.23.: .33.43.YW -Q 'O Y} #Q pT 0` t0 PQ 1#.RQ fR fR SQ 53.m:.63.A^.8< F/.}<.w}.@_.v}.@_.j/.J_.@_.[<.g/.^(.73.FV Z].83.Ko .o 9m 'n n  .o !n B> `n 9m yl 93.Qp :' X- 03.a3.(~ Nj _~ u{ Kj _~ _~ b3.q%.c3.Yp M& k( O; . .d3.$U G2.e3.f3.f3.g3.h3.i3.j3.`5 W@ o; k3.7% S+.{^ k( %' FL d3 X& 1B ",
"l3.QW m3.n3.o3.p3.q3.r3.s3.t3.u3.qd v3.w3.2J }n x3.D%  * y3.z3.%> A3.B3.C3.D3.E3.F3.;( Op o/ !} gQ G3.Au h&.g& 9=.H3.w_.Wq Up 6w Up lu Wq {j bh 6w 5O ]j Vn #y Vj Nj 9( I3.y( 9w Bo #@.[% o .,# i<.J3.[% K3.I#.);.L3.Tr I#.M3.H*.N3.O3.P3.Q3.I:.R3.~}.X4 +3.S3.>}.#|.T3. 3.U3.*|.V3.n* W3.X3.9!.Y3.Z3.`3. 4..4.+4.@4.#4.$4.%4.Uw &4.*4.=4.L$ -4.;4.[|.0}./1.^2.^2.^2.>4.,4.'4.^2.1|.]1.h^.}|.)4.{3.lO }2.mO !4.HI ]3.yL JI PH ~4.+H tK PH $H {4.]4.^4./4.h8 #a Ed ro _h 02.qo o}.j|.i|.i|.}3.[3.b1.(4._4.:4.<4.WW F~.'P uT 8` ]P {P T;.X .E[._N {O )O 'P NQ [4.}4.|4.^(.A^.h/.K_.w}.@_.o:.j/.J_.}<.p:.`<.8< e/.73.14.24.bF vl )n j$ sq 'n 9& q  sp 9m .o S-.cj vl 6m 4( b=.34.Wi Wi O> 44.:;.c3.7c {3 54.64.t% X& ;) p^ ic Mm &+ 9b @] -4 74.TB -G li 84.,>.3Q 94.04.a4.NH b4.c4.o3.c4.o3.au l3.",
"d4.e4.d4.f4.g4.h4.h4.i4.g4.j4.k4.g4.h4.l4.l3.m4.pU n4.;L w& =o {3 ,].{# o4.p4.q4.r4.s4.t4.u4.v4.w4.w| .E x4.y4.z4.A4.)N Wq /i Nj Uj Nj 9( pl Uj 6w Vn 5O Vn 6w Vj bh _e B4.-4 e_ +@._* r;.j=.3Y C4.5Z D4.`B K#.E4.d& F4.&# G4.#@.H4.I4.J4.K4.*:.L4.-:.=:.M4.l<.m<.S3.1[.N4.Pf q<.O4.zp P4.Q4.~, >1 R4.S4.T4.Z^ H( Y` U4.V4.W4.X4.ty Y4.Z4.}k `4. 5.6}..5.b}.c}.c}.>4.,4.,4.+5.^1.{2.]1.h^.@5.'A :2.mO yL oN oN :2.#5.lO ^3.$5.%5.>H &5.8G *5.=5.-5.;5.>5.,5.97 l|.Wm e9 '5.Du Du bH 01.82.|3.)5.(4.Ni !5.bi ~5.{5.]5.:N /N ^5.PS o+.(N SQ (N CY {O PS o+.>O /5.(5.%_.M_.g/.s|.@_.+_.@_. [.+_.+_.j/.J_.+_._5.^(.:5.<5.u<.b& vl yl cj 3( ;k !n l[ 8m 9m ;k *G ;k Q] (u *k D1.[5.}5.|5.15.Ur L1.25.35.45.55.4*.Dl ;) }* 7..}5 @u 3} 65.[k 75.85.m4.c4.95.05.a5.95.b5.o3.l3.l4.g4.j4.f4.j4.g4.j4.c5.",
"d5.d5.e5.f5.g5.h5.i5.i5.j5.k5.g5.i5.l5.d4.c5.g4.n3.p3.m5.n5.xj oh Mm {y ~^ /=..r <] k> o5.p5.q5.B1.r5.s5.<4 Sg j( t5._v u5._~ Nj Uj Nj Nj lu {j 6w Nj Vj ]j Vn 6w Nj Wj v5.sl  I -@.o .wj w5.Tb x5.>&.$` y5.I#.^[.z5.A5.B5.R0 pX c_.C5.:[.D5.E5.U3.U3.U3.U3.l<.+3.>:.F5.@1.G5.H5.I5.J5.h= X& Nc 26 K5.L5.M5.N5.O5.P5.Q5.,J R5.[F <1.S5.cG T5. @.U5.V5.7}.a}.a}.c}.c}.W5.>4.h^.(1.{2.]1.h^.X5.]3.!4.}2.:2.lO @H ~4.Y5.@H $5.EJ >H 8G Z5.`5. 6..6.lF +6.I) a7 :h g8 Zc _h Du )5.Du Du l}.l}.Du Zc Ni @6.#6.Y& FL $6.|p %6.&6.*6.=6.-6.(N SQ ;Q ,O FY >O ]5.p^.n/.;6.>6.,6.z^.j/.K_.o:.o:.I_.@_.j/.}<.I_._5.z^.H_.M_.'6.=Z =w wl xl Qk cj 4| :' ~n wl vl 3| =,.3| )5 et )6.!6.16 zF ~6.{6.]6.]6.]6.^6.i*.$k K( (< +i /6.(6._6.:6.<6./5.c4.QW g4.j4.g4.[6.}6.l4.i4.f4.c5.h5.|6.g5.j5.j5.g5.|6.|6.16.",
"26.26.36.36.46.e5.56.66.Oo 76.76.46.56.e5.f5.|6.86.m3.96.06.LQ |n .I 59 50 L%.a6.b6.c6..y mi -' d6.e6.f6.g6.h6.6&.8&..E oo i6.j6.k6.Nj +^ Uj Nj Zi 8' Nj {j {j Vj 9( Kj l6.8#.m6.(% l. p; 4J };.)* n6.o6.b..p6.C#.q6.W}.r6.s6.1).t6.u6.v6.6_.w6.|| @1.x6.M:.M:.y6.|[.7[.U3.U3.E5.z6.A6.Jf P,.B6.C6.D6.E6.eB hB hI XK $K F6.R5.XK :C _C #A =` G6.H6.I6.J6.7}.0}.b}.c}.}|.h^.]1.2|.(1.]1.^1.K6.mO !4.yL }2.zL L6.%5.&5.~4.&5.M6.N6.O6.pN P6.=5.Q6.R6.S6.R<.07 #d Yc Wm _h 13._h _h Zc c9 20 d9 l|.l|.T6.ve &a a6.U6.Cb X& ,~ V6.W6.X6.Y6.Z6.`6.(&  7.iL {N .7.s/ +7.C^.^(.h/.r|.`<.#_.K[.v}.9e +_.r|.+_./(./(.H_.G_.Pq @7.6m wl vl Pk xl )n 0m !n vl =k '1  >.#7.$7.OD %7.&7.*7.=7.v$ v$ -7.;7.gt AC >7.,7.'7.)7.<6.!7._U /5.~7.n3.h4.f4.h5.|6.j5.|6.{7.e4.e4.i5.|6.C..Oo 76.76.Oo Oo 46.]7.^7.46.",
"/7.Lf (7._7.36.76.26.:7./7._7.Lf <7./7./7.36.^7.g5.j4.m4.[7.hY #- t5 4*.}7.|7.17.27.37.47.57.67.77.OH j( N] J& 87.97.07.a7.b7.c7.>1 d7.c,.e7.Wq /i Nj Nj Wq Uj _~ Wj .^ f7.jo V(.9-.l. t&.4P 1M ~* 4;.q&.p&.D4.9-.x{ =# 0..g7.|j [8 h7.i7.5_.X4 j7.;< ;< ;< ;< || L4.k7.*|.Mg l7.m7./) l{ n7.o7.p7.VF _C hB [O q7.,J r7.s7.t7.[O hB [C gB u7.v7.5& w7.x7.J6.y7.0}.c}.^2.^1.{2.2|.2|.]1.]1.z7.!4.!4.]3.]3.<2.lO $5.A7.B7.C7.C7.8G D7.E7. 6.F7.jF G7.H7.P<.Yc g8 e8 c9 e9 _h _h e9 f|.Zc 20 30 87 ;i I7.!^ J7.K7.L7.M7.N7.O7.P7.Q7.D% ig R7.Xd S7.Wr T7.U7.::.Bb V7.W7.^(.`P }<.K[.X7.o:.}<.@_.X7.#_.+_._5.8< H_.Y7.l] Z7.)5 !n wl ;k Ok '1 vl )n -w `7. 8.;( zn .8.+8.r$ r$ @8.#8.$8.M& 32 %8.&8.b5.c4.c4.p3.o3.*8.m3.l4.h4.j4.d4.j5.e5.56.46.46.]7.f5.f5.f5.^7.e5.26.=8.=8.=8.=8.=8./7.-8.-8.:7.",
"_7.;8.=8._7.:7.>8.,8._7.'8.)8.)8.;8.=8.'8._7.Oo C..d4.l3.!8.~8.1^ Bb {8.]8.^8./8.(8.=. w1 /%._8.:8.=. <8.}6.[8.hX .E }8.|8.18.B1.28.38.48.`T 58.u5._~ +^ Wq u{ >4 9| Wj 68.;,.y. D4._% 6;.';.-@.4% 78.88.O` (% 98.08.a8.b8.c8.J3.)N d8.e8.f8.g8.*|.Pf x6.Pf y6.=:.h8.i8.~}.j8.6_.4_.k8.L$ l8.m8.m8.m8.NC n8.o8.p8.F6.q8.r8.<1.NC fB hB gB &E >+ s8.t8.u8.[|.8}.0}.b}.}|.1|.]1.(1.2|.(1.v8.w8.}2.]3.hS x8.!4.:2.~4.B7.C7.C7.y8.D7.`5.z8.A8.B8.f1 C8.Gf Q<.D8.l|.e8 c9 Zc Zc E8.Zc c9 (4.F8.g8 Yc l|.G8.H8.k;.I8.J8.K8.L8.M8.N8.O8.P8.Q8.R8.S8.>L ii h# g= +z F[ T8.W7.^(._5.}<.q:.+_.`<.K_.@_.K[.@_.j/.H_.^(.x^.U8.Z0 V8. >.(u )n cj z> qq 4( W8.X8.Y8.Z8.`8.w4 v$  9..9.+9.k> @9.#9.$9.l3.}6.h4.g4.j4.j4.j4.d4.l5.%9.j5.g5.k5.C..&9.76.36.36.36.76.46.56.76.-8.76./7.)8.*9.=9.-9.=9._7.>8.:7./7.",
"Lf ;8.(7./7.>8.36.:7._7.=8.;9.-9.-9.;9.-9.;8.36.e5.{7.m3.c'.>9.o3 w<.7e ,9./8.'9.)9.!9.~9.{9.]9.5[ ^9.=. /9.<8.Q4.c4.(9.26 >D x4._9.P% O% :9.<9.j= [9.}9.|9.Wj YB .^ Zi &[.i= b(.19.+` 29.-@.rB -$ )* 5;.}).+` 39.49.59.lh 69.J$.`1.79.89.99.*:.09.y6.*|.a9.b9.c9.>:.7[.~}.M4.=:. (.d9.'6.e9.f9.Y4.hI o8.q7.cD g9.h9.h9.t7.:C NC fB [C gB &E i9.j9.`5 k9.l9.m9.}|./1./1.}|.1|.2|.D~.D~.n9.o9.]3.!4.hS p9.mO lO %5.C7.C7.y8.q9.r9.P6.s9.}Z D< J* t9.u9.v9.Ed D8.w9.Ni F8.o%.Zc c9 ro d9 A[.g8 ;i 7{.x9.y9.z9.A9.B9.C9.D9.E9.F9.G9.H9.I9.J9.C~.K9.L9.M9.N9.p .t5 O9. _.H_.P9.j/.K_.j/.+_.}<.Q9.+_.j/.z^.8< d/.R9.S9.N9 T9.~6 (u ks Ko U9.V9.Ul W9.X9.Y9.}@ Z9.`9. 0.DL .0.+0.@0.h4.j4.f4.#0.h5.g5.%9.j5.k5.f5.46.36._7._7.26.-8.76.36.>8.-8.76.>8.76.Oo 26.36.26./7.(7.'8.-9.$0.%0.=9._7.,8.&0.<7.",
")8.(7.36.76.76.>8.,8.<7.&0._7.)8.-9.=9.=9.;9.&0.e5.l5.l4.*0.=0.wV K> J* -0.;0.>0.,0.'0.)0.!0.~0.{0.]0.^0.:8.>. /%./%.:8./0.(0.I& B' r) e6._0.E3.,~ ;( b( /E sv 2i '; /6 :0.<0.'+.[0.O` @# V> a>.}0.zF d(.^Z !+.-# !+.|0.10.J3.MS 20.30.40.50.60.7[.L4.wp +2.70.l<.+3.80.*|.+3.=:.90.00.a0.w& b0.E3.XK p8.R5.r8.h9.h9.c0.o8.[O SN hB zA 1* _z BA d0.e0.V-.f0.g0.}|.h0.}|.}|.h^.2|.C~.C~.i0.E5 <2.<2.mO mO GI AK M6.y8.y8.q9.j0.k0.l0.m0.nh n0.jh o0.c= p0.E8.P<.e|.d9 ro 20 c9 20 ;i 87 97 30 ;i q0.C; r0.s0.t0.u0.v0.w0.x0.y0.z0.A0.B0.C0.D0.K8.E0.F0.G0.^E H0.+B :5.I0.z^.h/.v}.J0.p:.K_.+_.#_.}<.+_.I0.^(.K0.L0. n M0.Ok pK ^6./,.g= N0.O0.P0.}@ Qd Q0.Rv h).]= R0.h4.j4.d4.l5.j5.f5.]7.46.76.36.26.:7.&0.)8.$0.S0.S0.%0.;8.(7._7./7.>8.36.26.76.76.,8./7._7.)8.)8.;8.;8.-9.$0.%0.=8.:7./7._7.",
";8.36.-8.26.36.&0._7.<7.,8./7._7.;8.-9.-9.)8./7.56.|6.}6.i0.T0.{3 W& U0.V0.W0.:8.]9.X0.Y0.!0.U3 Z0.`0. a..a.!0.]0.,0.+a.>. @a.#a.'9.$a.%a.<9 Tn gt Jf d3 &a.o; }. *a.=a.9| -a.v3.=B o6.1,.uH kw ^% !j c7 $` )N Fg KR ;a.x{ w%.)* m6.>a.,a.'a.-}.l7.L4.L4.+2.90.-:.F5.80.)a.M:.M4.a9.*:.!a.~a.{a.o8.XK ,J r8.]a.^a.t7.KC [O hI [O SN [C AA gB EA zV W# /a.H( (a._a.0}.m9.:a.h^.]1.D~.<a.[a.F# <2.}a.yL }2.lO TH M6.Z5.|a.r9.k0.1a.2a.M<.3a.4a.5a.6a.7a.8a.9I U, c9 Yc ;i w9.9a.e8 Yc z[.D8.Yc l|.0a.aa.P< ba.ca.da.ea.fa.ga.ha.ia.ja.ka.la.ma.na.K8.oa.pa.2F qa.A].,6.z^.((.h/.j/.q:.r|.`<.I_.+_.((.((.d/.A].D].ra.{;  b sa.ta.K> ua.va.wa.Z9.xa.c2 I( ya.za.l4.j4.d4.Aa.16.56.&9.36./7._7._7._7.=8.=8.'8.)8.%0.Ba.Ca.Da.Ea.Fa.=9.=9.)8./7.36.36.36./7.=8.)8.-9.)8.=8.=8.=8.=8.'8.*9.-9.,8./7.)8.",
"&0.76.76.>8.,8.(7.=8.&0./7./7.&0.(7.;8.)8.;8._7.46.|6.QW Ga.K( Sg ,> Ha.m5.<8.>. 5[ ~0.Ia.U3 U3 {0.Ja.Ka.La.U3 Ia.~0.X0.!0.Ma.^9.=. Na.47.*0.Oa.O- ht V8 _c ~h E< `{.~2 Pa.Qa.>l Ra.qv Sa.sl v%._* y. R0 a>.m; +u aK Ta.Ua._B B,.rB ^% Va.Wa.Xa.4_.|[.M4.Ya.i8.c9.Za.a9.)a.Pf =:.`a.I:. b..b.S7 +b.q7.@b.p8.@b.JC :C [O :C IC hI :F fB [C _C #A UF @A #b.$b.Sg %b.&b.h0.0}.}|.*b.=b.-b.;b._2.{3.(2.>b.zL SH ^3.,b.'b.E7.)b.!b.~b.U= {b.]b.^b./b.(b.d;._b.:b.', <b.[b.D8.;i d9 w9.Yc D8.e|.;i u[.}b.|b.1b.2b.v0.ea.3b.4b.5b.3b.6b.6b.ga.ia.7b.8b.F9.9b.0b.c= ab.%_.d/.`<.((.j/.`<.q:.$_.I_.K_.P9./(.d/.%_.bb.cb.db.f3 1}.eb.fb.gb.2W hb.ib.{; 0c jb.l4.g4.f4.{7.k5.]7.76.:7._7.=8.)8.)8.;8.=8.=8.)8.-9.-9.-9.=9.$0.Fa.$0.-9.;8.;8.)8.;8./7./7./7.&0.=8.-9.=9.-9.)8.=8._7._7.(7._7.;8.$0.'8._7.)8.",
",8.36.>8.:7._7.'8.'8._7.<7.<7._7.=8.;8.=8.Lf <7.76.h5.m4.kb.J( h>.U& lb.47.mb.+a.nb.Z0.@g @g ob.pb.`0.qb.rb.pb.X0.X0.sb.pZ ]9.U3 )0.tb./0.ub.57.vb.wb.K9 p^ nu Cb ]; W& ,, 7L 96 :4 rX R,.rX >, p; 9.._Z _Z pX m; xb.i<.x. 0..6B qm Mm yb.zb.}_.00.a9.E5.+2.7[.-:.Mg ~}.U3.Pf j8.[[.$:.Ab.Bb.X& Cb.Db.<C [O 2! [O [O hI o8.hI hI hI <C SN fB zA bD &E BA Eb.Fb.Gb.Hb.Ib.Jb.=b.:a.m9.Kb.Lb.-R UH PH {3.SH [2.JI Mb.Nb.Ob.Pb.Qb.*&.Rb.Sb.Tb.D: j_ ,r A2.Ub.Ub.Vb.0..Wb.Xb.02.l|.l|.;i ;i w9.w$.Yb.ii Zb.`b.u0. c..c.+c.@c.#c.$c.+c.%c.%c.6b.ia.&c.*c.=c.-c.,> ;c.it d/._5.`P w}.j/.@_.j/.r|._5.q|.d/.>c.{(.F{.,c.M~ #k 'c.)c.2W !c.~c.b( 9/.{c.m3.g4.c5.l5.16.56.36.=8.)8.-9.$0.Fa.Fa.$0.)8.=8.(7.=8.)8.)8.)8.)8.-9.$0.=9.=8._7.Lf )8.;8.&0./7.<7.(7.)8.=9.=9.=9.=9.=8./7.,8._7.&0.;8.%0.=9.)8.=8.",
",8.,8./7._7.(7.'8.'8.=8.Lf _7.&0.(7.=8.(7./7.36.66.f4.]c.^c.n3 ;& Y@ /c.57.>. (c._c.Ka.Ka.Ka.Ka.rb.@g pZ `0.pb.`0.)0.La.`0.)0.,0.:c.<c.[c.:8.;. }c.|c.1c.2c.@S *&.h= ;) ), $- w<.$- ]% {y :4 D#.(4 3c.p&./[.6;.)# 4c.5c.6c.Df >u 7c.5).d{ 8c.9c.1_.0c.Ya.4_.90.c9.*|.F5.L:.)a.00.J:.*:.ac.bc.N!.cc.sy #A %A fB hI <C o8.KC [O NC IC JC <1.KC :C gB EA &E dc.ec.FX U& 7e V} fc.gc.hc.ic.jc.kc.lc.-R %5.+H mc.nc.oc.pc.xS qc.[+.rc.sc.tc.uc.vc.wc.xc.e3 yc.zc.Ac.Bc.Cc.R& )v Dc.e|.e|.Ec.w9.Fc.Gc.Hc.Ic.Jc.Kc.ha.6b.@c.Lc.Mc.Nc.@c.$c.Oc.6b.Pc.Kc.Qc.ba.Rc.Sc.Tc.Uc.H_._5.h/.`P +_.h/.((.((.g/.A^.^(.c/.Vc.Wc.), Xc.Yc.Zc.o_ `c.Q3 .y  d..d.+d.@d.|6.f5.46.36._7.)8.Fa.Ea.Ea.Da.Ca.Ca.Fa.)8._7._7.&0.&0.&0.Lf ;8.=9.$0.=9.=8.)8.-9.%0.=9.(7._7.(7.)8.;8.=8.;8.)8.=9.)8._7.36.36.&0.'8.)8.=8._7./7.",
"36.36./7._7._7.Lf Lf Lf _7._7.<7./7./7./7.36.46.|6.m3.#d.p/ /E _, Hg $d.%d.>. !0. a.pZ pb.&d.@g Ka.qb.Z0.*d.pb.qb.&d.pZ pb.=d.!0.[c.U3 ~0.<c.]0.>. /9.-d.;0.;d.>d.a..j- K( ,d.'d.)d.!d.25 25 ~d.1% /* x%.6;.)* Uz 88.a'.x{ F9 B5.x. uH LW {d.[_.]d.&:.00.^d.~}.Za./d.@1.=:.R3.(d.r<.80.Mg _d.:d..} <d.iB &E fB hI q7.[d.XK IC IC <1.=E IC [O MC _C #A tX zV }d.|d.1d.2d.3d.I~.4d.5d.K9 6d.7d.8d.9d.}d.0d.ad.bd.cd._, dd.ed.fd.gd.hd.id.jd.j>.kd.ld.md.OV }T <# nd.od.pd.N+.I{ qd.}1 rd.rd.sd.]E td.G9.8b.ja.fa.$c.ud.$c.Mc.Mc.$c.#c.x0.Nc.vd.z0.wd.xd.$8.yd.it zd._5.@_.`<.r|.`<.8< 8< zd.,6.M_.Ad.Bd.{3 Cd.JL Tc Dd.XI k( Ed.Fd.h4.c5.|6.e5.76./7._7.)8.=9.$0.Ea.Gd.Hd.Id.Hd.Hd.Gd.Ba.)8.&0.<7./7.,8.,8.&0.)8.%0.*9.=9.=9.=9.%0.S0.=9.=8.(7.=8.(7._7./7.,8./7.=8.;8.Lf 36.76.:7./7.<7.:7.36.36.",
"46.76.36.36.36.36.26.36.:7.36.36.26.76.76.46.k5.f4.Jd.27.Kd.j- Ld.Md.Nd.Od.+a.pZ pb.@g @g pb.pb.Z0.qb.qb.ob.Pd.Qd.Rd.Ka.pb.Ka.`0.U3 U3 _c._c.Z0.La.>. Sd.k).Od.Td.Ud.Vd.6C X& Wd.Xd.Yd.Zd.`d. z j1 m0  e.`B /% Us %@..e.xK a#.Y1.+e.R,.r' @e.zb.#e.&:.*:.Ya.|[.h8./d.>:.i8.`2.$e.Mg =:.+3.%e.&e.*e.5W =e.#A :C *E @b.p8.@b.o8.hI <C <C :C :F MC [C gB #A -e.;e.>e.Uj ,e.'e.)e.!e.~e._+ /E {e.!3 ^E xL Vm 4} +z ]e.^e.Bx /e.Wd 6c cH (e._e.p,.:e.:e.<e.[e.`a CN q> }e.|e.1e.2e.t' 3e.4e.5e.6e.7e.8e.9e.&c.0e.$c.%c.ae.be.$c.#c.Oc.#c. c.x0.0e.A0.t0.ce.O& de.:5.A^._5.I0.`P `P h/._5.,6.%_.A].c4.t%  =.ee.wa.fe.ge.t% he.ie.m3.g4.d4.16.Oo /7.)8.$0.Fa.Ea.Da.Ca.Hd.Id.je.je.Id.Gd.Da.ke.-9.=8./7./7._7.(7.;8.=9.)8.-9.$0.S0.ke.%0.%0.)8._7./7.,8.:7.36.26.46.46.36./7.36.76.76.56.^7.56.&9.76.76.",
"C..e5.^7.e5.e5.C..f5.f5.e5.]7.]7.e5.e5.16.i5.c5.m3.m5.E .a~ _, u_ le.me.ne.oe.!0.{0.Ka.Ka.Z0.pe.&d.qe.Pd.*d.pZ pb.re.qb.@g Z0.Z0.`0.*d.@g Z0.*d.Ia.(c.`0.U3 5[ =. <8.Td.se.te.ut Z& b!.ue.ve.we.xe.Cb 6% #` 88.+` y. )# r4.h*.o6.q .P@.c= ]= ye.Z}.3_.(d.l7.wp M4.>:.b9.ze.Ae.b9.|[.M:.)}.Be.,:.Ce.0u De.Ee.hI <1.q7.@b.q7.KC JC o8.IC hI o8.o8.MC m8.Fe.Ge.He.Uj Vn +^ lu Ie.Je.Ke.Le.Me.Ne.Oe.Pe.Qe.Re.Se.Te.Ue.Ve.We.zR Xe.Ye./!.Ze.`e. f. f..f.:e.+f.@f.#f.|5 $f.%f.}= &f.*f.r6.2a ,, =f.-f.;f.ca.w0.>f.+c.ae.,f.be.ud.be.'f.ud.$c.)f.Jc.ba.!f.k~.~f.{f.H_.8< j/.g/.`P _5.A^.^(.]f.Va.^f./f.(f.#! @8._f.y5 :f.<f.m3.j4.d4.|6.d5.76._7.-9.$0.[f.Da.Gd.Hd.Hd.Hd.Gd.Hd.Hd.}f.|f.Fa.=9.)8.)8.=8.'8.)8.)8.)8.Lf _7.;8.-9.=9.)8.)8.=8.,8.46.56.^7.e5.e5.e5.16.f5.56.56.e5.e5.f5.g5.16.e5.e5.e5.C..",
"l5.l5.i5.l5.h5.l5.h5.{7.h5.l5.i5.l5.VA d4.j4.m3.96.,- 1f.}5 J( .r 2f.se.Q4._8./%.U3 3f.pb.pb.pb.pb.&d.Z0.pb._c.~0._c.{0.Z0.Pd.pb.Z0.rb.Qd.Ka.*d._c.Y0.Z0.pb.*d.~9.(c.;. 4f.*. 5f.6f.', 62 7f.8f.9f.0f.pW ^% ]y j*.)# __.af.Y}.bf.W1.%^ ho f= {d.cf.w] df.Ya.ef.M4.M4.0c.ff.90.M4.Pf gf.hf.if.!}.jf.kf.Xn lf.[O o8.KC <1.*E *E <1.KC o8.KC KC hI MC FA mf.nf.of.(~ pf.Up `%.7' pl Co Vn .^ qf.rf.sf.tf.ql uf./J Ub.vf.wf.xf.yf.zf.|!.wQ Af.IP Bf.|R p,.+f.Ub.m  Cf.i| Df.Ef.k$ r  C> s# Ff.Gf.Hf.If.Jf.ia.6b.+c.%c.'f.be.be.r{.Kf.+c.#c.Lf.t0.Mf.Nf.o..Of.w^.d/.d/.r|.f/._5.R9.B^.Pf.Qf.f1 Rf.Z9.*! (@ $^ Sf.Tf.*8.l4.c5.g5.e5.46./7._7.)8.$0.Fa.Ba.Da.Ca.Ca.Da.Ea.Ba.Ea.|f.Ba.S0.S0.;9.;8.)8.;8.;8.)8.=8.,8.Oo 26./7._7./7.36.76.A| 16.|6.l5.N^ h5.h5.h5.{7.i5.g5.|6.l5.l5.e4.d4.l5.|6.|6.|6.i5.",
"Uf.Vf.Wf.Xf.Yf.Yf.Zf.`f.f4.f4.f4.f4.j4.h4.*8.p3.!7.X5. g..r /j J( .g.17.+g.-. ^0. a._c.U3  a.X0.@g.3f.pe.qe.@g pZ pZ pZ sb.Z0.*d.@g rb.Ka.*d._c.~0.@g Qd.pZ pZ nb.#g..a.)9.)9.;. ;0.Na.$g.%g.h>.&g.*g.=g.-g.;g.2% H*.R8 ik 1h Z'.a>.^* rB 0>.>g.&}.,g.60.4_.Mg M4.90.*:.'g.80.l<.1[.3[.4[.%|.p<.6[.)g.S1 !g.~g.[O hI o8.<1.*E <1.JC <1.<1.o8.[O [C {g.]g.^g.Vn Uj ah 8' fl Rm Kj Vn 29 /g.(i Ik _~ Kj ah (g._g.:g.<g.s/ [g.}g.|g.IP _e.1g.2g.3g.*O W$.4g.+f.$V 5g.>&.{8.6g.7g.8g.9g.0g.ag.L} bg.Jc.cg.dg.%c.+c.ud.ud.ud.be.eg.Kf.ud.Lf.*c.ba.bg.fg.R#.gg.hg.ig.A^./(.^(.^(.%_.jg.kg.lg.mg.#! (u ng.og.@p h4.f4.d4.l5.f5.76.:7._7.=8.;8.=9.%0.%0.%0.Fa.Ba.Ba.$0.=9.-9.=9.%0.$0.%0.=9.;8._7._7.&0./7./7.76.e5.^7.66.66.]7.f5.|6.h5.c5.j4.g4.g4.g4.pg.j4.j4.f4.c5.#0.+d.c5.`f.qg.rg.Yf.Xf.sg.tg.ug.",
"vg.Tz wg.d3 O& `t ^B CN ,~ Op |9 N- xg.;r yg.zg.Ag.52 X& X& @u C: Bg.Cg.57.Dg.{9.!9.<c.U3 {9.!9.U3 Ia.=d.3f.@g sb.*d.pZ nb.pb.pb.qb.Ka.&d.@g re.Ka.Ka.@g `0.*d.pe.X0.Ma.Eg.+a.(c.)9.=. Fg.(8.Gg.Jf |n f= D#.6C PL x%.Q@.45 Hg.h*.@` &- F6 K9 Ig.wR Jg.f8.g8.09.i8.00.+|.90.wp Pf Kg.,}.$|.Lg.Mg.F5.$g Ng.X( Og.Pg.MC [O hI IC JC o8.o8.<C [O hB Qg.Rg.Sg.Tg.Go Go 7' u{ (~ ~0 bh Vn `i O> 6w ]j _e 7' +^ Ug.k. Vg.Wg.Xg.Yg._e._e.Zg.`g.|R  h..h.+h.@h.#h.$h.%h.&h.o; -$ *h.h{ =h.-h.g#.;h.>h.C0.la.vd.3b.Kf.ae.,f.r{.r{.r{.Kf.%c.Mc.u0.C9.ba.,h.'h.)h.G_.%_.hg.>c.,6.!h.E/.2K m0 ~h.P0.H9 {h..} ]h.h4.f4.{7.j5.]7.76./7.<7._7.'8.;8.;8.)8.)8.)8.)8.-9.-9.)8.)8.=8.=8.;8.)8.;9.)8.=8.&0.76.Oo 76.Oo e5.k5.|6.j5.l5.d4.c5.j4.}6.n3.c4.~7.^h.m4./h.(h.~. _h.:h.`& <h.l{ /! %G +e 62 [h.}h._2 |h.1h.",
"2h.3h.4h.5_.5h.6h.Ya.E5.7h.8h.9h.0h.ah.bh.1h.DL $~ n3 Y& Sg +e P& e{ ch.dh.eh.:8.tb.,0.U3  a.!0.{9.{9.!0._c.pb.pZ *d.`0.pZ `0.qb.Z0.fh.*d.qb.gh.rb.qb.*d.Z0.`0.X0.pe.nb.nb.~0.pZ Y0.tb.hh.;. Na._U l~ W& P,.5i IX ih.[0.jh.|).~+.kh.j=.F#.v%.&d lh.mh.i7.g8.Ya.00.ff.R3.b9.)a.|| nh.@|.oh.gf..3.ph.qh.jf.rh.J* sh.th.NC NC [O o8.hI [O fB _C )J uh.M0.vh.Uj gM gM Vj Vn Uj '; {j np 38 kq /6 Vj Uj kq (i wh.xh.yh.,s zh.Ze.Ah.YU Bh.Ch.2g.Dh. f.<e.Eh.Fh.Gh.Hh.[x |C Ih.Jh.D# Kh.{3 L@ Lh.G9.Mh.Nh..c.Kf.Kf.,f.,f.Oh.r{.eg.Kf.Ph.>f.&c.Qh.Rh.Sh._b Th.c/.A].w^.Uh.w^.a_.m= Vh.Wh.}@ Xh.|n Yh.Zh.h4.d4.j5.e5.46.36._7._7.&0.&0.=8.=8.(7._7.&0./7./7._7.(7.=8.=8._7.=8.=8.=8.=8.(7./7.>8.56.16.`h.k5.|6.{7.e4.d4.g4.l3.au ~7.me. i..i.7I +i.#3 m1 <e @i.#i.$i.%i.&i.*i.=i.f8.1< {b @3. (.4_.-i.5_.",
"g8.Ya.ac.;i.=( Ya.j8.>i.l<.X4 @/ ,i.z6.'i.,i.)i.!i.~i.{i.]i.vg.m~ G, .E ^i./i.:c.)9.(i.(i._i.-. >. :i.tb.Ia.`0.nb.<i.nb.U3 )0.pZ pZ pZ qe.qb.Pd.`0.pb.*d.rb.re.pb.Z0.pe.pb.*d.`0.X0.)0.]9.~9.;. Od.[i.J+.c/ o; 9<.v%.}i.([.|;.;g.Bo 2B 3).P,.-$ |i.1i.1_.5h.P;.[[.*:.g8.90.~}.w6.1[.nh.2i.2[.3i.N:.p<.4i.5i.6i.L+.7i.8i.hB NC [O hB CA EA (F 9i.Lv 0i.Nj Rm 7' (D Kj Ms Nj ]j 5O Vn Ms ]j P> Jk P> lu 38 _e ai.bi.W- /!.^@.ci.Zg. f.Zg.di.ei.7Z fi.gi.-$ 7=.&- h! |j 59 25 hi.nh ii.ji.na.8b.ja.ga.3b.ae.Kf.r{.,f.Oh.r{.ae.ae.6b.ea.ki.li.,h.mi.ni.oi.B].pi.z].Ad.qi.2).ri.Eb Y[.si.ti./ .ui.l4.d4.j5.A| vi.<7.Lf =8.(7._7.&0.(7.Lf _7.:7.26.76.76.36.<7._7.Lf (7.(7.(7.Lf &0./7.26.46.f5.i5.{7.{7.{7.c5.b].h4.wi.xi.yi.(. {^ ;! hs P; X& ad $d.zi.6_.60.4h.=( `a.4_.a9.5_.4_.@3.@/ @/ g8.m7.4h.",
"a9.09.@3.+3.90._d.>i.j7.Ai.}- ;i.P;.{b 5h.m7.)i.4h.l(.Bi.|} |} Ci.Di.Ei.Fi.yd 0} Gi.Hi.Ii./%..a.+a.tb.)9..a.:c.*d.*d.pZ *d.pb.*d._c.pZ @g Ji.nb.@g @g @g +g qb.Z0.La.~0.Z0.Z0.pb.X0.pZ `0.~0.Ki.-d.Q4.Td.Li.Mi.&+ o; 4P Ni.Oi.=@.b..E=.Pi.>P A  ~; Qi.mh.Ab.Xa.Ri.00.7[.7[.80.Za.|| 2[.;}.;}.Si.;< @1.+3.6[.Ti.Ui.u_ Vi.KC [C [C gB OO iB Wi.YC Xi.Yi._e /i _~ P> 7' 8' ql Vj P> _~ +^ _e fl (~ Vn 29 O> Wq Zi.8I `i. j.7R  f..j.+j.@j.#j.$j.%j.&j.};.Dx 96 ]~.1M *j.=j.IX 3. -j.H+ D0.;j.ja.ga.6b.%c.ae.r{.Oh.r{.Oh.ae.%c.6b.>f.w0.Qc.>j.,j.'j.)j.bb.!j.pi.**.Tb ~j.Y9.{j.a1 hz [}.ui.m3.g4.]j.i5.d5.36.)8.)8.)8.)8.;8.(7.&0.&0._7.&0.>8.76.76.76.26.36.,8._7.=8._7.<7.36.76.46.]7.16.l5.d4.c5.f4.j4.(h.^j.K& <$ /j.{m $^ f1 D% S+.(j._j.:j.:j.Bb.@3.2h.z6.ac.E5.*|.l<.U3.@/ w6.L4.l<.j8.a9.5_.",
"*|.@/ -:.j7.X4 h8.h8.N4.m<.j7.)a.E5.=:. (.`a.X4 -i.ac.=( =( )i.4h.60.'i.f8.f8.<j.[j.}j.|j.1j.2j.3j.#g.Ma.>. {9.X0.~0.pZ `0.*d.=d.<c.X0.@g Ji.nb.rb.Ka.*d.pb.`0.X0.4j.pb.Ka.rb.qe.!9._c.Z0.qb._c.^9.)9.)9.5j.se.6j.a~ Ia 7j.gl 8j.9j.0j.f*.nZ  I y( aj.bj.cj.50.k<.$e.X4 |[.*|.y6.x6.dj.1[.ej.m<.N4.|| M:.U3.,:.fj.gj.t% hj.Y4.UF ij.u- jj.kj.c*.lj.6w 7' Wi fl #y Go Up kq pf.`%.ql Vn Wi jq ]j Vn 7' Vn Vn mj.Y& nj.oj.oj.gY _e.pj.qj.@h.rj.sj.`5 +z #k #@.tj.uj.vj.}) y( wj.xj.yj.zj.Aj.Bj.3b.ae.Kf.eg.'f.ud.5b.+c.ae.4b.>f.Cj.Dj.s0.Ej.Fj.Gj.Hj.Ij.D].Jj.S+.Kj.Lj.Mj.dA x* Nj.l3.i4.Oj.{7.|6.f5.56._7.=9.%0.=9.-9.-9.=8._7.<7.&0.<7.36.>8.36.36.36.36./7./7._7./7.Oo ]7.16.|6.h5.d4.Oj.Pj.Qj.Rj.Sa Sj.L3.Tj.Uj.Vj.Wj.Xj.Cb #k Yj.Zj.b~.`j.1_._d.a9.X4 w6.M4.@1.L:.U3. k.-:./d.j7./d.l<./d.L4.",
"U3.w6.h8.U3.+3.M:.@1..k.w6.y6.m<.;}.;}.m<.E5.@2./d.*|.L4.>i.L4.@3.5_.z6.3h.6_.5h.df.4h.m7.+k.@k.#k.$k.%k.&k.*k.[c.)9.^0.~0.'0.,0.)0.:c.pb.Ka.*d.pb.qe.Z0.Z0.*d.`0.*d.qb.&d.re.pZ =d.ob.Z0.@g pZ 5[ /%.Eg.tb.;. |c.=k.-k.k8 ;k.S0 Yi.>k.2).^% s/ f1 t/ ,k.'k.9c.1_.5_.M4.l<.>:.x6.@1.ej.;< ej.ej.;< .k.@2.M:.w6.M4.)k.!k.y5 ~k.{k.zG PU ]k.^k./k.&3 Ms Up 7' ~Q Wi 9| ]5 (k.lu wo }m fl /i Nj ql Nj Nj ql _k.:k.}5 <k.[k.p,.}k._e.|k.)4.l'.s).y( Ia ~^ 1q 1k.2k.f'./4 ', 3k.4k.5k.2b.la.vd.3b.ae.%c.6k.7k.be.'f.7k.$c.8k.6b.9k.u0.ba.0k.ak.bk.ck.dk.ek.3Q fk.gk.Lj.hk.K> 6&.ik.jk.j4.e4.g5.e5.e5.66.76.=8.-9.=9.$0.=9.-9.=8._7.&0.<7.<7./7.,8.:7.76.76.36.36.36.kk.46.d5.g5.{7.Oj.lk.mk.Ex $~ &&.+; nk.ok.pk.pk.qk.$B rk.5; sk.R& pu tk.uk.!:.5_.=:.Ya.)a.+3.j7.L:./d.M4.-:.@2.j7.@2.h8.M:.vk.j7.",
"wk.@1.y6.y6..k.xk.w6.=:.>:.Pf m<.Za.@1.;< L4.ej.|| /d.h8./d.U3.@/ 90.L4.-:.;:.@3._d.E5.yk.90.{b  (.zk.Ak.Bk.s) Ck.Dk.-. -. Sd.[c.]0.5[ )0.pZ <c.)0. a.~0.pZ pZ Ka.Ek.@g ~0.Ka._c.4j.`0.Z0.`0.*d.3f.X0._c.(i.:8./9.;. Fk.Gk.+e 5( UI YB Hk.;n  b Y@ bi Ik.Jk.:[.w] 4_.c9.F5.x6.dj.2[.;}.S3.Kk.ej.ej.N4.M:.l<.)a.M4.M4.Lk.Mk.T= :/.Nk.Ok.Pk.Qk.Rk.lu 9( {j kq Ms XJ (~ 2/ Ms 29 Up Wq Sk.Kj YB {j +^ O> )$.4H _V Tk.Uk.Yg.7Z pj.j>.Vk.4L Wk.Xk.k= o= Yk.Zk.`k. l.6s <] .l.+l.@l.#l.&c.)f.8k.ae.%c.ud.7k.,f.r{.r{.Kf.ae.$c.)f.ki.G9.$l.%l.6L &l.*l.AI zR =l.Lj.#! -l.){ ;l.l4.pg.c5.l5.`h.46./7./7.36.,8.Lf ;8.=9.%0.*9.-9.)8.Lf <7.<7./7./7.,8.>8.46.66.66.66.56.e5.16.|6.{7.>l.,l.Bu J~.'l.)l.!l.6E %-.~l.~l.~l.!l.{l.]l.^l./l.~^ ^; Yb WA Ci.6_.@/ 90.h8.x6.L:.@1.x6.@2.-:.F5.+3.|| E5.@1.(l.@1.",
"_l.|| || @2..k. k.L:./d.;< ;}.|[.w6..k.h8.l<.:l..k.|| @2.+3.h8.Mg w6.h8.=:.+3.@1.U3.E5.Ya.g8.{b `6.3h.=( 4h.<l.[l..C }l.|l.'0.^9.Eg.{9.[c.{9.X0.{0.X0.X0.La._c.pe.nb._c.`0.Ka.U3 *d.Ja.re.`0.qb.*d.X0.)0._c.'0.~9.(c.ne.*. 1l.I* XT 4l Wj 2l.~^ D% 3l.u_ _( U..e8.m7.E5.U3.@2.4l.>}.vk.2[.;}.;< N4.|| U3.M4.*|.)a.5l.,:.)g.6l.FL Ym 7+.w& 7l.{j Ik fl Ek P> Vn gM Ms ah Nj 8' lu ]5 Uj (~ ah Ek Nj UI Ek wo 8l.9l.0l.al.bl.vf.q,.r=.D4..! 1^ cl.dl.el.fl.gl.4*.Ur hl.il.bg.jl.ki.kl.fa.+c.ae.%c.'f.r{.,f.+c.+c.+c.4b.ga.7b.2b.ll.ml.nl.~; ol.~^.~; pl.B} ql.Tp rl.sl.1l.c5.l5.g5.f5.46./7.'8.=8./7./7.(7.=9.$0.%0.$0.%0.)8.Lf /7./7./7.:7.26.46.C..16.16.k5.tl.|6.ul.vl.wl.)i xl.['.6E 6E %-.yl.yl.zl.Al.t@.Al.-[.%-.Bl.Cl.v{ Dl.:4 El.Fl.Gl.=( )a./d./d.1[.S3.;}.;< /d.X4 /d.xk.Pf w6./d.+3.@2.",
"N4.;< Hl.M:.M4.Il. k./d.dj.ej.=:.ej.L:.)a.X4 Jl. k.m<.Jl.2i.;< xk.|| |[.w6.@2.Kl.E5.a9._d.=:.M4._d.09.h8.E5. (.{b Ll.Ml.Nl.0} Ol.Pl.Ql.=. Eg._c.=d.!9.U3 pZ pb.@g @g Ka.Z0.~0.*d.Rl.Ji.qb._c.*d.fh.=d.]0.pZ 3f.{0.pZ Eg.)9.:8.(8. ! .E Sl.2/ Tl.|,.7e O; wz Ul.mh.'i. (.h8.@1.2[.#|.>}.vk.wk.m<.;< || U3.y6.c9.h8.Vl.&|.$g $e.Wl.}w /j f1 Xl.5O (~ ^m Nj 8' _~ {j 6w Up /6 +^ P> Ms {j #y 4H Yl.Zi ua 6w ]j 8' Zl.`l. m.{@ .m.+m.@m.59 %^ #m.$m.0&  l.%m.!6.&m.*m.=m.Mf.t0.v0.ia.dg.-m.Kf.Kf.r{.,f.'f.ud.+c.ae.%c.6b.9k.C(.;m.>m.,m.E; 3. I* Z#.'m.B} /u TB m+.)m.f4.{7.g5.f5.56.Oo 36._7.(7.(7.,8.:7._7.-9.=9.=9.*9.$0.-9._7.,8.36.26.Oo ]7.`h.l5.{7.{7.{7.!m.~m.;' _4 {m.]m.%-.yl.yl.-[.Al.-[.ul ul ^m.^m.^m.t@./m.(m.qk._m.}. 60 </ :m.<m.'i. (.@2.M:.h8.;}.(l.[m.;}.@1.ej.m<.M:.ej.|| Za.-:.",
"E5.@2.}m.>:.Pf S3.E5.j7.@2.M:.+3..k.ej.M:.E5.;< L4.L4.L:.|m.1m.2m.@2.Za.@2.:l.N4.*|.@1.;< ;< M:.w6.j7. k.l<.@3.90.a9.4_.z6.3m.4m./5 t) 5m.(i.Y0.,0.+a.)0.Ia.]9.X0.Z0.Qd.Qd.@g 6m.@g.*d.`0.pZ Z0.`0.~0.)0.~0.`0.`0.pb.~0.+a./%.-. Od.7m.O; 8m.~0 9m.0m.+>.;& B' am.1_.g8.j8.-:. 3.3[.>}.>}.@|.bm.dj.|| +3.U3.-:.cm.Lg.Vl.F5.2h.60.dm.a4. ` 2B em.f7.]j bh Vn Vj Ik +^ gM (i (~ {j 0h Wq Wj Up Vn _~ ah O> 9( >4 fm.d..gm.hm.im.WU jm.S> km.lm.mm.nm.6I om.pm.y].Rh.F9.ma.Kc.ea.3b.+c.%c.%c.be.be.be.ud.$c.ae.Lc.Mc.Mc.ki.G9.qm.%l.rm.%- ), sm.tm.w4 um.a> vm.g4.d4.k5.]7.A| 46.>8.36./7._7._7./7.36.36.&0.=8.(7.=8.;9.=9.)8.<7.26.46.56.f5.|6.{7.Oj.f4.wm.xm.ym.zm.Am.Bm.!l.yl./m.-[.zl./u ul ul Cm.&D *k Dm.&D ^m./m.Bm.Em.+U KT w<. n Fm.Gm.)i.j8.h8./d.;< nh.c9.dj.N4.@1.xk.|| @1.@1.;< @1.*|.",
"-:.:l.F5.F5.;}.@1.x6.Kl.dj.>:.S3.;< ej.wk.w6.Hl.Kl.F5.>:.dj._l.2m.l<.M:.;}.|m..k.m<..k.m<.m<.;< m<.xk..k.Kl.w6.L4.E5.6_.=( `a.ac.6! Hm.Im.%k.Jm.Sd.Sd.:i.)9.+a.U3 X0.`0.Ka.`0.re.Ka.Ka.qb.Z0.qb.Ka.@g `0.Z0.Ka.+g ob.3f._c.+a.(c._8.'9.Km.{; :D !Q Lm.Mm.Z0 ,~ Nm.Om.l(.*:.`a.l<.gf.3[.>}.>}.>}.>}.2[.Kk. 3.Pm.3[.$|.Lg.F5.~}.ac.3_.Qm.Rm.t~ |: Sm.Tm.Um.Nj 9| 8' .^ &3 ]5 8' O> &3 6w Go ^m fl Go Vj ]j Wq Uj Vm.Hi Wm.BS rB 6*.XY 1. Xm.3^.Ym.;( Zm.`m. n.na.zj.C(..n.+n.$c.ae.%c.+c.ud.$c.$c.5b.+c.ae.+c.0e.C(.ca.t0.@n.&Y #n.(>.r, $n.%n.Bj &n.*n.=n.g4.{7.16.&9./7./7.<7.&0.&0./7._7.(7.,8.>8.,8.&0._7.,8.,8._7.=8.=8.36.56.k5.i5.e4.c5.j4.-n.#e >c ;n.>n.,n.~l.'n.%-.Al.zl.ul ^m.Dm.Dm.^m.&D Cm.Ok ul Cm.&D /m.~l.)n.!n.RL &+ Sg ~n.y, l7.w6.h8.@2.wk._l.M:./d.x6.@1.@1.j7. k.M:.N4.|| Za.",
"L:.=:.X4 ;}.2i.xk.L:.U3./d.X4 Hl.L:.+3..k.M:.2m.{n.N4.l<.-:.;< ;< +3.x6.@1.Pf .k.;< N4.S3.dj.2i.xk.M:.@2.m<.y6.l<./d.j7.L4.@/ @3.-i.)i.]n.6  ]6 ^n./n./9./0.^9.5[ !0.,0.)0.U3 pb.pZ (n.Qd.Z0.Ka.@g pb.pb.qb.*d.~0.Z0.*d.~0.]9._n..a.oe.;. :n.M~ ~` <n.UI [n.Dt k> }n.#e.$:.f8.90.x6.Si.|n.>}.>}.>}.>}.>}.>}.>}.#|.3[.Kk.l<.)a.-i.R:.R:.m7.1n.2n.9P D: 3n.4n.5n.6n.O> 6w Vj wd Zi _~ /i Kj _e 8' ]j Wj ]j 7' 9( 7n.8n.'@.(4 9n.+z v+.}. Zg TB 0n.an.bn.H9.Qc.8b.Aj.ia.0e.8k.+c.%c.%c.ud.$c.5b.%c.r{.%c.8k.0e.cn.C9.=c.0k.dn.en.-k.B#.fn.I  gn.2F XX <f.)m.c5.16.Oo <7.)8.)8.=8.;8.=8./7.&0./7.>8.36./7.<7./7.>8.76.36.:7.36.66.g5.d4.f4.g4.hn.U-.A' in.]m.qk.jn.pk.6E /u Al.kn.:o Dm.Dm.t@.ul ^m.Dm.t@.Ok *k Ko ln./m.%-.mn.Cl.nn.on.;! pn.Iy ,g._d.U3.X4 @2._l.x6.+3.@1.M:.x6.w6.x6.@2.F5.m<.c9.",
"L:.c9.h8.U3.L:.@1./d.L:./d.Pf m<.;}. k.S3.dj.xk.S3.2m.dj.=:.@2.@2.U3.ej.;< || j7.x6./d.}m.2m.m<.+3.M:. k.U3.M4.+3.L4.@1.X4 j8.90.g8.4_.2h.6_.qn.rn.sn.tn.un.;. ;. Sd.!0.U3 <c.`0.*d.*d.@g qb.Pd.pZ `0.Ji.qb.*d.Z0.qb.rb.X0.{0.@g  a.~9.(i.Ql.;. ;L Z& vn.(i wn.=' ]2 xn.j(.|_.g8.=:.@1.bm.3[.>}.>}.>}.@|.4l.4l.2[.m<./d.+3.|[.Ya.4_.0c.6h.`a.6_.yn.zn.An.X( ie Bn.Cn.Dn.WE En.Up Vj Wq !Q ah /6 9( YB {j (~ !Q Fn.Gn.w& Y& x3.#o Hn.5).In.Jn.Kn.;m.Ln.8b.Aj.kl.ga.3b.Lc.4b.ae.5b.)f.>f.8k.+c.+c.#c.0e.&c.da.C(.F9.bg.Mn.Nn.B#.!^ On.Z9.Pn.~# Uw c4.h4.+d.l5.d5.76.Lf =9.$0.%0.)8.)8._7.:7.Oo 46.>8./7./7.26.46.66.46.66.d5.k5.e4.j4.Qn.Rn.sa Sn.Tn.%-.Bm.E6 pk.Un.E6 Nk ^m.Cm.6m &D Ok Dm.^m.^m.Ok ln.*D ln.Ko ln./u ~l.Vn.Wn.Xn.{; wh [h.Yn.h(.`a.l<.Mg 1[.2i.@1.dj.m<.M:.L:.y6.M:.w6.j8.Kl.M:.",
"09.h8.j7.+3.j7.L4..k.m<.xk..k.@2.|| @2.@1.@2.dj.wk.xk. k.(l.:l.Kl.j7.}m.:l. k.L4.h8.w6.wk.dj.M:.ej.dj.dj.L:.*|.xk.;}. k.Kl.h8.j8.E5.a9.5h.6h. (.)a.Zn.`n. o..o.+o.@a.>. >. [c.{9.U3 pb.<i.rb.*d. a.@o.pb.pb.@g qb._c.qb.Pd.pb.pb.X0.5[ !0.(i.=. -. #o.=' !'.UI $o.rg Q0 &9.Xa.ac.j8.-:. k.%o.3[.>}.@|.;}.;< @1.x6.@1.@1.U3.ef.a9.7[.R3.R3.09.)a.-:.;q &o.*o.</.=o.U& [! LG ih -o.;o.>o.,o.'o.)o.y;.!o.~o.{o.]o.^o.7e CN fG /o.(o._o.:o.<o.@l.B9.[o.la.ja.Bj..c.Ph.ae.ud.8k.+c.Nc.x0.x0.x0.x0.x0.x0.0e.0e.Cj.Dj.Rh.}o.|o.1o.U= 2o.3o.4o.t/ 5o.m4.g4.@d.|6.f5.66.36.&0.)8.$0.S0.)8.-9.=8.:7.46.6o.>8.:7.>8.46.^7.f5.f5.j5.l5.e4.7o.// AC 8o.9o.pk.0o./m.(m.Bm.E6 0o.E6 /m.*k ^m.*D ao.*D Ko ^m.^m.Dm.ln.ks *D &D *D zl.%-.!l.$B bo.|% zn w& co.do.60.}- -:. k.w6.(l. k./d.=:.|| w6./d. k.M:.M4.h8.",
"a9.X4 U3.j7.6_.80. 3.|| l<.w6.j7.90.k7.09.L4.h8.-:.M4.=:.l<.wp w6.@1.ej.=:.X4 || F5. k.|| @1.m<..k.@2.L:.l<.-:.N4.>:.@1..k.2i./d.E5.Ya.R3.-i.X4 y6.6_.,i.eo.fo.jc go.5[ ;. ho.:8.:c._c.@g *d.~0.)0.pZ Ka.pb.&d.*d.U3 @o.Ja._c.pZ nb.pZ pb.pZ tb.5[ Ma.io./n jo.]5 ko.j_ {_ lo.5h.-i.~}.M4.F5.@1.;< @2.M:.Pf Pf Pf +3.F5.M4.ef.70.l7.+2.Mg U3./d.U3.h8.y6.)a. (.mo.no.FQ X& oo.po.hx qo.)4 u9 SJ u9 ro..E FP eb.so.to.uo.vo.Bq wo.xo.yo.;m.9e.Mh.zo.vd.ga.3b.Kf.ae.ae.6k.ud.,f.#c.#c.#c.0e.0e.Mc.#c.#c.Cj.u0.Ao.Bo.Co.Do.9w Eo.r$ Fo.X@ Go.m3.k4.i5.16.56.-8.76.,8._7.;8.%0.S0.;9.-9.-9./7.76.-8.,8.:7.Oo e5.k5.i5.{7.d4.lk.Ho.H( O@.Io.Jo.qk.0o.ok.zl.zl.-[.Ko.pK Nk *k ln.Cm.^m.6m *D *k ^m.Ok Dm.Cm.*D ln.6m ln.zl.~l.(m.$B Lo.Mo.+] d..No.GH R:.Ya.L4.;:.Oo.;< j8.L:.U3.09.L4.@/ /d.@3.=:.}- ",
"1< ac.@/ M4._d.@3.09.g8.X4 M:.l<.g8.E5.M:.h8.)a.a9.Ya.X4 *|.0c.l7.l<.;< E5.@2.Po.M:.x6.N4.S3.|| w6.;< S3.w6.X4 L4.@1.2i.Qo.{n.y6.U3.>:.j8.a9.L4.Oo.w6.E5.4h.Ab.K^.<9 Ro.So.|c./9.;. ~9. a._n.X0.X0.*d.To.Qd.Z0.pZ @g @g _c.U3 pZ pZ Ka.Ji.3f.=d.`0.]0.:8.Uo.kF Vo.>4 Wo.)4 Xo.Yo.60.*:.0c.$e.$e.+2.7[.80.wp M4.c9.M4.)a.wp 70.i8.i8.)a.@2.ej.;< @1.+3.U3.=:._d.ac.i7.Zo.`o.0d  p..p.+p.@p.#p.-x $p.%p.&p.*p.=p.-p.;p.>p.,p.'p.A9.)p.Ln.8b.Aj.ea.fa.6b.+c.%c.Kf.Kf.,f.r{.,f.r{.,f.,f.!p.+c.8k.$c.fa.cg.~p.li.L8.{p.'m [. BN r$ ]p.I~.^p.k4.c5.l5.]7.76.:7.<7./7./7.<7.(7.%0.S0.-9.=8.=8.Lf /7.36.36.76.56.j5.l5.#0.j4./p.Z^ (p._p.:p.Vn.Bm.Bm.,n.,n.~l.Dm.^m.:o /m.^m.6m &D *k :o ao.Cm.Cm.:o ^m.Cm.Ko &D *D ln.^m./m.t@.6E {l.<p.[p.Ia R} }p.<A ,g.|p.5_.5_.90.E5. (.@/ a9.~}. (.Ya.`6.a9.4_.6h.",
"D5.1p._d.2p.c9.{b R3.`a.=( 6_.;i.)i.2h._d. (.6_.ac.1< j8.@/ 4_.X4 =:.+3.ef..k.4l.S3.+3.1[.@1.)a.j7.M:. k.;< j7.M4.m<.L:. k.L:.M:.;}.}m.;< /d.j7.=:.Mg 6_.4h.#_ 1p.3p.G^ J- nA 4p./8.Na./9.tb.<c.!0.U3 Ka.<i.&d.pZ nb._c.~0.`0.pZ X0.Ka.Pd.X0.X0.nb.'0.~9.~9.n_.`t v9 9| 9p G^ 5p.6p.99.1_.l(.7p.-}.*:.R3.l7.70.b9.~}.b9.70.80.|[.l<.;< ;< ;< @2.@2.@2./d.)a.4_.%:.53.8p.U_.9p.0p.yo.ap.H9.C9.9e.wd.Ln.wd.D9.ba.li.#l.#l.jl.B0.8b.bp.cg.ia.fa.3b.-m.Kf.Kf.%c.eg.Oh.r{.'f.ud.$c.+c.%c.+c.+c.6b.>f.x0.ca.F9.A9.cp.88.f= | .{j.dp.d/ ep.f4.{7.g5.C..26.<7.(7.=8.=8.(7./7.(7.%0.%0.-9.(7.Lf (7.<7.>8.46.e5.j5.h5.c5.fp.gp.o^ hp.ip.mn.E6 yl./m.'n.E6 {l.~l./m.:v Dm.&D 6m :o ^m.*D 6m Ko *k Ko &D ln.*D ao.*D Cm.Dm.zl.:o kn.~l.Bm.jp.kp.), xj lp.mp.v6.#_ 1< 5_.`a.a9.g8.)i.-i.Ya.6h.-i.6h.P;.5h.m7.",
"np.op.pp.qp.rp.sp.T7.,[ tp.up.vp.6_.`a.'i.60.wp.1< 3_.7p.m7.6h.>i._d.90.@3.=:.=:.bm.N4.h8.|[.E5.+3.m<.m<.M:.@2.}m.;}.Kl.2i.L:.L4.x6.;< m<.ej.ej.;< M:.=:.@3.`6.m7.i(.xp.O; /E 6c e- 17.vb./0.tb.!9.X0._c.*d.pb.pZ X0.@g.=d.@g.X0.La.Rl.qb.X0.`0.pb.U3 ~9.]9.)9.yp.Y1 zp.Oj Ap.sa Bp.Cp.99.l(.5h.g8.90.09.~}.*|.y6.|[.~}.|[.w6.;< m<.F5.-:.)a.~}.wp >:.l<.Ya.00.k<.53.Dp.ii Ep.,p.Fp.#l.Gp.ki.ki.&c.&c.&c.C(.t0.ca.v0.Jf.u0.v0.0e.>f.3b.Ph.ae.ae.ae.ae.!p.r{.,f.r{.Oh.Oh.,f.Oc.da.#c.$c.#c.Lf.*c.E9.bg.0k.Hp.Ip.]; Jp.{j.Kp.r, Lp.f4.N^ k5.^7.46.36.&0.(7.'8.)8.)8.;8.-9.$0.$0.=9.;9.(7./7.76.56.f5.|6.e4.+d.Mp.D< m| Np.Bm.%-.~l.!l.!l.^m.Op.Ko.'n.Dm.^m.^m.^m.ln.ln.^m.Ko &D :o ul ul Cm.6m ao.6m Cm.ul zl.:v ^m.ul ~l.mn.Pp.rk.Qp.Nz T> :4.Rp.Sp.v6.GH 1< )i.Tp.Up.Vp.Wp.Xp.Qj.Yp.Zp.`p. q.qp.",
".q.+q.@q.#q.$q.%q.&q.'Y L( (< *q.=q.-q.;q.>q.,q.'q.:j.E,.|_.5_.j8.`a.90.L4.*|.M4.N4.@1.@1.M:.M:.N4.xk.{n.1[.h8. k.;}.Kl.dj.c9.x6.wk.ej.ej.Kl..k.@2. k.=:._d.3h.Bb.)q.!q.J( ,> r, .r TW ~q.se.W0.>. Ma.U3 La.<c.@g.@g Qd.*d.pZ ]9.pZ Rd.6m.pb.Z0.@g X0._c. a.Ma.(c.{q.G^ N[.YB ]q.u~ 4. ^q.R:.ac. (.;i.l<.F5./d./d.j7.M:.;< S3.m<.l<.09.$e./q.*:./q.g8.r<.ff.%:.(q.53._q.o^ :q.Fp.#l.<q.Aj.kl.vd.vd.ia.ia.vd.x0.Jf.[q.Mc.0e.x0.Nc.ud.+c.%c.Kf.Kf.r{.r{.r{.,f.r{.r{.r{.r{.Kf.Kf.4b.Mc.0e.v0.Dj.Qh.}q.|q.1q.j3.60 2q.Lj.3q.x* 4q.c5.h5.k5.56.76.76.36./7.<7._7.(7.'8.)8.)8.=9.$0.*9.)8._7.76.C..g5.{7.+d.5q.~a.*d 6q.mn.mn.Ko.6E Dm.zl.6E ^m.zl.zl.6E /u :o ao.ao.ln.Cm.^m.*k *D Cm.^m.ul *k &D *D Cm.Dm./u ~l.6E t@.Ko.qk.jn.HM 7q.8q.h# ){ n;  b 9q.T..yR 0q.Sa <e 52 kF > .aq.bq.cq.dq.eq.fq.gq.",
"Ry hq.~G iq.jq.4E kq.lq.mq.nq.oq.pq.qq.$[ E; -4 :. wl.rq.sq.tq.)_ 6h.j8.ac.-i.a9.90.L4.)a.j7..k.m<.(l.}m.;}.-:.wp j7.uq.@2.a9.E5.uq.[m.wk.ej.1[.dj.L:.X4 @3.5h.vq.wq.xq.t/ yq.W& *d d/ S/ zq.Aq.Td.-d.Eg.)0.Ia.@g `0.qb.`0.pb.4j.`0.rb.To.Pd.@g.+g Z0.sb._c.X0.Ia.)9.Bq.=' Cq.Wj Dq.u~ _W K5 4h.6_.)a.l<.ph.Eq.@2.Kl.S3.}m.Si.U3.l7.ze.Fq.$:.$:.`2.ze.-}.%:.k<.uR Gq.|& *&.K_.B9.[o.Aj.ha.6b.6b.6b.3b.Ph.6b.0e.Mc.+c.+c.+c.$c.+c.%c.+c.ud.'f.r{.r{.Oh.r{.,f.r{.+c.5b.%c.Kf.ae.3b.ga.ja.Mh.Hq.I9.Iq.Jq.M{.}. FM #! Kq.s' {c.c5.|6.k5.f5.46./7./7.,8.,8.,8./7./7.&0.Lf (7.;8.=9.)8._7.76.d5.i5.]j.j4./p..} 1,.Lq.(m.(m.'n.6E /m./u Cm.t@./m.&D (u Nk pK /u *D Cm.t@.^m.&D ^m.*D Ko :o ^m.Ok :o &D ul /m.~l./m./u ~l.,n.HM Mq.Nq.Oq.hz mh p2 p^ p^ *d Pq.Qq.Rq.Sq.Tq.Uq.Vq.Wq.Xq.Yq.Ry HB lq.lq.jq.",
"Ry Zq.`q. r.Yq..r.+r.@r.#r.kq.lq.Yq.$r.%r.q;.TB U& F|.Ik.G, G^ &r.*r.=r.i[ m7.5_.ac.6_.E5.-i.g8.a9.L4.L4.=:.w6.09.l<.m<.Jl.Pf =:.y6.w6.-:.j7.@2.l<.)a.=:.*:.Ab.Jg.-r.I{ t/ S> If  I )y 6*.#k ;r.>r.Q4./0.-. !0.pZ U3 X0.~0.rb.rb.qe.qb.,r.gh.To.Pd. a.`0._c.)0.U3 ~9.>. 'r.PM )r.u{ lk |h jc !r.~r.{r.]r.,:.p<.^r.Kk.gf.dj.U3.4_.*:.K:.w] }[.=}./r.&:.w] :$ w] 2_.(r._r.:r.<r.#l.ki.vd.3b.ae.ae.ae.Kf.Kf.%c.#c.ud.Kf.Kf.eg.,f.r{.r{.7k.7k.r{.r{.r{.Oh.r{.,f.ud.5b.#c.#c.#c.#c.ea.7b.;j.B9.[r.}r.|r.+] A. Eo.r$ 1r.$k 2r.c5.j5.C..^7.56.46._7.(7._7.<7./7./7./7.&0._7._7.'8.;8._7.kk.e5.i5.c5.j4.3r.4r.5r.(m.%-./m.-[./m./m.zl.zl.Cm.Cm./u /m.ln.6E E6 :v Cm.ln.zl.&D ao.6m *D Cm.^m.Dm.zl.Dm.^m.-[.%-./m.~l.(m.Vn.Pp.nb 6r.72 =' Hg 7r.8r.9r.0r.ar.}u br.Wq.kq.lq.Wq.4E cr.lq.HB Ry HB cr.3M Yq.",
"dr.er.fr.Yq.lq.gr.+r.hr.ir.)  3M 4E $r.jr.kr.U= $k l= lr.mr.nr.or.pr.+` 4, qr.rr.sr.B^  (.-i.90.j8.a9.j8.L:. k.09.a9.;< Qo.+3.+3.-:.w6.ej.S3.bm.@2.l<.h8.`a.tr.ur.vr.$k a' _4 Ff.e_ '+.w5.rB -$ T0.wr./8.4f.)9.{9.+a.<c.U3 qe.rb.Ka.Ja.Pd.pb.Ka.sb.U3 La._c.pZ pb.X0.(i.w1 xr.yI yr.u{ zr.N] 4. Ar.Il.):.7_.2p.5l.Br.;< /d.Ya.P;.9_.+1..1.}[.$:.Cr.w] .1. |.}_.'a.Dr.6& Er./#.Ln.Aj.Bj.Ph.ae.eg.r{.r{.r{.r{.,f.7k.,f.Oh.Oh.r{.r{.r{.r{.r{.r{.r{.r{.Oh.eg.ae.ae.%c.Fr.8k.>f.da.u0.ca.D0.yo.Gr.Hr.z' zk Ir.7@ Jr.j= Kr.c5.%9.e5.Oo 76.76.76.&0.;8.=8.(7.(7.=8.;8.)8.)8.'8.(7.<7.76.e5.i5.c5.Lr.x] 4;.Mr.Ko.!l./m.Dm.^m.^m.ul Ok Dm.^m.:o (u ~l.&D 'n.Ko.Ok &D 6m Cm.6m *D *D Ko ^m.Dm.zl./u Al.-[.6E :p.%-.Nr.Or.$F `q Pr.Qr.Rr.Sr.Tr.Ur.Ur.iq.HB br.jq.kq.@r.@r.#r.3M Vr.)  Wr.Xr.Yr.4E +r.)  Zr.",
"Wr.`r.Zr.#r. s..s.+s.@s.#s.}v hr.4E Ry jr.$s.Ia }5 %s.&s.M  *s.B{ 8; #, =s.-s.W|.DZ ;/ ;s.Xp.-i.ac.-i.j8.X4 j8.a9.;i.M:.xk.|m./d.wk./d.h8.+3.F5.)a.09.`a.>s.,s.'s.li 1^ 9j -@.pX )s.=3 x%.c7 L> u%.4t !s.~s.+g./0.Sd.)0.X0._c.pb.nb.&d.pb.X0.fh.*d.pb.@g.pZ pZ Pd.*d.X0.~9..a.(a.U0 {s.8' ]s..u Dv ^s.,r.70.{r.*|.-:.h8.l7.00.*:.k<..1.uR .1..1..1..|.=}.2_.K4.[_./s.ic m4 (s.zj._s.ga.ae.Kf.r{.r{.,f.'f.ud.'f.,f.'f.r{.,f.r{.r{.r{.r{.r{.Oh.r{.!p.+c.$c.#c.da.Jf.da.ea.zo.Mh.Ln.;m.:s.<s.]E [s.!g.}s.Bj |s.on.1s.f4.g5.e5.46.,8.&0.36.26./7.Lf (7.(7.'8.)8.-9.-9.)8.=8./7.Oo C..l5.c5.2s.J* 3s.e' yl.6E 6E /u ul ^m.:o Cm.^m.^m.Cm.*k zl.:v Ko Ko.Nk &D ao.&D ln.:o Dm.^m.^m.t@./u yl.~l.yl.%-.(m.4s.5s.yB 9D 6s.7s.8s.HB 9s.0s.0s.0s.as.lq.kq..r.@r.bs.0P Vr. s.#s. s.3M cs.Wr.+r.qI .s.)  #r.",
"cs.ds.)  qI es.fs.es.fs.gs.hs.+r.4E is.js.ks.), ,, ls.4= )~ #; B{ W] V) #, q$ 8; ms.ns.os.1{ ps.Zp.qs. (.4_.a9.@/ @3.-:.Pm.;}.;}.L:.+3.Pf Za.h8.U3.;i.m7.cj.rs.#B 7% {3 -@.i=.7c.Ks F9 ss.-@.45 )+.ts.3. us.Aq.Q4./0.Ma.Y0.X0.Z0.Ka.Pd.qe.&d.re.Ja.Ek.rb.pZ `0.qe.`0.~0.!9.<c.Ma.vs.ws.xs.'; ys.zs.b( As.Bs.Cs.U| -i.6h.%:.[[.&:..1.*}..1.uR uR uR .1.uR K4.Y2.Ds.Es.Q& Fs.;m.Jc.ja.dg.ae.Gs.r{.r{.r{.ud.#c.$c.,f.7k.r{.,f.r{.r{.r{.r{.Oh.Kf.ae.0e.&c.w0.0e.0e.&c.Lf.y0.ma.#l.I9.Hs.Is.o= Js.Ks.Ls.T8 FM h= Ms.f4.|6.e5.66.36.<7.=8._7.:7.36./7.&0._7.(7.;8.)8.;8.Lf :7.46.16.{7.f4.$4 ,~ Ns.Os.%-.zl./u %-.:v zl.zl.Dm.^m.^m.^m.:o *D t@./m.&D Nk pK Cm.ln.ln.ln.Cm.^m./u Dm./m.yl.%-.%-.Ps.Qs.42 Rs.Ss.Ts.Us.HB jq.Wq.@r.Yq.Vs.Vs.Vs.+r. s.0P Vr.}v }v #s. s.Ws.Xs.+s.ds.3M 3M ds.Xs.+s.Vr.G~.",
"gr.}v es.I+ Ys.Ys.es.Ys.#s.+s.+r.jq.Aq Zs.`s.A. d.. t.K  M  #; q$ .t.v4 F  #, V) +t.H  u$ @t.rN '+.r) #t.$t.@3.90.j8.90.;i.@1.L:.;< M:.;< =:._d.90.,i.i(.%t.&t.r, .! L%.kh.|l *t.2% ^[.4' pX =t.[* -t.'+.2B ut ~q.|c.ho.~9.~9.La.Z0.pZ pb.Ka.To.Ja.re.rb.Z0.Pd.re.`0.X0.U3 Ia. a.tb.;t.*~ >t.Ms ,t.e3 Xn Dl ^! 't.)i.(q.Ab.99.2_.uR =}.$:.w] Cr..|.w] .1.uR 'a.)t.!t.7e Y..~t.C(.ja.8k.+c.!p.r{.r{.r{.+c.#c.$c.,f.'f.r{.,f.eg.eg.Kf.Kf.Kf.ae. c.&c.v0.ea.ia.cg.y0.8b.{t.]t.^t./t.=0.(t._t.:t.j0 2W <t.=o [t.k4.l5.e5.46.Oo 36.<7.=8.=8.<7.26.76.36.:7.&0.(7.(7.<7.36.A| 16.h5.}t.qU d..|t.'n.'n.:v ^m.t@./m.6E Op.~l.:v zl.(u t@.ln.*D ^m.:v &D 6E E6 zl.ln.&D :o ^m.Dm.-[.%-.6E :p.1t.ST 2t.}2 3t.4t.Wq.kq.kq.4E jq.#r.0P +r.5t.6t.7t..s.#s.}v #s.es.Ws.gs.qI Ys.es.qI +r. s.hs.Vr.Xs.8t.#r.Xq.",
"#s.9t.Ys.Ys.0t.Ys.gs.at.+s.ds.cs.Yq. r.bt.ct.)y dt.et.u$ e& B{ F  v4 X) p$ .t.v4 #, e& M  4@ 2@ ft.gt.ht. 3 it.jt.Kl.kt.j8.Ya.`a.@3.@3.=:.~}.a9.)i.|_.lt.7].c/ oh h9 )N %u [0.n. X}.^[.r6.88.b_.[).,# mt.l} XX ii nt.vb.eh.{9.U3 X0.La.qb.pe.`0.X0.X0.*d.pb.*d.pb.@g Ja.3f.X0._c.(c.-d.ot.Jf pt.qt.oI wh rt.st.Q& X{ AY -8 Q3.K4.tt.I:.%:.J:.%:.J:.&:.3_.]d.j(.ut.vt.oq wt.~t.C(.kl.3b.ud.+c.r{.r{.r{.!p.#c.5b.ae.+c.ae.ae.ae.ae.ae.Ph.3b.xt.&c.u0.da.ka.z0.8b.Gp.G9.yt.zt.At.Bt.Ct.Dt.+g.N+.Et.I) 1. 5o.l4.{7.f5.66.Oo 76.36./7.(7.;8._7.,8.>8.>8.36.:7./7./7.76.66.f5.l5.Lr..} c( Lq.Ko.~l.yl.t@.:o t@./u ~l.Nk Nk 'n.6E zl.*D ks *D :o :v Cm.~l.E6 6E Cm.^m.Dm.zl./m.yl.Ft.Gt.42.>5 Ht.It.Wq.Wq.kq.gr.)  3M .r.Jt.)  .s.3M Kt.Lt.Mt.Ws.gs.}v es.es.Ys.@s.at.9t.9t..s.Nt.3M 8t.8t.#s.#s.cr.Ot.",
"es.es.0t.9t.Ys.Xs.Ot.)   s.Vr.ds.lq.jq.Pt.o .L) }..Qt.e& Rt.v4 3o.4~ o$ X) 4~ 4~ v4 G  g& 4@ 2@ e& 2@ 4@ St.Tt.Jf Ut.Vt.Wt.m7.60.@/ 09.z6.5h.=( Xt.v6.Yt.OV fw JJ qX 5;.a>.E#.o .rB '# O` a#.F#.Zt.1h =B kh.~* v%.Z& hY *0.`t.^9. a.U3 `0.pb._c.U3 4j.pZ _c._c.fh.@g To.3f.~0._c.'0.(i.;0.', Zg >4  u..u.+u.@u.#u.$u.li rr.%u.1_.'a.(q.*:.0c.R3.df.I:.tt.#e.#e.&u.G,.Ed.*u.D0.8b.cg.=u.%c.ud.%c.Kf.Kf.ae.%c.5b.ae.-u.6b.3b.6b.ga.fa.x0.0e.cg.w0.;u.z0.ma.ca.G9.>u.,u.3n.)4 'u.)u.3A !u.~u.{u.I  ]u.:r.l3.f4.j5.56.46.26.36./7.&0.=8.)8.=8.(7._7.&0./7.,8.36.Oo ^7.16.|6.k1 $1 b_.9o.,n.!l./m.zl.^m.&D Dm./m.~l.6E 6E Op.Dm.ln.:o ln.ao.Ko /m.^m./m.Ko.6E Dm.Al./m.^u./u.(u._u.Bk.:u.<u.kq.@r.+r.gr.gr.gr.qI +r.#r.mK [u.Ws.ds.}u.|u.at.es.}v #s.9t.Ys.#s.Xs.9t.0t.9t.Ys.at. s. s.gs.es.#s.+s.gs.",
"gs.0t.9t.Ws..s. s.}v at.Xs.#s.ir.lq.$r.1u.~; 96 2u.3u.B{ #, p$ $! 3o.o$ $! $! $! hr B} 4u.2@ 4@ u$ e& u$ 4@ M  St.5u.6u.7u.8u.kt.6h.m7.1< ,i.4h.J:.9u.8^ 6*.0u.b..~# |).ho au.=B )+.Ks MM 4' /% S2.Y}.qm bu.MS 1M #o _, cu.47.du.+a._n.*d.Ka.Ka.&d.pZ X0.X0._c.`0.Ka.+g pZ ~0.{0.<c.(i.eu.+g.0I fu.38 gu.-' hu.E'.|' iu.ju.Sg kS ku.M/ df.P;.60.(q.}_.2_.9c.k(.lu.7% mu.i^.=c.t0.C(.Pc.6b.$c.8k.3b.3b.3b.3b.xt.ga.0e.ea.ia.cg.ka.7b.ca.*c.A0.ma.Qc.*c.t0.nu.ou.pu.qu.ru.su.tu.km uu.!6.x4 Lj.vu.nh *8.j4.i5.^7.46.76.36.&0._7.Lf =8.)8.;8.;8.;8.=8._7.,8.76.56.16.|6.wu.mL P{.pk.,n.Ko.yl.t@.Dm.:o *D :o /u Op.~l.zl.Cm.ao.*D :o ^m.6m Cm./m./m.zl./m.-[./m.~l.Nr.xu.YL Xn yu.<u.@r.hr.Vr.ir.0P }v #s..s.at.+r..r.}u.zu.Ws.Au.Bu.at.es.8t.hs.es.es.es.Ys..s.8t.+s.#s.Ot.Nt.Ot.8t.@s..s.Mt.8t.9t.",
"0t.9t.Ws.Ws.gr.Ws.9t.es.es.Ws.gr. r.7* Cu.ik >, Du.Eu.G  B} #, 4~ $! $! X) 4~ 4~ W] 7@ u$ I  3= u$ #; t$ 4@ M  H) 5@ Fu.Gu.~; <e Hu.4h.tr.v6.`j.lt.Iu.^; N2 v%.35 pX >, |j [% Ju./% Ku.19.Lu.Eo W}.s .`1.Y}.D4.p&.F6 p; 1q Mu.|c.;. oe.pZ qb.Ka.{0.pZ *d.@g Z0.@g `0.*d.*d.*d.qb.X0.[c.^0.hh.Nu.;( Ou.YB Pu.Y& v[ Qu.Ru.Su.Tu.Uu.z' {m Vu.sr.8] }_.<[.mh.cf..2.Wu.B; Xu.Yu.K8.G9.*c.C(.Zu.ia.ea.vd.vd.vd.vd.ja.ja.&c.u0.8b.Gp.Ln.C0.li.Qh.]t.)p.`u. v..v.bm $t +v.@v.#v.8n #x $v.S/.%v.B} &v.{# *v.g4.h5.d5.&9.76.>8.,8._7.(7.(7.=8.;8.;8.=8./7.36.36.76.56.f5.j5.=v.-' -v.,n.ip.(m.%-.zl.*k Cm.&D ln.ao.^m.Dm.&D ln.ln.ao.ao.:o Dm.ln.Dm.~l.6E /m.!l.!l.!l.;v.3& p2 >v.4t.@r.3M ir.0P 0P 0P qI .s.at.es.es.hs.#r.Bu.Au.gs.|u.,v.gs.Ys.}v es.Ys.es.es.hs.[u.G~.'v.)v.Bu.Bu.'v.Bu.Nt.hs.'v.+s.Ys.",
"es.Ys.}v Nt.@s.Ys.Ys.+s.Ot. s.hr.Yq.!v.~v.&a !* {v.#; H  1@ 8; V) v4 ]v..t.}@ B{ 1@ v$ I  g& 4u.e& 2@ G  t$ 4@ u$ M  N  w$ ^v./v.(v.;/ _v.:v.<v.[v.}v.j1 7L 8) qv y. .! )+.r .MM !* [).V}.o. b_.d& F#.,# 4' m6.h*.|)./* =@..! |v.1v.W0.(c.~0._c.nb.@g Ka.qb.To.@g pZ X0.X0.pZ rb.`0.`0._c.(c.tb.Bq.j/ 2v.2/ 3v.[z 4v.5v.6v.7v.8v.9v.0v.av.k= Ex pp.bv.cv.R6 dv.ev._v NH fv.0k.gv.9e.t0.C(.z0.z0.z0.la.la.la.<q.;j.zj.s0.~t.Fp.hv.'p.iv.jv.kv.lv.o[ #~ mv.nv.ov.pv.qv.Ky rv.km vt.sv.Lj.=,.b= lh.g4.VA e5.76.,8.36.36./7._7.(7.=8.=8.=8.Lf /7.76.46.56.e5.k5.|6.tv.rg uv.Ko.Ko.6E yl./u Dm.Ko ao.ao.ks vv.ao.*D &D *D *D ao.Cm.t@.Dm.Cm.zl.Nk ~l.ip.ip.wv.rv `6 xv.<u.@r.+r.)  Vr. s.}v Ws.#s.Xs.I+ I+ es.0t.@s.[u.Bu.Ot.at.|u.at.es.Ys.es.es.#s.Ys.es.gr.G~.'v.Bu.Bu.Bu.Bu.Bu.Bu.Bu.yv.G~.es.gs.",
"es.gs.0P Xs.at.Xs.Ys.hs.Vr.0P dr.zv.Av.Bv.>;.Cv.Dv.u$ e& 2@ M2.H  B{ #! #! r$ G  1@ G  H  e& M2.e& M2.H  Rt.G  4@ f& 2= N  w$ w$ Ev.Fv.OD I( Gv.#M k= ), (>.XC t5 &- pX Eo 45 Hv.q&.>&.(% J#.8) )D m6.)N Ku.j=.Iv.5;.fk.K9 o&.9w Jv.*0.=. tb.)9.[c.X0.sb.qb.gh.Qd.Ka.*d.X0.nb.rb.@g @g ~0.]9.Eg.-. Kv.dU Lv.Zi Mv.Nv.Ov.Pv.Qv.Rv.Sv.Tv.Uv.Vv.Wv.Xv.<] ]~ Yv.o3 7% Q[ ){ Zv.2b.9b.E9.li.ba.wd.Ln.wd.*c.wd.wd.G9.na.;m.`v. w..w.+w.@w.62.#w.+f $w.%w.&w.*w.=w.p^.-w.qv.;w.qz l! o. #! >w.,..,w.[6.d4.16.76.<7.Lf /7.:7./7._7._7.(7._7./7.36.76.46.e5.k5.i5.{7.un.!p 'w.-[.%-.6E /m.zl.Dm.Cm.*D *D ao.ks ks 6m Cm.ao.&D Cm.6m Dm./m./u Al.zl.%-.mn.)w.!w.~w.{w.]w.lq.hr.3M ds.qI }v .s.#s.Xs.Ys.es.0t.Ys.at.Ys.)  'v.^w.#s.|u.Au.es.Ys.9t.Ys.#s.gs.I+ gs.Nt.#r.+r.Mt.yv.yv.[u.}v 3M }u.zu. s.Ws.gs.",
".s.+s..s.Vr.qI Xq.qI hs.+s.Wr.Wq.br./w.(w.lT _w.:w.4@ 4u.#; 4u.4@ 3= e& #; I  2@ s$ w4 |@ 1@ #; e& #; w4 <w.B} 2W N  f& f& N  4= 5@ N  [w.}w.D: 16 7% I~.S> s# 1q r' 35 >&.|w._% )N b' /% 1w.,# 2w.[* 3w.Nu 'y pX 4w.,# PL 4% 8..ik 5w.vb./0.Sd. a.pZ pe.Rl.(n.qb.Pd.Z0.3f.Ka.qb.=d.pZ <c.<c.Y0./%.:8.>l w<.Kj 6w.Y& fg 7w.8w.9w.0w.aw.bw.Lo.cw.dw.ew.fw.gw.hw.e_ X& y( D< iw.o> jw.kw.lw.mw.nw.ow.pw.qw.rw.@w.sw.tw.uw.L9 4. q^ Q& N~ vw.ww.xw.yw.zw.Aw.Aw.zw.Bw.Cw.8n U8.tg Dw.Lj.{~ Ew.m3.c5.k5.46.,8.Lf =8.(7./7.,8./7./7./7.36.>8.-8.46.56.f5.l5.d4.Fw.)0 Gw.'n.zl.t@./u t@.:o ln.*D ln.6m ao.vv.ao.ln.Cm.&D :o :o &D t@.Op.6E %-.^u.%-.Hw.Iw.!1.Jw.jq.4E cr.0P )  #r.+s.}v Vr. s.gs.es.Ws.}v )  +s.Ys.+r.Kw..s.Lw.Bu.}v Ys.9t.0t.Xs.Ws.9t.Ys.@s.Ot.)  fs.#s.Wr.Zr.@s.Xs..s.)  0P }v qI #s.",
"3M cr.bs.#r.ds.4E Wr.#r.cs.@r.Yq.iq.Mw.96 *- Nw.Ow.5@ 2@ v$ e& L  K  K  M  L  3= #; G  B} 8; 8; B} B{ 8; B} H  J  f& 6@ 6@ $; f& f& w$ 9@ Pw.Qw.So S+.y( 1^ -y u .:4.t5 78.|l ^* }% );.Rw.)N 2% I#.Sw.G4.k. 4N c' Tw.Uw.Vw.6r h*.a>.|% yc %d.ne.:8. a.=d.pe.sb.@g.@g @g re.qb.@g *d.pb.pb.Y0.!0./%.tb.;. Ww.Xw.'; Yw.Zw.4@ `w. x..x.4v.+x.@x.0w.cw.o).#x.aw.$x.%x.&x.*x.9%.=x.Kz -x.Z1.v%.2J L$ {; Bn )y |l N2.;x.>x.,x.'x.s. e3 R} )x.!x.~x.pv.{x.]x.^x.]x.Aw.=w./x.(x.`a _x.7@ vu.:x.*8.j4.g5.A| :7._7.=8.'8.;8.=8.&0.:7.:7.36.36.36.76.46.^7.k5.i5.5m./. <x.pk.Ko.-[.:o ul &D *D ln.&D &D *D ks ao.ln.Ko Cm.Cm.t@.zl.Dm.Dm.6E Ko.(m.{d [x.j/ }x.|x.jq..r.+r.1x.}v }v Nt.qI fs.+s.Xs.@s.Vr.8t.@s.at.es.#s.ds.at.Mt.Bu.,v.9t.0t.0t.0t.Xs.@s.Xs.gs..s.#s.#s.qI qI cs.Jt.0P 1x. s.lq.4E )  ir. s.",
"5t.lq.@r.Jt.lq. r.jq.4E kq.4E is.2x.3x.Cb }x 4x.4= K  2@ G  t$ 4@ 4@ 2W 4@ 4@ 3= 7@ s$ G  B} Rt.B} Rt.v$ 4@ M  K  5@ K  5@ 5@ }' n{ 5@ |' 5x.k' 6x.{1 u@ K( +s P,.xj A; >P |j ]y N%.]s p6./* l. h<.69.(Z b_.w%.)N (% 7x.8x.9x.0x.p6.Ku.`-.ax.Td.Fg.5[ {0.3f.X0.La.`0.Z0.Qd.Z0.Z0.Z0.Z0.fh.)0.X0.,0.!0.=. bx.;' cx.Wj dx.ex.fx. x.Rv.gx.hx.8v.5v.ix.H@.o!.ix.H@.H@.aw.o!.ix.jx.kx.lx.mx.kA eb nx.ox.px.px.qx.rx.sx.7v.8v.1m tx.ux.N9 vx.qz wx.xx.]x.yx.yx.Aw.p^.zx.Ky Ax.3d.J  Bx.@u Cx..d.i5.56./7.=8.)8.)8.)8.-9.-9.)8.=8.Lf _7.<7.:7.76.^7.g5.{7.-n.T! Dx.E6 ok.(m.Al.&D 6m ao.ao.ao.6m ln.ao.ao.ln.ln.:o :o &D t@./m.~l.-[.~l.ip.Ex..E Fx.Gx.cr.kq.+r.gr.ir..s.gs.+s.ds.+s.I+ gs.es.Ot.+r.hs.Xs.9t.}v 8t.#s.Kw.Bu.'v.gs.9t.I+ es.es.Xs. s.qI +s. s.Vr.Vr.)  )  .r.Hx.+r.Wq.4E HB Hx.cr.@r.lq.",
"Ry 4E Wq.HB Yq.iq.Ry HB Wq. r..x Ix.Jx.L) E=.Kx.$; G) 4u.1@ s$ 2@ u$ 2W 4@ 4@ 3= I  M2.e& r$ B{ 1@ e& J  3= 2@ 4@ M  M  M  M  5@ 6@ 6@ N  N  G= N  8@ Lx.H( +e ^; a~ zF Z'.Eo P` ';.[x i` <% l. Mx.J#.h*.Nx.(5 Ox.+e.Px.Qx.Rx.Sx.Tx.s .2w.8-.Ux.1v.Sd.[c.!9.)0.~0.pZ Ka.rb.pZ @g Pd.*d.*d.@g _c.Ia.Ia.[c.=. Kv.]c Vx.Wx.u%.ln.9w.Ov.Xx.ix.Tv.#x.cw.Yx.Zx.0w.Lo.H@.Lo.cw.`x.+x.bw.Lo. y.Ru. y.Tv.kx.Lo.bw.aw.0w.Ru..y.Xx.wk +y.@y.t% #y.$y.`A {x.yx.%y.yx.zw.&y.*y.=y.-y.3X `c.'r Q@ l4.{7.e5./7.)8.*9.$0.%0.=9.$0.$0.ke.$0.)8.Lf /7.76.d5.i5.d4.uh P; ;y.~l.'n.Ko.~l.Cm.ao.ao.ks ao.ks *D *D ks *D Ko ln.&D Cm.:o ^m./u 6E (m.>y.6e.&~ ,y.4E lq.gr.+r.cr.#r.ds.)  fs.hs.)v.+r.at.0t.I+ fs.Xs.gr.Mt.+s.#s.[u.'v.yv.'y.)  es.es.Xs.Ws.#s.}v 0P kq.Xq.kq.kq.kq.kq.kq..r.lq.jq. r.Ry Yq.Wq.Wq.4E 4E ",
"9I v~ )y.g}.!y.6I ~y.{y.]y.^y./y.^c.W@ _4 z' (y.n{ H) e& H  H  #; t$ 2@ u$ g& I  u$ I  g& e& e& 4@ L  u$ g& 4@ M  }' 2= w$ N  w$ H> }' M  K  #; 8; Lv.B{ _y.V}._=.If ~* 8-.4% /* }0.R2.$` 3Y <% r .:y.pX q&.Vw.Y1.<y.[y.!i }y.q6.|y..,.1y.a>.Gh 2y.Fk.Od.=. .a.X0.*d.rb.+g ~0.X0.Z0.pb.qb.Z0.@g Z0.pZ 3y.(c.=. ii bf./6 4y.]~ B{ |i 5y.6y.wC 7y.gn.bw.8v.8y.H@.9y.p).kx.bw.#x.9y.bw.Lo.Lo.Tv.x$.wC Lo.wC 7y.7y.x$.H@.0y.Tv.0y.ay.nq by.BR /x.{x.cy.%y.yx.p^.5n ,|.M~ b#.dy.D; fZ ui.f4.k5.26.)8.$0.S0.S0.Fa.Fa.Ea.Da.Da.Fa.;9.&0.76.e5.ey.]j.16.J( fy.-[.Al.Dm.t@.^m.ao.ao.ks vv.ks ks ks ks ao.ln.^m.rp :v yl.zl.t@.-[.~l.gy.{T ]3 hy.Yq.Wr.cr.+s.+s.0P hs.hs.Ot.}v Xs.Au.)v.0P 9t.Ys.hs.G~.Bu.'v.hs.yv.yv.}u.Lt.Ot.Ws.Ws.#s.}v +s. s.hr.cr.Wq.br.iy.Ry  r.jy.ky.ly.my.ny.oy.py.qy.D}.K(.// p> ",
"ry.sy.ty.MR uy.vy.wy.q&.+s H( Z& J* ){ f= y( [i xy.H) 2@ #; H  H  e& u$ 2@ e& e& 4u.v$ H  r$ s$ M2.I  u$ 6@ f& 5@ 6@ w$ yy.8@ N  zy.M  f& K  G  cV Ay.<@ By.Cy.Dy.|n 1}.U> s/ y. =B D#.^Z m. Ey.o6.Mi.z>.Fy.Gy./% Hy.B>.Iy.lg.Jy.t. Ky.b_.y. p; {3 Ly.1v.Q4.:8._c.Ka.Qd.+g *d.pZ Z0.pb.Z0.pb.pb.re.`0.]9.Ia.tb.My.MK Ny.Wj Oy.j0 7w.6v.Py.aw.H@.6y.aw.o).Qy.q).Ry.x$.Sy.}:.Yx.Ty.bw.Qu._^.Zx.7y.bw.#x.#x.p).bw.kx.Lo.Uy.bw.Vy.Wy.-G Xy.Yy.zx.Zy.cy.%y.]x.zx.#x `y.x* e3 n; n* b4.}6.e4.e5.:7.)8.$0.$0.Fa.Fa.Da.Ca.Ca.Ca.Fa.;9.:7.56.j5.{7. z.V= .z./m.zl.kn.[e Ko ln.*D ao.ao.ao.ao.ao.:o ul Cm.&D Dm.'n.'n.6E 6E 6E !l.+z.52 @z.#z.kq.kq.lq.3M 0P #s.gs.Ys.gs.@s.Ot.es.Nt.G~. s.I+ I+ 0P Nt.,v.+s.zu.}u.Au.[u.)  }v 1x.bs.ir.hr.@r.kq.Wq.Yq.]:.$z.%z.&z.*z.=z.Q0 =' -z.S2.;z.>z.,z.'z.)z.!z.~z.",
"{z.]z.}i yT M-.^z.{z./z.(z._z.:z.<z.[z.}z.3w.t% X& |z.1z.2z.#; e& u$ M  4@ u$ 4u.t$ s$ v$ G  B{ H  4u.K  8@ H> N  w$ 8@ 9@ 8@ K  L  K  M  4@ t$ p$ fg C{ 3z.2@ $, 4z.u@ @u l= 5i 1. l~ 88.|. L$.V(.XC l. Z@.3% v. 5z.6z.V] 7z.8z.F(.+e.x. g*.0n ]E ;L 9z.57.;. 3y.`0.pb.Z0.@g `0.pb.Qd.pe.~0.)0.Ka.qb.pZ La.Ki.;. 0z.62 az.bz.cz.x/.ix.aw.H@.#x.Tv.0y.+x.ix.9w.Tv.ix.dz.fx.gx.Yx.Yx._^.Py.+x.Ty.wC Uy.Yx.ez.o!.>2 #x.bw.7y.h_ fz.gz.$~ hz.p^.]x.iz.yx.jz.Ky kz.w& bi 9j L$ 6f.Jd.g4.|6.56.,8.;8.=9.*9.$0.Fa.Ea.Ea.Fa.$0.)8._7.&9.16.l5.}t.S/ {5 ^u.-[.Dm.^m.:o Cm.Ko ln.ln.ln.ln.*D ln.:v ~l.'n.:v ul 'n.'n.(m.Bm.Bm.lz.Rc mz.lq.@r.cr.bs.gr.gr.gr.)  0P @s.Ys.fs. s.at. s.)  Xs.9t.gs.Xs.<u [u.[u.+r.+s..s.+s. s.hr.kq.lq.lq.Wq.xr //.nz.sB oz.V[ 1B X& pz.qz.rz.sz.tz.uz.vz.yT wz.vz.vz.^z.xz.",
"yT yT wz.yz./z.vz.uz.zz.Az.{z.zz.zz.xz./z.Bz.Cz.Dz.Ez.,, ]c s@ Fz.Gz.Hz.n{ )~ u$ t$ #; #; H  |@ #; 4@ H> 8@ w$ w$ 9@ !~ O  N  4@ H  4u.r$ 8; B{ #, *! }@ 8; p$ p$ B{ Iz.rB I~.f;.%- [7 G$.[0.nZ ## qX 5Y Y}.Jz.Kz.Lz.v. z$.Mz.8x.1;.Nz.%}.Oz.9n.ik n; l] Pz.4f./%.!0.]9.U3 Qz.*d.qb.Ek.pb.`0.pZ @g re.X0._c..a./0.ho.Rz.Tm UI zZ E; vN #x.Tv.Lo.bw.E'.Sz.aw.Tz.bw.Uz.fx.dz.Vz.ix.cw.q).Ov.>m kx.bw.ix.Wz.Xz.Yz.Lo.#x.kx.7y.bw.Zz.`z./2  A.Ot.]x..A.Aw.`A ,|.]; |n a~ ic 5).05.m3.d4.16.46.36._7.=8.)8.*9.$0.Fa.Fa.%0.;8.<7.26.56.g5.d4.06 +A.@A.yl.Al.^m.Cm.Cm.&D ao.Ko Ko &D &D zl.~l.6E U).E6 ip./m.'n.(m.Bm.#A.$A.p= %A.Wq.#r.bs.Vr..s.+s.hs.@s..s..s.+s.@s.I+ @s.+s.@s.Ot.Ys.hs.qI +r.&A.*A.gr.}v qI bs.hr.lq.=A.br.-A.;A.>A.Df.k> ,A.'A.9j O& j2 N] )A.!A.~A./z.uz.{A.]A.}i ^A./A.^z.uz.]z.",
"g| ]A.(A._A./A.^z.]A./z.{z.:A.zz.zz.zz.]z.vz.uz.uz.]A.<A.[A.}A.|A.J- 5. 1A.2A.G) 3A.#; s$ e& 4u.u$ }' w$ 8@ 4A.9@ ;m O  4A.M  e& #! <w.$! B  }@ #, p$ X) o$ C{ 6; X) #, 5A.$# W& ~# /* 6A.Fy.9-..! 3w.q&.G4.7A.2w.8A.9A.K3.0A.n. <y.aA.bA.Z'.$` D#..! U& cA.vb.-. Ma.3y.[c.X0.Ka.sb.Ka.Ka.qe.qe.pb.pe.qe.`0.Ia.(i.-. '9.dA.X;.`i eA.fA.o!.H@.Uy.Lo.0y.#x.Vz.bw.>m 6v.gA.@x.7y.#x.ix.ez.Qy.hA.E'.`x.+x.Uy.kx.Lo.Uy.9y.7y.7y.7y.iA.jA.N& kA.%_.lA.Aw.p^.5n cO mA.r: d..d..c'.au 86.ey.56.36.<7.&0.&0.(7.-9.%0.%0.=9.=8./7.76.66.`h.{7.nA.v%.oA.yl.zl.kn.Cm.ln.&D Cm.Cm.Ko *D ln.~l.E6 ip.ip.ok.pA.pA.yl.!l.'n.qA.K7 rA.+Z Wq.cr.+r.sA.}v .s.es.es.es.Ys.es.@s.0P Xs.es. s.gs.[u.Ws.0P )  |u.tA..r.+s.0P gr.kq.4E  r.uA.vA.2^ H( wA.xA.yA.zA.AA.BA.CA.X& DA.EA.FA.:A.M-.vz.GA.}i (A.HA.}i vz.^z.vz.",
"^A.g| _A.(A.u} ]A.]A.^z.^z.M-.M-.{z.zz.vz.wz.yz.yz.yz.vz.vz.vz.wz.IA.JA.KA.yI LA.MA.NA.2@ 4@ M  K  2= 4A.8@ yy.OA.O  f& 2W 1@ <w.q$ 8; E  6; q$ *! X) X) $! PA.QA.6; X) #, RA.SA.e_ 6*.qr Eo R0 u%.TA.+` (p.UA.VA.WA.p6.*t.XA.YA.ZA.B5.%@.p6.q .}M `A.,d.JJ  B.1v./0.(c.:c.qe.<i.pb.`0._c.@g pe.rb.`0.La.nb.pZ Y0._8.Ql..B.b( +B.cL <] @B.Sy.0y.Uy.0y.Tv.Lo.9y.H@.o).#B.o).o).Ru.o).Zx.Sy.hA.o).Yx.$B.bw.+x.Q} o!.q).Tv.kx.bw.cw.%B./E &B.*B.=B.bv As -B.6( ;B.i| Q& >B.c4.l4.e4.f5.76.<7.(7.=8.Lf <7.(7.)8.;8._7.76.66.56.16.{7.,B..u )&.~l.-[.Dm.Cm.ln.ln.&D Cm.:o t@.6E pK 'B.'B.ip.~6 {l.~6 qk.6E !l.)B.!B.~B.#z.Wq.kq.gr. s.Xs.at.hs.gs.fs.Ys.9t.0t.Xs.8t.#s.I+  s.gs.[u.+r.#s.}v {B.]B.Xq.ir.hr.lq.^B./B.(B.K{ #k <] -4 _B.:B.U( Z: T: <B.[B.1q 16 Uj.~A.M-.]A.(A.}B.|B.(A.(A.vz.^z.uz.^A.",
"|B.}i yz.yz.HA.g| vz.vz.]z.zz.xz./z.{A.wz.(A.1B.2B.wz.yT ^z.]z./A.3B._A.4B.5B.6B.P& N- 7B.8B.5@ f& w$ 8@ 8@ 8@ !~ 8@ u$ H  B} w4 M2.4u.q$ #, B{ ]v.hr 9B.0B.Ay.Nl fg C{ hr V) aB.bB.sl 0u.sl ~* 5% ^Z Eo x{ t. Q2.XA.cB.Rx.dB.v. r0 [H eB.%# fB.|).|j [a ,T J( gB.1v.Fg.^9.nb.*d.pZ ~0.hB._c._c.@g *d.*d.@g Z0.3f.[c.Ki.>. ~` iB.UI jB.On H@.o).0y.Yx.9y.Ty.kB.9y.7y.bw.bw._^.lB.E'.Tv.H@.ix.o).Ty.Q} o).Xz.Tv..y.Ov.Xx.Tv.Lo.Lo.aE mB.e{ nB.`A `A ~x.oB.pB.qB.TB rB.~7.m3.c5.f5.76./7.=8.-9.-9.;8.,8.26.26.>8.76.56.d5.k5.@d.j5.dA.'w.%-.%-.zl.:o ln.Cm.:v Ko.ip.E6 'B.'B.'B.'B.Ko.6E U).(m.Ko.ok.!l.sB.kS tB.#z.Wq.cr.Vr.0P .s.Ys.at.hs.#s.at.gs.I+ 0t.Xs.8t.@s.Ys. s.Ws.[u.*A.+s.)  {o Vs.as.4E uB.vB.xm.wB.xB.yB.c^ y( zB.AB.r3 Y_ Z: Z: BB.CB.DB.h# v|.EB.zz.^z.^A._A.FB.2B.]A.zz.^z.g| u} ",
"HA.wz.}i f' g| ]A.xz.{A.f' {A.GA.}i (A.FB.yP xP 2B.yz.wz.vz.{A.{A.yz.p' 2B._A._A.GB.HB.3;.yI ~p IB.9@ 5x.9@ h& JB.w$ 4@ g& L  e& s$ s$ #! V) p$ E  0B.D  y[ <t.KB.<t.=^ 6~ o$ q$ %, LB.:. MB.wA rB %# ]s Fg Tw.NB.J#.OB.K3.PB.QB.10.RB.Ks R2.SB.`..n$ 3c.n$ m0 z' TB.+g.>. Y0.3f.re.@g @g Ka.`0.X0.sb.pb.@g @g _c.=d.]0.-. %} j_ UB.29 VB.WB.7v.E'.Vy.bw.Ty.XB.YB.o!._^.#B.7w.ZB.Qu.cw.Tv.cw.Tv.iE Py. x.0w.+x.Ov..y.Ru.Zx.kx.Lo.`B. C.;& .C.Qy qz j! 4Y 7; PE )r ie.QW j4.j5.76._7.=8.;9.%0.%0.)8.36.-8.76.36.36.46.k5.{7.k4.7+.+C.(m./m./m.ul :o t@.6E ip.E6 'B.'B.'B.'B.E6 Ko.6E Op.'n.Ko.(m.%-.@C.i6.@:.kq.kq.ds. s..s.Ws.es.es.#s.0P @s.gs.9t.I+ Xs.@s.8t.@s.Xs.Ot.#s.cs.`r.hr.Zr.#C.$C.(].%C.]7 &C.*C.=C.-C.ve e3 ){ Sb.P8 q#.;C.W< M} Y_ Iw >C.w} )* ,C.]z.GA.(A.}B.p' (A.M-.yT (A.yz.|B.",
"wz.yz.}i ^z.}i vz./z.vz.]A.]A.HA.|B.u} _A.yP FB._A.|B.(A.vz.yz.(A._A.u} yT HA.|B.vz.zz.'C.)C.n$ >D !C.~C.OA.OA.;m w$ 5@ 6@ f& e& B} #, cV {C.]C.QA.^C./C.KB./C.KB.(C.Nl =^ $! B{ ft.)~ _C.TB ~# I* :C.<C.af.WA.%@.:% [C.Dd }C.|C.7-.[y.W}.[0.Fy.1C.qv 3% 2C.6=.ik 3C.27./9.)9.!0.nb.*d.=d.re.qb.@o.Qz.*d.*d.X0.U3 )0.[c.)9.;. 4C.nh .^ 5C.N] {C.#x.#x.9y.7y.mS 9y.lB.6C.7C. x.8C.9C.p).Yx.bw.Lo.Vz.Sy.q).wC o)..x.hA.#B.Xz.Vz.#x.0C.aC.,> bC.Cq cC..u dC.eC.k( fC.QW g4.h5.56.:7.=8.)8.-9.%0.%0.%0.Lf /7.&0./7.46.g5.]j.i4.Z8 gC.hC.(m./u kn.t@./m.Op.Ko.E6 ip.U).'n.Ko. >./m.t@./m.6E ~l.yl.6E iC.jC.kC.iq.Yq.gr.0P #s.Xs.Xs.Ys.#s.0P hs.Xs.9t.gs.@s.hs.hs. s.at.@s. s.3M @r.jq.Wq.zv.lC.mC.}T nC.oC.pC.<B.qC.dG XY @u h>.rC.qC.m2 u| M}  : U: C4 sC.$k oq tC.]A.}i yz.1B.1B.u} /z.yz.u} (A.}B.",
"GA.wz.yz.{A.]A.f' zz.]z.vz.]A.HA.}B.^A.|B.p' _A.(A.(A.(A.wz.FB.(A.GA.vz.M-.M-.M-.M-.xz.M-./z.uC.vC.wC.$~ xC.yC.JB.[; f& 8@ w$ v$ *! 9B.zC.`e AC.BC.<t.(C.Nl AC.Nl BC.QA.E  *! 3A.4@ G) *, CC.z' 7=.]~.{% >u DC.E:.EC.^[.9-.Kz.}C.D4.z5.Uz S2.W}.FC.GC.Y|.jh.19.j1 3} ;t.37.ho.:8.U3 La.pZ pZ pb.*d.@g @g *d.*d.pZ `0.,0.^9.:8.ne.Tl gO /6 HC.PE IC.Vz.Uy.Lo.9y.JC.KC.0w.6y.@x.lB..x.Zx.0y.Vz.Tv.Wz.9y.Ty.Vz.o).LC.Yz.Sy.Py.E'.Tv.>X MC.|n NC.OC.+].$n.g' PC.A4 }6.j4.]j.k5.-8./7.Lf )8.%0.S0.Fa.$0.;9.)8.(7.76.i5.j4.m3.QC.1^ RC.,n.~l.6E ~l.Op.Ko.~6 'B.~6 'n.et /m.~l.:o ln.&D Dm.Dm./m.'n.SC.TC.UC.Wq.HB dr..r.0P es.#s.+s.@s.Ys..s.gs.9t.at.}v gs.Ys.es.Xs.#s.+r.Wr..r.lq. r.VC.WC.XC.YC.ZC.`C.m2  D.:B.AB.R[.P& W& u@ .D.+D.U( t| `[ Y: U: C4 @D.w<.#D.$D.vz.wz.(A.p' 2B./A.zz.^A.(A.|B.(A.",
"(A.(A.(A.wz._A.]A.{A.M-.f' u} (A._A.HA.3B.|B.|B.(A.(A.yz.|B.FB.wz.]z.}i wz.u} }i {A.xz.M-.M-.{z.Nj %D.&D.oo.*D.=D.8@ @; 5x.f& w4 6; zC.QA.fg AC.<t.-D.BC.AC.AC.D  C{ p$ }@ |@ 4u.u$ 2@ 2@ e& ;D.Xk.>D.p&./[./% 0..WJ ,D.zm.Z1.'D.,# @` b8.r;.)D.69.;# KR @# #@.#@.[a o^ !D.~D.:8.)0.!9.@g.*d.@g Ek.Ja.Ka.Z0.Ji.Ka.nb.~0.<c.+a./9.{D.6q ]D.^D.ys ^C.aw.bw.bw.jx.ez.Lo.7y.7y.Uy.p).Sy.Qu.6y.+x.ix.Zx.+x.p).Tv.ix.hA.}:.Rv.9w.Tz. y.0y./D.U& (D._D.{; }7 :D.Q& <D.j4.c5.h5.f5.>8.&0._7.)8.$0.Ba.Fa.$0.=9.=8.&9.ey.k4.n3.[D.&+ Cb JK Wn.%-./u Op.6E Nk 'n.Ko.U).~l.zl.^m.:o Dm.*k ^m.zl./m.6E }D.ci |D.Yq.@r.Jt.Yr.#r.hs.Ys.}v +r.}v Ys.9t.Ys.gs.es.Ys.gs.#s.qI Vr.)  Wq.dr.jq.7P 1D.@ .JF 2D.3D.4D.m2 4D.Y_ :B.5D.vh |n t/ (, 6D.Y_ t|  [ X< `[ U: E5 wx Df .r 7D.{A.vz.^A.8D.u} /z.uz.HA.HA.|B.(A.",
"yz.u} _A.3B.B[ FB.]A./z.]A.^A.u} ^A.yz.3B.wz.g| ^A.yz._A._A.(A.]A./A.(A.GA._A.]A.^z./z.uz.{A./z.xz.:A.M-.9D.h= /! 5K W) |; G) Rt.0D.PA.$! $! QA.D  <@ 6~ 6~ [@ B  3o.}@ B} v$ t$ v$ H  #; #; 4@ aD.bD.c= ~[.cD.~* 0..'# p6.s .jh.5Z <t 88.dD.S2.T2.N%.S2.45 $` A  v%.#o eD.fD.ho.^9.(c.*d.pZ pb.@g.*d.`0.Qz.@g Ka.nb.~0.<c.+a.;. Fg.~a.gD.2/ hD.t%. y.cw.cw.Sy.Sz.E'.+x.Tv.iD.Uy.aw.@x.Sv.aw.Ru.Pv.8v..x.kx.wC E'.Pv.9w.Pv.9C.0y.o).+v Sf.E< Fc jD.|; kD.%- m3.f4.{7.k5.66.36._7.=8.=9.$0.$0.%0.-9._7.Oo |6.b].ui.c'.lD.f1 mD.Cl.)n.{l.-[.ul Dm.zl.:v ~l./u ul Cm./u 'n.6E zl.Dm./u ~l.nD.oD.pD.HB Yq.Vr.Wq.Wr.Wr.+s.Ys..s.)  es.9t.at.@s.gs.@s.@s.}v  s.gr.Xq..r.lq.iq.lC.qD.4i rD.sD.tD.<B.<B.+D.T: T: :B.uD.Dv vD.wD.xD.m2 M} X<  [ ~1. [ yD.zD.=e.AD.j( BD.CD.xz.yT FB.]A.FK ^z.yz.|B.yz.HA.",
"p' DD.1B.p' p' 3B.(A.}i yT ]A.2B.(A.FB.(A.yz.wz.GA.u} }B.}B.wz.uz.wz.|B.yz.u} /A.wz.yT wz.wz.{A.zz.M-.^z.zz./Y H( @] J* E! u$ W] E  X) }@ hr B  E  9B.6~ $! F  8; 8; <w.F  Rt.|@ q$ 8; G  #; 4@ n{ tG ;n K-.l=.D#.5;.ss.h*.G4.7-.O` %@.1{.D4.0..1h V2.G4.ED.)D.a#.Z@.=@.;) FD.27.;. ^0.*d.Z0.pe.*d.&d.X0.Z0.qe.Z0.Ek.Ka.X0.tb.Ki.^9.A6.GD.HD.ID.t/ (C.H@.0w.`x.4v.JD.KD.lB.aw.Lo.#x.o).+x.0y.LC.dz.KC.LD.o!.bw. y.Sv.Sz.+x.LD.Sy.MD.ND.<] 0d OD.}7 aw.,, PD.l4.c5.ey.66./7._7.;8.*9.%0.%0.$0.*9.=8.36.f5.]j.QW _U QD.v+.ic RD.SD.Cl.TD.(m.zl.:o Ko ^m.^m.^m.et 'n.Ko.ip.(m.6E /m.~l.UD.tb VD.jq.Yq.@r.0P cr.Xq.cs.[u.I+ fs.}v Ys.es.gs.@s.Vr.Nt.Vr.Vr.cr.Wq.jq.HB WD.XD.(. y& D4.EE r| 6. YD.ZD.`D.m2 4D. E.uu D: .E.+E.C4 U: Y: @E.#E.Z< X< u| $E.%E.&E._v *E.=E.zz.uz.(A.]A.vz.vz.g| g| }i yz.",
"|B.}B.^A._A.(A.}i GA.^z.yT vz.3B.}B.2B.u} _A.wz.]A.|B.FB.3B.g| uz.]z.^z.^A.]A.(A.yP yP yP yP p' wz.(A.]j Az.-E.V= p^ h# Hj xL (C.p$ 8; }@ V) V) $! E  9B.3o.q$ B{ Rt.#, 3o.hr F  8; Rt.8; B} 2@ K  ;E.>E.};.Pi..` _* %- KA.i<.i` q&.0..,E.'E.;# &# '# =# ^[.p6.{5 o6.)E.|=.t@ :n.W0.hh.La.pZ Z0.qb.rb.pZ Ka.sb.~0.qe.rb.@g  a.{9.Eg.-d.<$.!E.u{ ~E.7c kE {E.In ]E.^E.5e /E.hA.#x.Lo.Lo.Lo.cw.Qu.6v.Xx.H@.H@. y.sx.lB.E'.(E._E.:E.<E.k= e3 -$ [E.[; }E.|E.l3.j4.{7.`h.36.'8.=9.%0.%0.%0.$0.$0.-9._7.Oo g5.h4.95.1E.p&.kw |,.c= 2E.3E.Em.4E.6E /m.^m.^m.Op.^u /m./m.~l.U).,n.ip.(m.5E.6E.7E.8E.jq.cs.qI +s.+r.Mt.ds.Mt.9t.gs.}v Ys.es.Ys.hs.[u.#r.kq..r.Hx. r.iq..p.9E.[| 0E.aE.ZD.(* ht %' `t bE.cE.`D.gI dE.zo D: eE.`D.T: t| X< t>.Y<  [ Y: Z: Y_ r3 fE.Sg 3w.gE./z.]z.HA.uz.^z.]A.wz.yT ]A.3B.",
"^A.yz.vz.yT ]A.uz.^z.^z.^z.vz.(A.wz.yz.(A.8D.yz.GA.3B.FB.FB.|B.f' FK yz.{A.FK wz.p' |B.DD.DD.8D.FB.wz.xz.hE.iE.Y& Dx jE.kE.w} J5 ub #; W] Rt.*! X) 4~ 4~ v4 V) v4 cV 9B.C{ cV p$ 8; 8; q$ #! H  M  i; ;E.lE.7L n$ n$ -@.);.B,.s2.mE.N@.98.[y.l. X}.+` c' X}.nE.zm.V}.z>.m6.|j S/.se.|c.(i.]0.~9.Ia.`0.@g rb.X0.pZ &d.Pd.@g X0.X0.tb./%.oE.G, pE.qE.rr ji J* d3 rE.ig ie ya *v sE.ih tE.uE.vE.wE.xE.yE.zE.AE.BE.CE.DE.EE.p> wh : .FE.GE.HE.7L IE.m_ bi JE.k4.{7.%9.C../7.-9.%0.%0.%0.=9.=9.;9._7.76.f5.Oj.^h.)7.KE.m; q&.-@.Ku.b..27 LE.Jo.{l.(m.Ko.~6 'n./u ^m.^m.zl.%-.ip.Pp.qk.ME.NE.4t.4E Wq.ir.Ws.#s.3M Mt.#r.)  es.+s.@s.I+ fs.Ys.#s.Vr.Xq.Jt.Yq.Yq.HB OE.PE.37 QE.`D.+D.qC.RE.SE.E; u_ TE.UE.VE.WE.Jf H_ XE.YE.zD.ZE.M} Y: z,. [ z,.@E.X< U: +D.`E.s/ d.. F.~A.]z.wz./z.]z.}i ]A.wz.wz.2B.",
"wz.yz.uz.^z.f' /z.M-./z./z.^z.vz.}B.HA.|B.FB.HA.HA.(A.u} u} _A.HA.yz.FB.(A.HA.^A.|B.u} yz.|B.u} vz./z..F.+F.Xk.li @F.#F.K: $F.%F.(S G( |@ Rt.4~ B  v4 p$ p$ X) ]C.=^ fg 9B.$! p$ }@ *! v4 #! |@ 2@ K  4= &F.*F.S+.v%.=@.Q@.]y <% ,# )N =F.i<.Rx.Nx.[).R2.O@.-F.r;.|j c8.m. +` ';.(r vb.-d.,0.[c.pZ qe.qe.&d.Ka._c.@g pZ qb.pb.!9.>. /%.;F.P$.>F.u{ ,F.,> h'.'F.)F.!F.~F.{F.]F.^F./F.(F.d7 WN |N _F.;[ :F.<F.[F.}F.|F.1F.2F.3F.4F.5F.6F.7F.8F.|; 9F.0F.j4.VA f5.46.26.Lf =9.%0.%0.$0.%0.;8.,8.^7.i5.b].o3.aF.bF.<% ;, V}.*<.3Y kw *z :Q cF.dF.jn.qk.Bm./m.^m.:o :o kn.yl.(m.{l.eF.fF.gF.HB Wr.)  +s. s.8t.Vr.3M Nt.gs.Ot.Mt..s.I+ Xs.#s.#s.)  lq.jq.jq.[W hF.$1 iF.jF.kF.F5 :B.+D.4D.lF.mF.sa nF.oF.,l /[ /E pF.qF.C4 Y_ rF.sF.B=.t>.Y< t>.t>.X< Z: T: CB.tF.S& Rf.(~ ^z.yT /z.^z.GA.vz.g| wz.}B.",
"wz.{A.uz.]z.zz.xz.xz.zz.:A./z.uz.]A.uz.HA.B[ p' (A.}i ]A.^A.(A.B[ B[ yP 8D.u} (A.(A.{A.]A.{A.]A.^z./z.uF.vF.5& wF.a!.xF.yF.zF.,] AF.ig BF.Nl B  6; o$ 4~ v4 6; D  AC.D  PA.6; $! p$ 4~ v4 W] <w.#; 4@ K  4= CF.,> o= _c )y Pi._Z q&.`1.x5.DF.EF.h<.>&.+e..,.F9 ]y Nx.J#.p6.FF.Nu Cb GF.47.Sd..a.Z0.`0.sb._c.Pd.`0.@g Ka.Ka.Z0.]0.!0.+a.=. 4f.{3 HF.8' f1 IF.JF.KF.gr.0P Ws.fs.^5.4M LF.MF..s.qI cr.NF..r.3M 4M 0P 0P .s.F~.OF.PF.$r.QF.V& RF. , E} SF.l5.e5.26./7.)8.%0.$0.%0.$0.S0.S0.(7.46.g5.{7.TF.05.UF.Z'.s .>&.x5.J3.Hv.g*.l} MM 96 VF.WF.qk.Os.6E Op.~l.yl./m./m.6E XF.9y YF.jq.Yq.cs.}v  s.hs.Xs.at.}v hs.fs.+r.)  at.I+ hs.hs.qI ir.lq. r.ZF.2& jn *f rS `F. G.r3 T: Y_ U( C4 .G.Op wq zo >1 d..5|.+G.r3 Y_ M} B=.X<  [ t>.@G.t>.W: `[ W< Y_ LA #G.1q 0:.$G.vz.yT uz.]A.]A.{A.}i yT u} ",
"%G.&G.*G.=G.-G.FA.Az.~A.{z.xz./z.]z.yT wz._A._A.}i vz.^z.^z.FK FB.8D.1B.DD.3B.u} GA.M-.^z.vz.{A./z.;G.ND.C: F&.>G.,G.'G.eu.hh.t& )G.!G.Z& ~G.{G.cV 6; 3o.3o.{C./h AC.D  {C.9B.C{ 6; 6; X) F  q$ H  2@ H) M  n{ CO x* .I 59 j=.m6.m. qm &# bu.Si K3.G4.>u ]G.;# 19.2).Fg ^G.H$.KR [* %$ Aq.ho.Ki.@g ob.pZ pZ ~0.Ka.La.@g *d.Ka.`0.`0.]9.w1 ho./G.(G.Kj _G.:G.<G.[G.qI bO ,O }G.}G.|G.]5.1G.^5.^5.^5.>O H+ 2G.>O 0P 3G.3G.3G.gr.)  4G.5G.6G.|; 7G.Fi.}X uh 36._7.(7.%0.$0.%0.S0.Fa.Fa.$0._7.e5.k5.{7.m3.!7.~8.dF =B @  KR 8G.WA.O@.U2.3Y y. M~ '8 T1.Q1.9G.4E.Bm.Ko.(m.(m.0G.[! aG.Wq..r.cs.+r.Xs.#s.Ys.Xs.es.9t.Ys.qI #s.at..s.fs.Vr.gr.hr.Wq.[W VC.bG.>D.cG.dG.bi )[ qC.+D.T: U( U( +D.eG.DL j2 (S fG.gG.BB.T: $E.;C.`[ W: @G.X: X: X: Y< X< V: U: hG.qC.iG.sl V}.jG.{j uz.]z.vz.kG.lG.mG.nG.%G.",
"$^ @] 0F jh :Q oG.pG.qG.rG.sG.tG.:D.yT yz.HA.uz./z.zz.xz.]A.yz.yz.]A.wz.8D.DD.(A.]A.^z.]z.f' ^z..F.uG.{T [h.vG.n3.wG.xG.yG.zG.AG.BG.hB.56.gt CG.DG.0D.6; 9B.EG.D  zC.<@ PA.0D.C{ E  E  $! +t.<w.G  #; 4u.u$ 4@ M  FG.: .y4 Pi.c*.,T Nx.(% 4' PB.;x =3 F9 ;# x{ Ks Y|.%@.s .!+.Nz.^* +z GG.;0.;. Eg.X0._c.X0.@g @g pZ pb.pe.Qd.re.{0.)0.,0.=. HG.+e IG.9( $k JG.KG.F~.}G.;Q :N }G.LG.]5.MG.4M gs.;Q %  ]5.F~.NG.]5.OG.PG.G+ .r.QG.RG.)r SG.TG.Lk UG.{7.&9./7./7.&0.)8.)8.)8.$0.Ea.Fa.)8.76.g5.i5.j4.95.VG.Hn.@# G4.J#.[y.WG.q&.b8.Uz PL -F.Zw.|. N9 XG.YG.jp.qk.,n.{l.ZG.x3.`G.kq.@r.#r.cr.+s.gs.Ys.Ws.@s.@s.#s.es.Ot.)v.Ot.gs.0P Zr.Wq.Yr.Aq  H..H.i= +H.Q: @H.Cb z| #H.+D.BB.U: U: T: hG.62 $H.%H.&H.T: Y_ U( yD.3}.X< Y< Z< X: Y< X< Y:  : *H.=H.-H.;H.wv i= 7% 09 >H.I` >H.,H.7+.'H.]- x] MK ",
")H.!H.~H.{H.]H.n; >u -@.I{ |: @] ^H./H.(H._H.:H.{z./z.]A.|B._A._A.wz.]A.1B.FB.^A.yT ^z.xz.]z.]z.<H.[H.3} }H.|H.Ql.1H.)G.2H.3H.4H.5H.6H.7H.8H.9H.9b 0H.:@ 6~ EG.<@ :@ 0D.[@ [@ E  cV cV 4~ *! #, q$ G  t$ 2@ u$ f; 2= aH.};.i=.3w.a#.m. s .w%.=F.3Y *# bH.cH.a>.W}.dH.af.X1.Iv.*t.<% +@.c*.Pz.Q4.)9.{9.,0.X0.@g.re.Z0._c.*d.qe.@g X0.X0.Y0.w1 5j.eH.fH.Kj gH.]! hH.0P fs.~O ;Q -&.:N iH.r+.r+.,V :N jH.:N -S :N ;Q kH.lH.)  4M cr.mH.6t *, nH.oH.}6.h5.46.26.-8.,8.=8._7.<7.)8.Ea.S0._7.56.E& b].ui.pH.qH.c*.5i rH.F9 G#.+e.!+.SB.$}.g*.5% l. 2).rX #o =0.sH.dF.tH.uH.[i +#.<u.@r.@r.ds.Nt.@s.I+ Ys.#s.8t.Ot.hs.Ws.Mt.yv.}u.Vr.kq.vH.<w 9s.wH.^k.4t P- xH.yH.bE.zH.b..$^ AH.BB. D.m2 r3 LV BH.CH.F5 m2 U( Z: u| DH.o1 B=.W: Y< W: `_  : U( aM )k EH.FH.ut bi j= ,, g= U2.GH.HH.IH.JH.KH.LH.MH.NH.",
"!t hM OH.U& PH.>u QH.RH.SH.7% EE wh <4 V8 #3 TH.UH.VH.WH.8D.}B.}B.yz.yz.p' 3B.^A.vz.f' ^z./z.XH.YH. n ZH.`H. I.wG..I.hB.+I.@I.#I.$I.%I.&I.*I.=I.-I.<i ;I.6~ zC.{C.0D.9B.[@ E  6; cV $! v4 ]v.v4 *! 8; H  e& 2@ 4@ K  >I.T> [x *- w5.y. s .o. ^[.s .,I.h<.WJ 'I.Dd >&.6;.)N 8=.N@.-F.^% j1 )I.*0.-. X0.pZ `0.sb.nb.`0.Ka.<i.qe.qb.pZ U3 pb.)0.w1 !I.9y ~I.{I.y5 ]I..s.}G.<U 3$.&1 CY XW &1 &1 &1 CY 'P 8` TQ TQ ~O (<.@s.I+ ^I./I.*f eb wC T> R0.h4.l5.A| 56.e5.76.Lf /7.>8.&0.Fa.S0.<7.e5.(I.n3.!8._I.JJ bz E$.88.uH u. ]G.s. .J G4.O` :I.qm R& i` ~*  ! yc.<I.[I.Zg i) }I.lq.@r.hr.)  at.Xs.gs.Xs.8t.hs.fs.#s.3M 'y.|I.'y.Xq.Vr.#C.0s.1I.T0.%' l{ u~ 52 n= ys s$.2I.*f Z] 3I.+D.F5 C4 C4 4I.bz L^.L% M} W< rF.DH.M} `[  [ X< `[ Z: Y_ 5I.c-.N_.6I.5& 7I.8I.9I.0I.aI.bI.sf.(i hM Pc wd `i 29 /g.",
"gl /g.Ms cI.q, dI.Vj Uj eI.7..fI.gI.hI.iI.jI.kI.Tz j_ s$.lI.mI.^z.zz.vz._A.|B.HA.yT ^z.xz.xz.nI.oI.0d pI.qI.'G.rI.sI.4H.tI.tI.uI.vI.wI.xI.yI.zI.=I.AI.w| BI.<@ 6~ C{ 6; 6; cV 6; 6; B  hr 3o.3o.v4 #! G  #; 2@ u$ G) i& CI.W@  I #@.d(.1w.DI.G4.k_ Qt EI.FI.O@.z>.W}.KR Zt.@s p6.WJ q&.c( H8.Li.Q4.(c.{9.(c.X0.~0.Ka.@o.Z0.`0.Rd.Z0.Y0.3f.GI./%.=. ~2 HI.7' II.JI.MF.KI.LI.MI.-  'P ~O NI.c` E..E..NG.US 8` 9` 9` jH.%  OI.Ws.PI.QI.4; RI.:r.au g4.%9.A| ^7.46./7.'8.(7./7./7.;9.Fa.;8.46.c5.~7.SI.[f t' Ku.v%.:I.E#.G#.B5.(% -g.4c.$# F=.TI.]y W}.b..4' *- %- (4 k= UI. r.4E hr.}v Xs.}v @s.Ys..s. s.es.+s. s.+r.ds.gr.0P gr.ds.HB 9e.VI.'r WI.XI.YI.ZI.`I. J..J.+J.@J.RJ .E T..#J.$J.{r %J.&J.*J.=J.-J.;J.yD.u| `_  [ `_ V: W< >J.,J.r| H_ U2.'J.)J.!J.%C _~ O> 9( Nj P> 2/ (D Oj 29 YB 38 !Q ",
"wd /g.~J.p^ PL {J.Vn ]J.^J.n; /J.(J.tH v).!= &@ _J.:J.Qt z5 R} <J.[J.Vy.(A.HA.HA.yT ]A.Vj }J.|J.`5 1J.2J.3J.4J.5J.5H.6J.7J.8J.9J.tI.vI.0J.aJ.yI.bJ.=I.cJ.Vr dJ.k_.$! 4~ hr cV 6; E  6; B  3o.4~ V) B{ v$ e& 2@ g& 4@ K  4= eJ.60 3c.L) pX Si WA..e.S2.>&.'k {1 W}.R2.Z1.o. _0 fJ.$` gJ.2,.^% hJ.1v.:8.Eg.)0.La.pb.pb.X0.Qd.re.Z0.Ka.Ia.)0._n.+a.oe.~, [| &3 Qc Nl.QG.I+ LI.-  -Q n].US TQ -S iJ.E..E..~O jH.jH.jH.W .%  }G.qI T0.jJ.h; ^; kJ.jk.]j.56.26.26./7._7.(7.(7.=8.&0._7.=8./7.]7.c5.~7.lJ.zk 60 ho 1% /* x. p-.>&. 1.O` rH.(% a>.(>.F#.'# 4;.tA pX P@._}.mJ.$r.Yq.ds.+s..s.qI }v gs.Ys.hs.Xs.hs.hs.}v #s.}v qI .r.jq.Yq.Br nJ.oJ.pJ.+D.m2 BB.T: C4 :B.m2 :B.C4 qJ.~A rJ.sJ.tJ.{U T: U( M} t| t| uJ.vJ.DJ wJ.Z: xJ.yJ.zJ.52 7L AJ.BJ.m= CJ.}t :S Rm 2/ &3 Zi P> Nj Wj 29 `i 9| 9| 38 !Q ",
"DJ.}5. {.EJ.FJ.GJ.Vj HJ.IJ.2<.JJ.<Z KJ.LJ.v).MJ.t> 7$ NJ.a^ OJ.Bb c/ DE.{h Tv.wz.wz.yT PJ.QJ.o; X` RJ.SJ.4J.TJ.UJ.VJ.9J.7J.WJ.8J.7J.tI.6J.0J.XJ.YJ.ZJ.=I.:u J5 Q}.4~ 4~ X) cV 6; 6; 6; cV $! 4~ }@ 1@ t$ 2@ M2.2@ u$ G) 5@ OB ## };.1M Nx.R2.q&.=B -F.,# !+.4c.Ks ++.l. x%.5% o. Y}.K3.;# `A.s# ;d.W0.[c.3f.`0.@g @g.*d.@g qb._c._c.pZ U3 X0.)0. a.=. Tl `J.38  K.*N ^I.KI.;Q US %q <N ~O 9` W .*  E..iJ.SQ 'P 'P jH.%  qI .K.E=.4; +K.X( l4.c5.d5./7.,8.,8.,8./7._7.)8.=9.=8.:7.36.56.{7.l3.[7.XY e#.x& E#.+u +` 5% ([.j*.DC.@K.p6.6;.#K.1% ;k.Hg.qr PL +z @[.,d.$K.br.Zr.cr.Ot.0P hs.@s.9t.gs.Ys.at.+s.#s.Ys.Ws.0P +r.4E iq.K7.%K.&K.*K.r3 +D.+D.m2 4D.T: T: :B.r3 +D.+D.=K.ZD.qC.Wg.-K.U:  :  : o1 o1 T: D4 m2 ;K.>K.[v b_ ,K.'K.)K.gl ~0 !K.~K.{K.}s ~0 Oj }s 29 +^ Wq u{ 38 UI !Q `i 29 ~0 ",
"{^ ]K.^K.u{ /K.$k (K._K.:K._4 !s.<K.[K.}K.|K.v> Y).+ .&@ d  != y( 1K.b..j2 2K.3K.IC.4K.5K.6K.(4 7K.qI.8K.TJ.9K.0K.uI.7J.aK.bK.aK.cK.dK.eK.fK.gK.hK.iK.jK.kK.S/ n= =I V) p$ hr $! X) B  E  6; 3o.W] G  t$ e& e& 4u.2@ 3= )~ i; lK.JJ  I ^* r. [0.)N Y}.`B mE.mK.nK.4w.{5 Bo ,T x%.Iv.=# 3Y pX p; oK.1v./0.tb.X0.pb.4j.U3 *d.To.qb.*d.To.Z0.pb.{0.tb.hh.pK.~* Rm qK.rK.sK.]5.,O US 9` 9` US US 'P tK.E..E..*  jH.NG.]N {N uK.vK.wK.g; 1s xK.d4.e5.:7./7.,8./7.&0._7.'8.=9.-9._7.76.56.|6.h4./5.lJ.li l= |. R0 >u b_.r{ :C.+` <o c*.pX Eo rB B,.|C $` bz b_.D; ;) yK.zK.Yq.cs.cr.3M Nt. s.8t.Ys.Ws.qI Xs.#s.gs.#s.#s.bs.kq.4E ZF.%d AK.BK.AB.`D.`D.<B.<B.:B.:B.+D.R: ZD.`D.`D.qC.ZD.R: CK.DK.W< W< U: T: T: C4 zD.EK.2u .E FK.GK.HK.9| ab hM `i 0U }t IK.JK.`j 0U KK.LK.MK.NK.OK.2m !Q PK.]R QK.nh ",
"RK.!t Oj &3 (~ SK.TK.UK.1;.3).A  qW [v 5  3' }/ bG.VK.!= /= U- WK.u,.XK.YK.p; |: FC ZK.`K.!6. L.ZM 8K..L.+L.@L.#L.7J.aK.aK.$L.WJ.WJ.WJ.%L.&L.*L.=L.@L.5H.-L.;L.CG.(< /^ 8; p$ 4~ 3o.o$ C{ 9B.$! +t.|@ #; t$ t$ e& e& g& M  f& JB.>L.-$ #@.t .,L.3w.-F.fJ.'L.r{  1.(% /% B5.Ta.a'.}C.V&.I#.|).)L.eA vb.;0.hh.!9.*d.sb.pb.X0.Z0.pb.&d._c.~0.`0.'0.]9.+a.#a.1B !L.~0 ~3 A& ~L.~L.:N 'P %q jH.US aR 7M E..E..{L.NI.%  KI.bO ]L.)4 ^L./L.>! +d.f5.26.:7.:7./7._7._7.=8.)8.)8._7.26.^7.k5.Oj.c4.:6.(L.L$ ]y m6.Fg rH.G#.p6.%@.[% {5 _L.);.2B L) :L.k=.&- IX -@.A. <L.[L.br.Wq.ds.+s.#s.#s.hs.fs.gs.+r.gs.gs.#s.hs.+s.+s.hr.xr K9.}L.#U |L.1L.2L.~g.3L.4L.E# AB.5L.6L.7L.8L.9L.0L.A1.aL.bL.Ww.cL.o1 U( Y_ ;C.T: dL.eL.fL.gL.hL.iL.Uj 8' _e 29 ua aL jL.kL.lL.mL.dQ oX t% nL.w} {3 ~2 ;u oL.rv pL.qL.rL.",
"gl wd ab ~0 '; Nj sL.tL.jo uL.jo 5U vL.wL.M+.xL.yL.o^ `q |v.zL.hi.:] AL.BL.<+.CL.c= 7% xh yh !d xF.DL.bJ.%I.EL.eK.7J.7J.aK.cK.dK.*L.#I.4H.FL.4H.GL.4H.HL.jK.sI.IL.Eq JL.B{ V) ]v.3o.6; :@ 9B.3o.#! #! |@ s$ v$ v$ 7@ 2@ G) N  9@ KL.#- t .c7 o .~+.}C.I#.F9 W}.0..'y LL.7A.7A.ML.r0 c' I$.NL.4P P@.OL.Pz.4f.(i.La.~0.`0.qe.Z0.re.PL.`0.`0.X0.U3  a.<c.-. n{.QL.gl RL.SL.F~..s.(N SQ 9` jH.US %  ~O E..E..&1 MI.TL..s.qI UL. =.5; VL.xb {7.]7.kk.36.<7.(7.=8.=8.;8.-9.;9._7.36.e5.{7.WL.c'.XL.m0 *z ^Z %^ p6.GC.88.N@.SB./* BH.l*.4% YL.f*.gx kw m6..! ZL.ic `L. M.Wq.+r.)  .s.@s.Vr.cr.+s.Mt.Mt.Xs.#s..s.qI 0P hr.Wq.HB .M.3v +M.@M.#M.'` $M.%M.w5.Z|  ~.&M.n; ji z5 QJ h! L$ N9 *~ To T: Y_ T: m2 *M.=M.-M.59 ;M.>M.u{ {j kR P> Kj _e ua ,M.'M.,M.)M.Oj (K.u_ !M.~M.`D e(.V= _v W& ^Z {M.]M.S0 ",
"S0 !t }s ua (i 7' +^ ^M.&- /M.r' (M.e  )= d  + .&@ _M.kI.%~.)U X& f= :M.e  *@ *@ Wk.KH ~^ .r <M.[M.)G.6H.}M.|M.6J.tI.7J.8J.dK.*L.#I.GL.@L.GL.4H.@L.@L.0K.jK.1M..I.Aa.4i 2M.q$ p$ hr cV C{ 9B.3o.w4 #; #; v$ #; t$ e& u$ K  f& |' 8@ 3M.f*.|j Z'.i<.0..0..xb.dD.>w 4M.5M.6M.88.gJ.7M.'# 69.-x.i` @# U' 17.Fg.+a.La.]0.qe.@g.*d.*d.*d.pZ qe.*d.=d._c.]9.>. 8M.>c 9| 9M.h).qI 4M ~L.b` <N W .-Q PS aR XW &1 MI.0M.aM.gr.3M z9 bM.m_ .u cM.l5.]7.26./7.(7.=8.=8.=8.;8.*9.=9.;8.<7.56.]j.c4.-H.o` l= /* Us x5.W}.T2._% %}.Y}.|j c*.^Z L) .! 06 59 5;.o .^* 2).dM.eM.iq.dr.fM.zu.#s.es.+s.Ot.+s.+s.at.hs.Xs.Ws.}v ir.Wq.gM.hM._v iM.jM.y4.6L 2B n&.}x 59 .! 4k o; rX 1= kM.lM.mM.2C.nM.oM.pM.:B.T: r3 qM.rM.DZ sM.tM.6N (D .^ Nj kR {j 9( lu /g.uM.vM.(m ~0 (D ab dB.wM.Rm xM.yM.zM.AM.-j BM.:S lL.S0 ",
"!t iM 0L :S !t /g.CM.DM.^* N' ~# EM.T- 7$ FM.|& [& }$ S- GM.7$ HM.IM.SZ rO JM.#M Zg J( E; t% H( KM.LM.6H.yI.MM.NM.OM.tI.WJ.#L.#I.PM.QM.#I.QM.RM.SM.RM.TM.UM.5J.VM.4J.WM.r) XM.8; #, .t.]v.4~ v4 |@ g& L  L  u$ u$ u$ 4@ 3@ 5@ $; f& YM./* y%.%# 1,.0..pX LL.ZM.6B V!.;g.;# 0-.x{ xb.p6.dD.I#.w%.rX |C RW *0.>. ]9.X0.X0.U3 @g *d.{0.&d.Qd.Z0.&d.~0.tb.:8.-. ]~ `M.7' pu  N.H+ F~.}G.US ;Q ;Q FY (N ZV 0M..N.+N.4M bO @N.<] #N.$N.Bk.f4.g5.56.36._7.=8.=8.=8.=8.)8.*9.$0.*9.=8.46.]j.a5.%N.0u A  {* }x &- B,.&N.*N.nK.n. =m *z 19.{* 45 rB F#.&- i= ~# (@.=N.zv.iq.fM.Nt.}v gs.Ys.)  'v.'v.Vr.Ws.Nt.Ot.0P ir.kq. r.ji.h# X& $( a~ A; e_ -N.;N.>N.,N.'N.)N.!N.~N.{N.]N.^N./N.(N._N.:N.Q: <B.T: <N.B6 2,.[N.}N.~0 ab S0 UI (~ Ik Jk '; +^ Wj !t (m `i >4 .^ /g.34.Rm 29 &3 |N.1N.(~ Wi UI !t }s ua ",
"ua !t 0L 2N.kL.4O 3N.4N.Uw ii :r.5N.+ .Z+ 6N.PW 7N.$@ }& }& [& + .8$ 8N.9N.0N.aN.bN.d  '= Ux.w5.4. cN.&I.BG.dN.eN.gK.@I.eK.PM.#I.|M.|M.PM.4H.0K.fN.gN.g# hN.TJ.iN.wG.SJ.jN.j_ J< B{ 8; <w.q$ #, B{ e& 4@ 4@ 2@ 4u.u$ 2W 3= 4@ M  4@ K  kN.>, b..!N Fg G4.;e.lN.9A.08.4c.mN.&# nN.[% (% =# oN.Ks Z'.#- ,w se./0.Eg.pZ La.Qz.`0.sb.pZ pb.Z0.pb.Z0.pZ Eg.+a.~9.pN.jo Zi qN.rN.cr.QG.sN.,O ]5.~L.4M ~L.tN.uN.vN.2G.qI 1V ^p.wN.6; |6 (l d4.j5.56.:7._7.=8.=8.=8.=8.)8.%0.%0.=9._7.d5..d.c'.xN.,, ,T -@.K-.6Y y. H*.G$.ft {* yN.59 rX Xk.b' -y |C  I ]* ;,.zN.}u Bq kq.ds.cs.+r.+s.es.@s.)  Vr.Nt.8t.#s.qI bs.kq.jq.}# AN.If L+.w} 2J BN.CN.DN.EN.Z+ FN.GN.tu HN.IN.JN.KN.oB.LN.R& L$ MN.E9  E.NN.{m ON.PN.'; Wj &3 0h !t wd (~ #y {j ]5 9| _e 8' 9| &3 Wj _e /6 QN.'; &3 !Q 0h &3 P> Uj O> (i gl 6N ",
":S wd Rm :S 2N.RN.SN.<T /; i=.TN.e  S- 6N.UN.UN.8  4$ |$ VN.WN.!t.7$ XN.-J.%@ WN.YN.Z+ }$ 1& %@ ZN.D: `N.0K.UM.0K.XJ. O.#I.iK. O.#I. O.%I.0K.HL.4j..O.+O.@O.#O..I.t& $O.'G.4t j3.G  G  H  G  8; B{ H  t$ #; G  G  #; e& v$ v$ t$ e& u$ i& %O.i=.4' L#.ih.DI.&O.*O.9:.=O.-O.;O.x. I#.x%.R0 >O.R0 %O.>, <4 %N.,O.:8.,0._c.)0.`0.+g Z0.{0.~0.sb.Z0.X0.pZ :c.+a.ub.26 'O.)O.t_ KF.!O.>O 0P QG.~O.)v.]5.{O.]O.^O.Yr.3M /O.W& (O.Ty.=' M>.h5.16.46.:7._7.(7.=8.=8.;8.;9.=9.-9.Lf 46.l5._O.:O.E; 50 |C +..c^ #@.|;.c7 [* nZ }A ik iY +] &a +z R& I* }) l= iR [L.<O.Wq.+r.ds.}v es.9t.0t.0t.Ys.qI 8t.0P }v qI hr.4E <O.[O.iv }O.|O.1O.2O.3O.4O.o~.Y@ 2J };.f*.5O.[a ho JJ K9 -k.15 E< T> 6O.7O.8O.-4 9O.0O.&3 Ms 8' u{ Zi Ms ]5 #y kR {j (~ 8' +^ '; Ms Wj '; 8' !%.aO.Kj '; /g.ab Oj >4 Up {j ah YB !t ",
"lL.0U UI 2/ Oj bO.cO.B,.)y gV dO.'= 5$ 8  9  9   @ 3$ 3$ 4$ PW c  [& M].:p eO.8  fO.#@ 6N.1u gO.$@ -s a] hO.+L.hN.fh.hB.RM.HL.5H.iK.RM.RM.0K.HL.9K.iO.jO.UM.sI.#O..I.4J.'G.m3.=' kO.H  e& #; B{ 8; B} B{ 8; 8; 8; B{ B} #! 8; B{ G  lO.$, mO.25 e*.$` %}.r. nO.dB.;O.V&.(5 !+.t. &O.o6.5Z w%.=F.a>.oO.ic pO.1c.eh.,0._c.@g.pZ qe.*d.Ka.@o.*d.Ka.@g +g )0._i.@a.Ul qO./6 rO.sO.cr.3M tO.Yr.uO.vO.KF.[G.wO.xO.yO.4G.zO.AO.$, BO.R! f4.Aa.e5.76./7._7.=8.=8.=8.;8.-9.-9.=8.36.16.j4.95.CO.e3 s' XC -@.8) ik  z Nu |j 2).+@.$-  ! -$ IX };.j1 ic d/ li DO.EO.4E Vr.+s.gs.Ys.0t.0t.0t.0t.0t.fs.}v 8t.+s. s.FO.gM.GO.|: HO.IO.JO.KO.LO.MO.P` NO.tg l= g3 OO.*z -y So 0u.eE :. PO.QO.K+.RO.*V ]% SO.)M.6N hM ~0 0h &3 _e 7' 9( Up Vj Vn Vj Up u{ 9| YB 2/ ]5 /6 SB 16 {X _e 38 /g.!t YB _~ Co #y ah 2/ ",
"]5 lL.0U wd 9| TO.e#.4} 1. j= UO.VO.7  3$ .@ WO.XO.YO.3$ 3$ |$ ZO.$@ C' `O. P.2$ WO..P.3$ #@ YO.8  }& |8.){ +P.@P.hN.LM.#P.1M.g# HL.$P.RM.RM.fN.UJ.%P.%P.9K.g# jO.5J.xG.&P.&< *P.n= qk.e& t$ w4 #! <w.8; 8; #! 8; 8; q$ #, }@ <w.W] 8; H  *, mK.m0 Eo 9n.Wx `B =P.-P.s&.;P.>P.S2.a..$}.{[.5Z F=.E#.L> -$ 37 &j.'9.)9.Eg._c.@g Ka.*d.*d.pe.Ek.pZ )0._c._c.5[ +a.,P.fY >4 'P.)P.!P.~P.{P.]P.^P.ug.$4./P.(P._P.;r.B6 S/ :P.i' <P.[P.#0.j5.56.26./7.Lf =8.=8.'8.)8.)8.;8._7.46.l5.QW %N.2^  n }P.l~ uH l. 1{.|j b..2% MM 1,.Ih.96 IX 1q rX  I eA ~^ |P.1P.br.@r.qI Xs.es.0t.I+ es.I+ 0t.0t.Ys.fs.Xs.qI kq.Bq *T ut $^ 2P.3P.4P.5P.o&.R& eb.o; 6P.7P.8P.9P.0P.aP.bP.cP.dP.eP.fP.1z -@. ~.DC.gP.Oj gl lL.lL.}s Pc hM ~0 9| 2/ Ms Nj {j Up (~ '; 0h Rm `i `i `i hP.iP.j2 jP.Kj Wj (i '; /i Nj {j Vn P> ",
"7' YB !t ZX kP.c/ lP.hx mP.d/ nP.!= Z+ #@ .@ @@ .@ 9  NW #@ |$ 6N.3$ ){ |$ 3$ 9  0  @@ 9  9  oP.pP.$@ 1u qP.t' rP.sP.)G.tP.uP.#O.sI.$P.HL.HL.fN.vP.)G.iO.9K.jO.@O.wP.xP.yP.xG.3J.I4 1+.e& e& G  8; q$ <w.8; 8; #! 8; q$ #, q$ #, *! #, B{ e& zP.Z].!# 24.AP.>&.>O.3% qw BP.7-.G4.J3.)# 6&.[).Y1.2} ]% 8-.2B CP.DP.;. /%.`0.`0.&d.@g hB.3f.Ji.pb.~0.=d.ob.!0.=. =. j/ EP.PN o^ FP.GP.HP.IP.JP.KP._, Vl bi F|.p^ {t N9 LP.>m k> MP.@d.k5.66.36./7.(7.=8.'8.;8.;8.'8.=8.<7.e5.f4.^h.cu.;& r, t5 k. |).L$.%# R0 r{ @` 1;.:4 jh.2). I R8 t' E; y( W@ NP.Aq Wq.Vr..s.gs.9t.9t.Xs.at.gs.I+ 0t.9t.es..s.+r.Wq.:w r> Zg f1 zn xf cD.h9 C; qj OP.PP.QP.+D.:B.4D.T: :B.`D.4Z E9 RP.SP.TP.-$ UP.VP.WP.Oj 38 wd Pc ab lL.lL.6N S0 (D XP.YP.ZP.@x.+^ &3 !Q `i /g.(D `P.!+.Qm  Q.)p .Q.+^ &3 _e lu Nj Wq {j Nj ",
"Wj (i 38 +Q.5- fs @Q.#Q.$Q.h= %Q.U- 1& &Q. @ 9  YO. @ 3$ 8  PW ZO.Wm.*Q.|$  @ WO.=Q.@@ -Q.=Q.=Q.;Q.>Q.4$ 6$ ,Q.f= 'Q.)Q.VM.#O.TJ.iO.hN.HL.5H.2H.jO.wP.5J.)G.iO.UJ.iN.,q rI.,q 'G.!Q.<e ~Q.2@ H  B} q$ +t.#, F  V) F  +t.p$ .t.v4 p$ #, G  e& *, mK.6% <% Nz.6B &# Z1.n. !+.G#.+e.&- DI.~+.69.4% [0.3c.{Q.1q ;  Aq.;. ^9.~9.Z0.pb.Ka.pZ sb.Ja.sb._c.sb.@g ]0.)9./%.</ ]Q.2/ 1o.^Q./Q./Q.(Q._Q.:Q.<Q.[Q.K{ vg.}Q.dv A  ~A.|Q.1Q.g4.h5.d5.Oo 36.<7.=8.)8.)8.'8.=8.=8.(7.:7.k5.h4.me.2Q.^; ), {; ho wj p&.a>.Fg :I.Wx 3Q.{* |. 35 -@. ! ,, :4 7% 4Q.ar.HB @r.+s.at.I+ 9t.es.@s.gs.I+ Ys.Ys.Ys..s.hr.Wq.=A.@(.P; H( Y& ,, Cb .! 5Q.n6.6Q.7Q.8W <B.*H. : `_ 8Q.U( C4 `D.Q: RP.9Q.n; 0Q.aQ.ZX 2N.!t >4 >4 YB !Q `i !Q 38 ]5 bQ.o3 /k Nz WU cQ.!Q 29 UI dQ.eQ.fQ.gQ.YB 7' hQ.i= iQ.&3 /6 pl Vj Co lu Up ",
"jQ.kQ.lQ.Y] ;,.mQ.nQ.`z oQ.Sg pQ.v> <& }& &Q.#@ 3$ 3$ 8  PW $@ eL.o4.PW |$ YO.=Q.qQ.rQ.=Q.b  sQ.3$ 8   P.1& &@ tQ.Bb uQ.tP.1H.sI..L.sI..O.jK.2H.gN.jO.TJ.iN.uP.vP.9K.:d.rI.wP.vQ.wQ.y~.}h mF #; B{ F  v4 4~ 4~ v4 3o.$! X) 3o.]v.+t.8; lO.ft.M  xQ.M$ <% oN.x{ .J k_ fk.[y.c<.J3.H$.o. p6.:L.9A.ih.45 *- 60 p^ yQ.67.tb.)0.`0.pb.U3 pZ &d.qb.Pd.Y0.~0._c.)0.5[ ,. J5.|=..^ zQ.AQ.BQ.b5.b5.BQ.CQ.DQ.EQ.16 FQ.GQ.HQ.IQ.9; JQ.KQ.f4.j5.46.:7./7./7.=8.;8.;8.=8.=8.(7.<7.Oo l5.*8.LQ.{3 k8 {# P_ ik 96 c( Eo mP.@# i*.=@.E#.(>.-$  I sl )y Lv _}.MQ.@l Wq.)  }v es.9t.0t.gs.Ws.0t.9t.Ys.at.}v qI @r.4E NQ.I..F&.OQ.PQ.QQ.|;.pu ,T RQ.'N SQ.TQ.<B.Y_  : `[ W< U: 4D.`D.bE.oN.eD.10.UQ.UI 6N &X 0U UI >4 2/ .^ '; Zi O> VQ.WQ.h9 60 m*.JJ XQ.YQ.Rm ZQ.`Q.5z. R.Ms >4 +^ P> ^x oO..R.+R.@R.#R.$R.%R.&R.",
"k= D< d..y5 ~; S& z. }x {T *R.7J ^,.d  cT 1u PW |$ |$ 6N.}& 5$ =R.-R.6N. @ ;R.>R.>R.WO.@@ @@ 3$ 6N.6N.PW }& }$ 8$ J'.){ ,R.Cp.DL.7H.HL.'R.TM.iK.fN.g# +O.%P.wP.)R.hN.TJ.rI.uP.xP.xG.'G.9q.!R.e& #; H  #! *! 3o.3o..t.<w.q$ }@ <w.|@ #; u$ 4@ )~ ~R.}x I* x%.a>.s .au.2% =B [H PL `B 45 Ks tA x. G#.KT 3c.{* ), {R.[i.>0.>. )0.@o.&d.Ek.Ek.Ka.pZ _c.*d.@g _c.tb.>. >0.Jf 8' ^1 ]R.ui.$&.^R.TF.TF._Q./R.<] x* DQ f- (R.4; +e _R.d4.d5.36._7._7._7.(7.=8.'8.=8.(7.&0.36.d5.c5.96.:R.nL.U= };.3;.g3 4% uH i=._* {* PL t .@# .` 25 p&.i=.yN.K> $i <R.gM.@r.+s.#s.I+ 9t.0t.gs.gs.9t.gs.Ys.gs..s.qI @r.Yq.[R.EE }R.|R.1R.2R.3R.y5.:4 {# %4.4R.5R.qC.Y_ Z: Z: U: Y_ p=.6R.y4 @# S& r6.^m YB /g.(m aL ua Rm `i UI >4 (g.MO j2 dQ S= 96 7=.t' |. )y T{.7R.NL.8R.u{ _e u{ +R.9R.0R.|n aR.<P..0 3!.p^ Vl E< ",
"bR.cR.dR.eR.fR.gR.Qq.hR.%~.FL iR.jR.kR.Z+ FM.[& 5$ c  5$ |& [& lR.mR.|$ @@ nR.oR.pR..@ YO.3$ PW |$ |$ 6N.WN.%@ &@ )= qR.S/ rR.Yo.#P.2H.&d.QM.PM.#I.4H.zG.s% uP.TJ..O.UJ.#O.iO.wP.sR.sR.tR.DL uR.N  f& g& B{ B{ B} G  #; #; 2@ u$ 3@ 6@ f& M  K  |' vR.~# f*.uH G4.&# }).g*.fY h<.p. 5Z KR wR.);._* @s IX 96 I* S7 se.Od.tb.xR.~0.sb.&d.*d.X0._c._c.pZ ~0.pZ )0.-. }c.FL yR.O> 8%.zR.AR.C0 pg.$&.BR.!8.$^ U& >M oh G= CR.mi h4.l5.A| /7.;8.)8.=8.=8.=8.'8.=8.(7./7.Oo j5.h4.!7.Lt ji XC m6.!* |=.E#.'+.b..6=.MS pW $` Z].Bo i=.(>.e*.`5 h>.DR.EO.4E ir..s.Xs.9t.9t.0t.Ws.at.9t.at.gs.at.qI bs.cs.ER.~2 FR.0! GR.HR.IR.JR.KR.LR.+i 6*.Sg o~ MR.`F.*H.U( Y_ NR.OR.PR.QR.I#.RR.EI.wj {I.38 S0 aL uM.:S lL.gl SR.TR.UR.VR.WR.L#.IX E$.XR.n$ V> _4 o; YR.Zi {I ZR.`R. S..S.u@ E; w} @z.+S.@S.#S.$S.%S.",
"&S.*S.=S.Uc.-S.;S.>S.,S.'S.)S.!S.AO.4A ~S.{S. P.]S.S- }$ !t.6$ ev.^S. @ =Q.>R.oR.>R.WO.8  /S.PW eL.6N.$@ YN.Z+ 1& (S.J( _S.q^ :S.UM.2H.@L.GL.|M.PM.iK.5H.zG.TJ.s% @O.g# vP.+O.#O.xP.8K.|{.kh <S.OA.8@ 4@ H  #; #; 4u.u$ K  [S.N  w$ 4A.N  M  K  N  g& 1^ d(.19.)N Hg.6;.rB lE Si B5.}S.0..ss.45 WJ ft  Z -$ l= $- pQ.Od.+a.nb.U3 ~0.~0.@g &d.`0.pZ _c.@g Ka.U3 Ki.Fg.|S.1S.Wq 2S.3S.C0 pg.4S.$&.5S.6S.<#.#k 7S.8S.r} 9S.0S.g4.|6.&9.Lf )8.=9.)8.)8.;8.;8.'8.(7.:7.56.h5.au aS.:4 1. c7 h*.y4 E=.}).qr Z'._4 1e [* C; y4 P_.m0 b' h# e3 I{ bS.vr lq.+s.#s.Ys.0t.0t.gs.#s.es.Xs.gs.Ws.+s.)  kq.kq.cS.wB.dS.i% 9! I~ f* S; ,] eS.fS.gS.hS.~; iS.6f.%j.+D.kD 50 jS.kS..I lS.mS.nS.oS.M..38 `i (m pS.2N.4O qS.s/ rS.Ms 8' 9( Vu sS.tS.uS.vS.wS.l} xS.yS.zS.AS.<>.M[.BS.CS.DS.i= w .ES.FS.]I.GS.HS.IS.",
"JS.KS.LS.MS.NS.OS.PS.QS.RS.GY SS.TS.mz.US.1{ X{ VS.OW &@ &@ &@ '[ WS..@ b  >R.oR.XS.b  3$ YS.6N.PW 6N.YN.WN.Z+ ZS.zn `S.1& -t J*  T.6H.RM.GL.PM.#I.&L.GL.jK.+O.iO.#O.#P.UM.UJ.jO.DL..T.wQ.Kr.w| +T.h& 5@ 7@ t$ e& 2@ 2W 3@ @T.f& w$ N  6@ )~ n{ 4= @; yu 9w 6C 88.{5 bA.g*.j*.H#.h*.a| EF.~; ;g.[C.29. I =@.}5 &&.Oa.67.eh.]9.@g pe.pb.Rd.rb.rb.Rd._c.X0.Ka.=d./%.;. 'r.Wd Wq #T.eS qI.$T.^R.%T.BQ.(Q.&T.`5 (4 *T.2; }. =T.j4.g5.76.=8.-9.=9.=9.=9.;9.)8.=8._7.36.f5.f4.95.p;.Zw.|j #@.T2.n. ,# H*.'# c( E$.Z'.IX 1M >, [* &- +z So li -T.;T.jq.hr.}v Xs.9t.9t.es.Xs.9t.at.gs.Xs..s.}v )  @r.>T.l{ ^3 V. !] 9! 7# /- V. 0, ,T.!] '_ 'T.96 15 5U )T.eG.!T.~T.{T.Mm ]T.)M.ZX @).^T.2J /T.YB hM 6N 0U TO.%=.(T.(i 38 8' _~ Wq +^ =X >4 _T.c= :T.<T.[T.bi }T.|T.1T.0L.2T.r,.3T.4T.5T.6T.7T.__ 8T.9T.",
"0T.aT.bT.cT.dT.eT.eT.fT.gT.hT.iT.6T.jT.kT.lT.X^.p3 mT.nT.S- oT.:x.1u .@ =Q.pR.oR.oR.nR.9  8  PW 6N.6N.$@ YN.pT./j qT.$@ 7N.YN.rT.Xd sT.@o.RM.RM.VJ.EL.PM.jK.sI.uP.s% 9K.jK.jK.zG.zG.tT.wG.uT.FL vT.5x.N  u$ 4u.2@ g& u$ M  K  6@ 2= 6@ 5@ K  K  $; w$ wT.U= 2a ob [n V}.xT.b(.@` 6;.zm.)* tA LL.'y C#.+` 4' =@.Cb yT.1v./0.:8.~0.re.rb.*d.nb.pb.pb.~0.@g.)0.~0.Sd.-. }c.U@.zT.TK P; AT.qI.BT.!_ qI.2< CT.gw };.DT.sx.', au j4.g5.Oo _7.=9.%0.%0.%0.=9.;9.'8._7.76.g5.h4.c'.ET.gV qv )+.qr 6r FT.ai &N.ss.Q@.c*.p&.^Z 1M ft Q@.0u.;) O; GT.$r.Wq.bs..s.Ys.Ys.es.Ys.Ys.0t.I+ Ys.}v .s.qI +r.cr.HT.4T.IT./- T; /- T; JT.b, f# W. KT.,T.LT.MT.NT.j= #k OT.&l PT.yh QT.RT.:S lL.!t ST.TT.UT.VT.WT._7 J( XT.YB (i .^ .^ u{ Nj bh 9( 8' YT.ZT.`T.(: 3.  U..U.+U.@U.#U.$U.%U.&U.*U.^2 =U.-U.m].IS.aT.;U.",
"9T.>U.y6 ,U.,U.'U.)U.!U.~U.9T.{U.JS.]U.^U./U.(U._U.F` FL :U.<U.M+.}$ >Q.@@ qQ.pR.%u.qQ.WO.#@ |$ 6N.VN.&Q.Ym.%g.[U.`+ |$ &Q.&Q.`+ D< }U.|U.Qz.+L.4H.4H.4H.jK.UJ.5J.uP.hN.2H.HL.gN.2H.sI.yG.1U.2U.w| 3U.N  M  4@ 2W u$ 2W 4@ M  K  K  3@ 4@ 2@ t$ e& G) uz.on.), >, 3c.+z 1,.[).a>.5Z s .af.(* Oz.Lu.4U.(% 5U.PL &a J* ;d.'9.:8.5[ 3f._c.<c.3f.~0.pZ @g rb._c.*d.tb.tb.4f.6U.yh (~ |5 QG 7U.$T.^R.W*.o3.*..yh e_ 0; 8U.w& 9U.86.i5.]7./7.-9.$0.$0.$0.$0.-9.;8./7.66.{7.n3.,- yh l= -@.Iv.|w.:L.PB.[H z>.5;.0U.G$.E=.@  w%.Fy.o&.j3.3. aU.bU.:w cr.0P Xs.Ys.@s.hs.Ws.9t.fs.I+ gs.#s..s.+r.4E cU.kh dU.eU.k% 8# fU.T; W. l% m% W; gU.eU.KT.hU.iU.jU.kU.Mm L%.};.&# lU.:S @).hM Rm /g.mU.O; nU.I~.oU.pU.UI ]5 Wj 8' 9( _~ Uj lu Nj qU.fQ.rU.{y sU.tU.uU.vU.wU.xU.yU.zU.AU.$U.BU.c/ CU.DU.gT.)U.HS.'U.",
"EU.FU.FU.FU.GU.HU.EU.!U.IU.%% JU.KU.LU.MU.^U.NU.OU.ig.E; W@ ht =..}$ WN.pP..@ WO.0  @@ PU.#@ 6N.$@ 6N.QU.yh RU.|$ #@ 1$ 8  PW |$ SU.J* TU.zI.RM.5H.$P.0K.jK.zG.9K.uP.sI.2H.5H.jK.HL.UM.iO.sR.UU.o[ VU.5@ K  M  4@ g& 2@ e& #; #; #; H  <w.#, #! H  2@ *, WU.TB !^ p; c( ;@.V2.Ku.s . 1.Z1.XU.BP.n. 5% EF.6% 3% |. 7L YU.Td./%.{9.!0.Ia.`0.Ka.sb.`0.`0.Ka.Ka.{0.]9.tb.Q4.ZU.V8 `U. V..V./Q.BT.pg.+V.^R.`$ a' @V.$, #V.$V.ui.j4.l5.C../7.)8.%0.$0.$0.$0.=9.=8./7.e5.+d.~7._J.tg 5;.G$.E#.%V.s .rH.&V.2% >O.*O.y9 ~+.X}.pX Y}.a>.y4 S& *V.eM.[W cs.}v Xs.+s.8t.}v fs.9t.gs.es.Ws.}v bs..r.Yq.=V.jd -V.KT.V; k% k% k% 9# ;V.:- Z. $+ l* eU.>V.IR.,V.'V.'m rX 1}.)V.wd :S 0U gl 29 !Q !V.$[ ~V.@u {V.ZX lL.`i 38 '; Wq bh {j {j ]V.&d p^ aa.^V./V.#U.$U.AU.(V._V.:V.<V.[V.}V.|V.=4 1V.2V.&S.EU.!U.3V.",
"3V.4V.5V.6V.GU.7V.3V.7V.8V.JU.8V.9V.0V.aV.bV.cV.dV.eV.', fV.gV.qj hV.1u `+ UN.#@  @  @  @ 8  6N.}& WN.ax..V.7N.8  3$  @  @ #@ |$ 6N.iV.`t jV.fN.5H.Qz.@o.hN.hB.UM.iO.+O.'R.HL.Qz.#P.jK.wP.wQ.yF.Bd.tS kV.3A.#; H  B{ 8; q$ V) V) V) V) q$ 1@ e& 4@ 5@ w$ lV.g= V& c*.2;.Nx.-F.&- <% I$.Ku.p6.GC.fJ.ft 3% FC.~[.^Z -- mV.Pz.=. 3y.pZ pb.pZ =d.X0.&d.4j.X0.*d.`0.5[ +a.ho.nV. n nh oV.pV.:Q.+V.qV.pg.^R.rV.BS l; *, Xk.n@ c4.g4.l5.e5.36.(7.;8.)8.*9.*9.=9.=8.26.`h.g4._U sV.c= Tb H*.h*.F9 tV.s .pX @` ]s MM F9 4% &# ][.uV.)+.#- li vV.Aq gM.5t.qI )  qI #s.gs.Ys.at.I+ #s.Ws.+s.#r.hr.wV.5J xV.g* T. T; T; T; yV.W. f# `. :- zV.;V.AV.9, eo.J~ BV.7S.i= CV.DV.Rm )M.ab wd `i 0h 29 EV.D% Gb.FV.0L 8U lL.gl 9| 7' Up Vn GV.$k {t HV.IV.JV.vU.KV.LV.MV.NV.OV.PV.QV.RV.zU.hM.SV.TV.UV.VV.WV.XV.7V.",
"%% HU.%% YV.ZV.EU.YV.`V.%% EU. W..W.+W.dT.bV.@W.#W.$W.%W.&W.*W.=W.-W.np.;W.>W.eO.|$ 8  |$ PW YN.%@ ,W.5W !I.6N.8  3$  @  @ 3$ 8  ZO.7  !^ 'W.)W.#P.zG.hN.UJ.hB.gN.iO.TJ.2H.$P.TM.gN.2H.TJ.yP.[< SJ.w| !W.G  |@ 8; q$ }@ q$ 8; B{ w4 s$ 4u.u$ M  M  )~ N  ~W.$- .! 25 Pm |j +` c*.j=.^% k=.{W.mE.q&.zm.t&.qr p&.3w.E$.D/ ]W.ho.]0.nb.pb.pb.pb.pe.Qd.<i._c.=d.)0.X0.~9.'9.1v.wh 7e E; DA./Q.$&.^W.TF.CQ.rV.ic /W.(W.7% _W.:W.n3.c5.%9.e5.Oo 36./7.=8.;8.=8.&0.A| h5.*8.pH.6L 25 _* }).R2./% DI.'I.GC.Wx o. R0 7M.h*.<W.]y =t.p&.T^.hx [W.HB 4E bs.+s.#s.es.0t.Ys.Xs.9t.fs.Xs.+s.Xq.cr.3M }W.m=.|W.6# 1W.j% 2W.3W.c, ;V.a, e# ++ 7! 8H.b, V; 4W.9, SJ.5W.2% 6W./6 38 !t }s Pc gl wd ab (m 7W.!^ EB.@).iM iM 0U Rm .^ +^ 8W.YE B; 9W.0W.#U.aW.yU.hF.bW.cW.L~ dW.PV.bW._q.KV.eW.fW.gW.hW.IS.)U.iW.IU.",
"jW.kW.lW.4V.ZV.4V.mW.5V.JU.8V.8V.nW.0V.oW.^U.pW.N3 qW.rW.VK.sW.tW.uW.)p vW.wW.FM.Z+ 1u ZO.ZO.WN.xW.z. yW.Z+ $@ |$ 3$ zW. @ #@ `+ >W.|& m/.v^ AW.DL.tT.uP.tT.zG.gN.iO.%P.2H.$P.2H.jK.jK.s% iN.wQ.wQ.yg.yh *s.#; G  B{ B} #! G  4u.u$ g& e& M2.M2.e& u$ *, G= BW.~; 6*.n$ x%.CW.Lu.M` k=.'I.AP.J3.(5 DW.Ku.EW.:L.}w.s' ~^ :6.FW.,0.{0.pb.*d.qb.sb.qe.pb.Qz.pb. a. a.+a./9.vb.i| mh U& ;& GW.p3.^R.AR.ui.HW.Ff.IW.-[.u .n4 JW._U *8.j4.{7.|6.f5.^7.46.kk.26.46.j5..d.a5.aS.&d :. ## fJ.mE.bA.z5. 1.0-.E#.KW.c*.~+.r;.J$.L#.=B 9'.j1 LW.eM.7P Wq.Vr.at.+s.hs.hs.es.qI at.I+ gs.gr.gr.Vr.kq.;s MW.eo.NW.T. T; U; W. ;V.<- a# @+ 8H.zV.$+ OW.b, 0, PW.QW..i RW.Wj /6 /6 38 wd )M.0U 0U iM ZX ST.Q& SW.YB !Q (D YB ]5 /6 TW.UW.I* VW.WW.hM.$U.XW.OV.dW.YW.ZW.bW.`W.L~ ca  X.MV.}V..X.eL +X.IS.@X.#X.$X.",
"%X.%X.%% 4V.ZV.ZV.ZV.ZV.&X.3V.3V.JU.m].K[./U.*X.=X.Ew.-X.;X.>X.,X.qd.'X.@u )X.!X.<& }$ [& Z+ ~X._c {X.|& }& $@ 7N.8  #@ 8  &Q.YN.|& }$ [& 1q ]X.d, :d.rI.)G.UJ.vP.wP.TJ.2H.5H.TM.'R.2H.#O.iN.8K.xG.VM.]6 ^X.#; s$ H  B{ *! q$ r$ v$ e& u$ I  t$ e& 4@ n{ N  /X.n; `5 ^% 5Y |,.r. V}.)D >O.>u KR n. p-.s .:* m. O` @` IX (X./8.tb.`0.*d.X0._c.pb.&d.Ka.re.pZ X0.,0.:c.;. 1v._X.$k w& FX :X.<X.BQ.l3.ui.k4.[X.2; }X.e_ aa.|X.SI.!7.95.*8.)m.k4.f4.d4.Aa.|6.{7.j4.m4.aF.1X.l= |. _* m; D>.y5.>u Ks i<.WU B,.M0.MM <t Nx.GC.uH r'  b 2X.$r.gM.@r.#s..s.ds.Nt.fs.}v  s.at.I+ Xs.@s.)  @r.3X.J* 4X.5X.6X.T; k% 7X.b, i* 8X.@+ X. $+ OW.$+ 7! c, 0, yP.9X.0X.aX._e _e u{ Kj /6 YB (D wd ~0 29 bX.cX.Ku.YB &3 >4 .^ 9| dX.eX.7l fX.gX.hX.KV.KV.iX.jX._V. X./B.MV.kX.lX.LV.hF.mX.QV.nX.T& oX.m].pX.)U.JU.",
"qX.kW.YV.ZV.ZV.ZV.ZV.YV.&X.rX.sX.HS.iT.NS.tX.0C kh uX.;X.>X.vX.[I.wX.xX.yX.w<. * zX.AX.BX.,F h# H8.CX.c  c  Z+ YN.$@ $@ $@ WN.5$ !t.&@ <& 4I M& DX.xG..I.tT.5J.jO.+O.zG.2H.iK.$P.2H.HL.sI.,q xP..I.vQ.)P.EX.H  Rt.V) X) E  X) G  4@ 5@ 5@ M  J  3@ }' 5@ f& lB.&d -y d(.4% V}.KR &- }0.O` .b [% FX.=B GX._Z x. b..=t.v%.mV./8.-. _n.U3 pZ La.pb.`0.*d.@g.pb.+g La.5[ eu.HX.IX. ! y( 9j JX.KX.AT.BQ.p3.LX.MX.~A.NX.m6.W+.kg.OX.PX.ra QX.RX.05.96.Jd.*8.}6.l3.^h.SX.&j.}) TX.5;.x5.BH.oN.I#.F9 'I.>k.,L.UX.fJ.R0 n. l~ +@.)* q, 2B VX.zv.Jt.+s.Xs.gs. s.@s.Xs.8t.@s.Ys.es.#s.)  gr.ds.47.WX.XX.]n.H~ 8# YX.l* 8H.a, :- $+ l% 8H.X. l% $+ l* ZX.`X.^;  Y.lu Nj Wi Nj Vj Vj Vj Nj 7' /6 /6 Wj .Y.V= +Y.(D Rm ~0 @Y.#Y.X` $Y.%Y.xU.RV.yU.yU.<V.<V.&Y.MV.*Y.`W.=Y.`W.jX.-Y.kX.yU.;Y.CJ >Y.m].HS.JU.V$ ",
"O+ 8V.,Y.FU.FU.FU.GU.HU.rX.y6 'Y.IS.)Y.NU.!Y.t% j) ~Y.Wl {Y.]Y.^Y./Y.[I.(Y.6e.li gV _Y.:Y.<Y.cT [Y.sX }Y.FM.6$ cT |Y.[& cT 6$ }$ 7$ d  d  &@ R~ 1Y.2Y.1U..I.jO.iO.tT.9K.zG.5H.HL.'R.2H.uP.3Y.uP.uP.vQ.4Y.</ 5Y.B  [@ PA.{C.$! M2.}' 4@ s$ <w.F  q$ 8; 8; H  f; 6Y.6*.7Y.p&.H*.m; 5Z n. [* p-.ft PL R0 zm.0-.ft V> U2.{Q._< ]W.<8.,0.~0.@g pb._c._c.pb._c.&d.Ka.pZ ~0.>. (8../.Q3 iY 8Y.}4.9Y.0Y.rV./Q.aY.bY.k' _% t .c( l} ^* 6L %- 0I cY. q.dY.eY.[O.fY.[7.:6.gY.u:.l= pW i<.p6.ED.hY.3Y );.<% iY.R0 /% ,# ;# zm.<% 7=.K-.%- jY.kY.$r.lq.}v Xs.Ys.Xs.Xs.8t.@s.Ys.@s.+s.gr.kq.Zr.lY.Jv.mY.'] 6! T; (- 9# l% 0# 8X.@+ 8H.l% $+ $+ $+ l% b, rI.b'.nY.oY.kR Ik ]j Go ^m Ek ^m Vn _~ u{ 8' 38 pY.li qY.hM (D rY.sY.T> tY.uY.AU.vY.XW.PV.wY.xY._q.`W.xY.xY.kX.<V. X._V.dW.wY.xU.hM.oT.yY.zY.HS.)U.V$ ",
"AY.8V.BY.y6 .W.y6 GU.GU.CY.'Y.{U.{U.jT.DY.5u x* EY.FY.GY./Y.HY.HY.IY.GY.JY.KY.tg h! Y,.LY.d  }$ |Y.cT :Q MY.d  t> 8$ d  K<.M- ^=.NY.OY.a{.!= 5:.R#.PY.QY.vQ.iN.m* TJ.tT.+O.2H.$P.$P.#P.uP.5J.sI.jO.vQ.mb.;] RY.6~ 0B.{C.PA.4~ g& g& B{ 3o.k_.E  C{ B  V) B{ 3A.SY.60 +:.5% =B 19.19.+` O` ^* pX r .MM 2C.[C.1% TA.q-.g*.*z >r.ne.>. *d.sb.*d.<c._c.Z0.*d.@g.Ka.`0.La.Eg.Od.67.{; p2 TY.-- UY.VY.io.(Q.9$ WY.Pv.9-.5i t .|;.wv 45 =@.jo 6=.R) j1 r, Ir og XY.YY.ZY.xj }. V(.}w.LL.`Y.[H =# j*.wj 4Y ~@.`1.x%.G#.Dd 3Y 1;.5;.pW  Z..Z.Ry @r.qI Xs.@s.0P )  hs.gs.#s.hs.)  +r.#r.4E (,.ht +Z.j% /- h* W. l% 0# @Z.$+ $+ X. ++ $+ Z. f# b, V; B^ TB #Z.Ik ql ql ^m $Z.%Z.'c )%.fl Uj +^ 8' Ms zC &d &Z.`i *Z.=Z.:4.'% -Z.$U.AU.!q.wY.dW. X.dW.`W.bW._V.L~ L~ <V.*Y.=Y.lX.;Z.(V.!q.>Z.,Z.'Z.zY.EU.'U.",
"m].JU.8V.bT.+W.)Z.!Z.9V.~Z.m].WV.{U.{Z.]Z.>) <4 ^Z.v[.Wl wX ^Y.]Y./Z.GY.(Z.p^ FE._Z.R} :Z.!= S- 1& GM./b.I* <Z.[Z.}Z.<g {3 2a LW |Z.X& :c V-.l{ E; 1Z.xF.sR.vQ.,q tT.)G.9K.#P.TM.5H.zG.#O.g# hN.UJ.wG.1U.2Z.vT.B  $! B  $! v4 G  u$ 4u.#, hr 6; 6; 3o.q$ H  i' <D !^ XC Mi.3Z.o6.~# 5Y KR p-.4Z.^Z ^% 88.24.g*.5Y L) 06 S& 5Z.<8.)9.`0.La.Pd.Z0.`0.qe.X0.pZ Z0.Z0.=d.~0.#a.Q4.l] <4  B 6*.n= 6Z.nA ~h li ~W.K< yh qv 25 #o 5i l~ m0 i= ik c= c= }. )p D% k= 7Z.K-.7L 4;.;@.KR EF.>k.EI.n. FF.);.|).Us 8Z.+@./* a| 3% =3 P@.q, 9Z..Z.HB hr.0P #s. s.Vr.@s.Ys.Xs.}v  s.+r.cr.lq.Wq.Td.0Z.d, 9# c, l* @+ aZ.@Z.8H.f# f# Y. 8H.Z. X. b, 0, g* bZ.cZ.dZ.Co 5O `%.wo XJ eZ.Ek fZ.]j {j +^ 8' +^ gZ.ob hZ.!Q iZ.db jZ.kZ.%U.wU.!q.PV.kX.`W.LV.lZ.*Y.lX.wY.YW.`W.PV.mZ.ZW.lX.nZ.RV.oZ.pZ.T= qZ.XG VV.9T.",
"{U.{U.HS.rZ.oW.sZ.cT.KU.tZ.HS.iW.A& uZ.Yh.vZ.wZ.xZ.yZ.;X.zZ.wX.AZ.,X.BZ.+k TB CZ.^Z.DZ.X( ^c.<& S- &@ )= EZ.]E !# FZ.GZ.HZ.U- IZ.EQ.<& JZ.;V KZ.3. mh e4.$O.$O.:d.iN.tT..O.UJ.jK.HL.UM.5J.gN.zG.UM.xG.wQ.LZ.0u V) #, F  .t.+t.v$ M  M  e& q$ v4 3o.4~ +t.G  2@ wz.h# 7L %u ]E {* F#.#@.^% b..9'.qX q, ^% Pi.*z F:.d(.R& n; MZ.W0.(i.Ia.=d.Ka.fh.X0.X0.pZ _c._c.Z0.~0.!0.Eg./0./G.h'.]o Sa.NZ.OZ.PZ.QZ.Z].2; RZ.#o %^ uJ.SZ.TZ.UZ./[.u%.Y& 6*.+] }* h! 60 q^ ), b/  I A  ^% '# w%.h<.{W.o6.b8.r4.{* 2B |,.MM 4P =B @` Ku.p; +..VZ.Yx  r.Wq.gr.)  Vr. s.at.at.}v 0P Vr.ds.Xq.4E Yq.WZ.XZ.8# 9# l% Z. ++ 8H.l% YZ.OW.8H.Y. OW.b, ZZ.9# 8# >i.^E `Z./6 O> Uj kR fZ.)$.kq Ik Uj Up lu Wq O>  `..`.t' +`.@`.8t <!.#`.$`.@U.#U.yU.mX.%`.kX.jX.&`.kX.RV.`W.=Y.YW.kX.*`.RV.<V.=`.LV.hX.-`.C .;`.>`.,`.K_ ",
"'`.)`.&S.!`.~`.*S.gT.*S.zY.{U.,`.{`.]`.^`.ss./`.(`.Xb._`.:`.sW.<`.[`.Xt ', Z..}`.Xb.|`.~^ 1`.2`.3`.)= 4`.5`.ni -@.6`.-@ LJ.7`.+ .S- }$ 8`.EQ.)= ^,.T& 9`.eu.&P.yP.iN.)R.zG.@O.4j.2H.#P.TJ.zG.zG.-L.8K.'G.SJ.DL NJ 8; <w.Rt.H  2W 5@ K  M  4u.<w.*! p$ F  8; H  ft.8n.7% 1. XC .! 0`.9<.## j1 L) }5 ~; 2J a`.b`.c`.d`.BP.50 WG %d.mb.U3 `0.@g.<c._c.~0.qe.re.X0.X0.La.tb.>. -. =R.e`.RG f`.g`.8' 2/ h`.i`.j`.k`.zk l`.m`.M' i. n`.;P ]K o`.9W.p`.q`.Z#.u%.96 r' v%.@# 4(.Pm Y1.i<.4Y zm.6% 4Z.EF./* r' @` 3Y P2.2C./% )* p; b(.r`.s`.t`.Ry #r.cr.ds.@r. s.qI  s.gr.@r.kq..r.Yq.u`.j_ v`.T; U; W. 7! 9# V; W. b, W; X. 8H.b, w`.k% H~ T; x`.$` y`.gl UI 9( Vj Ik gM #y /i +^ _~ Uj Wi z`.A`.B`.Bo C`.D`.n$ IX :n.E`.#U.!q.XW.-Y.%`.wY.XW.lX.lX.;Z. X.L~ LV.YW.F`.XW.RV.RV.hX.%U.G`.H`.I`.GS.J`.K`.",
"L`.M`.N`.:d.O`.3U P`.hT.6T.FS.Q`.R`.S`.T`.A/.U`.V`.W`.X`.Y`.Z`.``.&<.e#.`z   +-h.. ++ +b' -G @ +v> v).# +BS +z p&.c7 IX .~.$ +u> 7  }& [& }$ EQ.8$ g% % +U. $O.8K..I.,q 9K.UJ.'R.4j.jK.%P.jO.9K.tT.$O.&< C, On & +B{ H  2@ 3@ 5@ 4@ g& g& g& #; q$ 3o.k_.k_.p$ 8; * +T> 4*.S& 2a 7% z' = +- +; +> +_` , +' +) +! +~ +iL u@ <c 4f.hh.!9.~0.pb.`0.Z0.4j.nb.To.@g U3 ~0.Eg.w1 ub.{ +5& qz ] +^ +8' &3 ~D / +( +_ +_@ n`.: +DX i0.IZ.< +[ +} +[ +| +1 +2 +IP 3 +4 +t .!* PL @# R0 |).E#.x%.Y}.5 +Z'.o .f= Fs *N.>k.:C.tA ss.=B :4 D .6 +7 +zq gM.=A.Yq.Yq.4E hr.ds.lq..r.Wr.Yq.HB 8 +FP 9 +7# V; l* YZ.l* zV.a, e# a, <- 7! W. U; H~ R; wQ.0 +a +!Q !Q wd 38 Wq Uj P> >4 29 >4 (~ 9( _ .:e b +1).l~ 4% a#.3w.4} b~ c +$U.!q.[V.iX.<V.(V.<V.lX.bW.kX.lX.PV.d +xY.lX.nZ.NV.zU.$U.e +f +g +D: h +i +j +",
"k +DI.:. >! n= l +m +n +o +p +q +IB Bb (4 >P 1. pv P` Cb =o D|.LF r +3} s +t +Xb.u +v +E; D4.^! Wk.w +x +9-.]% F#.y +z +&+ $ +A +6N.3$ PW WN.Z+ [& B +EE C +wQ.D +yP.rI.3Y.9K.#P.hN.g# )G.iN.)G.t& &< E +U~ r, F +#; ft.M  f& K  I  4u.e& e& 1@ V) [@ /h AC.G +4~ H +u@ R} 9..I +J +K +L +M +N +O +P +q& Q +$. R +S +T +U +l{ }c.#a.[c.X0.Ka.@g.Ka.sb.~0.pZ @g <c.=d.~0..a.:8.eh.Z0 Qx V +W +(i &3 X +/v.Y +Bb Z +` +%z. .+..++.+@.+#.+$.+%.+%.+&.+*.+=.+-.+Q#.N%.E#.<% 3Y L) <% g*.&- Fs |).kw c( ,# 0U.;.+)N N@.=B |).PL >.+ ` ,.+'.+/B.).+C5.!.+@l $r.[W Yq.jq.br.gM.Ry is.~.+{.+9, V; ].+7! 8H.@+ 0# n% .+ 8X.@+ YZ.U; U; `' X; Q/ ,, ^.+_e /6 (D )M.!t /g.~0 lL.ua >4 /.+(.+_.+p&.R0 :.+L$.<.+[.+}.+|.+y' .u ^e 1.+vY.oZ.!q.!q.wY. X.%`.2.+&Y. X._V.PV.RV.nZ.vY.3.+4.+5.+6.+7c 1{ 7.+~+.L3.",
"8.+9.+0.+a.+(D.%F.x* b.+c.+d.+Lt hq e.+f.+|).F=.~* +@.j1 1q T> t% V= F; g.+. +xZ.h.+QJ R6.i.+7% j.+k.+e*.-y l.+c(.m.+){.n.+o.+&@ ZO.pP. @ 8  &Q.PW p.+{T q.+|{.'G.'G.8K.r.+iN.1M.DL.iO.wQ.uT.Ql.3J.s.+CT.}V.ji oh t.+M  K  f& L  4u.e& 7@ G  +t.hr :@ BC.uN fg 8; xP P& ~; /O }u.Kw.u.+l& l& v.+@. w.+x.+y.+R  b@ z.+v.+ |.L( A.+>. ^9.=d.Ka.Y0.=d.`0.Z0.pZ pZ _c.<i.nb.'0.,0.=. CN ;w.sN.)D !Q (i B.+C.+2; W& D.+f. #.+#.+@.+E.+QW.F.+G.+H.+:v.:v.I.+` +J.+E~.K.+P` hq gJ./% KR )# 45 C#.+` BH.1h }S.{5 h,.L.+}C.G#.d(.R0 gC.Z].y( Cb kh // M.+N.+O.+ca P.+Q.+R.+}u eM..Z.S.+ n T.+k% 9# c, ;V.l% 8H.8X.U.+V.+<- ;V.7X.9# W. 0, R; :c.Hd W.+Wq O> wd pS.2N.aL (D &3 /6 X.+Y.+gC.L$.Iv.0..^% G#.)D Z.+`.+ ++.++++++] 42 @++RV.yU.RV.nZ.bW.F`.F`.hF.kX.MV.lX.RV.#++$++%++&++j2 *++=++-++;++>++,++",
"P> 9( '++)++!++~++{++ii yh .I g= vv ]++^++BP.L#.x5.Z'.=3 Uw /++B>.pu q; ^' xZ.(++ b Cb _++:++FN.w& i= L$.>O.CZ.K-.<++[++}++k8 <& YN.#@  @  @ 1$  P.>W.|++Lr !] eu.&P.[< |{.uT.8K.sR.8K.&< s.+s.+:v.1++2++3++N~ &w 4++n{ f& 5@ g& e& 7@ v$ <w.4~ B  E  QA.6~ q$ ft.hA.u@ 5++V! 6++$. z$ 7++8++9++0++g@ d@ d@ a++0++b++c++d++d3 e+++a.tb.X0.To.nb.~0.pZ *d.pb.Ka.@g.*d._c.<c.Eg.:8.8%.f++g++Z& u{ &3 ^E h++i++po.j++f. +.++.++.+k++k++k++k++l++QW.m++@.+HT.n++kZ.o++XC 2} 'D./[.8Z.__.=t.G$.D#.m6.m3 ;g.Eo Fg !+.}C.}r )N qX R,.<g  b ^; h'.So 1^ ;& <i iR.Hi.p++q++r++*`.s++c^ V= t++u++f# Z. <- m% V.+.+ n% a, zV.OW.7! 7! l% W. xP.v++w++!; Nj Nj 38 ZX 0U 38 P> +^ Wj x++y++~+.H*.;g.`1.z++A++B++C++D++u# E++w# ^+.F++MK G++fc.yU.MV.mX.MV. X.<V.NV.H++I++J++K++L++:= )A.M++N++O++P++(~ Wq (~ ",
"P> _~ Q++R++F~.KI.S++T++U++V++c= 3n.W++X++5;.Y++Z++Hv.V}.5O.`++ @+x9.@I .@++@+@@+J( #@+xZ.$@+81 -@.59 %@+&@+*@+), =@+LJ.e  -@+h_.Z+ gO.YO..@ YO.8  1u #n.MK ;@+>@+,@+'@+>@+s.+ I.)@+:v.!@+~@+{@+]@+^@+CG.$i N~ N9 /@+N  |' M  e& e& t$ G  #, ]v.v4 X) $! #, 4u.u$ )~ (@+_@+:@+<@+9++9++[@+}@+L>.|@+1@+2@+2@+3@+e@ )q 4@+5@+ut 6@+)9.5[ pZ Ka.@g re.qb.`0.~0.`0.@g.X0.~0.Y0.^9./9.Zg 7@+#l 3} Yi 8'  b $, 8@++i $.+#.++.+9@+0@+a@+b@+G.+c@+E.+c@+c@+c@+0@+d@+Jx.e@+i=.f@+1% ZZ ft >u )N m6.Ku.h*.Dd :* p-.,;.:L.;e.9-.PL n$ g@+h@+i@+j@+k@+l@+iY zo :/ Z& p^ H( p^ Z0 26 0u a~ #D.m@+4W.7! <- Z. #+ a, X. n@+`. Y. Z. W; m% #+ o@+p@+b' q@+r@+s@+#y u{ u{ _~ Nj >4 wd t@+u@+v@+p&.%}.;# w@+u-.6*.x@+y@+f3.8- z@+>` A@+*H.B@+-F..o.O.+_q.}V.(V.!q.XW.zU.eW.C@+D@+k/ E@+F@+G@+P++Nj Nj /i (~ (~ (~ ",
"_~ P> H@+I@+,O ;Q W .^5.J@+K@+L@+s/ Wb.M@+'D.nK.mN.,# kw ho :q N@+O@+P@+M9 Q@+R@+j) S@+Xb.xZ.T@+6K.U@+V@+W@+X@+), VG.|K.v> Y@+>s !t.6N.YO.@@ WO.3$ eO.Z@+l] `@+`$ BV.WC. #+.#++#+@#+##+Rj.u9 t5.62 )4 X& t@ $^ O; $#+@; w$ 4@ e& e& H  8; *! *! V) 3o.v4 B{ e& 2@ M  %#+&#+*#+=#+!q }@+-#+L>.;#+|@+:].>#+>#+,#+3@+'#+S  )#+!#+y'.;. ]9.pZ pZ La.)0.{0.qb.*d.~0._c.`0.Ia._n.^9.;. I..~#+)o $^ {#+:k.3. 9; ]#+vj %.+^#+a@+m++#.+:v.:v.:v.b@++.+Tp.c@+F.+/#+j++=.+(#+c7 F=._#+<.+KR n. 1C.;x G#.:* O@.)N +@.X}.[y.r .2w.^% K-.:#+QU 1* <#+[#+}#+|#+1#+2#+3#+4#+q-.a~ QJ eA t/ ,, 5#+6#+U. c, W; <- :- 8X.#+ #+ m% 7#+0# <- $+ 9# /- 8#+59 9#+0#+a#+Jk Wq Nj (~ &3 !t b#+c#+45 Hg.k_ ^;.d#+e#+f#+g#+h#+E2.i#+j#+k#+k#+l#+l#+m#+n#+o#+;( p#+}V.vY.zU.yU.$U.q#+kR.li r#+s#+Kv u{ (~ (~ Wq (~ (~ Wi _~ ",
"8' 9E t#+u#+b` aR 9` v#+Ys.KI.w#+x#+1% LN.`1.p6.)D.v. a>.[* s, CZ.Kq.+@+&z }/ O& y#+^Z.[`.^Z.z#+A#+;L B#+C#+59 f1 RW )= d  }$ b.+]S.c  #@ WO.D#+YO.6N.E#+F#+K( G#+H#+I#+J#+N- cp I( eL ,~ K#+L#+M#+N#+O#+P#+(I 16 Q#+w$ w$ K  2@ e& B{ *! X) ]v.p$ cV 3o.G  #; #; 4@ nn.R#+S#+8++!q -#+-#+|@+|@+T#+!q U#+U#+>#+X  j].0++V#+!Q.W#+)9.:i. a.X#+fh.X0._c.pb.Ek.@g *d.&d.pZ Y0.Ma.:8.Y#+Z#+`o %- `#+ $+wA 4; mU ZU.f. G.+vp..$+#.+:v.:v.:v.:v.:v.:v.b@+b@+%.++$+@$+Om c(.Z'.2w.gJ.kh.=3 >u [* _Z q&.af.Y1.'y 5% PL D4.4Y *- #$+DA 9% 9% C. C. $$+4*.%$+&$+*$+=$+-$+LR ){ 1^ 25 If ;$+>$+Z' l* W; m% 0# #+ @+ W; 0# e# `. $+ U; R; eo.WS.4w.,$+/i '$+)$+_~ '; hM aL !$+~$+{$+aH.h<.]$+^$+/$+($+NB._$+:$+E++<$+[$+}$+|$+C# k#+l#+l#+1$+2$+3$+xg.4$+hM.5$+6$+7$+F[ 8$+9$+>4 Wj /6 Zi ah (~ Wq (~ ah +^ ",
"/6 0$+a$+~O 9` ^S fR 'P ~O b$+c$+d$+e$+f$+r;.@# 9n.q&.%# f*.oh w!.g$+f.+h$+6( Hj i$+sW.]/.u +JY.j$+k$+l$+m$+6*.W- n$+}$ 5$ 5$ #B !t.!t.WN.#@ WO.CX.VN.}$ o$+,> Sg v@ O; E} -4 0'.p$+q$+r$+s$+t$+u$+v$+qq w$+qq x$+u@ y$+f& G) g& r$ V) $! 6; $! X) :@ 3o.r$ t$ 2@ 5@ z$+A$+p& *#+B$+}@+C$+-#+T#+D$+E$+F$+U#+>#+G$+H$+b++.. U. q> _8.w1  a.~0.=d.`0.*d.Pd.Ka.qb.Ka.pb.`0.U3 ]0.Dg.I$+;l.lm J$+Ol K$+L$+H= M$+N$+HT.@.+F.+O$+7] :v.:v.:v.:v.:v.:v.#.+P$+%z.Q$+R$+S$+ ! q .x%.[C.T$+D#.ho Fg V(.x{ }C.fk.B5.F4.7c.:% y. t .U$+bD C. f% b* WF 9% ys 3# V$+W$+<F X$+X@ ]~ ,> U~.$^ Y$+]n.Z' c, 7! l% b, 7! 7! l* 0# jV.#+ 0, U. f* Z$+`$+D;  %+O> .%++%+(i ab @%+#%+$%+FZ.@  9c I#.=B _* wv Cm 6;.%%+}+ i#+&%+*%+=%+-%+;%+y .>%+,%+l#+m#+'%+)%+!%+~%+{%+]%+a~ ^%+/%+Zi Zi u{ /6 Wj u{ _~ Wi (~ _~ u{ ",
"8' (%+_%+fR uT Q!.Q!.-} -} fR #W.]5.:%+<%+[%+KR 0-.rH.[% D#..I x<.}%+6k |%+1%+`z 2%+3%+WE.sR 4%+ow i%.7+.5%+~; 6%+S- >W.&Q. P.3I 7%+1& }$ c  #@ CX.YN.8$ m$+u@ ;! 8%+9%+0%+a%+b%+c%+d%+E> e%+Q] A> z> l$ b& z> f%+r| g%+K  e& H  +t.6; 9B.0D.k_.9B.PA.V) H  g& 4= N  !n.=' h%+i%+j%+X  k%+l%+D$+l%+F$+F$+U#+m%+n%+3@+o%+p%+ze.q%+>. =. ~9._c._c.*d.@g.Z0.Qd.Ka.Qd.`0.@g ~0.~9.-. r%+s%+lm t%+u%+7O v%+2; w%+x%+my.b@+c@+i[ F.+0@+0@+b@++.+E.+O$+b@+x'.d. y%+@$+(* c( Y}.n. *# z%+%# %# k=.G4.[H (5 h<.__.G#.Uz Eo w5.Mm A%+B%+V$+I; (# 2# C%+.0.3# D%+$$+<F E%+<g fG qj F%+@] G%+H%+U; 0, I%+_- 7X.w`.I%+7X.<- :- Y. 0, 1W.]n.J%+l~ i= K%+L%+M%+N%+O%+P%+{h.BH.[0.tA KE.(% Q%+;e.R%+S%+Cb VK T%+U%+V%+W%+=%+X%+A* Y%+=%+B# y .Z%+l#+m#+U%+`%+B,.V8 bi  &+.&+bh bh Nj Wi O> /6 7' ah _~ _~ _~ 9( ",
"Zi +&+@&+uT fR uT ^S #&+uT 'P :N $&+fM.;T.%&+b..,# q .uH *;.F=.I* ZD &&+*&+LF ^E 9H.EC.=&+yZ.m$+<`.-&+W@ ]~ _@ ,Q.[& `+  @ YO.;&+)P.6N.Z+ 6$ WN.#@ c  MJ.>&+O; mo ,&+Jp.R~.)5 )1 '1 /@  ; /@  ; D) E> D) '&+3| R}.B/ O0.4@ #; #! 3o.PA.<@ 6~ 0D.PA.[@ <w.H  K  H> M  Sz.:6 tT )&+!&+~&+{&+]&+^&+/&+F$+F$+F$+(&+m%+3@+d@ _&+(&+r| ^9./%.,0.U3 pZ &d.&d.pZ qb.Qd.Ja.Z0.sb.X0.Eg._8.{ +hX lm :&+<&+[&+{Q 2; }&+|&+1&+2&+m++3&+3&+4&+3&+5&+6&+7&+8&+3&+E.+#.+9&+WW.0&+`B Ks V&.a&+WG.EF.G#.m. >u (5 dH.d& Y}.i` R0 +` 3Q.(4 b&+<F c&+I; 0% d&+e&+rf f&+C. _F _F g&+h&+J{ TB i&+8%.j&+X; W. 9# 9# u++l% b, b, OW.Z. @+ f# W. KT.NW.z6.Bb 15 +@.T^.i=.3c.*z  ! k&+l&+m&+o6.Ku.*O.g*.=B @# n&+o&+p&+q&+r&+k#+s&+t&+t&+u&+u&+-%+=%+v&+&* 9+ X%+w&+x&+y&+z5 z&+A&+#y 5O ]j ]j Co Wq +^ /6 u{ O> O> 9( O> ",
"Zi B&+fR qc ]S C&+#Q -Q )O D&+E&+hs.F&+iq.G&+3c.f*.qr r. z>.o6.|C -$ y) H&+hi.I&+Xb.Xb.J&+VK.}`.K&+L&+dk ;& M&+!= }& 1$ .P..@ 9  N&+O&+&Q.P&+5$ `+ >W.8$ =M.r, Q&+'5 qq +3 z> E> Y- Y- a& }= x  }= R] Z- Z-  ; R&+Z] bY.#; H  }@ k_.zC.zC.:@ cV $! p$ B{ v$ f& L  s$ 1B.Z& S&+T&+U&+C$+V&+W&+l%+X&+F$+F$+F$+]&+,#+3@+Z  0++Y&+M& /%.3y.X0.~0.pb.*d.`0.pZ qe.rb.Z0.Z0.`0.*d.Ia.)9.Z&+,> lm `&+ *+.*+Q-.c| d..+*+my.9@+O$+@*+Vp.#*+Vp.5&+$*+%*+3&+Vp.E.+&*+d@+**+|% p6.Y1.p6.DC.=*+'# !+.EI.mK.'# r4._* Ku.*# h*.19.d(.j1 -*+;*+>*+oZ.1& `t H4.]E z9 ,*+2! '*+)*+!*+X& ]~ ~*++f j&+`' ;L.l% $+ 8H.8H.f# 7! i* ;V.7! 7! ZZ.k% 9! {*+~; ]*+^*+/*+(*+:(.Nz.,d.~# ho jj !j b_.h*.EF._*+r .l. kw :*+<*+28.N% x# U< u&+u&+[*+}*+X%+|*+1*+N% 2*+i#+3*+4*+%~.5*+Qj {j }m ]j xo gM pl Nj u{ '; u{ +^ O> O> ",
"u{ 6*+-Q #W )O fR b` 7*+Y(.~O ~O NI.MF./O.8*+9*+59 3Y !+.fJ.0*+6=.m0 ob u_ q;.Z`.xZ.-h.a*+b*+c*+d*+t, .r K> e*+3`.1u f*+g*+@@  g.CX.h*+=z.xq.1u PW Z+ )= i*+(= j*+R~.)5 )1 l$ D) 0& {@ r  r  rq {@ k$ m  )@ /@ '1 b(.k*+q$ B{ V) {C.AC.]C.$! v4 V) 8; G  3= N  #; #; 2@ r, l*+S  d@ n%+T#+D$+m*+F$+F$+F$+n*+k%+V&+n%+}@+o*+h@ Dt p*+[c.<c.pZ X0.`0.`0.qe.@g Ka.Z0.`0.*d.X0.]0./%.:8.w& lm ;$.q*+r*+s*+|; qj t*+:v.+.+l++@*+3&+3&+4&+^k 5&+6&+6&+3&+u*+&*+v*+h..[0.i` ># w*+h<.%@.)# x*+[C.y*+PL <W.q&.L$.K#.rB ## 1+.,, Lk f3 62 Fx.z*+A*+0% B*+W#.]; C. C*+D*+E*+Q& kh F*+G*+H*+Z' b, W; Z. 8X.0# ++ #+ 8H.l* u++YZ.l* U; I*+J*+7L K*+A% L*+qV M*+N*+O*+P*+Q*+R*+T}.ih.j=.KR >u $` f$+)` S*+T*+|+ U*+v&+u&+|*+V*+S[ S[ z@+z@+F% W*+l#+7- X*+|O xm Y*+8' Wi Vj Jk ]j gM Ik Vj Nj _~ 9( u{ u{ Kj ",
"O> .C.Z*+^P `*+ =+9` %Q aR ~O ~O NI.4M 5t..=++=+]% Tw.K#.Y}.L#.35 uH IX ), @=+#=+$=+%=+&=+O&+k( *=+==+J7 -=+;=+<& 7N.CX.0  =Q.@@ .@ f*+gO.^[ >=+ZO.|Y.,=+'=+)=+!=+qq -~ l$ (A R] 3( r  j$ i$ i{ w  f$ k$ 0& /@ D) fA.~=+X) X) PA.AC.AC.{C.X) #, 8; w4 e& f& K  H  2@ H) {=+]=+^=+a++3@+m%+/=+F$+(=+F$+T#+)#+n%+,#+T  |@+o*+.. 9b _=+tb.!0.La.La.pZ pb.Ka.qb.@g re.qb.`0.X0.[c.+a.:=+U& lm <=+v|.[=+}=+H= {u |=+..+@.+1=+3&+%*+k++O$+l++8&+3&+7&+Vp.u*+b@+2=+3=+#@.o6.n. *<.9c 4=+fJ.q. 5=+|w.W}.R0 B,.J3.2} ss.';.~# p1.6=+7=+8=+L. P. L; 7* 2* 9=+Q& 0=+L9 Z0 D: ;& Z0 DZ a=+H*+X; 0, b, <- <- :- @+ l% ;V.l% ;V.b, 7! U; 9, yc b=+c=+d=+x% g, t^ Ih $) )l iW e=+f=+g=+h=+i=+j=+X1.3Q.k=+l=+m=+n=+A# v&+:+.o=+z# D&.p=+u&+q=+;%+r=+*%+MA s=+&a.t=+u=+/6 u{ Uj #y }m ]j ]j ]j #y Vj pl Uj P> Kj ",
"v=+w=+x=+Z*+y=+z=+Y .e1.A=+q+.B=+aR NI.)  as.C=+60 4% }0.|C Ku.r' 6% N2 E< I( }h D=+E=+F=+G=+H=+I=+J=+K=+L=+M=+GM.`+ 9  0  b  b  @@ 9  1$ N=+v~ ;X.1& U- O=+@@+P=+'5 _' A> D) Y- }= k$ {@ {@ o  p  {@ )@ D) A> z> Q=+R=+:@ fg Nl S=+C  {C.3o.8; G  1@ 4@ 6@ 4@ u$ 5@ f& T=+U=+V=+W=+X=+,#+Y=+U#+F$+Z=+co `=+ -+{&+l%+Z  o*+.. OD .-+(c.X0.pZ _c.Ka.@g Ka.Z0.*d.pb.+g 3f.`0.+a.+a.;F.&w +-+@-+Lz..>.&j 2~ y( #-+&*+@.+E.+3&+^k O$+QW.$-+%*+%*+%*+@*+.$+&*+2=+%-+WU g*..,.c' W~.dH.u. x{ `1.s. {* af.Ks i` )N />.9-.R} /J 1* &-+H; P. 3* *-+=-+L; (# --+Op ;-+>-+,-+'-+)-+]~ !-+HR.~-+T. V; 7! ++ X. X. Z. n@+Z. @+ 8H.f# ;L.YZ.{-+]-+-+ ^-+-+ l# o# i, '+ h, '+ '+ 3- Xl P~ P~ /-+g~ 96 (-+7- J% _-+C( :-+<-+[-+u&+u&+u&+u&+=%+=* ], >` }-+|-+1-+2-+'; /6 8' Wq ]j ]j Vn Vj Vj Vn Ik Ik kR Jk bh ",
"3-+CY &  E&+US >S 4-+e1.e1.5-+y=+PS NI.Ws.3M 6-+7-+=@.rX P` |j 8-+9-+0-+a-+b-+bR.V# c-+,& +/ d-+7T.i/.e-+G, xp.5$ 8  .@ 0  f-+qQ.=Q. g.fO.PW g-+c&.h-+}^.i-+j-+UB k-+)1 ;~ Y- a& }= x  f$ w  o  [= 3( h{ A> ;~ ;~ l-+m-+0D./h /C.Nl fg 9B.p$ B{ 1@ H  4@ M  K  K  8@ h& LH n-+h@ o-+`=+,#+>#+U#+F$+)q }@+F$+]&+p-+G$+e@ o*+b++T! q-+3y.pZ X#+3f.Qd.Z0.pZ *d.fh.&d.X0.~0._c.~9.tb.-. w} Xo @s.U(.r-+s-+H  $k +$+#.+/#+c@+k++O$+O$+Vp.7&+@*+@*+t-+k++u-+v-++$+w-+L$.)N mE.+e.x-+cB.Oz.iP.y-+bf.X1.Q2.O` ,# qv ^* +@.z-+A-+G; B-+/# G. |# )- I. L. f% ]` C-+/# }, c&+B-+[, D-+E-+'] 9! 8# 0, b, $+ #+ 8H.b, u++W. 9# 7! W; @+ 2[.$' HW A$.o# -+ j# q* g, '+ n# A% A% p# A% 7o ^g '+ F-+P` G-+H-+G% z@+|*+:+.u&+I-+1+ J-+A*+u&+=%+|$+K-+V%+L-+o` M-+N-+8' /6 7' P> Vn Ik Vn {j {j lu {j {j {j Vn Vn ",
"du kH.gs.CY <U ;S y=+Z .Z .`*+Z*+O-+CY P-+Ad.Q-+R-+1M S-+T-+U-+V-+W-+I0.X-+>`.Y-+3: O+ += '$ Z-+__ `-+ ;+e{ .;+7  #@ .@ sQ.qQ.qQ.b  @@ pP.ZO.Z+ wz n3 z/ ,~ FL d..+;+C) /@ Z- r  f$ w  w  o  e$ Y- 0& h{ )@ Z- ls @;+hq B  /h BC.fg 0D.$! }@ G  r$ #; 3= K  5@ K  8@ 5x.#;+$;+4@+c@ %;+m*+>#+U#+&;+A$ *;+(=+=;+-;+[p e@  . ;;+4. >;+~9._n.U3 &d.rb.&d.)0.pb._c.nb.<c.~0.]0.(c.Sd.-. E[ ,;+';+z' ]% );+B{ 7% +$+f. H.+,q.O$+c@+k++O$+8&+k++k++@*+m++:v.cS.#-+!;+9'.g*.&# ~;+x{ {;+Oz.Tx.9A.dH.^[.!N r .E:.o. =t.Z'.o; xF $$+C%+Q. E. 8* |# ];+L; ^;+9$ /;+(# 0% 2* 2# I; (;+_;+>V.NW.T. V; 7! W; 0# c, l* l% W; 8H.X. $+ l% .O.x<.:;+)+ =+ ]+ r* q* p# Xl '+ f! p# /+ i, )+ l# ;+ <;+U= [;+G% };+x# 28.|;+1;+u&+2;+3;+4;+5;+=%+-%+6;+E++7;+18 : .8;+^j /;.8' O> (~ Vn ]j Vn {j P> O> Kj 9( Uj Jk ",
"$!.9;+8t.>O -&.0;+NX ^P ^P B=+aR ^N 0M.a;+b;+Vs.c;+d;+e;+f;+g;+5: J[.h;+v] '$ O+ ]$ i;+p:.#X.G- j;+ W.k;+l;+dj ZO.3$ WO.=Q.qQ.qQ.b  @@  @ WN.d  P; u~ 7e 9j N9 qj m;+A>  ; `- f$ w  n  m  m  ]@ h$ r  ^@ h$ ]@ e$ n;+c( 4~ o;+C  :@ k_..t.G  r$ H  M2.L  K  K  )~ 2= |' p;+q;+V#+r;+Y  2@+/=+=;+c++`=+U#+s;+>#+p-+3@+d@ S  A$ Gh t;+^9.Y0.)0.nb.Z0.pZ )0.`0.)0._c.!0.X0.~0.:8./9.ne.E; u;+As v;+w;+x;+E'.E< y;+g. z;++.+m++m++QW.O$+O$+QW.1=+E.+G.+A;+e. B;+!;+25 rB p-.C;+Hy.Y++PB.[C.6B (5 EI.a| R2.^* J3.w5.bD.[i B. B%+I; a* H. *-+];+|# 7* VG.t#+D;+L; M. I. P. D;+E;+F;+Zn.G;+H~ 0, $+ Z. 8X.zV.zV.<- a# a# m% Y. H;+I;+j( [G t^ ;+ =+ q* -+ e! h, '+ /+ t^ ;+ )+ !+ =+ g, J;+Bn K;+L;+wJ.;J.M;+;%+lf.X[ N;+O;+P;+wJ.Q;+_-+_-+R;+S;+y5 T;+U;+V;+W;+X;+Y;+Z;+`;+Vj ]j #y _~ _e >4 8' (~ Uj ",
" >+4. XC..>+>O *  `V NX NX ~O +>+MI.WW @>+#>+uO.$>+%>+&>+*>+pX.(_ O! =>+^{ u] !$ !$ ~$ i;+->+K_.;>+N+ >>+^[ ,>+7N. @ WO.b  qQ.qQ.b  @@  @ WN.d  '>+i) r, @I -4 $b )>+E> /@ {@ h$ ~@ r  }= f$ p  ~@ Ef.t  s  TA ^@ !>+mo X) AC.zC.9B.hr #! H  r$ v$ 3= J  M  M  M  M  N  ~>+{>+V#+o*+]>+2@+{&+]&+^>+]&+>#+/>+,#+2@+Z=+c@ h@ =#+.R (>+/%.!0.]0.!9.pZ '0.!9.5[ (c.3y.)9.!9./%.ho.ho.W0.:c en _>+o .y5.:>+<>+:4 } +` +e. %.+H.+@.+@.++.+2&+a@+m++a@+/#+HT.cS.[>+bF.1).Eo 5% s .x{ }>+EF.]G.fk.O@.4Z.>P.Kz.N%.|>+@s -@.60 1>+<F (# 7* :# H. 8* |# 0% Z| 2>+4* G. )- 3* 3* L; 3>+4>+eo. ) k% c, Y. n@+5>+`. <- aZ.#+ 8X.:- Z. 8H.6>+z9 7>+ec $) f! ;+ p# '+ j, A% f!  > =+ q* o# )+ ;+ 8>+k= 9>+0>+8- a>+b>+S[ S[ c>+P;+O;+d>+P;+e>+8+ w# f>+g>+<2 h>+i>+j>+I, k>+l>+m>+n>+o>+=n.p>+q>+&3 UI >4 r>+s>+",
"t>+u>+ @.h).v>+k:.E..iJ.iJ.aR 43.TL.w>+x>+y>+Zr.z>+A>+B>+ac ;>+C>+h> !$ D>+E>+F>+g> T+ Z, O+ )& G>+H>+I>+=' J>+6N.3$ WO.=Q.b  f-+b  @@ 3$ 7  K>+L>+;& D: O; $[.O& Fb.'1 m  9& h$ h$ {@ }= n  s  Ef.M>+~@ o  f$ N>+J) _4 X) /h =^ 0B.4~ G  r$ H  g& M  L  M  3@ K  5@ 8@ p{ O>+9++g< U  P>+,#+X=+-#+,#+2@+3@+Y  Z  c@ .. D$ Q>+Pq WG >0./%.(c.oe.~9.5[ ,0./%./%.w1 (i.+a.;. 57.;F.67.Nm R>+S>+c7 #o T>+U>+I* i. V>+` +EQ.%.+I.+v-+z;+&*+^#+z;+&*+0@+I.+W>+J.+X>+m6.q&.KR 'D.-x.lh O@.GX.2q Oz l@+bA.I#.b8.s .`B y. 2B Y>+'*+Z>+I. 8* E. G. |# L; .E `>+d% ];+F. 3* a% L.  ,+.,+i% R; +,+u++Y. ++ ++ 8X.q% jV.<- ++ Z. Y. @+ @,+:. #,+A% /+ A% >+ 3- '+ i, y% P} !+ ~+ !+ ^+ =+ ;+ $,+w<.%,+<$+I-+&,+j#+*%+&,+1+ o=+iT M;+&* L% L% 0>+q5.*,+NC.=,+-,+;,+>,+,,+',+L, ),+L, L, k+ !,+~,+{,+],+^,+/,+"};
