/* XPM */
static char * 3_xpm[] = {
"256 256 22403 3",
"   	c #60563E",
".  	c #584E38",
"+  	c #5C523B",
"@  	c #675D45",
"#  	c #5B503A",
"$  	c #685D45",
"%  	c #625740",
"&  	c #5F543E",
"*  	c #5E533E",
"=  	c #655943",
"-  	c #5B503B",
";  	c #594D38",
">  	c #635840",
",  	c #60543E",
"'  	c #6B5F46",
")  	c #675C45",
"!  	c #6E634B",
"~  	c #756B52",
"{  	c #69604A",
"]  	c #554F3B",
"^  	c #58513C",
"/  	c #5D543F",
"(  	c #4F4633",
"_  	c #6B624C",
":  	c #544B38",
"<  	c #6A614B",
"[  	c #6D644E",
"}  	c #5F5542",
"|  	c #645B46",
"1  	c #685E49",
"2  	c #6A604B",
"3  	c #716650",
"4  	c #706650",
"5  	c #534936",
"6  	c #5C513E",
"7  	c #6E634D",
"8  	c #6F644D",
"9  	c #6E634C",
"0  	c #695E48",
"a  	c #5C503C",
"b  	c #73684F",
"c  	c #786D54",
"d  	c #70644D",
"e  	c #675B44",
"f  	c #70644B",
"g  	c #6F644B",
"h  	c #72674E",
"i  	c #655941",
"j  	c #62573F",
"k  	c #635941",
"l  	c #5E543E",
"m  	c #5F553F",
"n  	c #5F5640",
"o  	c #605640",
"p  	c #544834",
"q  	c #47371E",
"r  	c #564739",
"s  	c #57493A",
"t  	c #4E4133",
"u  	c #514436",
"v  	c #594C3D",
"w  	c #564839",
"x  	c #403427",
"y  	c #5D5040",
"z  	c #56483A",
"A  	c #524436",
"B  	c #4F4234",
"C  	c #4F4435",
"D  	c #453B2D",
"E  	c #5B4F40",
"F  	c #42382A",
"G  	c #4D4936",
"H  	c #524D3A",
"I  	c #56513F",
"J  	c #5A5242",
"K  	c #5A4F3F",
"L  	c #55493A",
"M  	c #5B4E40",
"N  	c #665A4A",
"O  	c #615547",
"P  	c #5C5041",
"Q  	c #625647",
"R  	c #706555",
"S  	c #5D5042",
"T  	c #67584A",
"U  	c #6C5E4F",
"V  	c #716152",
"W  	c #6D5D4E",
"X  	c #6E5F4F",
"Y  	c #635546",
"Z  	c #726454",
"`  	c #756657",
" . 	c #766657",
".. 	c #7E6E5E",
"+. 	c #706051",
"@. 	c #6F5F4F",
"#. 	c #716151",
"$. 	c #746353",
"%. 	c #625243",
"&. 	c #5B4C3D",
"*. 	c #605041",
"=. 	c #6A5B4A",
"-. 	c #70604F",
";. 	c #6D5C4C",
">. 	c #6F5E4D",
",. 	c #6D5C4B",
"'. 	c #685746",
"). 	c #695847",
"!. 	c #5E4D3D",
"~. 	c #5F4F3F",
"{. 	c #5E4E3E",
"]. 	c #5C4C3C",
"^. 	c #645444",
"/. 	c #635343",
"(. 	c #5A4A3B",
"_. 	c #514132",
":. 	c #42321A",
"<. 	c #61523E",
"[. 	c #675844",
"}. 	c #635340",
"|. 	c #5C4D3A",
"1. 	c #5F4F3C",
"2. 	c #594A37",
"3. 	c #594936",
"4. 	c #584835",
"5. 	c #4E3F2D",
"6. 	c #62533E",
"7. 	c #645540",
"8. 	c #5B4C39",
"9. 	c #5F4F3B",
"0. 	c #6A5A45",
"a. 	c #685843",
"b. 	c #695944",
"c. 	c #6E5E49",
"d. 	c #665643",
"e. 	c #685A46",
"f. 	c #7B6B56",
"g. 	c #73644F",
"h. 	c #5F5340",
"i. 	c #605542",
"j. 	c #574E3C",
"k. 	c #514836",
"l. 	c #595E43",
"m. 	c #524E39",
"n. 	c #5F5F48",
"o. 	c #5A5B43",
"p. 	c #60614A",
"q. 	c #4F4534",
"r. 	c #716551",
"s. 	c #786A56",
"t. 	c #7D6E5A",
"u. 	c #7F6F5B",
"v. 	c #6E5F4C",
"w. 	c #6E5E4B",
"x. 	c #71624F",
"y. 	c #675745",
"z. 	c #776752",
"A. 	c #6D5D49",
"B. 	c #685844",
"C. 	c #756550",
"D. 	c #796954",
"E. 	c #766550",
"F. 	c #75644F",
"G. 	c #695844",
"H. 	c #6B5A46",
"I. 	c #64533F",
"J. 	c #655540",
"K. 	c #6C5B45",
"L. 	c #64543F",
"M. 	c #63533E",
"N. 	c #5D4D38",
"O. 	c #5B4B37",
"P. 	c #5A4A37",
"Q. 	c #60513C",
"R. 	c #61523D",
"S. 	c #5A462B",
"T. 	c #402B11",
"U. 	c #442B08",
"V. 	c #654B32",
"W. 	c #75583D",
"X. 	c #76593E",
"Y. 	c #6A4F35",
"Z. 	c #705338",
"`. 	c #6B4F34",
" + 	c #74563B",
".+ 	c #6F5339",
"++ 	c #6C4F35",
"@+ 	c #6B4E33",
"#+ 	c #76583C",
"$+ 	c #674B32",
"%+ 	c #63482F",
"&+ 	c #6F5236",
"*+ 	c #785A3E",
"=+ 	c #785B40",
"-+ 	c #6F533A",
";+ 	c #795C40",
">+ 	c #806245",
",+ 	c #826447",
"'+ 	c #826448",
")+ 	c #7E6145",
"!+ 	c #806347",
"~+ 	c #7D6045",
"{+ 	c #816549",
"]+ 	c #886A4F",
"^+ 	c #86694D",
"/+ 	c #81654A",
"(+ 	c #7E6248",
"_+ 	c #886B4F",
":+ 	c #8E7155",
"<+ 	c #86694F",
"[+ 	c #7A5D44",
"}+ 	c #85684C",
"|+ 	c #775B41",
"1+ 	c #83654A",
"2+ 	c #7B5F45",
"3+ 	c #84674C",
"4+ 	c #86684D",
"5+ 	c #7C5F45",
"6+ 	c #795D43",
"7+ 	c #836549",
"8+ 	c #6C5038",
"9+ 	c #7C6044",
"0+ 	c #6C5138",
"a+ 	c #75593D",
"b+ 	c #7D6043",
"c+ 	c #7A6043",
"d+ 	c #7C6143",
"e+ 	c #6E573A",
"f+ 	c #695737",
"g+ 	c #71583B",
"h+ 	c #6F5439",
"i+ 	c #6E5438",
"j+ 	c #6F553A",
"k+ 	c #6D5238",
"l+ 	c #6B5036",
"m+ 	c #70563A",
"n+ 	c #735A3D",
"o+ 	c #563D27",
"p+ 	c #402E0A",
"q+ 	c #4F4631",
"r+ 	c #675D47",
"s+ 	c #695F48",
"t+ 	c #635842",
"u+ 	c #574C38",
"v+ 	c #665B45",
"w+ 	c #675C46",
"x+ 	c #685D47",
"y+ 	c #645943",
"z+ 	c #665A44",
"A+ 	c #6A5F47",
"B+ 	c #5F533D",
"C+ 	c #6D6149",
"D+ 	c #6D624A",
"E+ 	c #72674F",
"F+ 	c #746951",
"G+ 	c #544E39",
"H+ 	c #63604A",
"I+ 	c #5E5844",
"J+ 	c #665D48",
"K+ 	c #665C47",
"L+ 	c #5F5844",
"M+ 	c #716852",
"N+ 	c #6E644E",
"O+ 	c #524836",
"P+ 	c #625944",
"Q+ 	c #6F654F",
"R+ 	c #746A54",
"S+ 	c #554C39",
"T+ 	c #635A45",
"U+ 	c #716751",
"V+ 	c #6D634D",
"W+ 	c #6F644E",
"X+ 	c #665A45",
"Y+ 	c #6D624B",
"Z+ 	c #71664F",
"`+ 	c #675B45",
" @ 	c #685D46",
".@ 	c #756A51",
"+@ 	c #73674F",
"@@ 	c #695D47",
"#@ 	c #645942",
"$@ 	c #6E634A",
"%@ 	c #6C6149",
"&@ 	c #6E644C",
"*@ 	c #6A6048",
"=@ 	c #6C624B",
"-@ 	c #6A5F48",
";@ 	c #675D46",
">@ 	c #615742",
",@ 	c #6C624C",
"'@ 	c #51422C",
")@ 	c #4C3B23",
"!@ 	c #685949",
"~@ 	c #635445",
"{@ 	c #5E4F41",
"]@ 	c #594C3E",
"^@ 	c #5D4F40",
"/@ 	c #554739",
"(@ 	c #544638",
"_@ 	c #6A5A4B",
":@ 	c #685849",
"<@ 	c #534436",
"[@ 	c #544738",
"}@ 	c #5E5343",
"|@ 	c #4B3E30",
"1@ 	c #4F4737",
"2@ 	c #55503E",
"3@ 	c #50533B",
"4@ 	c #55563F",
"5@ 	c #5F5646",
"6@ 	c #5A4D3E",
"7@ 	c #6B5C4D",
"8@ 	c #706152",
"9@ 	c #5B4F3F",
"0@ 	c #605646",
"a@ 	c #635748",
"b@ 	c #786B5B",
"c@ 	c #736556",
"d@ 	c #5E5042",
"e@ 	c #645749",
"f@ 	c #726354",
"g@ 	c #736455",
"h@ 	c #776758",
"i@ 	c #5D4E40",
"j@ 	c #695B4C",
"k@ 	c #6D5F50",
"l@ 	c #796A5A",
"m@ 	c #786858",
"n@ 	c #7C6C5D",
"o@ 	c #6A5B4C",
"p@ 	c #726353",
"q@ 	c #625344",
"r@ 	c #5F4F41",
"s@ 	c #69594A",
"t@ 	c #605142",
"u@ 	c #665948",
"v@ 	c #635344",
"w@ 	c #665747",
"x@ 	c #736251",
"y@ 	c #6A5949",
"z@ 	c #6A5A49",
"A@ 	c #685848",
"B@ 	c #665646",
"C@ 	c #615143",
"D@ 	c #615142",
"E@ 	c #564637",
"F@ 	c #46361E",
"G@ 	c #756551",
"H@ 	c #6D5D4A",
"I@ 	c #635441",
"J@ 	c #655643",
"K@ 	c #554532",
"L@ 	c #695945",
"M@ 	c #655642",
"N@ 	c #625340",
"O@ 	c #645642",
"P@ 	c #6F604B",
"Q@ 	c #6A5A46",
"R@ 	c #61513E",
"S@ 	c #6F5E49",
"T@ 	c #75654F",
"U@ 	c #72614C",
"V@ 	c #72624D",
"W@ 	c #72634F",
"X@ 	c #7F6F5A",
"Y@ 	c #70634F",
"Z@ 	c #584B39",
"`@ 	c #58513D",
" # 	c #514D39",
".# 	c #534F3C",
"+# 	c #58503D",
"@# 	c #5B4F3D",
"## 	c #675F4C",
"$# 	c #483D2C",
"%# 	c #6D614E",
"&# 	c #675947",
"*# 	c #776854",
"=# 	c #746451",
"-# 	c #81715D",
";# 	c #7D6D59",
"># 	c #72624F",
",# 	c #74644F",
"'# 	c #685845",
")# 	c #7C6C56",
"!# 	c #766551",
"~# 	c #6D5C49",
"{# 	c #675742",
"]# 	c #6C5B46",
"^# 	c #6D5D47",
"/# 	c #6B5B46",
"(# 	c #6E5D48",
"_# 	c #6C5C47",
":# 	c #675743",
"<# 	c #665743",
"[# 	c #5F503D",
"}# 	c #483015",
"|# 	c #583913",
"1# 	c #674C30",
"2# 	c #765A40",
"3# 	c #75583E",
"4# 	c #775A3F",
"5# 	c #74573C",
"6# 	c #785B3F",
"7# 	c #6D5138",
"8# 	c #775A3E",
"9# 	c #6A4F36",
"0# 	c #6F5238",
"a# 	c #73563A",
"b# 	c #7D5F43",
"c# 	c #7C5F43",
"d# 	c #816346",
"e# 	c #795C41",
"f# 	c #816548",
"g# 	c #84674A",
"h# 	c #806246",
"i# 	c #806346",
"j# 	c #7E6146",
"k# 	c #795C42",
"l# 	c #7E6247",
"m# 	c #8A6D51",
"n# 	c #876A4E",
"o# 	c #84684D",
"p# 	c #80644A",
"q# 	c #745941",
"r# 	c #7C6046",
"s# 	c #7A5E44",
"t# 	c #7B5E44",
"u# 	c #7C6045",
"v# 	c #7D6146",
"w# 	c #785D44",
"x# 	c #82654B",
"y# 	c #775B43",
"z# 	c #7F6247",
"A# 	c #75593F",
"B# 	c #6B5037",
"C# 	c #7B6043",
"D# 	c #72593E",
"E# 	c #775C41",
"F# 	c #735B3F",
"G# 	c #72593D",
"H# 	c #685438",
"I# 	c #665135",
"J# 	c #6D563A",
"K# 	c #785E41",
"L# 	c #7A5E42",
"M# 	c #72563B",
"N# 	c #73583C",
"O# 	c #755A3F",
"P# 	c #72573D",
"Q# 	c #73593E",
"R# 	c #7B6044",
"S# 	c #624830",
"T# 	c #4D3C17",
"U# 	c #685F48",
"V# 	c #665B46",
"W# 	c #695F49",
"X# 	c #625842",
"Y# 	c #5F543F",
"Z# 	c #6A5F49",
"`# 	c #6D634C",
" $ 	c #655944",
".$ 	c #5E523E",
"+$ 	c #6E624B",
"@$ 	c #5F533F",
"#$ 	c #665B44",
"$$ 	c #6F644C",
"%$ 	c #776C54",
"&$ 	c #72664E",
"*$ 	c #685E47",
"=$ 	c #635A44",
"-$ 	c #6A634D",
";$ 	c #504734",
">$ 	c #5E5542",
",$ 	c #635944",
"'$ 	c #736A53",
")$ 	c #6A604C",
"!$ 	c #766D57",
"~$ 	c #534836",
"{$ 	c #655D48",
"]$ 	c #615844",
"^$ 	c #645B47",
"/$ 	c #746B54",
"($ 	c #4C402F",
"_$ 	c #584E3B",
":$ 	c #685E48",
"<$ 	c #6B6049",
"[$ 	c #685C46",
"}$ 	c #736850",
"|$ 	c #746950",
"1$ 	c #71664E",
"2$ 	c #71654D",
"3$ 	c #756A53",
"4$ 	c #726850",
"5$ 	c #716851",
"6$ 	c #726851",
"7$ 	c #70654F",
"8$ 	c #726952",
"9$ 	c #736952",
"0$ 	c #5C503A",
"a$ 	c #504028",
"b$ 	c #6E5F50",
"c$ 	c #6D5E4F",
"d$ 	c #665748",
"e$ 	c #685A4B",
"f$ 	c #655546",
"g$ 	c #6F5F50",
"h$ 	c #5B4E3F",
"i$ 	c #4A3D2F",
"j$ 	c #5F5444",
"k$ 	c #585040",
"l$ 	c #524A3A",
"m$ 	c #51533C",
"n$ 	c #54573E",
"o$ 	c #504838",
"p$ 	c #494031",
"q$ 	c #6B5D4D",
"r$ 	c #675849",
"s$ 	c #5B4E3E",
"t$ 	c #554839",
"u$ 	c #756757",
"v$ 	c #6F6051",
"w$ 	c #807161",
"x$ 	c #7B6C5C",
"y$ 	c #78695A",
"z$ 	c #776859",
"A$ 	c #7E6F5F",
"B$ 	c #7A6B5B",
"C$ 	c #695A4C",
"D$ 	c #786A5A",
"E$ 	c #7A6A5B",
"F$ 	c #7B6B5C",
"G$ 	c #786859",
"H$ 	c #6A5A4C",
"I$ 	c #554638",
"J$ 	c #766656",
"K$ 	c #6B5B4B",
"L$ 	c #726150",
"M$ 	c #6B5C4B",
"N$ 	c #615243",
"O$ 	c #6A5C4B",
"P$ 	c #736252",
"Q$ 	c #6F5E4E",
"R$ 	c #6E5E4E",
"S$ 	c #665647",
"T$ 	c #706050",
"U$ 	c #5F4E3D",
"V$ 	c #4C3924",
"W$ 	c #4C381C",
"X$ 	c #4F3F2B",
"Y$ 	c #5E4D38",
"Z$ 	c #675845",
"`$ 	c #6E5F4B",
" % 	c #6A5B47",
".% 	c #564736",
"+% 	c #524433",
"@% 	c #5B4D3B",
"#% 	c #5D4D3B",
"$% 	c #6B5C48",
"%% 	c #71614C",
"&% 	c #635341",
"*% 	c #6D5D48",
"=% 	c #796853",
"-% 	c #7B6B55",
";% 	c #7C6B56",
">% 	c #7B6B57",
",% 	c #746652",
"'% 	c #6E624E",
")% 	c #5A513E",
"!% 	c #564D3A",
"~% 	c #695F4B",
"{% 	c #6F6451",
"]% 	c #655845",
"^% 	c #615845",
"/% 	c #5A503D",
"(% 	c #625947",
"_% 	c #605341",
":% 	c #726351",
"<% 	c #7A6A56",
"[% 	c #7E6E5A",
"}% 	c #7B6B58",
"|% 	c #7E6F5B",
"1% 	c #70614E",
"2% 	c #6F5F4B",
"3% 	c #6F5E4A",
"4% 	c #6E5E4A",
"5% 	c #6B5A47",
"6% 	c #685744",
"7% 	c #74634E",
"8% 	c #685743",
"9% 	c #72624C",
"0% 	c #6E5D49",
"a% 	c #6F5F4A",
"b% 	c #71614D",
"c% 	c #61523F",
"d% 	c #463019",
"e% 	c #60411A",
"f% 	c #674F36",
"g% 	c #6F5234",
"h% 	c #7B5D3F",
"i% 	c #7A5D43",
"j% 	c #7C5F44",
"k% 	c #74583F",
"l% 	c #70553C",
"m% 	c #5F452F",
"n% 	c #75593E",
"o% 	c #694E36",
"p% 	c #6E5238",
"q% 	c #674C33",
"r% 	c #73573D",
"s% 	c #7B5F43",
"t% 	c #82664A",
"u% 	c #816347",
"v% 	c #7F6145",
"w% 	c #7F6248",
"x% 	c #7F6349",
"y% 	c #81644A",
"z% 	c #886B50",
"A% 	c #82654A",
"B% 	c #7B5E45",
"C% 	c #73583F",
"D% 	c #7A5D42",
"E% 	c #816449",
"F% 	c #806349",
"G% 	c #785C42",
"H% 	c #644A34",
"I% 	c #6C5037",
"J% 	c #694F36",
"K% 	c #654E34",
"L% 	c #6C563A",
"M% 	c #715C3E",
"N% 	c #706040",
"O% 	c #776042",
"P% 	c #765B3F",
"Q% 	c #785F42",
"R% 	c #7A6044",
"S% 	c #7E6246",
"T% 	c #7C6246",
"U% 	c #785E43",
"V% 	c #725A3A",
"W% 	c #685135",
"X% 	c #604730",
"Y% 	c #524221",
"Z% 	c #61563C",
"`% 	c #635945",
" & 	c #554A37",
".& 	c #625843",
"+& 	c #6C614A",
"@& 	c #6C614B",
"#& 	c #5C513C",
"$& 	c #695E47",
"%& 	c #60543F",
"&& 	c #6F634B",
"*& 	c #746850",
"=& 	c #6F654D",
"-& 	c #746B53",
";& 	c #695F4A",
">& 	c #776F59",
",& 	c #766C56",
"'& 	c #706651",
")& 	c #6A5F4A",
"!& 	c #6F6752",
"~& 	c #5B513F",
"{& 	c #605844",
"]& 	c #544C3A",
"^& 	c #69604B",
"/& 	c #615744",
"(& 	c #6A614C",
"_& 	c #6D6550",
":& 	c #685F4A",
"<& 	c #655B46",
"[& 	c #766C55",
"}& 	c #695E49",
"|& 	c #736851",
"1& 	c #655A45",
"2& 	c #5A4F3B",
"3& 	c #60553F",
"4& 	c #756B53",
"5& 	c #766B54",
"6& 	c #756B54",
"7& 	c #796F58",
"8& 	c #7A705A",
"9& 	c #625541",
"0& 	c #56452B",
"a& 	c #5D4E41",
"b& 	c #66584A",
"c& 	c #645547",
"d& 	c #786959",
"e& 	c #655547",
"f& 	c #736655",
"g& 	c #453C2D",
"h& 	c #564F40",
"i& 	c #4E4535",
"j& 	c #5C5C46",
"k& 	c #5E644B",
"l& 	c #5D5C47",
"m& 	c #534F3E",
"n& 	c #463B2D",
"o& 	c #5E5444",
"p& 	c #63594A",
"q& 	c #4F4334",
"r& 	c #5B5243",
"s& 	c #716455",
"t& 	c #7E6E5F",
"u& 	c #7F7060",
"v& 	c #7D6E5F",
"w& 	c #7D6D5E",
"x& 	c #6D5D4F",
"y& 	c #5F5043",
"z& 	c #776A5B",
"A& 	c #756556",
"B& 	c #7C6C5C",
"C& 	c #605143",
"D& 	c #5B4C3E",
"E& 	c #6C5C4D",
"F& 	c #756554",
"G& 	c #6E5D4D",
"H& 	c #71604F",
"I& 	c #756454",
"J& 	c #726252",
"K& 	c #736354",
"L& 	c #695A4B",
"M& 	c #665644",
"N& 	c #746455",
"O& 	c #746454",
"P& 	c #4F3B25",
"Q& 	c #513D21",
"R& 	c #625441",
"S& 	c #6F604D",
"T& 	c #7B6C58",
"U& 	c #756552",
"V& 	c #6C5C49",
"W& 	c #6B5C49",
"X& 	c #675846",
"Y& 	c #625543",
"Z& 	c #60523F",
"`& 	c #5A4D3B",
" * 	c #615542",
".* 	c #70604B",
"+* 	c #776651",
"@* 	c #73634E",
"#* 	c #72614D",
"$* 	c #766652",
"%* 	c #776753",
"&* 	c #6B5D49",
"** 	c #706652",
"=* 	c #524938",
"-* 	c #574D3C",
";* 	c #6A5E4B",
">* 	c #756754",
",* 	c #6D5F4C",
"'* 	c #615442",
")* 	c #5A4E3C",
"!* 	c #574B3A",
"~* 	c #6E624F",
"{* 	c #766855",
"]* 	c #7C6E5A",
"^* 	c #766753",
"/* 	c #756652",
"(* 	c #6D5D4B",
"_* 	c #6F5F4C",
":* 	c #6A5A47",
"<* 	c #60503F",
"[* 	c #625240",
"}* 	c #7A6954",
"|* 	c #655541",
"1* 	c #72624E",
"2* 	c #73634F",
"3* 	c #695A47",
"4* 	c #513F2D",
"5* 	c #593E1C",
"6* 	c #7F6348",
"7* 	c #84674B",
"8* 	c #896C50",
"9* 	c #74583C",
"0* 	c #7A5D3F",
"a* 	c #71553D",
"b* 	c #6F533B",
"c* 	c #7F6246",
"d* 	c #7E6045",
"e* 	c #75583F",
"f* 	c #76593F",
"g* 	c #73563D",
"h* 	c #73553B",
"i* 	c #7A5C40",
"j* 	c #76593D",
"k* 	c #7C5E42",
"l* 	c #7E6044",
"m* 	c #7B6045",
"n* 	c #71573E",
"o* 	c #826549",
"p* 	c #84664A",
"q* 	c #896B4F",
"r* 	c #8B6E52",
"s* 	c #85684D",
"t* 	c #7D6046",
"u* 	c #83664A",
"v* 	c #826449",
"w* 	c #83664B",
"x* 	c #795D44",
"y* 	c #70553D",
"z* 	c #795C43",
"A* 	c #644A33",
"B* 	c #785A3F",
"C* 	c #7D6044",
"D* 	c #71563B",
"E* 	c #70573C",
"F* 	c #6A563A",
"G* 	c #786244",
"H* 	c #816649",
"I* 	c #7C6144",
"J* 	c #806548",
"K* 	c #7D6247",
"L* 	c #7C6247",
"M* 	c #755E43",
"N* 	c #786046",
"O* 	c #7D6448",
"P* 	c #654C35",
"Q* 	c #554627",
"R* 	c #6D634E",
"S* 	c #655A46",
"T* 	c #685D48",
"U* 	c #6D624C",
"V* 	c #625742",
"W* 	c #615642",
"X* 	c #504533",
"Y* 	c #655A44",
"Z* 	c #70654D",
"`* 	c #71674F",
" = 	c #726751",
".= 	c #7C725A",
"+= 	c #6E6550",
"@= 	c #6E644F",
"#= 	c #6A5F4B",
"$= 	c #6B614B",
"%= 	c #6C634E",
"&= 	c #756C56",
"*= 	c #6D644F",
"== 	c #6A614D",
"-= 	c #594E3C",
";= 	c #716953",
">= 	c #645946",
",= 	c #7B715A",
"'= 	c #6A5E47",
")= 	c #776D54",
"!= 	c #7A7058",
"~= 	c #7D745C",
"{= 	c #7A7059",
"]= 	c #766B55",
"^= 	c #7A6F59",
"/= 	c #786E58",
"(= 	c #726752",
"_= 	c #665A46",
":= 	c #544225",
"<= 	c #68594B",
"[= 	c #716153",
"}= 	c #69594B",
"|= 	c #716253",
"1= 	c #79695A",
"2= 	c #6E5E50",
"3= 	c #5F5142",
"4= 	c #554D3C",
"5= 	c #555440",
"6= 	c #565641",
"7= 	c #5C5946",
"8= 	c #565A42",
"9= 	c #484A34",
"0= 	c #585A43",
"a= 	c #53563E",
"b= 	c #534F3D",
"c= 	c #4F4738",
"d= 	c #5A5041",
"e= 	c #665D4E",
"f= 	c #7F6F60",
"g= 	c #7F6F5F",
"h= 	c #807162",
"i= 	c #796A5B",
"j= 	c #746557",
"k= 	c #7B6C5D",
"l= 	c #746556",
"m= 	c #6B5D4E",
"n= 	c #766959",
"o= 	c #635547",
"p= 	c #5E4E40",
"q= 	c #756555",
"r= 	c #6C5B4C",
"s= 	c #756453",
"t= 	c #796959",
"u= 	c #796858",
"v= 	c #7B6B5B",
"w= 	c #776858",
"x= 	c #53412F",
"y= 	c #513E23",
"z= 	c #766754",
"A= 	c #736451",
"B= 	c #746552",
"C= 	c #6E5F4D",
"D= 	c #71604B",
"E= 	c #71634F",
"F= 	c #665846",
"G= 	c #584B3B",
"H= 	c #514332",
"I= 	c #564C3A",
"J= 	c #6B624D",
"K= 	c #705F4A",
"L= 	c #6F604C",
"M= 	c #6D5E4B",
"N= 	c #6B5E4B",
"O= 	c #5E5340",
"P= 	c #615644",
"Q= 	c #675B49",
"R= 	c #635443",
"S= 	c #726450",
"T= 	c #655745",
"U= 	c #5C503E",
"V= 	c #726552",
"W= 	c #685948",
"X= 	c #7C6D59",
"Y= 	c #756653",
"Z= 	c #615241",
"`= 	c #685846",
" - 	c #635442",
".- 	c #625341",
"+- 	c #5B4C3B",
"@- 	c #71604C",
"#- 	c #705F4B",
"$- 	c #786753",
"%- 	c #6A5945",
"&- 	c #776751",
"*- 	c #6C5C48",
"=- 	c #796955",
"-- 	c #655441",
";- 	c #4C361E",
">- 	c #7A5E45",
",- 	c #785C43",
"'- 	c #705438",
")- 	c #74593E",
"!- 	c #755940",
"~- 	c #684D35",
"{- 	c #785B41",
"]- 	c #7A5D41",
"^- 	c #87694D",
"/- 	c #745A40",
"(- 	c #795E43",
"_- 	c #876A4D",
":- 	c #806449",
"<- 	c #795E45",
"[- 	c #86694E",
"}- 	c #7C5F46",
"|- 	c #71563E",
"1- 	c #71563D",
"2- 	c #7B5E43",
"3- 	c #70543B",
"4- 	c #654C34",
"5- 	c #71573C",
"6- 	c #745D40",
"7- 	c #7B6145",
"8- 	c #72583F",
"9- 	c #7F6447",
"0- 	c #856A4E",
"a- 	c #85694D",
"b- 	c #7A5F44",
"c- 	c #7C6146",
"d- 	c #765F45",
"e- 	c #6A583E",
"f- 	c #7E6A48",
"g- 	c #5C4C2C",
"h- 	c #736953",
"i- 	c #716651",
"j- 	c #675C47",
"k- 	c #605541",
"l- 	c #645944",
"m- 	c #584D39",
"n- 	c #766B53",
"o- 	c #776D56",
"p- 	c #7A6F58",
"q- 	c #796E57",
"r- 	c #776D57",
"s- 	c #726853",
"t- 	c #766D58",
"u- 	c #675D49",
"v- 	c #746A56",
"w- 	c #756C57",
"x- 	c #6C624D",
"y- 	c #796F59",
"z- 	c #635845",
"A- 	c #5B503D",
"B- 	c #625741",
"C- 	c #716750",
"D- 	c #746952",
"E- 	c #756A54",
"F- 	c #7D725B",
"G- 	c #796E58",
"H- 	c #746954",
"I- 	c #7C735C",
"J- 	c #7F755F",
"K- 	c #716550",
"L- 	c #59482F",
"M- 	c #736250",
"N- 	c #6A5B4D",
"O- 	c #6B5B4D",
"P- 	c #5A4C3F",
"Q- 	c #746555",
"R- 	c #625445",
"S- 	c #6C5F50",
"T- 	c #544D3E",
"U- 	c #4F4938",
"V- 	c #5B5F48",
"W- 	c #5C5A46",
"X- 	c #4F4F3B",
"Y- 	c #54583F",
"Z- 	c #535B40",
"`- 	c #4A4A34",
" ; 	c #4C4C37",
".; 	c #575641",
"+; 	c #534C3D",
"@; 	c #756959",
"#; 	c #726455",
"$; 	c #827263",
"%; 	c #827364",
"&; 	c #807061",
"*; 	c #766859",
"=; 	c #6B5C4E",
"-; 	c #736355",
";; 	c #817262",
">; 	c #6B5A4B",
",; 	c #736353",
"'; 	c #7C6B5B",
"); 	c #786757",
"!; 	c #7B6A5A",
"~; 	c #776656",
"{; 	c #7D6C5C",
"]; 	c #706151",
"^; 	c #5B4A3A",
"/; 	c #544229",
"(; 	c #7A6B58",
"_; 	c #796956",
":; 	c #6C5A43",
"<; 	c #7B6C59",
"[; 	c #796A57",
"}; 	c #685A48",
"|; 	c #6B5D4A",
"1; 	c #665B48",
"2; 	c #645845",
"3; 	c #6C5E4B",
"4; 	c #5F503E",
"5; 	c #786853",
"6; 	c #7A6A55",
"7; 	c #7C6C57",
"8; 	c #463B2B",
"9; 	c #726451",
"0; 	c #5D4F3F",
"a; 	c #6D604E",
"b; 	c #716350",
"c; 	c #695D4A",
"d; 	c #6F614E",
"e; 	c #796A56",
"f; 	c #6C5E4C",
"g; 	c #5F5140",
"h; 	c #70604D",
"i; 	c #766651",
"j; 	c #74634F",
"k; 	c #756450",
"l; 	c #746450",
"m; 	c #7C6C58",
"n; 	c #786854",
"o; 	c #7A6B57",
"p; 	c #655542",
"q; 	c #4E381F",
"r; 	c #8B7054",
"s; 	c #785C44",
"t; 	c #72573E",
"u; 	c #694F37",
"v; 	c #6E5239",
"w; 	c #826347",
"x; 	c #846649",
"y; 	c #785D43",
"z; 	c #82674A",
"A; 	c #84684B",
"B; 	c #876A4F",
"C; 	c #765A41",
"D; 	c #71573F",
"E; 	c #72563D",
"F; 	c #7A5E43",
"G; 	c #6F543B",
"H; 	c #7B5F44",
"I; 	c #72563C",
"J; 	c #7B5E41",
"K; 	c #806447",
"L; 	c #7B6146",
"M; 	c #82674C",
"N; 	c #795E44",
"O; 	c #7C6147",
"P; 	c #7C6449",
"Q; 	c #705B41",
"R; 	c #806D50",
"S; 	c #6F593F",
"T; 	c #7E755F",
"U; 	c #6A604A",
"V; 	c #615641",
"W; 	c #756A52",
"X; 	c #786E57",
"Y; 	c #7B705A",
"Z; 	c #6F644F",
"`; 	c #675E49",
" > 	c #6F6550",
".> 	c #776D58",
"+> 	c #6F6551",
"@> 	c #5F5441",
"#> 	c #564C39",
"$> 	c #655A43",
"%> 	c #70654E",
"&> 	c #706550",
"*> 	c #7D735D",
"=> 	c #7E745F",
"-> 	c #6C5F4A",
";> 	c #5E4D34",
">> 	c #574737",
",> 	c #655648",
"'> 	c #6C5D4E",
")> 	c #665749",
"!> 	c #5B4C3F",
"~> 	c #605345",
"{> 	c #5A5445",
"]> 	c #565642",
"^> 	c #575843",
"/> 	c #63644D",
"(> 	c #4A4C36",
"_> 	c #52543C",
":> 	c #61674D",
"<> 	c #5C5C47",
"[> 	c #5C5142",
"}> 	c #685B4D",
"|> 	c #756758",
"1> 	c #695B4D",
"2> 	c #7A6C5D",
"3> 	c #7C6D5E",
"4> 	c #7B6B5D",
"5> 	c #776759",
"6> 	c #655649",
"7> 	c #7A6B5C",
"8> 	c #726355",
"9> 	c #756557",
"0> 	c #716354",
"a> 	c #77685A",
"b> 	c #756658",
"c> 	c #625345",
"d> 	c #726253",
"e> 	c #665648",
"f> 	c #786857",
"g> 	c #7D6D5C",
"h> 	c #766555",
"i> 	c #7A6959",
"j> 	c #776757",
"k> 	c #736454",
"l> 	c #7F7061",
"m> 	c #625142",
"n> 	c #5A4A2F",
"o> 	c #7D6D58",
"p> 	c #7F705D",
"q> 	c #716250",
"r> 	c #6E604D",
"s> 	c #605241",
"t> 	c #605643",
"u> 	c #514B39",
"v> 	c #5E5442",
"w> 	c #6D604D",
"x> 	c #6B5B47",
"y> 	c #675744",
"z> 	c #776A56",
"A> 	c #5C4F3D",
"B> 	c #544B39",
"C> 	c #615544",
"D> 	c #746653",
"E> 	c #7B6E5A",
"F> 	c #706350",
"G> 	c #6C5D4B",
"H> 	c #655644",
"I> 	c #6A5B48",
"J> 	c #71614E",
"K> 	c #61513F",
"L> 	c #766650",
"M> 	c #766653",
"N> 	c #80705D",
"O> 	c #81725E",
"P> 	c #604E3C",
"Q> 	c #583E1E",
"R> 	c #85694F",
"S> 	c #7C6047",
"T> 	c #6F543C",
"U> 	c #70543C",
"V> 	c #85674A",
"W> 	c #795D42",
"X> 	c #7F6347",
"Y> 	c #83684C",
"Z> 	c #7B6047",
"`> 	c #82664B",
" , 	c #6C513A",
"., 	c #6B5039",
"+, 	c #74573D",
"@, 	c #74583D",
"#, 	c #785D42",
"$, 	c #745C42",
"%, 	c #6C553C",
"&, 	c #7F674A",
"*, 	c #776045",
"=, 	c #7D664C",
"-, 	c #705C43",
";, 	c #614C34",
">, 	c #614F23",
",, 	c #554C3A",
"', 	c #5D5442",
"), 	c #5C5240",
"!, 	c #635843",
"~, 	c #766C54",
"{, 	c #736951",
"], 	c #726750",
"^, 	c #7B715B",
"/, 	c #756B55",
"(, 	c #736A54",
"_, 	c #635946",
":, 	c #726854",
"<, 	c #716753",
"[, 	c #746A53",
"}, 	c #645945",
"|, 	c #756B56",
"1, 	c #786E59",
"2, 	c #7A705B",
"3, 	c #61533F",
"4, 	c #4E3E25",
"5, 	c #675847",
"6, 	c #706153",
"7, 	c #67594B",
"8, 	c #564A3C",
"9, 	c #5E5243",
"0, 	c #554F3E",
"a, 	c #545842",
"b, 	c #504E3A",
"c, 	c #5B5745",
"d, 	c #54503F",
"e, 	c #494332",
"f, 	c #4D4335",
"g, 	c #443A2D",
"h, 	c #5D5041",
"i, 	c #6E6051",
"j, 	c #6C5D4F",
"k, 	c #6E6052",
"l, 	c #7F6F61",
"m, 	c #817162",
"n, 	c #746456",
"o, 	c #7A6A5C",
"p, 	c #766758",
"q, 	c #615144",
"r, 	c #736456",
"s, 	c #675645",
"t, 	c #5F4C31",
"u, 	c #7F705E",
"v, 	c #796A58",
"w, 	c #847562",
"x, 	c #776856",
"y, 	c #736452",
"z, 	c #6D5F4D",
"A, 	c #756654",
"B, 	c #5C4F3E",
"C, 	c #4A3F2F",
"D, 	c #55523F",
"E, 	c #514A38",
"F, 	c #69614D",
"G, 	c #766955",
"H, 	c #70614D",
"I, 	c #5D4E3B",
"J, 	c #685945",
"K, 	c #70604C",
"L, 	c #7B6C57",
"M, 	c #736552",
"N, 	c #6B5D4B",
"O, 	c #685D49",
"P, 	c #564E3C",
"Q, 	c #6F6450",
"R, 	c #70624F",
"S, 	c #776955",
"T, 	c #6B5C4A",
"U, 	c #695A49",
"V, 	c #736450",
"W, 	c #736350",
"X, 	c #675644",
"Y, 	c #766752",
"Z, 	c #7F705C",
"`, 	c #776956",
" ' 	c #80715E",
".' 	c #5D4936",
"+' 	c #654721",
"@' 	c #83684E",
"#' 	c #6A5039",
"$' 	c #7D6147",
"%' 	c #73573E",
"&' 	c #83674B",
"*' 	c #70583E",
"=' 	c #806448",
"-' 	c #7A5F45",
";' 	c #896D51",
">' 	c #886C50",
",' 	c #866A4F",
"'' 	c #7B5F46",
")' 	c #694F38",
"!' 	c #806348",
"~' 	c #775A40",
"{' 	c #73573C",
"]' 	c #7B5E42",
"^' 	c #7A6045",
"/' 	c #6F553B",
"(' 	c #82694E",
"_' 	c #896F53",
":' 	c #7E664C",
"<' 	c #745C43",
"[' 	c #6E573E",
"}' 	c #614F1F",
"|' 	c #524936",
"1' 	c #5C5542",
"2' 	c #58503E",
"3' 	c #665C48",
"4' 	c #645A45",
"5' 	c #6B604B",
"6' 	c #6B5F49",
"7' 	c #786D55",
"8' 	c #6B614C",
"9' 	c #7C735D",
"0' 	c #776E58",
"a' 	c #6D634F",
"b' 	c #695F4C",
"c' 	c #776E59",
"d' 	c #6E6450",
"e' 	c #6D624E",
"f' 	c #6E634E",
"g' 	c #6B604A",
"h' 	c #5F5440",
"i' 	c #6C624A",
"j' 	c #6F654E",
"k' 	c #605642",
"l' 	c #736853",
"m' 	c #786F59",
"n' 	c #7D735E",
"o' 	c #6C604B",
"p' 	c #513F23",
"q' 	c #6F5F4E",
"r' 	c #7A6B5D",
"s' 	c #726456",
"t' 	c #635648",
"u' 	c #594E40",
"v' 	c #594B3D",
"w' 	c #706354",
"x' 	c #615B4A",
"y' 	c #55503F",
"z' 	c #514939",
"A' 	c #534739",
"B' 	c #574C3D",
"C' 	c #6F6253",
"D' 	c #786A5B",
"E' 	c #77695A",
"F' 	c #766759",
"G' 	c #817263",
"H' 	c #78685A",
"I' 	c #7E6E60",
"J' 	c #544639",
"K' 	c #6D5E50",
"L' 	c #605243",
"M' 	c #6E5E4F",
"N' 	c #705F50",
"O' 	c #6F6050",
"P' 	c #7E6F60",
"Q' 	c #6F5E50",
"R' 	c #5C4C32",
"S' 	c #837562",
"T' 	c #827360",
"U' 	c #6A5C4A",
"V' 	c #6A5D4B",
"W' 	c #655947",
"X' 	c #594F3E",
"Y' 	c #4E4836",
"Z' 	c #544D3B",
"`' 	c #685E4C",
" ) 	c #796A55",
".) 	c #786955",
"+) 	c #685B49",
"@) 	c #685C49",
"#) 	c #5F5341",
"$) 	c #665947",
"%) 	c #695A48",
"&) 	c #675948",
"*) 	c #70614F",
"=) 	c #726350",
"-) 	c #6F604E",
";) 	c #655846",
">) 	c #6A5C49",
",) 	c #645542",
"') 	c #71624D",
")) 	c #70614C",
"!) 	c #776855",
"~) 	c #7C6D5A",
"{) 	c #7E705D",
"]) 	c #81725F",
"^) 	c #66513C",
"/) 	c #694B23",
"() 	c #876B51",
"_) 	c #83674C",
":) 	c #896C51",
"<) 	c #775B42",
"[) 	c #6A5038",
"}) 	c #826548",
"|) 	c #816448",
"1) 	c #85694E",
"2) 	c #7E6148",
"3) 	c #71563F",
"4) 	c #7E6147",
"5) 	c #755A3E",
"6) 	c #866B4F",
"7) 	c #876C50",
"8) 	c #8A7054",
"9) 	c #7A6047",
"0) 	c #665037",
"a) 	c #614F21",
"b) 	c #4D4634",
"c) 	c #68624E",
"d) 	c #685F4C",
"e) 	c #756D58",
"f) 	c #736954",
"g) 	c #685E4A",
"h) 	c #79705A",
"i) 	c #7A715B",
"j) 	c #79705B",
"k) 	c #7C725D",
"l) 	c #655B47",
"m) 	c #776D55",
"n) 	c #6A5E48",
"o) 	c #766D56",
"p) 	c #807761",
"q) 	c #847B65",
"r) 	c #756954",
"s) 	c #5C4A2B",
"t) 	c #736557",
"u) 	c #655645",
"v) 	c #716355",
"w) 	c #7D6E60",
"x) 	c #7A6C5E",
"y) 	c #7B6C5E",
"z) 	c #6F5F51",
"A) 	c #564C3E",
"B) 	c #584F40",
"C) 	c #776B5B",
"D) 	c #54473A",
"E) 	c #4F4537",
"F) 	c #635A4A",
"G) 	c #5D5143",
"H) 	c #5F5243",
"I) 	c #6B5E4F",
"J) 	c #766858",
"K) 	c #7D6F60",
"L) 	c #79695B",
"M) 	c #716254",
"N) 	c #6A5C4E",
"O) 	c #796A5C",
"P) 	c #605244",
"Q) 	c #7A6A5A",
"R) 	c #746657",
"S) 	c #766658",
"T) 	c #736352",
"U) 	c #807062",
"V) 	c #685749",
"W) 	c #5A4930",
"X) 	c #6E604F",
"Y) 	c #716351",
"Z) 	c #726452",
"`) 	c #4A3C2D",
" ! 	c #524837",
".! 	c #605744",
"+! 	c #5F5644",
"@! 	c #635544",
"#! 	c #71624E",
"$! 	c #665845",
"%! 	c #645543",
"&! 	c #554939",
"*! 	c #5F5241",
"=! 	c #6C5D4C",
"-! 	c #736654",
";! 	c #6F5F4D",
">! 	c #6C5C4A",
",! 	c #756651",
"'! 	c #7D6F5B",
")! 	c #7C6E5B",
"!! 	c #726553",
"~! 	c #817360",
"{! 	c #674C2A",
"]! 	c #94775B",
"^! 	c #8D7156",
"/! 	c #876A50",
"(! 	c #8E7156",
"_! 	c #85684E",
":! 	c #6D523B",
"<! 	c #6B4F37",
"[! 	c #85674C",
"}! 	c #7E6348",
"|! 	c #81654B",
"1! 	c #7C6148",
"2! 	c #72573F",
"3! 	c #896D52",
"4! 	c #82664C",
"5! 	c #644B35",
"6! 	c #80654A",
"7! 	c #7B6046",
"8! 	c #775E43",
"9! 	c #7D6349",
"0! 	c #7E644B",
"a! 	c #81674D",
"b! 	c #6E563E",
"c! 	c #584929",
"d! 	c #5F5845",
"e! 	c #736A55",
"f! 	c #746A55",
"g! 	c #625643",
"h! 	c #776C55",
"i! 	c #786D56",
"j! 	c #70664F",
"k! 	c #756C55",
"l! 	c #726852",
"m! 	c #746B56",
"n! 	c #796F5A",
"o! 	c #6C624E",
"p! 	c #78705B",
"q! 	c #736955",
"r! 	c #776D59",
"s! 	c #675C49",
"t! 	c #6C614D",
"u! 	c #5F5540",
"v! 	c #635743",
"w! 	c #776C56",
"x! 	c #7C725C",
"y! 	c #786F5A",
"z! 	c #817862",
"A! 	c #7F7560",
"B! 	c #877E69",
"C! 	c #716450",
"D! 	c #5C4B31",
"E! 	c #6E5F51",
"F! 	c #746658",
"G! 	c #75685A",
"H! 	c #5D5043",
"I! 	c #615446",
"J! 	c #615345",
"K! 	c #584A3C",
"L! 	c #554A3C",
"M! 	c #675C4D",
"N! 	c #5C5042",
"O! 	c #514335",
"P! 	c #534738",
"Q! 	c #655849",
"R! 	c #706253",
"S! 	c #7E6F61",
"T! 	c #695A4D",
"U! 	c #6B5D4F",
"V! 	c #68594C",
"W! 	c #605144",
"X! 	c #766556",
"Y! 	c #786758",
"Z! 	c #6C5E50",
"`! 	c #817264",
" ~ 	c #5D4D33",
".~ 	c #7D6E5C",
"+~ 	c #6E5F4E",
"@~ 	c #786957",
"#~ 	c #706250",
"$~ 	c #796B58",
"%~ 	c #736553",
"&~ 	c #534938",
"*~ 	c #6A5F4C",
"=~ 	c #746550",
"-~ 	c #6C5F4C",
";~ 	c #695B49",
">~ 	c #605443",
",~ 	c #6E614F",
"'~ 	c #645746",
")~ 	c #665745",
"!~ 	c #6D5E4A",
"~~ 	c #7B6D5A",
"{~ 	c #685C4B",
"]~ 	c #5C503F",
"^~ 	c #796B59",
"/~ 	c #5C452A",
"(~ 	c #896D53",
"_~ 	c #7C6149",
":~ 	c #83674D",
"<~ 	c #7D6148",
"[~ 	c #745940",
"}~ 	c #674D36",
"|~ 	c #775B40",
"1~ 	c #785A40",
"2~ 	c #81654C",
"3~ 	c #7E6249",
"4~ 	c #755941",
"5~ 	c #674D37",
"6~ 	c #85674B",
"7~ 	c #7F6449",
"8~ 	c #765C43",
"9~ 	c #80664A",
"0~ 	c #846A4F",
"a~ 	c #7E654B",
"b~ 	c #6D6450",
"c~ 	c #7B725D",
"d~ 	c #625744",
"e~ 	c #5F5541",
"f~ 	c #716853",
"g~ 	c #756B57",
"h~ 	c #746C57",
"i~ 	c #675D4A",
"j~ 	c #675E4B",
"k~ 	c #635943",
"l~ 	c #7E745E",
"m~ 	c #7F7661",
"n~ 	c #766C57",
"o~ 	c #7D745F",
"p~ 	c #7C725E",
"q~ 	c #837A65",
"r~ 	c #6A5D4A",
"s~ 	c #5A4A31",
"t~ 	c #615240",
"u~ 	c #6B5C4F",
"v~ 	c #594D40",
"w~ 	c #6C6052",
"x~ 	c #6A5F52",
"y~ 	c #6C5F52",
"z~ 	c #66584B",
"A~ 	c #574C3E",
"B~ 	c #554F3F",
"C~ 	c #5D5C49",
"D~ 	c #695C4D",
"E~ 	c #5B4D3F",
"F~ 	c #635647",
"G~ 	c #6F6354",
"H~ 	c #6E6253",
"I~ 	c #53473A",
"J~ 	c #7C6D5F",
"K~ 	c #837466",
"L~ 	c #706254",
"M~ 	c #7C6C5E",
"N~ 	c #6A5A4D",
"O~ 	c #675749",
"P~ 	c #645446",
"Q~ 	c #807163",
"R~ 	c #6D5C4D",
"S~ 	c #584730",
"T~ 	c #7C6D5B",
"U~ 	c #6E604E",
"V~ 	c #716452",
"W~ 	c #534535",
"X~ 	c #5E5342",
"Y~ 	c #695D4B",
"Z~ 	c #6F624F",
"`~ 	c #584B3A",
" { 	c #625342",
".{ 	c #746551",
"+{ 	c #6D5E4C",
"@{ 	c #7A6C59",
"#{ 	c #7B6C5A",
"${ 	c #746553",
"%{ 	c #695C4A",
"&{ 	c #695946",
"*{ 	c #615443",
"={ 	c #665A49",
"-{ 	c #766B58",
";{ 	c #5F5544",
">{ 	c #6B604E",
",{ 	c #563F27",
"'{ 	c #907358",
"){ 	c #8A6D52",
"!{ 	c #8D7055",
"~{ 	c #83674E",
"{{ 	c #84674D",
"]{ 	c #6E523A",
"^{ 	c #71553C",
"/{ 	c #87694E",
"({ 	c #886C51",
"_{ 	c #755A41",
":{ 	c #7A5F46",
"<{ 	c #695039",
"[{ 	c #6C523A",
"}{ 	c #765B41",
"|{ 	c #6C533A",
"1{ 	c #82674B",
"2{ 	c #7E6448",
"3{ 	c #856B4F",
"4{ 	c #6F583B",
"5{ 	c #81664D",
"6{ 	c #534425",
"7{ 	c #776E5A",
"8{ 	c #6C614E",
"9{ 	c #695E4B",
"0{ 	c #736A56",
"a{ 	c #5B5140",
"b{ 	c #5C5241",
"c{ 	c #4B4130",
"d{ 	c #645B48",
"e{ 	c #5B503E",
"f{ 	c #6E644D",
"g{ 	c #746A52",
"h{ 	c #776E57",
"i{ 	c #7A6F5A",
"j{ 	c #726954",
"k{ 	c #7A715C",
"l{ 	c #817863",
"m{ 	c #796F5B",
"n{ 	c #7F7561",
"o{ 	c #514028",
"p{ 	c #6D5F52",
"q{ 	c #615447",
"r{ 	c #675A4D",
"s{ 	c #5C4D40",
"t{ 	c #5E4F42",
"u{ 	c #64584A",
"v{ 	c #585042",
"w{ 	c #554E40",
"x{ 	c #5B4F41",
"y{ 	c #6A5D4E",
"z{ 	c #6F6152",
"A{ 	c #605344",
"B{ 	c #5A4E40",
"C{ 	c #665C4D",
"D{ 	c #7F7163",
"E{ 	c #78695B",
"F{ 	c #6A5B4E",
"G{ 	c #796B5D",
"H{ 	c #817163",
"I{ 	c #615040",
"J{ 	c #56442C",
"K{ 	c #807260",
"L{ 	c #776857",
"M{ 	c #827361",
"N{ 	c #7C6E5C",
"O{ 	c #766755",
"P{ 	c #625746",
"Q{ 	c #5A4E3D",
"R{ 	c #6F614F",
"S{ 	c #716451",
"T{ 	c #786A57",
"U{ 	c #6D5F4E",
"V{ 	c #706251",
"W{ 	c #786956",
"X{ 	c #635444",
"Y{ 	c #5C4E3D",
"Z{ 	c #695947",
"`{ 	c #5D4D3D",
" ] 	c #645948",
".] 	c #6A604F",
"+] 	c #7B6F5D",
"@] 	c #7C6F5D",
"#] 	c #4F3920",
"$] 	c #7B6149",
"%] 	c #8B6E54",
"&] 	c #8E7257",
"*] 	c #7B6048",
"=] 	c #765B43",
"-] 	c #765A3F",
";] 	c #876B4F",
">] 	c #8A6E52",
",] 	c #84684E",
"'] 	c #8B6F54",
")] 	c #80644B",
"!] 	c #755A42",
"~] 	c #7E6347",
"{] 	c #795F45",
"]] 	c #806549",
"^] 	c #836A4E",
"/] 	c #84694D",
"(] 	c #7E6349",
"_] 	c #84694E",
":] 	c #7E6545",
"<] 	c #7F644A",
"[] 	c #614F22",
"}] 	c #726955",
"|] 	c #6D6350",
"1] 	c #746953",
"2] 	c #7A715D",
"3] 	c #706653",
"4] 	c #6C634F",
"5] 	c #645A47",
"6] 	c #655C49",
"7] 	c #6A604D",
"8] 	c #6F6753",
"9] 	c #635A46",
"0] 	c #716752",
"a] 	c #665B47",
"b] 	c #7C735E",
"c] 	c #7E7460",
"d] 	c #807662",
"e] 	c #635644",
"f] 	c #4A3A1D",
"g] 	c #77695B",
"h] 	c #7B6D5F",
"i] 	c #786A5C",
"j] 	c #807264",
"k] 	c #56493C",
"l] 	c #554A3E",
"m] 	c #575042",
"n] 	c #595143",
"o] 	c #696051",
"p] 	c #716353",
"q] 	c #685B4C",
"r] 	c #625546",
"s] 	c #6F6455",
"t] 	c #7E7061",
"u] 	c #76685A",
"v] 	c #6E5F52",
"w] 	c #77685B",
"x] 	c #726254",
"y] 	c #615244",
"z] 	c #55452E",
"A] 	c #7C6D5C",
"B] 	c #746554",
"C] 	c #6A5B49",
"D] 	c #685947",
"E] 	c #655543",
"F] 	c #625443",
"G] 	c #746654",
"H] 	c #786B58",
"I] 	c #685A49",
"J] 	c #756755",
"K] 	c #6A5A48",
"L] 	c #5D5141",
"M] 	c #675B4A",
"N] 	c #796B5A",
"O] 	c #807360",
"P] 	c #573E23",
"Q] 	c #8A6E53",
"R] 	c #8F7257",
"S] 	c #8C6F54",
"T] 	c #7F644C",
"U] 	c #7A5E46",
"V] 	c #745840",
"W] 	c #6D5239",
"X] 	c #7D6145",
"Y] 	c #82674D",
"Z] 	c #745942",
"`] 	c #735840",
" ^ 	c #70563D",
".^ 	c #705A40",
"+^ 	c #856C50",
"@^ 	c #81684C",
"#^ 	c #866C51",
"$^ 	c #7C644A",
"%^ 	c #876D52",
"&^ 	c #8C7056",
"*^ 	c #7F6446",
"=^ 	c #5E4D24",
"-^ 	c #786E5A",
";^ 	c #746B57",
">^ 	c #605543",
",^ 	c #594F3D",
"'^ 	c #726953",
")^ 	c #716754",
"!^ 	c #615645",
"~^ 	c #564C3B",
"{^ 	c #635A47",
"]^ 	c #6E6551",
"^^ 	c #665D4A",
"/^ 	c #6C624F",
"(^ 	c #625845",
"_^ 	c #615743",
":^ 	c #746B55",
"<^ 	c #756C58",
"[^ 	c #7A705C",
"}^ 	c #827964",
"|^ 	c #675B47",
"1^ 	c #534324",
"2^ 	c #76675A",
"3^ 	c #7D6F61",
"4^ 	c #716356",
"5^ 	c #64574A",
"6^ 	c #5A4E41",
"7^ 	c #5F5244",
"8^ 	c #5D5144",
"9^ 	c #76695A",
"0^ 	c #6A5C4F",
"a^ 	c #6F6052",
"b^ 	c #645546",
"c^ 	c #69584A",
"d^ 	c #7F715F",
"e^ 	c #776958",
"f^ 	c #7C6E5D",
"g^ 	c #736554",
"h^ 	c #857765",
"i^ 	c #7B6D5B",
"j^ 	c #766756",
"k^ 	c #6D5E4D",
"l^ 	c #645544",
"m^ 	c #786A58",
"n^ 	c #7A6C5A",
"o^ 	c #695C4B",
"p^ 	c #7C6C59",
"q^ 	c #6B5B4A",
"r^ 	c #584025",
"s^ 	c #8C7156",
"t^ 	c #8D7157",
"u^ 	c #775C44",
"v^ 	c #73573F",
"w^ 	c #6C5139",
"x^ 	c #84684C",
"y^ 	c #7F634A",
"z^ 	c #7D6249",
"A^ 	c #876B50",
"B^ 	c #775C43",
"C^ 	c #6D533C",
"D^ 	c #634A34",
"E^ 	c #74583E",
"F^ 	c #796044",
"G^ 	c #755D43",
"H^ 	c #856A4F",
"I^ 	c #856A50",
"J^ 	c #82684E",
"K^ 	c #8A6F55",
"L^ 	c #90755A",
"M^ 	c #8F7358",
"N^ 	c #6B552F",
"O^ 	c #5E4E26",
"P^ 	c #7D735F",
"Q^ 	c #716854",
"R^ 	c #5E5441",
"S^ 	c #706753",
"T^ 	c #605745",
"U^ 	c #675D4B",
"V^ 	c #5F5745",
"W^ 	c #68604C",
"X^ 	c #69604D",
"Y^ 	c #6F6652",
"Z^ 	c #766D59",
"`^ 	c #5C5341",
" / 	c #6E6651",
"./ 	c #5D523F",
"+/ 	c #7E7560",
"@/ 	c #867D69",
"#/ 	c #89806B",
"$/ 	c #5D4D35",
"%/ 	c #594828",
"&/ 	c #6F6153",
"*/ 	c #7B6C5F",
"=/ 	c #817365",
"-/ 	c #827466",
";/ 	c #7A6B5E",
">/ 	c #5C4E41",
",/ 	c #605346",
"'/ 	c #5C4F42",
")/ 	c #6A5D4F",
"!/ 	c #635548",
"~/ 	c #493E30",
"{/ 	c #6D6254",
"]/ 	c #796B5B",
"^/ 	c #776959",
"// 	c #786B5C",
"(/ 	c #7F7162",
"_/ 	c #7C6E60",
":/ 	c #746558",
"</ 	c #7C6F61",
"[/ 	c #685A4D",
"}/ 	c #594931",
"|/ 	c #827462",
"1/ 	c #766857",
"2/ 	c #736653",
"3/ 	c #776957",
"4/ 	c #746655",
"5/ 	c #756958",
"6/ 	c #6D604F",
"7/ 	c #736453",
"8/ 	c #5D4E3E",
"9/ 	c #655847",
"0/ 	c #6F6351",
"a/ 	c #756856",
"b/ 	c #7D6F5D",
"c/ 	c #685847",
"d/ 	c #6A513B",
"e/ 	c #6E543D",
"f/ 	c #765B42",
"g/ 	c #6B5138",
"h/ 	c #70563E",
"i/ 	c #6A513A",
"j/ 	c #796045",
"k/ 	c #80684C",
"l/ 	c #826A4D",
"m/ 	c #846B4F",
"n/ 	c #7B6147",
"o/ 	c #856A51",
"p/ 	c #8A6E55",
"q/ 	c #7E644C",
"r/ 	c #7F644B",
"s/ 	c #4B361F",
"t/ 	c #544523",
"u/ 	c #706754",
"v/ 	c #726855",
"w/ 	c #6C614C",
"x/ 	c #6E654F",
"y/ 	c #736B56",
"z/ 	c #6B614E",
"A/ 	c #625946",
"B/ 	c #554C3B",
"C/ 	c #6A624F",
"D/ 	c #6E6552",
"E/ 	c #6C6350",
"F/ 	c #615745",
"G/ 	c #625846",
"H/ 	c #5E5543",
"I/ 	c #514736",
"J/ 	c #7F7662",
"K/ 	c #827965",
"L/ 	c #817864",
"M/ 	c #807763",
"N/ 	c #7D7461",
"O/ 	c #514125",
"P/ 	c #564526",
"Q/ 	c #736558",
"R/ 	c #7F7164",
"S/ 	c #7E6F62",
"T/ 	c #6F6154",
"U/ 	c #756759",
"V/ 	c #706355",
"W/ 	c #584B3D",
"X/ 	c #655A4C",
"Y/ 	c #7D6D5F",
"Z/ 	c #7E7062",
"`/ 	c #7A6C5F",
" ( 	c #6E6053",
".( 	c #6B5D50",
"+( 	c #67594C",
"@( 	c #67584B",
"#( 	c #52422C",
"$( 	c #786A59",
"%( 	c #7A6C5B",
"&( 	c #7E705E",
"*( 	c #726453",
"=( 	c #716352",
"-( 	c #695B4A",
";( 	c #645545",
">( 	c #6B5B49",
",( 	c #796C5A",
"'( 	c #756655",
")( 	c #655746",
"!( 	c #726250",
"~( 	c #7D6E5B",
"{( 	c #766957",
"]( 	c #675E4D",
"^( 	c #706452",
"/( 	c #6F6251",
"(( 	c #675746",
"_( 	c #594126",
":( 	c #846950",
"<( 	c #866B51",
"[( 	c #80654C",
"}( 	c #7F654C",
"|( 	c #6E543C",
"1( 	c #7A5D40",
"2( 	c #82664D",
"3( 	c #6D543D",
"4( 	c #765A42",
"5( 	c #6D533B",
"6( 	c #74593F",
"7( 	c #866C50",
"8( 	c #83684F",
"9( 	c #81664E",
"0( 	c #695230",
"a( 	c #534424",
"b( 	c #6E6451",
"c( 	c #736A57",
"d( 	c #635948",
"e( 	c #6B624E",
"f( 	c #6B604C",
"g( 	c #786F5B",
"h( 	c #5B5342",
"i( 	c #5F5A49",
"j( 	c #5D5443",
"k( 	c #645C4A",
"l( 	c #716956",
"m( 	c #5D5341",
"n( 	c #6A624E",
"o( 	c #706752",
"p( 	c #7D7460",
"q( 	c #7E7561",
"r( 	c #79705D",
"s( 	c #7B725F",
"t( 	c #5B4B31",
"u( 	c #625440",
"v( 	c #817366",
"w( 	c #807164",
"x( 	c #6F6053",
"y( 	c #695B4E",
"z( 	c #615245",
"A( 	c #7D6F62",
"B( 	c #706255",
"C( 	c #6C5E51",
"D( 	c #796A5D",
"E( 	c #736457",
"F( 	c #77695C",
"G( 	c #625245",
"H( 	c #574730",
"I( 	c #7D6F5E",
"J( 	c #7D705E",
"K( 	c #6C5E4D",
"L( 	c #6F604F",
"M( 	c #756756",
"N( 	c #706352",
"O( 	c #746756",
"P( 	c #615344",
"Q( 	c #6E5E4C",
"R( 	c #594D3D",
"S( 	c #6B5F4E",
"T( 	c #6B5F4F",
"U( 	c #766A59",
"V( 	c #756957",
"W( 	c #6A5D4C",
"X( 	c #574025",
"Y( 	c #8B7056",
"Z( 	c #795F46",
"`( 	c #73573B",
" _ 	c #70553B",
"._ 	c #81664C",
"+_ 	c #866A50",
"@_ 	c #745A42",
"#_ 	c #7F6448",
"$_ 	c #83684D",
"%_ 	c #7A6046",
"&_ 	c #84694F",
"*_ 	c #684E38",
"=_ 	c #54431A",
"-_ 	c #746A57",
";_ 	c #726956",
">_ 	c #6F6552",
",_ 	c #665C4A",
"'_ 	c #6B614D",
")_ 	c #6F6651",
"!_ 	c #69614E",
"~_ 	c #514838",
"{_ 	c #605948",
"]_ 	c #615A48",
"^_ 	c #6C6451",
"/_ 	c #685F4D",
"(_ 	c #746C58",
"__ 	c #6B624F",
":_ 	c #574D3D",
"<_ 	c #675D48",
"[_ 	c #776F5A",
"}_ 	c #7B725E",
"|_ 	c #7A715E",
"1_ 	c #857C69",
"2_ 	c #887F6B",
"3_ 	c #706552",
"4_ 	c #6E614D",
"5_ 	c #574728",
"6_ 	c #7B6D60",
"7_ 	c #7C6E61",
"8_ 	c #786A5D",
"9_ 	c #726356",
"0_ 	c #645649",
"a_ 	c #5A4C40",
"b_ 	c #726457",
"c_ 	c #76685B",
"d_ 	c #65574B",
"e_ 	c #76695C",
"f_ 	c #65574A",
"g_ 	c #7F7062",
"h_ 	c #756659",
"i_ 	c #483824",
"j_ 	c #7B6D5C",
"k_ 	c #6A5C4C",
"l_ 	c #6B5C4C",
"m_ 	c #665847",
"n_ 	c #766856",
"o_ 	c #6F6150",
"p_ 	c #766958",
"q_ 	c #716251",
"r_ 	c #7A6D5A",
"s_ 	c #6A5E4D",
"t_ 	c #635747",
"u_ 	c #5A4E3F",
"v_ 	c #635848",
"w_ 	c #6E6352",
"x_ 	c #4E371F",
"y_ 	c #745A3E",
"z_ 	c #735839",
"A_ 	c #745733",
"B_ 	c #795D3D",
"C_ 	c #876C53",
"D_ 	c #7E634B",
"E_ 	c #7A5F47",
"F_ 	c #80654B",
"G_ 	c #785E45",
"H_ 	c #7E634A",
"I_ 	c #664E37",
"J_ 	c #6D543C",
"K_ 	c #6F563D",
"L_ 	c #725B40",
"M_ 	c #6E563D",
"N_ 	c #765C44",
"O_ 	c #82674E",
"P_ 	c #765C45",
"Q_ 	c #51411A",
"R_ 	c #60543C",
"S_ 	c #7D7561",
"T_ 	c #776E5B",
"U_ 	c #6C6250",
"V_ 	c #6B614F",
"W_ 	c #716855",
"X_ 	c #736B55",
"Y_ 	c #7B725C",
"Z_ 	c #756D59",
"`_ 	c #786E5B",
" : 	c #746B58",
".: 	c #6F6653",
"+: 	c #69604E",
"@: 	c #605847",
"#: 	c #6B6452",
"$: 	c #635A49",
"%: 	c #6A614E",
"&: 	c #6F6754",
"*: 	c #5E5645",
"=: 	c #675E4C",
"-: 	c #5C5342",
";: 	c #544C3C",
">: 	c #615846",
",: 	c #655B48",
"': 	c #796F5C",
"): 	c #817965",
"!: 	c #65583F",
"~: 	c #6B5F4B",
"{: 	c #55462E",
"]: 	c #5E4D2F",
"^: 	c #837568",
"/: 	c #796B5E",
"(: 	c #685A4C",
"_: 	c #74675A",
":: 	c #6E6154",
"<: 	c #706052",
"[: 	c #75675A",
"}: 	c #483925",
"|: 	c #7F7260",
"1: 	c #675949",
"2: 	c #655747",
"3: 	c #6B5D4C",
"4: 	c #766854",
"5: 	c #5E5040",
"6: 	c #746755",
"7: 	c #635746",
"8: 	c #6E6353",
"9: 	c #675A4A",
"0: 	c #6C6150",
"a: 	c #563E22",
"b: 	c #553A18",
"c: 	c #6F5537",
"d: 	c #8E7258",
"e: 	c #866A51",
"f: 	c #896E53",
"g: 	c #7B6148",
"h: 	c #755A43",
"i: 	c #7D6248",
"j: 	c #604732",
"k: 	c #795F43",
"l: 	c #6B533A",
"m: 	c #7B6346",
"n: 	c #786445",
"o: 	c #7C6346",
"p: 	c #7E6549",
"q: 	c #624932",
"r: 	c #5C4A1B",
"s: 	c #544526",
"t: 	c #5F512E",
"u: 	c #706654",
"v: 	c #766D5A",
"w: 	c #786F5C",
"x: 	c #655B49",
"y: 	c #665C49",
"z: 	c #5C523F",
"A: 	c #5F5642",
"B: 	c #776F5C",
"C: 	c #756D5A",
"D: 	c #6F6654",
"E: 	c #6D6452",
"F: 	c #6B6351",
"G: 	c #6B6350",
"H: 	c #68604E",
"I: 	c #59503F",
"J: 	c #615947",
"K: 	c #595140",
"L: 	c #655C4A",
"M: 	c #6A604E",
"N: 	c #78705C",
"O: 	c #7B735F",
"P: 	c #756C5A",
"Q: 	c #837A67",
"R: 	c #6E6250",
"S: 	c #7C6E62",
"T: 	c #85786B",
"U: 	c #7A6B5F",
"V: 	c #807265",
"W: 	c #6B5D51",
"X: 	c #786B5E",
"Y: 	c #746659",
"Z: 	c #645447",
"`: 	c #4A3A27",
" < 	c #6F6151",
".< 	c #635645",
"+< 	c #665746",
"@< 	c #7D715F",
"#< 	c #7A6D5B",
"$< 	c #796C5B",
"%< 	c #796A59",
"&< 	c #756553",
"*< 	c #71614F",
"=< 	c #706453",
"-< 	c #685C4C",
";< 	c #6F5B41",
">< 	c #6A5336",
",< 	c #70604A",
"'< 	c #5B4223",
")< 	c #785E47",
"!< 	c #8B6F55",
"~< 	c #725840",
"{< 	c #7A6048",
"]< 	c #785D45",
"^< 	c #6B5139",
"/< 	c #746043",
"(< 	c #796949",
"_< 	c #745F42",
":< 	c #756144",
"<< 	c #755D42",
"[< 	c #644D34",
"}< 	c #5C491A",
"|< 	c #746B59",
"1< 	c #7C7461",
"2< 	c #756C59",
"3< 	c #685D4B",
"4< 	c #655C48",
"5< 	c #6C6452",
"6< 	c #746C59",
"7< 	c #655C4B",
"8< 	c #675F4D",
"9< 	c #6E6553",
"0< 	c #6B6250",
"a< 	c #6E6653",
"b< 	c #584F3F",
"c< 	c #5A503F",
"d< 	c #7A725F",
"e< 	c #6E6453",
"f< 	c #5F5442",
"g< 	c #483923",
"h< 	c #807467",
"i< 	c #796B5F",
"j< 	c #6E6054",
"k< 	c #75685B",
"l< 	c #66574A",
"m< 	c #776A5C",
"n< 	c #796C5F",
"o< 	c #66584C",
"p< 	c #695C50",
"q< 	c #716457",
"r< 	c #736559",
"s< 	c #695C4F",
"t< 	c #6C5D50",
"u< 	c #7D6E61",
"v< 	c #665649",
"w< 	c #44331F",
"x< 	c #756857",
"y< 	c #7B6E5D",
"z< 	c #695C4C",
"A< 	c #786B5A",
"B< 	c #726554",
"C< 	c #706252",
"D< 	c #6C5E4E",
"E< 	c #645645",
"F< 	c #7A6D5C",
"G< 	c #645646",
"H< 	c #6D5C47",
"I< 	c #7E7160",
"J< 	c #817362",
"K< 	c #7E705F",
"L< 	c #6C5C4B",
"M< 	c #604626",
"N< 	c #876B52",
"O< 	c #84684F",
"P< 	c #8C7055",
"Q< 	c #775C45",
"R< 	c #70563F",
"S< 	c #735941",
"T< 	c #756245",
"U< 	c #7A6B4A",
"V< 	c #7E654A",
"W< 	c #886D52",
"X< 	c #57451A",
"Y< 	c #665A42",
"Z< 	c #817966",
"`< 	c #736A58",
" [ 	c #685E4D",
".[ 	c #655A48",
"+[ 	c #5E5544",
"@[ 	c #574E3E",
"#[ 	c #696150",
"$[ 	c #69614F",
"%[ 	c #6A614F",
"&[ 	c #605746",
"*[ 	c #736B59",
"=[ 	c #6D6451",
"-[ 	c #584E3E",
";[ 	c #635947",
">[ 	c #675E4A",
",[ 	c #7C745F",
"'[ 	c #736956",
")[ 	c #736B58",
"![ 	c #79715E",
"~[ 	c #776E5C",
"{[ 	c #706755",
"][ 	c #5E513F",
"^[ 	c #4C3D21",
"/[ 	c #74675B",
"([ 	c #6D6054",
"_[ 	c #7E7164",
":[ 	c #84766A",
"<[ 	c #726458",
"[[ 	c #615448",
"}[ 	c #6D6053",
"|[ 	c #7A6D60",
"1[ 	c #6B5C50",
"2[ 	c #726558",
"3[ 	c #645548",
"4[ 	c #483823",
"5[ 	c #7A6E5E",
"6[ 	c #7A6C5C",
"7[ 	c #716453",
"8[ 	c #746656",
"9[ 	c #6F6252",
"0[ 	c #6D5F4F",
"a[ 	c #685A4A",
"b[ 	c #7C6F5E",
"c[ 	c #7D7060",
"d[ 	c #7D705F",
"e[ 	c #786B59",
"f[ 	c #7B6E5C",
"g[ 	c #7E715F",
"h[ 	c #827463",
"i[ 	c #563F23",
"j[ 	c #856950",
"k[ 	c #886C52",
"l[ 	c #8A6E54",
"m[ 	c #6C523C",
"n[ 	c #725841",
"o[ 	c #624934",
"p[ 	c #71583F",
"q[ 	c #80664B",
"r[ 	c #80694D",
"s[ 	c #725B41",
"t[ 	c #775E44",
"u[ 	c #735A40",
"v[ 	c #795F48",
"w[ 	c #4D3E1F",
"x[ 	c #7E7764",
"y[ 	c #766D5B",
"z[ 	c #6C6041",
"A[ 	c #766E5C",
"B[ 	c #6C6352",
"C[ 	c #695F4D",
"D[ 	c #645A48",
"E[ 	c #665D49",
"F[ 	c #524939",
"G[ 	c #5E5646",
"H[ 	c #595142",
"I[ 	c #6D6654",
"J[ 	c #68604F",
"K[ 	c #6D6553",
"L[ 	c #716957",
"M[ 	c #706855",
"N[ 	c #625847",
"O[ 	c #6D6552",
"P[ 	c #685E4B",
"Q[ 	c #766C59",
"R[ 	c #6D624D",
"S[ 	c #7A715F",
"T[ 	c #7C7462",
"U[ 	c #6C614F",
"V[ 	c #483920",
"W[ 	c #675A4E",
"X[ 	c #706357",
"Y[ 	c #7B6F63",
"Z[ 	c #837669",
"`[ 	c #605246",
" } 	c #716255",
".} 	c #706154",
"+} 	c #746759",
"@} 	c #776A5D",
"#} 	c #7D7063",
"$} 	c #695B4F",
"%} 	c #5F5246",
"&} 	c #685B4F",
"*} 	c #6B5E52",
"=} 	c #63564A",
"-} 	c #7E7063",
";} 	c #5F5044",
">} 	c #5E5043",
",} 	c #625447",
"'} 	c #645648",
")} 	c #7C6F62",
"!} 	c #473825",
"~} 	c #807363",
"{} 	c #6E6151",
"]} 	c #695B4B",
"^} 	c #665848",
"/} 	c #746754",
"(} 	c #6C604E",
"_} 	c #706351",
":} 	c #6B5E4D",
"<} 	c #736555",
"[} 	c #746757",
"}} 	c #6C5F4F",
"|} 	c #776A58",
"1} 	c #7F715E",
"2} 	c #7B6E5E",
"3} 	c #857867",
"4} 	c #847766",
"5} 	c #6C5C4C",
"6} 	c #573F23",
"7} 	c #90745A",
"8} 	c #7B5F42",
"9} 	c #6B513B",
"0} 	c #7D6047",
"a} 	c #775C42",
"b} 	c #725942",
"c} 	c #775D45",
"d} 	c #725940",
"e} 	c #735B42",
"f} 	c #7C6448",
"g} 	c #765E43",
"h} 	c #765D42",
"i} 	c #886D53",
"j} 	c #694F39",
"k} 	c #4D3F1F",
"l} 	c #766D5C",
"m} 	c #78705E",
"n} 	c #6C6251",
"o} 	c #665C45",
"p} 	c #756D5B",
"q} 	c #645A49",
"r} 	c #6D6351",
"s} 	c #605644",
"t} 	c #635A48",
"u} 	c #6C6552",
"v} 	c #67604E",
"w} 	c #6A6250",
"x} 	c #6A6351",
"y} 	c #665E4C",
"z} 	c #6B6453",
"A} 	c #6D6554",
"B} 	c #6F6755",
"C} 	c #6E6654",
"D} 	c #726A58",
"E} 	c #6A6150",
"F} 	c #716856",
"G} 	c #665D4B",
"H} 	c #605645",
"I} 	c #78705D",
"J} 	c #746C5A",
"K} 	c #7B7361",
"L} 	c #655A49",
"M} 	c #423420",
"N} 	c #7A6E62",
"O} 	c #695D51",
"P} 	c #66594D",
"Q} 	c #6D5F53",
"R} 	c #716357",
"S} 	c #67594D",
"T} 	c #6D5E51",
"U} 	c #786B5D",
"V} 	c #7A6D5F",
"W} 	c #776A5E",
"X} 	c #7A6C60",
"Y} 	c #6F6256",
"Z} 	c #706356",
"`} 	c #6F6255",
" | 	c #75675B",
".| 	c #6A5C50",
"+| 	c #6E6155",
"@| 	c #706256",
"#| 	c #625347",
"$| 	c #76695D",
"%| 	c #817467",
"&| 	c #463725",
"*| 	c #827565",
"=| 	c #807362",
"-| 	c #807463",
";| 	c #726555",
">| 	c #776A59",
",| 	c #706150",
"'| 	c #685B4B",
")| 	c #6F6352",
"!| 	c #716454",
"~| 	c #756858",
"{| 	c #776A5A",
"]| 	c #6D6050",
"^| 	c #695A4A",
"/| 	c #817463",
"(| 	c #817464",
"_| 	c #543D22",
":| 	c #93785E",
"<| 	c #735942",
"[| 	c #6E553D",
"}| 	c #735940",
"|| 	c #775D44",
"1| 	c #7F664C",
"2| 	c #70573F",
"3| 	c #7E644A",
"4| 	c #846C4F",
"5| 	c #81664B",
"6| 	c #765C42",
"7| 	c #7C6145",
"8| 	c #795F44",
"9| 	c #785E44",
"0| 	c #846A50",
"a| 	c #6F5740",
"b| 	c #725740",
"c| 	c #4E4020",
"d| 	c #797160",
"e| 	c #706857",
"f| 	c #6D6453",
"g| 	c #756E5C",
"h| 	c #5C5242",
"i| 	c #59503E",
"j| 	c #473D2D",
"k| 	c #5D5441",
"l| 	c #69604C",
"m| 	c #6F6855",
"n| 	c #6E6754",
"o| 	c #726A57",
"p| 	c #69604F",
"q| 	c #6C6554",
"r| 	c #6C6553",
"s| 	c #726A59",
"t| 	c #665C4B",
"u| 	c #716955",
"v| 	c #5D5342",
"w| 	c #5B503F",
"x| 	c #6B6251",
"y| 	c #45361F",
"z| 	c #73665A",
"A| 	c #6F6155",
"B| 	c #695A4E",
"C| 	c #7F7165",
"D| 	c #796C60",
"E| 	c #6C6053",
"F| 	c #7C6F63",
"G| 	c #807367",
"H| 	c #574738",
"I| 	c #533D29",
"J| 	c #7D7162",
"K| 	c #867969",
"L| 	c #736656",
"M| 	c #786C5B",
"N| 	c #6A5B4B",
"O| 	c #6B604F",
"P| 	c #706353",
"Q| 	c #796D5C",
"R| 	c #796C5C",
"S| 	c #716555",
"T| 	c #7A6B59",
"U| 	c #705D45",
"V| 	c #7C6F5F",
"W| 	c #8E735A",
"X| 	c #896E55",
"Y| 	c #7D634B",
"Z| 	c #896D54",
"`| 	c #715740",
" 1 	c #664D38",
".1 	c #6F553E",
"+1 	c #6C533C",
"@1 	c #6A503A",
"#1 	c #876C52",
"$1 	c #745A41",
"%1 	c #735A41",
"&1 	c #755C43",
"*1 	c #7D654A",
"=1 	c #7F654A",
"-1 	c #856B51",
";1 	c #80674D",
">1 	c #6D533D",
",1 	c #4E3F21",
"'1 	c #746C5B",
")1 	c #6F6655",
"!1 	c #6A6251",
"~1 	c #675B3D",
"{1 	c #665D4D",
"]1 	c #625848",
"^1 	c #69614C",
"/1 	c #655D4C",
"(1 	c #706957",
"_1 	c #6B6352",
":1 	c #716B59",
"<1 	c #6F6857",
"[1 	c #6C6453",
"}1 	c #675E4E",
"|1 	c #6F6756",
"11 	c #645B4A",
"21 	c #6E6554",
"31 	c #615848",
"41 	c #776F5D",
"51 	c #7A7261",
"61 	c #655B4A",
"71 	c #4D3E24",
"81 	c #726559",
"91 	c #706457",
"01 	c #635448",
"a1 	c #75685C",
"b1 	c #786B5F",
"c1 	c #7B6E62",
"d1 	c #716458",
"e1 	c #6A5D51",
"f1 	c #5B4E42",
"g1 	c #5E5145",
"h1 	c #807266",
"i1 	c #7D6F63",
"j1 	c #7C7063",
"k1 	c #7F7266",
"l1 	c #584737",
"m1 	c #4D3825",
"n1 	c #837666",
"o1 	c #6A5D4D",
"p1 	c #6E6150",
"q1 	c #655646",
"r1 	c #736757",
"s1 	c #7B6F5E",
"t1 	c #6D6051",
"u1 	c #6E6050",
"v1 	c #67594A",
"w1 	c #7E6F5D",
"x1 	c #7D7160",
"y1 	c #7C7160",
"z1 	c #695742",
"A1 	c #644926",
"B1 	c #725535",
"C1 	c #7E6346",
"D1 	c #6F5230",
"E1 	c #674E38",
"F1 	c #674E37",
"G1 	c #664E38",
"H1 	c #70573E",
"I1 	c #795E46",
"J1 	c #846A4E",
"K1 	c #81684E",
"L1 	c #81694E",
"M1 	c #82684F",
"N1 	c #866C52",
"O1 	c #735841",
"P1 	c #483A1D",
"Q1 	c #6D6656",
"R1 	c #665F4F",
"S1 	c #635A4B",
"T1 	c #5A5141",
"U1 	c #5F5543",
"V1 	c #706856",
"W1 	c #726B59",
"X1 	c #766F5D",
"Y1 	c #716958",
"Z1 	c #756E5D",
"`1 	c #756D5C",
" 2 	c #6E6655",
".2 	c #736B5A",
"+2 	c #655C4C",
"@2 	c #6C6351",
"#2 	c #7B7362",
"$2 	c #776E5D",
"%2 	c #776F5E",
"&2 	c #665B4A",
"*2 	c #716559",
"=2 	c #706458",
"-2 	c #75695C",
";2 	c #64564A",
">2 	c #68594D",
",2 	c #76695B",
"'2 	c #72665A",
")2 	c #7C7064",
"!2 	c #7E7165",
"~2 	c #7E7266",
"{2 	c #716459",
"]2 	c #665A4E",
"^2 	c #5F5247",
"/2 	c #6B5E51",
"(2 	c #5D4F43",
"_2 	c #827365",
":2 	c #77695D",
"<2 	c #7D7064",
"[2 	c #6B5E53",
"}2 	c #5F4E3E",
"|2 	c #4F3A25",
"12 	c #675A4B",
"22 	c #6B5E4E",
"32 	c #675B4B",
"42 	c #786D5C",
"52 	c #726655",
"62 	c #7D7262",
"72 	c #7D7161",
"82 	c #645849",
"92 	c #615343",
"02 	c #807361",
"a2 	c #827564",
"b2 	c #726757",
"c2 	c #594123",
"d2 	c #795F49",
"e2 	c #755B43",
"f2 	c #6C543D",
"g2 	c #836A4F",
"h2 	c #725941",
"i2 	c #7C6248",
"j2 	c #896F55",
"k2 	c #886F54",
"l2 	c #876D53",
"m2 	c #836950",
"n2 	c #846A51",
"o2 	c #716A5A",
"p2 	c #716A59",
"q2 	c #736A59",
"r2 	c #686150",
"s2 	c #615847",
"t2 	c #685F4B",
"u2 	c #766F5E",
"v2 	c #6D6655",
"w2 	c #7C7564",
"x2 	c #6C6353",
"y2 	c #787060",
"z2 	c #6B6252",
"A2 	c #6D6454",
"B2 	c #645B49",
"C2 	c #736C59",
"D2 	c #78715F",
"E2 	c #756C5B",
"F2 	c #766E5D",
"G2 	c #514124",
"H2 	c #6F6357",
"I2 	c #73675B",
"J2 	c #66594E",
"K2 	c #6A5D50",
"L2 	c #5C4E42",
"M2 	c #5F5144",
"N2 	c #817569",
"O2 	c #75695D",
"P2 	c #64574C",
"Q2 	c #74685C",
"R2 	c #706358",
"S2 	c #675B4F",
"T2 	c #605245",
"U2 	c #7C6D60",
"V2 	c #7D7164",
"W2 	c #4F3C28",
"X2 	c #807464",
"Y2 	c #7E7162",
"Z2 	c #605242",
"`2 	c #685B4A",
" 3 	c #716554",
".3 	c #6D6152",
"+3 	c #7B6F5F",
"@3 	c #6B5E50",
"#3 	c #6C6051",
"$3 	c #615546",
"%3 	c #756A5A",
"&3 	c #736758",
"*3 	c #5B4221",
"=3 	c #8B7057",
"-3 	c #80664D",
";3 	c #896E54",
">3 	c #775D42",
",3 	c #6C523B",
"'3 	c #6E553F",
")3 	c #654E37",
"!3 	c #755D44",
"~3 	c #765E45",
"{3 	c #6E563F",
"]3 	c #6F573F",
"^3 	c #604833",
"/3 	c #796046",
"(3 	c #735B43",
"_3 	c #6E573F",
":3 	c #715940",
"<3 	c #735A3B",
"[3 	c #81674C",
"}3 	c #82684D",
"|3 	c #826950",
"13 	c #7B6249",
"23 	c #735D45",
"33 	c #866E53",
"43 	c #8A7055",
"53 	c #765B44",
"63 	c #514323",
"73 	c #77705E",
"83 	c #585041",
"93 	c #61594A",
"03 	c #696050",
"a3 	c #574C37",
"b3 	c #685F4E",
"c3 	c #716A58",
"d3 	c #6C6454",
"e3 	c #736C5B",
"f3 	c #77705F",
"g3 	c #7B7363",
"h3 	c #625A4A",
"i3 	c #635B4B",
"j3 	c #5E5443",
"k3 	c #615746",
"l3 	c #6F6856",
"m3 	c #7A7262",
"n3 	c #4E3F28",
"o3 	c #524224",
"p3 	c #55483B",
"q3 	c #796D61",
"r3 	c #776B5F",
"s3 	c #72655A",
"t3 	c #625448",
"u3 	c #807468",
"v3 	c #7F7367",
"w3 	c #786C60",
"x3 	c #7E7166",
"y3 	c #6B5F53",
"z3 	c #685C51",
"A3 	c #6C5E52",
"B3 	c #7B6E61",
"C3 	c #6D5E52",
"D3 	c #483827",
"E3 	c #817465",
"F3 	c #85796A",
"G3 	c #7D7061",
"H3 	c #756859",
"I3 	c #706454",
"J3 	c #7E7161",
"K3 	c #625444",
"L3 	c #796D5D",
"M3 	c #7A6D5D",
"N3 	c #786C5C",
"O3 	c #655848",
"P3 	c #584D3D",
"Q3 	c #665B4B",
"R3 	c #665A4B",
"S3 	c #6F6353",
"T3 	c #766A5A",
"U3 	c #5A4120",
"V3 	c #8A7056",
"W3 	c #8A6F56",
"X3 	c #7F654D",
"Y3 	c #745A44",
"Z3 	c #71573D",
"`3 	c #6E5339",
" 4 	c #83664C",
".4 	c #755C44",
"+4 	c #80664C",
"@4 	c #765D44",
"#4 	c #7F674C",
"$4 	c #775F45",
"%4 	c #7E684C",
"&4 	c #7D644B",
"*4 	c #80674E",
"=4 	c #7D644A",
"-4 	c #876E55",
";4 	c #8D7259",
">4 	c #4E3F1F",
",4 	c #665E4E",
"'4 	c #746E5E",
")4 	c #7D7565",
"!4 	c #655D4D",
"~4 	c #645C4B",
"{4 	c #60563F",
"]4 	c #6E6452",
"^4 	c #706854",
"/4 	c #6E6756",
"(4 	c #706858",
"_4 	c #675F4F",
":4 	c #776F5F",
"<4 	c #797261",
"[4 	c #726959",
"}4 	c #615748",
"|4 	c #605747",
"14 	c #665E4D",
"24 	c #574D3E",
"34 	c #787160",
"44 	c #5A4D3C",
"54 	c #4F3E21",
"64 	c #5F5345",
"74 	c #73665B",
"84 	c #75685D",
"94 	c #6C5F53",
"04 	c #65584C",
"a4 	c #7F7267",
"b4 	c #6E6256",
"c4 	c #6D6055",
"d4 	c #73675C",
"e4 	c #6A5E52",
"f4 	c #6C5F54",
"g4 	c #6E6156",
"h4 	c #635549",
"i4 	c #78695C",
"j4 	c #675647",
"k4 	c #51412F",
"l4 	c #867A6A",
"m4 	c #847868",
"n4 	c #7F7363",
"o4 	c #726556",
"p4 	c #746859",
"q4 	c #645748",
"r4 	c #7A6E5D",
"s4 	c #6C6152",
"t4 	c #766B5B",
"u4 	c #6A5E4F",
"v4 	c #64594A",
"w4 	c #665849",
"x4 	c #5E5142",
"y4 	c #615445",
"z4 	c #514536",
"A4 	c #554A3A",
"B4 	c #6B6150",
"C4 	c #665C4C",
"D4 	c #675C4C",
"E4 	c #6A5E4E",
"F4 	c #746857",
"G4 	c #796D5E",
"H4 	c #786C5D",
"I4 	c #5C4D3C",
"J4 	c #5A3F1D",
"K4 	c #866C53",
"L4 	c #7C624A",
"M4 	c #7D634A",
"N4 	c #685036",
"O4 	c #684F39",
"P4 	c #674F38",
"Q4 	c #6D543E",
"R4 	c #715840",
"S4 	c #68503A",
"T4 	c #634C36",
"U4 	c #6F563C",
"V4 	c #785F45",
"W4 	c #7C6348",
"X4 	c #6D5835",
"Y4 	c #876E54",
"Z4 	c #856C53",
"`4 	c #886E56",
" 5 	c #56451A",
".5 	c #726B5B",
"+5 	c #766F5F",
"@5 	c #7E7666",
"#5 	c #6B6353",
"$5 	c #635B4A",
"%5 	c #635949",
"&5 	c #615747",
"*5 	c #746D5C",
"=5 	c #706958",
"-5 	c #766E5E",
";5 	c #7B7463",
">5 	c #6E6656",
",5 	c #726A5A",
"'5 	c #685F50",
")5 	c #665E4F",
"!5 	c #675E4F",
"~5 	c #6E6755",
"{5 	c #787261",
"]5 	c #756D5D",
"^5 	c #685D4D",
"/5 	c #514123",
"(5 	c #6C6155",
"_5 	c #6C6055",
":5 	c #766A5E",
"<5 	c #5D5044",
"[5 	c #7F7366",
"}5 	c #7B6F64",
"|5 	c #6A5E53",
"15 	c #72675C",
"25 	c #776B60",
"35 	c #6F6458",
"45 	c #766A5F",
"55 	c #685B50",
"65 	c #685A4E",
"75 	c #796D62",
"85 	c #7D7165",
"95 	c #6A5B4F",
"05 	c #4F3D2B",
"a5 	c #7E7263",
"b5 	c #776B5C",
"c5 	c #746758",
"d5 	c #7A6E5F",
"e5 	c #736657",
"f5 	c #726656",
"g5 	c #605446",
"h5 	c #675B4D",
"i5 	c #685C4D",
"j5 	c #695D4C",
"k5 	c #544838",
"l5 	c #564C3C",
"m5 	c #564D3D",
"n5 	c #594E3E",
"o5 	c #645949",
"p5 	c #695E4E",
"q5 	c #695D4E",
"r5 	c #74695A",
"s5 	c #766B5C",
"t5 	c #584635",
"u5 	c #5C3F1A",
"v5 	c #7B624A",
"w5 	c #856B52",
"x5 	c #745A43",
"y5 	c #7D624A",
"z5 	c #6F543D",
"A5 	c #80654D",
"B5 	c #6F563F",
"C5 	c #735A42",
"D5 	c #654E38",
"E5 	c #674F39",
"F5 	c #654D36",
"G5 	c #7D6549",
"H5 	c #806C4F",
"I5 	c #806A4F",
"J5 	c #755F42",
"K5 	c #7D654B",
"L5 	c #7B6345",
"M5 	c #755E3C",
"N5 	c #765F3D",
"O5 	c #745D3D",
"P5 	c #6D5830",
"Q5 	c #604C25",
"R5 	c #5C4A1A",
"S5 	c #564C37",
"T5 	c #695B3A",
"U5 	c #6C5E39",
"V5 	c #695B37",
"W5 	c #6D6144",
"X5 	c #54493A",
"Y5 	c #655B43",
"Z5 	c #746C5C",
"`5 	c #6F6757",
" 6 	c #746D5D",
".6 	c #6D6556",
"+6 	c #635B4C",
"@6 	c #6F6656",
"#6 	c #797161",
"$6 	c #62594A",
"%6 	c #686050",
"&6 	c #5F5545",
"*6 	c #665D4C",
"=6 	c #6F6858",
"-6 	c #7C7565",
";6 	c #7B7464",
">6 	c #625747",
",6 	c #493A22",
"'6 	c #73685C",
")6 	c #7A6E63",
"!6 	c #786C61",
"~6 	c #74685D",
"{6 	c #65584D",
"]6 	c #574A3C",
"^6 	c #665949",
"/6 	c #685C4F",
"(6 	c #594C40",
"_6 	c #706459",
":6 	c #766B5F",
"<6 	c #756A5E",
"[6 	c #6E6257",
"}6 	c #7B6F62",
"|6 	c #7E7265",
"16 	c #675748",
"26 	c #7E7267",
"36 	c #83776C",
"46 	c #82766B",
"56 	c #4C3C2A",
"66 	c #817667",
"76 	c #7B6D5D",
"86 	c #736351",
"96 	c #7F7263",
"06 	c #615242",
"a6 	c #6C5F4E",
"b6 	c #736756",
"c6 	c #7A6D5E",
"d6 	c #796E5F",
"e6 	c #7B6F60",
"f6 	c #817666",
"g6 	c #75695A",
"h6 	c #706456",
"i6 	c #6F6355",
"j6 	c #65594B",
"k6 	c #64594B",
"l6 	c #685D4E",
"m6 	c #675B4C",
"n6 	c #645747",
"o6 	c #625948",
"p6 	c #67614F",
"q6 	c #5D5646",
"r6 	c #575142",
"s6 	c #574E3F",
"t6 	c #706556",
"u6 	c #726657",
"v6 	c #6A5F50",
"w6 	c #564534",
"x6 	c #513717",
"y6 	c #866B52",
"z6 	c #6F5640",
"A6 	c #6B523C",
"B6 	c #684F3A",
"C6 	c #796047",
"D6 	c #7B654B",
"E6 	c #80684E",
"F6 	c #876E53",
"G6 	c #866D53",
"H6 	c #8C7258",
"I6 	c #886E55",
"J6 	c #695236",
"K6 	c #614E1D",
"L6 	c #605335",
"M6 	c #746C5D",
"N6 	c #7E7767",
"O6 	c #726A5B",
"P6 	c #6B6354",
"Q6 	c #6A6152",
"R6 	c #5F5645",
"S6 	c #726B5A",
"T6 	c #777060",
"U6 	c #736B5B",
"V6 	c #797262",
"W6 	c #736C5C",
"X6 	c #6E6757",
"Y6 	c #6C6455",
"Z6 	c #756E5E",
"`6 	c #746D5B",
" 7 	c #6D6555",
".7 	c #7E7868",
"+7 	c #827B6A",
"@7 	c #6C6151",
"#7 	c #4B3D25",
"$7 	c #7C7166",
"%7 	c #7F7469",
"&7 	c #5E503E",
"*7 	c #6F6257",
"=7 	c #685C50",
"-7 	c #62554A",
";7 	c #574B3F",
">7 	c #685B4E",
",7 	c #74685B",
"'7 	c #6A5F54",
")7 	c #6B6055",
"!7 	c #776C61",
"~7 	c #6F6358",
"{7 	c #6D6156",
"]7 	c #65594E",
"^7 	c #6D6155",
"/7 	c #7A6D61",
"(7 	c #7C7165",
"_7 	c #4D3C2A",
":7 	c #887D6F",
"<7 	c #7E7060",
"[7 	c #6A5846",
"}7 	c #7B6E60",
"|7 	c #6B5F50",
"17 	c #655544",
"27 	c #766A5B",
"37 	c #7C7162",
"47 	c #776C5D",
"57 	c #594F41",
"67 	c #615648",
"77 	c #5A5042",
"87 	c #55483A",
"97 	c #655949",
"07 	c #5D5242",
"a7 	c #5B5040",
"b7 	c #655E4C",
"c7 	c #6C6252",
"d7 	c #6D6252",
"e7 	c #5F5141",
"f7 	c #563915",
"g7 	c #6C553F",
"h7 	c #785E46",
"i7 	c #795F47",
"j7 	c #775C40",
"k7 	c #674E39",
"l7 	c #81674E",
"m7 	c #755B44",
"n7 	c #765D43",
"o7 	c #6D553E",
"p7 	c #7B6349",
"q7 	c #745D44",
"r7 	c #6B533C",
"s7 	c #7A6247",
"t7 	c #826C50",
"u7 	c #7E6747",
"v7 	c #856E53",
"w7 	c #897056",
"x7 	c #886E54",
"y7 	c #886D54",
"z7 	c #654C36",
"A7 	c #59481B",
"B7 	c #675F50",
"C7 	c #787161",
"D7 	c #736B5C",
"E7 	c #696252",
"F7 	c #605848",
"G7 	c #5D5444",
"H7 	c #665B43",
"I7 	c #6E6657",
"J7 	c #71695A",
"K7 	c #756E5F",
"L7 	c #72695A",
"M7 	c #686051",
"N7 	c #645B4B",
"O7 	c #504637",
"P7 	c #584E3F",
"Q7 	c #5D5544",
"R7 	c #7A7363",
"S7 	c #847D6D",
"T7 	c #6E6354",
"U7 	c #4A3C25",
"V7 	c #786D62",
"W7 	c #6B5E4C",
"X7 	c #594B36",
"Y7 	c #695C49",
"Z7 	c #71655A",
"`7 	c #786B60",
" 8 	c #6A5F53",
".8 	c #72675B",
"+8 	c #796E62",
"@8 	c #756A5F",
"#8 	c #786D61",
"$8 	c #74695E",
"%8 	c #70665C",
"&8 	c #72665B",
"*8 	c #6B5F54",
"=8 	c #6C6054",
"-8 	c #7B7065",
";8 	c #7D7166",
">8 	c #4F3E2D",
",8 	c #5F4F40",
"'8 	c #4A3927",
")8 	c #5E4C3A",
"!8 	c #766A5C",
"~8 	c #6F6254",
"{8 	c #796C5D",
"]8 	c #6E6252",
"^8 	c #7C7060",
"/8 	c #746858",
"(8 	c #75695B",
"_8 	c #6E6254",
":8 	c #605547",
"<8 	c #625749",
"[8 	c #5B5143",
"}8 	c #655C4E",
"|8 	c #655B4D",
"18 	c #625748",
"28 	c #695D4D",
"38 	c #4D4133",
"48 	c #5A5243",
"58 	c #6A6050",
"68 	c #595041",
"78 	c #5F523F",
"88 	c #615849",
"98 	c #695E4F",
"08 	c #7B7061",
"a8 	c #593C16",
"b8 	c #5B432A",
"c8 	c #785F47",
"d8 	c #7F654B",
"e8 	c #674E35",
"f8 	c #775E46",
"g8 	c #7A6148",
"h8 	c #6A533D",
"i8 	c #735C43",
"j8 	c #7B644A",
"k8 	c #765E44",
"l8 	c #705940",
"m8 	c #705941",
"n8 	c #745B42",
"o8 	c #796447",
"p8 	c #856C51",
"q8 	c #816A4F",
"r8 	c #80684F",
"s8 	c #8B7158",
"t8 	c #624C34",
"u8 	c #524215",
"v8 	c #6B6454",
"w8 	c #62594B",
"x8 	c #5D5446",
"y8 	c #5C5345",
"z8 	c #5F5747",
"A8 	c #5E5545",
"B8 	c #716A57",
"C8 	c #6F6758",
"D8 	c #767060",
"E8 	c #766E5F",
"F8 	c #605648",
"G8 	c #564D3E",
"H8 	c #564E3E",
"I8 	c #726957",
"J8 	c #7B7565",
"K8 	c #817A6A",
"L8 	c #4D3F28",
"M8 	c #493A1C",
"N8 	c #5C4E3A",
"O8 	c #6B5F51",
"P8 	c #75695E",
"Q8 	c #776A5F",
"R8 	c #5E5147",
"S8 	c #675A4F",
"T8 	c #70655A",
"U8 	c #796E63",
"V8 	c #766B60",
"W8 	c #756A60",
"X8 	c #6D5F54",
"Y8 	c #64574B",
"Z8 	c #7F7468",
"`8 	c #4F3B27",
" 9 	c #766B5D",
".9 	c #756A5C",
"+9 	c #726658",
"@9 	c #716657",
"#9 	c #6D6052",
"$9 	c #675848",
"%9 	c #66594A",
"&9 	c #756A5B",
"*9 	c #7A6F60",
"=9 	c #7C7062",
"-9 	c #736759",
";9 	c #786E60",
">9 	c #6A5E50",
",9 	c #6B6052",
"'9 	c #5E5345",
")9 	c #6A6051",
"!9 	c #695F50",
"~9 	c #6E6355",
"{9 	c #6F6556",
"]9 	c #665A4C",
"^9 	c #5D5545",
"/9 	c #5E5445",
"(9 	c #5E5546",
"_9 	c #655B4B",
":9 	c #6A6151",
"<9 	c #5D5344",
"[9 	c #6B6051",
"}9 	c #786D5D",
"|9 	c #7C7161",
"19 	c #5B3F1C",
"29 	c #775D46",
"39 	c #654D37",
"49 	c #6E553E",
"59 	c #715841",
"69 	c #705842",
"79 	c #6F5841",
"89 	c #79654B",
"99 	c #766046",
"09 	c #715A42",
"a9 	c #6B533D",
"b9 	c #654D38",
"c9 	c #766347",
"d9 	c #7A6448",
"e9 	c #7C664A",
"f9 	c #796343",
"g9 	c #846C52",
"h9 	c #866E55",
"i9 	c #886F55",
"j9 	c #715941",
"k9 	c #57471A",
"l9 	c #787162",
"m9 	c #6D6557",
"n9 	c #797162",
"o9 	c #625A4B",
"p9 	c #655D4E",
"q9 	c #675F4E",
"r9 	c #716959",
"s9 	c #746D5E",
"t9 	c #766F60",
"u9 	c #777061",
"v9 	c #7C7667",
"w9 	c #564D3F",
"x9 	c #554C3D",
"y9 	c #554E3F",
"z9 	c #605A49",
"A9 	c #595141",
"B9 	c #665F4E",
"C9 	c #635C4C",
"D9 	c #5F5848",
"E9 	c #625A47",
"F9 	c #5A513C",
"G9 	c #645A46",
"H9 	c #463821",
"I9 	c #6D6257",
"J9 	c #7A6F64",
"K9 	c #675A50",
"L9 	c #615347",
"M9 	c #716558",
"N9 	c #695D52",
"O9 	c #7D7267",
"P9 	c #71655B",
"Q9 	c #6D6258",
"R9 	c #70655B",
"S9 	c #73685D",
"T9 	c #695D53",
"U9 	c #63564B",
"V9 	c #695E51",
"W9 	c #7B7064",
"X9 	c #7E7367",
"Y9 	c #6A5C51",
"Z9 	c #513F2B",
"`9 	c #7F7365",
" 0 	c #786D5F",
".0 	c #736859",
"+0 	c #7A6E60",
"@0 	c #635749",
"#0 	c #5E5143",
"$0 	c #776B5A",
"%0 	c #786D5E",
"&0 	c #716556",
"*0 	c #776B5D",
"=0 	c #7B7062",
"-0 	c #716557",
";0 	c #675C4E",
">0 	c #675D4F",
",0 	c #5B4F42",
"'0 	c #5D5245",
")0 	c #5D5142",
"!0 	c #6A5F4F",
"~0 	c #524839",
"{0 	c #5B5242",
"]0 	c #726858",
"^0 	c #675D4E",
"/0 	c #50381B",
"(0 	c #876D54",
"_0 	c #80664E",
":0 	c #6E5439",
"<0 	c #69503A",
"[0 	c #81674F",
"}0 	c #7A624A",
"|0 	c #796149",
"10 	c #705D43",
"20 	c #6C573F",
"30 	c #755B42",
"40 	c #675038",
"50 	c #7A6347",
"60 	c #836A51",
"70 	c #81684F",
"80 	c #846B52",
"90 	c #8A7057",
"00 	c #877157",
"a0 	c #725A43",
"b0 	c #4A3D1E",
"c0 	c #7A7364",
"d0 	c #7B7465",
"e0 	c #6A6253",
"f0 	c #5E533C",
"g0 	c #736C5A",
"h0 	c #6A6353",
"i0 	c #6C6555",
"j0 	c #716B5B",
"k0 	c #70695A",
"l0 	c #797364",
"m0 	c #7E7869",
"n0 	c #776F60",
"o0 	c #706859",
"p0 	c #5F5648",
"q0 	c #5F5746",
"r0 	c #696250",
"s0 	c #665F50",
"t0 	c #645D4E",
"u0 	c #5D5648",
"v0 	c #635C4E",
"w0 	c #5B5549",
"x0 	c #5E5649",
"y0 	c #746E60",
"z0 	c #493A23",
"A0 	c #72685D",
"B0 	c #746A5F",
"C0 	c #71665B",
"D0 	c #6B5F55",
"E0 	c #776B61",
"F0 	c #61554B",
"G0 	c #695C51",
"H0 	c #786A5E",
"I0 	c #7C7066",
"J0 	c #786E63",
"K0 	c #796E64",
"L0 	c #776C62",
"M0 	c #73695E",
"N0 	c #74685E",
"O0 	c #64584D",
"P0 	c #594D41",
"Q0 	c #594C41",
"R0 	c #695D50",
"S0 	c #66594C",
"T0 	c #63574A",
"U0 	c #72685B",
"V0 	c #786C5F",
"W0 	c #7E7268",
"X0 	c #7B6F65",
"Y0 	c #766A60",
"Z0 	c #7A6F65",
"`0 	c #584633",
" a 	c #827769",
".a 	c #726659",
"+a 	c #726759",
"@a 	c #776C5E",
"#a 	c #5C4E40",
"$a 	c #584C3E",
"%a 	c #7F7262",
"&a 	c #796E5E",
"*a 	c #7E7363",
"=a 	c #74695B",
"-a 	c #796E60",
";a 	c #706557",
">a 	c #64584B",
",a 	c #6D6253",
"'a 	c #6A5F51",
")a 	c #706455",
"!a 	c #5A4D3F",
"~a 	c #6C6050",
"{a 	c #524638",
"]a 	c #706656",
"^a 	c #7A6F5F",
"/a 	c #7E7364",
"(a 	c #7C7163",
"_a 	c #65584A",
":a 	c #5B4121",
"<a 	c #896F56",
"[a 	c #8D735A",
"}a 	c #83694F",
"|a 	c #836951",
"1a 	c #7A6149",
"2a 	c #745F47",
"3a 	c #745D45",
"4a 	c #6D563F",
"5a 	c #6F5B42",
"6a 	c #735F44",
"7a 	c #715A41",
"8a 	c #7A6146",
"9a 	c #7D644D",
"0a 	c #7C634B",
"aa 	c #7D654D",
"ba 	c #806850",
"ca 	c #806A51",
"da 	c #715943",
"ea 	c #4C3E1D",
"fa 	c #5B5245",
"ga 	c #6A6355",
"ha 	c #736C5D",
"ia 	c #6D6657",
"ja 	c #645C4E",
"ka 	c #6B6455",
"la 	c #746D5F",
"ma 	c #726B5D",
"na 	c #736C5E",
"oa 	c #766F61",
"pa 	c #7C7668",
"qa 	c #6B6355",
"ra 	c #605748",
"sa 	c #4E493A",
"ta 	c #726C5C",
"ua 	c #5B5445",
"va 	c #463E30",
"wa 	c #554E41",
"xa 	c #514F43",
"ya 	c #534C40",
"za 	c #686255",
"Aa 	c #6C6254",
"Ba 	c #4C3E25",
"Ca 	c #6C6157",
"Da 	c #73685E",
"Ea 	c #6F645A",
"Fa 	c #6C6156",
"Ga 	c #67594E",
"Ha 	c #6E6359",
"Ia 	c #786D63",
"Ja 	c #7C7267",
"Ka 	c #7B7166",
"La 	c #72665C",
"Ma 	c #6D6157",
"Na 	c #65594D",
"Oa 	c #665A4D",
"Pa 	c #655B4F",
"Qa 	c #7D7268",
"Ra 	c #7E7368",
"Sa 	c #483624",
"Ta 	c #62574A",
"Ua 	c #74685A",
"Va 	c #66594B",
"Wa 	c #524335",
"Xa 	c #776D5E",
"Ya 	c #73685A",
"Za 	c #6E6152",
"`a 	c #7F7464",
" b 	c #807465",
".b 	c #7A6F61",
"+b 	c #5A3F1E",
"@b 	c #91775E",
"#b 	c #90765D",
"$b 	c #806750",
"%b 	c #82674F",
"&b 	c #755C45",
"*b 	c #826850",
"=b 	c #876D55",
"-b 	c #7E684E",
";b 	c #7B654C",
">b 	c #786249",
",b 	c #766047",
"'b 	c #786349",
")b 	c #6A523C",
"!b 	c #6B533B",
"~b 	c #7C6345",
"{b 	c #836B52",
"]b 	c #856C54",
"^b 	c #8B7359",
"/b 	c #765D46",
"(b 	c #55451E",
"_b 	c #5A5447",
":b 	c #60594C",
"<b 	c #676052",
"[b 	c #6A6354",
"}b 	c #655C4D",
"|b 	c #6F6859",
"1b 	c #706959",
"2b 	c #6D6757",
"3b 	c #726C5D",
"4b 	c #736D5E",
"5b 	c #767061",
"6b 	c #777062",
"7b 	c #787163",
"8b 	c #6E6658",
"9b 	c #756F60",
"0b 	c #645B4C",
"ab 	c #5C5243",
"bb 	c #625B4A",
"cb 	c #655E4E",
"db 	c #615A4B",
"eb 	c #585143",
"fb 	c #555245",
"gb 	c #515044",
"hb 	c #555548",
"ib 	c #5B584C",
"jb 	c #696457",
"kb 	c #605749",
"lb 	c #4A3C23",
"mb 	c #6A5F55",
"nb 	c #675C52",
"ob 	c #6F6459",
"pb 	c #74695D",
"qb 	c #685D53",
"rb 	c #73695F",
"sb 	c #74695F",
"tb 	c #685C52",
"ub 	c #7C7167",
"vb 	c #6A5D53",
"wb 	c #6E6356",
"xb 	c #71665C",
"yb 	c #453220",
"zb 	c #645A4A",
"Ab 	c #7C7264",
"Bb 	c #796E61",
"Cb 	c #6D6154",
"Db 	c #796D5F",
"Eb 	c #625548",
"Fb 	c #726758",
"Gb 	c #786C5E",
"Hb 	c #7D7264",
"Ib 	c #766B5E",
"Jb 	c #665B4E",
"Kb 	c #5F5346",
"Lb 	c #746959",
"Mb 	c #7C7061",
"Nb 	c #7F7466",
"Ob 	c #554434",
"Pb 	c #63451F",
"Qb 	c #7F6751",
"Rb 	c #8E755D",
"Sb 	c #826952",
"Tb 	c #816750",
"Ub 	c #7D634C",
"Vb 	c #73583D",
"Wb 	c #6F5336",
"Xb 	c #816850",
"Yb 	c #866B53",
"Zb 	c #846951",
"`b 	c #8B7259",
" c 	c #776249",
".c 	c #7F6A50",
"+c 	c #7C654C",
"@c 	c #7B664C",
"#c 	c #625039",
"$c 	c #6E5941",
"%c 	c #7E674E",
"&c 	c #79634A",
"*c 	c #7C644B",
"=c 	c #775E47",
"-c 	c #6C533D",
";c 	c #644D37",
">c 	c #715B41",
",c 	c #6F573E",
"'c 	c #786043",
")c 	c #8C7259",
"!c 	c #8F755C",
"~c 	c #8F755D",
"{c 	c #816851",
"]c 	c #574619",
"^c 	c #656053",
"/c 	c #7B7568",
"(c 	c #756F61",
"_c 	c #696154",
":c 	c #6E6759",
"<c 	c #716A5B",
"[c 	c #6E6758",
"}c 	c #645C4D",
"|c 	c #696151",
"1c 	c #6E6555",
"2c 	c #685F4F",
"3c 	c #655E4F",
"4c 	c #6F695A",
"5c 	c #6F685A",
"6c 	c #726B5C",
"7c 	c #736D5F",
"8c 	c #777163",
"9c 	c #655E50",
"0c 	c #665E50",
"ac 	c #6B6253",
"bc 	c #4D4537",
"cc 	c #585244",
"dc 	c #564F3F",
"ec 	c #666050",
"fc 	c #686151",
"gc 	c #736D5D",
"hc 	c #706A5B",
"ic 	c #464134",
"jc 	c #565547",
"kc 	c #605B4F",
"lc 	c #736D60",
"mc 	c #665D4F",
"nc 	c #45371F",
"oc 	c #786E64",
"pc 	c #675C51",
"qc 	c #796C61",
"rc 	c #6F6156",
"sc 	c #64594F",
"tc 	c #71675D",
"uc 	c #756B61",
"vc 	c #72675D",
"wc 	c #6F655A",
"xc 	c #766B61",
"yc 	c #63574C",
"zc 	c #706559",
"Ac 	c #7E7369",
"Bc 	c #83786D",
"Cc 	c #7D7167",
"Dc 	c #7B7066",
"Ec 	c #483622",
"Fc 	c #817669",
"Gc 	c #7A6E61",
"Hc 	c #7B7063",
"Ic 	c #716658",
"Jc 	c #635649",
"Kc 	c #6E6153",
"Lc 	c #786D60",
"Mc 	c #776D5F",
"Nc 	c #756C5E",
"Oc 	c #6F6456",
"Pc 	c #685D50",
"Qc 	c #65594C",
"Rc 	c #685C4E",
"Sc 	c #7E7365",
"Tc 	c #7B7163",
"Uc 	c #684A24",
"Vc 	c #7B654E",
"Wc 	c #90765F",
"Xc 	c #8A715A",
"Yc 	c #7B634D",
"Zc 	c #876E56",
"`c 	c #6B4F2E",
" d 	c #725842",
".d 	c #684E35",
"+d 	c #886F56",
"@d 	c #816952",
"#d 	c #887158",
"$d 	c #856D55",
"%d 	c #77614A",
"&d 	c #756047",
"*d 	c #76664A",
"=d 	c #816951",
"-d 	c #6E5841",
";d 	c #7F664D",
">d 	c #715942",
",d 	c #765D45",
"'d 	c #735A43",
")d 	c #6B543C",
"!d 	c #715A3E",
"~d 	c #785F48",
"{d 	c #80674F",
"]d 	c #8E745B",
"^d 	c #846B53",
"/d 	c #8B725A",
"(d 	c #886F57",
"_d 	c #745C45",
":d 	c #5E4D1E",
"<d 	c #6B6457",
"[d 	c #797365",
"}d 	c #70685B",
"|d 	c #716A5C",
"1d 	c #756E60",
"2d 	c #675F51",
"3d 	c #686052",
"4d 	c #6C6354",
"5d 	c #6A6455",
"6d 	c #6C6557",
"7d 	c #6E685A",
"8d 	c #6D6759",
"9d 	c #6D6658",
"0d 	c #696254",
"ad 	c #696355",
"bd 	c #60584A",
"cd 	c #5D5546",
"dd 	c #4D4436",
"ed 	c #706A59",
"fd 	c #5D5747",
"gd 	c #736D5C",
"hd 	c #696253",
"id 	c #5B5446",
"jd 	c #423724",
"kd 	c #514D40",
"ld 	c #524B3E",
"md 	c #666054",
"nd 	c #6F685B",
"od 	c #524536",
"pd 	c #514122",
"qd 	c #685F55",
"rd 	c #665A4F",
"sd 	c #6E6358",
"td 	c #6B6056",
"ud 	c #6F655C",
"vd 	c #70665B",
"wd 	c #685B51",
"xd 	c #5D5146",
"yd 	c #6F6356",
"zd 	c #847A6F",
"Ad 	c #81776C",
"Bd 	c #5A4B3D",
"Cd 	c #523E2A",
"Dd 	c #706658",
"Ed 	c #7F7467",
"Fd 	c #807669",
"Gd 	c #83786B",
"Hd 	c #7D7365",
"Id 	c #716659",
"Jd 	c #695D4F",
"Kd 	c #73695C",
"Ld 	c #706558",
"Md 	c #6F6457",
"Nd 	c #584D41",
"Od 	c #544A3E",
"Pd 	c #6B6154",
"Qd 	c #6B6053",
"Rd 	c #625649",
"Sd 	c #5F5447",
"Td 	c #766C5E",
"Ud 	c #5B4B3C",
"Vd 	c #644722",
"Wd 	c #745F4A",
"Xd 	c #8E755E",
"Yd 	c #8D745D",
"Zd 	c #876E57",
"`d 	c #886F58",
" e 	c #775C3F",
".e 	c #775E48",
"+e 	c #735943",
"@e 	c #7C634C",
"#e 	c #8C735B",
"$e 	c #897059",
"%e 	c #897159",
"&e 	c #877058",
"*e 	c #7A644D",
"=e 	c #7F6951",
"-e 	c #715D45",
";e 	c #726047",
">e 	c #745B44",
",e 	c #6B523B",
"'e 	c #856B53",
")e 	c #826951",
"!e 	c #866C55",
"~e 	c #8C745C",
"{e 	c #67503A",
"]e 	c #635121",
"^e 	c #6D665A",
"/e 	c #625A4D",
"(e 	c #7B7466",
"_e 	c #5F574A",
":e 	c #666052",
"<e 	c #6A6255",
"[e 	c #5C4F2F",
"}e 	c #756D5E",
"|e 	c #6A6252",
"1e 	c #6B6456",
"2e 	c #706A5D",
"3e 	c #726C5E",
"4e 	c #70695C",
"5e 	c #665E51",
"6e 	c #615A4D",
"7e 	c #625C4F",
"8e 	c #6B6558",
"9e 	c #686152",
"0e 	c #696353",
"ae 	c #554C3E",
"be 	c #605949",
"ce 	c #645D4D",
"de 	c #655F51",
"ee 	c #656052",
"fe 	c #4B402C",
"ge 	c #5C574B",
"he 	c #666155",
"ie 	c #655F53",
"je 	c #787264",
"ke 	c #4C3C26",
"le 	c #524225",
"me 	c #695E55",
"ne 	c #776E64",
"oe 	c #685D52",
"pe 	c #675B51",
"qe 	c #6A5D52",
"re 	c #746A60",
"se 	c #756B62",
"te 	c #736960",
"ue 	c #776D63",
"ve 	c #7A7066",
"we 	c #6F6359",
"xe 	c #594D42",
"ye 	c #7C7065",
"ze 	c #7A6D62",
"Ae 	c #756B60",
"Be 	c #7F746A",
"Ce 	c #766C62",
"De 	c #72685E",
"Ee 	c #544333",
"Fe 	c #533F2B",
"Ge 	c #5D5244",
"He 	c #74695C",
"Ie 	c #6E6357",
"Je 	c #746A5E",
"Ke 	c #7D7265",
"Le 	c #7A6F62",
"Me 	c #6D6153",
"Ne 	c #6C6153",
"Oe 	c #695E50",
"Pe 	c #73695B",
"Qe 	c #6F6558",
"Re 	c #756B5E",
"Se 	c #64594C",
"Te 	c #564C40",
"Ue 	c #6F6659",
"Ve 	c #675E52",
"We 	c #756A5D",
"Xe 	c #7B7164",
"Ye 	c #817668",
"Ze 	c #7E7366",
"`e 	c #54402A",
" f 	c #624621",
".f 	c #65513D",
"+f 	c #89715B",
"@f 	c #917861",
"#f 	c #907860",
"$f 	c #6E5335",
"%f 	c #7D644F",
"&f 	c #79604A",
"*f 	c #745B45",
"=f 	c #7B614A",
"-f 	c #5B4125",
";f 	c #6A513C",
">f 	c #836A52",
",f 	c #7D6650",
"'f 	c #7C654F",
")f 	c #856D56",
"!f 	c #7C644E",
"~f 	c #826B53",
"{f 	c #7E664F",
"]f 	c #7C654E",
"^f 	c #816B53",
"/f 	c #7F6851",
"(f 	c #775F4A",
"_f 	c #846B54",
":f 	c #7B624C",
"<f 	c #664F3A",
"[f 	c #68513B",
"}f 	c #69523B",
"|f 	c #785F46",
"1f 	c #695330",
"2f 	c #836A53",
"3f 	c #8D745C",
"4f 	c #8C745D",
"5f 	c #907760",
"6f 	c #5D482C",
"7f 	c #604E1F",
"8f 	c #797265",
"9f 	c #726B5E",
"0f 	c #7B7567",
"af 	c #696255",
"bf 	c #787263",
"cf 	c #675A37",
"df 	c #716858",
"ef 	c #726958",
"ff 	c #686253",
"gf 	c #6C6657",
"hf 	c #706A5C",
"if 	c #6E685B",
"jf 	c #564F43",
"kf 	c #574E42",
"lf 	c #51493C",
"mf 	c #585043",
"nf 	c #4E473B",
"of 	c #554D40",
"pf 	c #4F4538",
"qf 	c #6A6456",
"rf 	c #716B5A",
"sf 	c #5E584B",
"tf 	c #605743",
"uf 	c #6E695B",
"vf 	c #706B5E",
"wf 	c #696357",
"xf 	c #7D7669",
"yf 	c #4D3D23",
"zf 	c #534326",
"Af 	c #5B4D36",
"Bf 	c #63574D",
"Cf 	c #766C63",
"Df 	c #695F55",
"Ef 	c #766B62",
"Ff 	c #6A6055",
"Gf 	c #796F65",
"Hf 	c #62564C",
"If 	c #57483A",
"Jf 	c #564A40",
"Kf 	c #66594F",
"Lf 	c #7E746A",
"Mf 	c #7C7268",
"Nf 	c #81776D",
"Of 	c #4F3C29",
"Pf 	c #584430",
"Qf 	c #4E4132",
"Rf 	c #857B6D",
"Sf 	c #6D6255",
"Tf 	c #6D6356",
"Uf 	c #675B4E",
"Vf 	c #5A4E42",
"Wf 	c #584D40",
"Xf 	c #68594A",
"Yf 	c #665B4D",
"Zf 	c #776C5F",
"`f 	c #71675A",
" g 	c #6D6357",
".g 	c #706659",
"+g 	c #675D50",
"@g 	c #6B6255",
"#g 	c #6E6255",
"$g 	c #5F5245",
"%g 	c #695C4E",
"&g 	c #786E61",
"*g 	c #847B6D",
"=g 	c #6B4E28",
"-g 	c #5C401E",
";g 	c #5A442A",
">g 	c #917862",
",g 	c #775C3C",
"'g 	c #8B725C",
")g 	c #826A54",
"!g 	c #836B55",
"~g 	c #7D654F",
"{g 	c #735A45",
"]g 	c #755B45",
"^g 	c #6F563E",
"/g 	c #887058",
"(g 	c #866E57",
"_g 	c #846C55",
":g 	c #856C55",
"<g 	c #836B54",
"[g 	c #826A53",
"}g 	c #79614B",
"|g 	c #7E6750",
"1g 	c #7F6750",
"2g 	c #745D47",
"3g 	c #6C5641",
"4g 	c #65503A",
"5g 	c #725C43",
"6g 	c #66513A",
"7g 	c #68533B",
"8g 	c #785F41",
"9g 	c #887059",
"0g 	c #907861",
"ag 	c #917962",
"bg 	c #7E6651",
"cg 	c #4B3918",
"dg 	c #594D33",
"eg 	c #726A5C",
"fg 	c #7C7567",
"gg 	c #827C6F",
"hg 	c #5E5236",
"ig 	c #6C6658",
"jg 	c #716B5D",
"kg 	c #756E61",
"lg 	c #6D6659",
"mg 	c #4E463A",
"ng 	c #463E33",
"og 	c #585246",
"pg 	c #5A554A",
"qg 	c #5B5447",
"rg 	c #564E41",
"sg 	c #6F695B",
"tg 	c #635D4F",
"ug 	c #6A6556",
"vg 	c #625B4C",
"wg 	c #716B5C",
"xg 	c #5B5241",
"yg 	c #6D675B",
"zg 	c #746E61",
"Ag 	c #57482B",
"Bg 	c #5C4C2E",
"Cg 	c #504127",
"Dg 	c #7A7065",
"Eg 	c #6D6259",
"Fg 	c #6E645A",
"Gg 	c #6C6056",
"Hg 	c #766C61",
"Ig 	c #786E65",
"Jg 	c #73685F",
"Kg 	c #695E54",
"Lg 	c #73675D",
"Mg 	c #7B7167",
"Ng 	c #83796F",
"Og 	c #867B71",
"Pg 	c #564636",
"Qg 	c #594532",
"Rg 	c #523F2D",
"Sg 	c #82786B",
"Tg 	c #6E6457",
"Ug 	c #645B4F",
"Vg 	c #746A5D",
"Wg 	c #73695A",
"Xg 	c #6E6456",
"Yg 	c #766C5F",
"Zg 	c #746A5C",
"`g 	c #716759",
" h 	c #64584C",
".h 	c #625648",
"+h 	c #5E5244",
"@h 	c #7F7567",
"#h 	c #8B8174",
"$h 	c #867B6E",
"%h 	c #55402E",
"&h 	c #674B28",
"*h 	c #664925",
"=h 	c #664B28",
"-h 	c #6D512F",
";h 	c #6F532F",
">h 	c #876F5A",
",h 	c #816852",
"'h 	c #6F5741",
")h 	c #70563C",
"!h 	c #7C6249",
"~h 	c #876F58",
"{h 	c #836C55",
"]h 	c #78614C",
"^h 	c #745D48",
"/h 	c #705A45",
"(h 	c #705944",
"_h 	c #6C563F",
":h 	c #6C5840",
"<h 	c #605138",
"[h 	c #6E5A40",
"}h 	c #6D553D",
"|h 	c #6E5538",
"1h 	c #836A50",
"2h 	c #8C725A",
"3h 	c #876E58",
"4h 	c #8B745D",
"5h 	c #937B64",
"6h 	c #69523D",
"7h 	c #614F1E",
"8h 	c #5E4D21",
"9h 	c #5E533B",
"0h 	c #878173",
"ah 	c #817B6D",
"bh 	c #7E7769",
"ch 	c #766E5B",
"dh 	c #635A4C",
"eh 	c #5F5649",
"fh 	c #6B6556",
"gh 	c #68604B",
"hh 	c #6C6659",
"ih 	c #767062",
"jh 	c #4D463A",
"kh 	c #4E483C",
"lh 	c #575247",
"mh 	c #595144",
"nh 	c #6D6758",
"oh 	c #7D7564",
"ph 	c #60594D",
"qh 	c #676151",
"rh 	c #7B7264",
"sh 	c #59492E",
"th 	c #56472C",
"uh 	c #524328",
"vh 	c #52452B",
"wh 	c #6E6258",
"xh 	c #71665D",
"yh 	c #5B4D37",
"zh 	c #776D62",
"Ah 	c #72665D",
"Bh 	c #574C42",
"Ch 	c #6B5E54",
"Dh 	c #82776D",
"Eh 	c #857A70",
"Fh 	c #483726",
"Gh 	c #594634",
"Hh 	c #5C4935",
"Ih 	c #5E4A37",
"Jh 	c #55422F",
"Kh 	c #4C3D2E",
"Lh 	c #81776A",
"Mh 	c #6B6155",
"Nh 	c #574A3E",
"Oh 	c #736858",
"Ph 	c #6D6355",
"Qh 	c #72685A",
"Rh 	c #6F6557",
"Sh 	c #6B5F52",
"Th 	c #584C3F",
"Uh 	c #5B5042",
"Vh 	c #635849",
"Wh 	c #807668",
"Xh 	c #877D70",
"Yh 	c #847A6C",
"Zh 	c #857A6D",
"`h 	c #8C8173",
" i 	c #523D29",
".i 	c #6F532E",
"+i 	c #71542F",
"@i 	c #71542D",
"#i 	c #685133",
"$i 	c #9A826B",
"%i 	c #8F7760",
"&i 	c #927963",
"*i 	c #7E654F",
"=i 	c #6B543F",
"-i 	c #715842",
";i 	c #6B5035",
">i 	c #775E45",
",i 	c #80664F",
"'i 	c #8A725B",
")i 	c #866E58",
"!i 	c #816953",
"~i 	c #7E6650",
"{i 	c #806852",
"]i 	c #77614B",
"^i 	c #6B5540",
"/i 	c #6E5843",
"(i 	c #63503A",
"_i 	c #5E4E37",
":i 	c #64533B",
"<i 	c #635039",
"[i 	c #725A42",
"}i 	c #6A533B",
"|i 	c #6B5432",
"1i 	c #886D55",
"2i 	c #7B6347",
"3i 	c #8E765F",
"4i 	c #977F68",
"5i 	c #584326",
"6i 	c #665424",
"7i 	c #665423",
"8i 	c #625027",
"9i 	c #80796C",
"0i 	c #837C6E",
"ai 	c #62583A",
"bi 	c #71695B",
"ci 	c #6C6457",
"di 	c #746F61",
"ei 	c #665F52",
"fi 	c #4C4438",
"gi 	c #4C473B",
"hi 	c #4F4A40",
"ii 	c #5E584C",
"ji 	c #635D50",
"ki 	c #544C3F",
"li 	c #6A6254",
"mi 	c #635B48",
"ni 	c #645D51",
"oi 	c #777467",
"pi 	c #54452C",
"qi 	c #58482C",
"ri 	c #58492D",
"si 	c #55462B",
"ti 	c #58492C",
"ui 	c #5D4E30",
"vi 	c #80756A",
"wi 	c #64584E",
"xi 	c #6D6151",
"yi 	c #797066",
"zi 	c #6F655B",
"Ai 	c #65594F",
"Bi 	c #605449",
"Ci 	c #63584E",
"Di 	c #65584B",
"Ei 	c #7F756C",
"Fi 	c #83786E",
"Gi 	c #564532",
"Hi 	c #503E2D",
"Ii 	c #564432",
"Ji 	c #4E3D2C",
"Ki 	c #53422F",
"Li 	c #62584B",
"Mi 	c #6F665A",
"Ni 	c #685E51",
"Oi 	c #6F6559",
"Pi 	c #796F61",
"Qi 	c #5F5547",
"Ri 	c #695F51",
"Si 	c #685E50",
"Ti 	c #756B5D",
"Ui 	c #6A5E51",
"Vi 	c #605447",
"Wi 	c #63594B",
"Xi 	c #524A3C",
"Yi 	c #786E5F",
"Zi 	c #837869",
"`i 	c #67553F",
" j 	c #7D7366",
".j 	c #867B6D",
"+j 	c #5F4425",
"@j 	c #674C29",
"#j 	c #735631",
"$j 	c #624B2F",
"%j 	c #957D67",
"&j 	c #927A63",
"*j 	c #8E7660",
"=j 	c #836A54",
"-j 	c #846B55",
";j 	c #7F664F",
">j 	c #6D5235",
",j 	c #7F664E",
"'j 	c #7C644D",
")j 	c #79614C",
"!j 	c #7F6852",
"~j 	c #7A634D",
"{j 	c #806953",
"]j 	c #877059",
"^j 	c #78614B",
"/j 	c #77604A",
"(j 	c #715B45",
"_j 	c #725C46",
":j 	c #64503B",
"<j 	c #7A664C",
"[j 	c #705C44",
"}j 	c #6E5B42",
"|j 	c #6A543D",
"1j 	c #664F39",
"2j 	c #7B6245",
"3j 	c #7A6340",
"4j 	c #897057",
"5j 	c #8A7158",
"6j 	c #75603F",
"7j 	c #8A735C",
"8j 	c #9B836C",
"9j 	c #8D755F",
"0j 	c #655328",
"aj 	c #635125",
"bj 	c #6F5D2B",
"cj 	c #695628",
"dj 	c #6C5A29",
"ej 	c #554932",
"fj 	c #807762",
"gj 	c #6F6036",
"hj 	c #7A7365",
"ij 	c #686153",
"jj 	c #6F695C",
"kj 	c #746D60",
"lj 	c #635C4F",
"mj 	c #645F53",
"nj 	c #69655A",
"oj 	c #645D50",
"pj 	c #585044",
"qj 	c #595145",
"rj 	c #5A5245",
"sj 	c #655D4F",
"tj 	c #645B4D",
"uj 	c #746E5F",
"vj 	c #7D7668",
"wj 	c #827D70",
"xj 	c #857F71",
"yj 	c #5C4C31",
"zj 	c #625235",
"Aj 	c #5A4B2F",
"Bj 	c #605133",
"Cj 	c #5C4D31",
"Dj 	c #867B70",
"Ej 	c #80756B",
"Fj 	c #6E635A",
"Gj 	c #6C6259",
"Hj 	c #70665D",
"Ij 	c #5F5349",
"Jj 	c #62574D",
"Kj 	c #665B50",
"Lj 	c #7D7369",
"Mj 	c #82786E",
"Nj 	c #877D74",
"Oj 	c #8A8076",
"Pj 	c #63503D",
"Qj 	c #604D3A",
"Rj 	c #554332",
"Sj 	c #614F3C",
"Tj 	c #604C39",
"Uj 	c #595043",
"Vj 	c #6A6054",
"Wj 	c #776D61",
"Xj 	c #7D7467",
"Yj 	c #675C4F",
"Zj 	c #655A4B",
"`j 	c #6E6455",
" k 	c #564C3F",
".k 	c #635A4E",
"+k 	c #5D5346",
"@k 	c #685E52",
"#k 	c #73685B",
"$k 	c #655A4D",
"%k 	c #665C4E",
"&k 	c #555142",
"*k 	c #5E584A",
"=k 	c #766D60",
"-k 	c #857A6C",
";k 	c #877C6F",
">k 	c #8B8173",
",k 	c #604C37",
"'k 	c #735630",
")k 	c #72552F",
"!k 	c #725631",
"~k 	c #735732",
"{k 	c #70532F",
"]k 	c #725D48",
"^k 	c #947C66",
"/k 	c #7B644F",
"(k 	c #89715A",
"_k 	c #755D48",
":k 	c #775F48",
"<k 	c #7A6049",
"[k 	c #6D543B",
"}k 	c #846A53",
"|k 	c #7B624B",
"1k 	c #7D654E",
"2k 	c #806851",
"3k 	c #78624C",
"4k 	c #826C54",
"5k 	c #866F58",
"6k 	c #88705A",
"7k 	c #745E48",
"8k 	c #79634C",
"9k 	c #66523D",
"0k 	c #6E5B44",
"ak 	c #6D5A43",
"bk 	c #6A5B41",
"ck 	c #68563E",
"dk 	c #634E38",
"ek 	c #725A41",
"fk 	c #745C44",
"gk 	c #7A6246",
"hk 	c #745E3D",
"ik 	c #90765E",
"jk 	c #7C6645",
"kk 	c #947C65",
"lk 	c #634E33",
"mk 	c #67552A",
"nk 	c #6F5D2D",
"ok 	c #72602F",
"pk 	c #665428",
"qk 	c #645227",
"rk 	c #685627",
"sk 	c #6F6037",
"tk 	c #90897B",
"uk 	c #787062",
"vk 	c #797264",
"wk 	c #5A4F3C",
"xk 	c #70695B",
"yk 	c #655C4F",
"zk 	c #6F6959",
"Ak 	c #6A6356",
"Bk 	c #676153",
"Ck 	c #676053",
"Dk 	c #645E51",
"Ek 	c #5C564A",
"Fk 	c #6E695C",
"Gk 	c #716C5F",
"Hk 	c #645D4F",
"Ik 	c #51452F",
"Jk 	c #5C5447",
"Kk 	c #6F6759",
"Lk 	c #6C6556",
"Mk 	c #777162",
"Nk 	c #7A7466",
"Ok 	c #7F796B",
"Pk 	c #837D70",
"Qk 	c #847E70",
"Rk 	c #544633",
"Sk 	c #58492F",
"Tk 	c #615235",
"Uk 	c #615135",
"Vk 	c #5D4E33",
"Wk 	c #5B4C30",
"Xk 	c #665738",
"Yk 	c #5A4C32",
"Zk 	c #7F7369",
"`k 	c #84786E",
" l 	c #786C62",
".l 	c #60544A",
"+l 	c #675B50",
"@l 	c #60523B",
"#l 	c #6D635A",
"$l 	c #72685F",
"%l 	c #665A50",
"&l 	c #61564C",
"*l 	c #605042",
"=l 	c #614D3B",
"-l 	c #64513E",
";l 	c #5E4C3B",
">l 	c #604D3B",
",l 	c #594837",
"'l 	c #5F574B",
")l 	c #796F63",
"!l 	c #8B8275",
"~l 	c #695E52",
"{l 	c #64594D",
"]l 	c #645A4C",
"^l 	c #5E5245",
"/l 	c #6A6153",
"(l 	c #6A6053",
"_l 	c #6C6154",
":l 	c #54493C",
"<l 	c #5E5346",
"[l 	c #5B5346",
"}l 	c #5E5749",
"|l 	c #7D7468",
"1l 	c #8B8073",
"2l 	c #8E8376",
"3l 	c #857664",
"4l 	c #6C502C",
"5l 	c #775A35",
"6l 	c #705431",
"7l 	c #7D6039",
"8l 	c #6D5230",
"9l 	c #6D522F",
"0l 	c #6C5232",
"al 	c #8C745E",
"bl 	c #8E7761",
"cl 	c #846C56",
"dl 	c #6E5743",
"el 	c #624C39",
"fl 	c #785E48",
"gl 	c #856A52",
"hl 	c #6A523D",
"il 	c #6E543B",
"jl 	c #816A54",
"kl 	c #76614B",
"ll 	c #7D6851",
"ml 	c #75604B",
"nl 	c #856E58",
"ol 	c #79644D",
"pl 	c #715C47",
"ql 	c #705B45",
"rl 	c #715D46",
"sl 	c #6D5C45",
"tl 	c #725F48",
"ul 	c #6A5741",
"vl 	c #766249",
"wl 	c #69543D",
"xl 	c #69513B",
"yl 	c #6C553D",
"zl 	c #7C634A",
"Al 	c #81694C",
"Bl 	c #6C5832",
"Cl 	c #856E51",
"Dl 	c #756041",
"El 	c #856E59",
"Fl 	c #8F7862",
"Gl 	c #8B735D",
"Hl 	c #604F26",
"Il 	c #756332",
"Jl 	c #6D5B2D",
"Kl 	c #6B592B",
"Ll 	c #625225",
"Ml 	c #6B5A2A",
"Nl 	c #635637",
"Ol 	c #847D6F",
"Pl 	c #827B6D",
"Ql 	c #827B6E",
"Rl 	c #7B7365",
"Sl 	c #60543B",
"Tl 	c #5C5346",
"Ul 	c #716B5E",
"Vl 	c #6C6558",
"Wl 	c #6D675A",
"Xl 	c #726C5F",
"Yl 	c #716A5D",
"Zl 	c #6B6557",
"`l 	c #5C5448",
" m 	c #6A6457",
".m 	c #686154",
"+m 	c #666053",
"@m 	c #5D5448",
"#m 	c #60574A",
"$m 	c #625A4C",
"%m 	c #787265",
"&m 	c #807A6D",
"*m 	c #878174",
"=m 	c #57482D",
"-m 	c #53442B",
";m 	c #695A3D",
">m 	c #695A3C",
",m 	c #635437",
"'m 	c #56482D",
")m 	c #574B3C",
"!m 	c #877B71",
"~m 	c #81766C",
"{m 	c #6B5F56",
"]m 	c #695E53",
"^m 	c #736A60",
"/m 	c #776D64",
"(m 	c #6A5E54",
"_m 	c #5E4F3F",
":m 	c #7B7168",
"<m 	c #867C72",
"[m 	c #5A4735",
"}m 	c #5E4B3A",
"|m 	c #6C5945",
"1m 	c #6B5946",
"2m 	c #695643",
"3m 	c #6B5744",
"4m 	c #564433",
"5m 	c #4F4438",
"6m 	c #72695D",
"7m 	c #71665A",
"8m 	c #5E5246",
"9m 	c #5C4F40",
"0m 	c #5A4F41",
"am 	c #7A7062",
"bm 	c #72675A",
"cm 	c #665B4F",
"dm 	c #5E5447",
"em 	c #54493D",
"fm 	c #5C5245",
"gm 	c #5B5345",
"hm 	c #4E4739",
"im 	c #544C40",
"jm 	c #5A5448",
"km 	c #5B5246",
"lm 	c #72624B",
"mm 	c #8D8375",
"nm 	c #735D40",
"om 	c #715530",
"pm 	c #775A34",
"qm 	c #7C5F38",
"rm 	c #705634",
"sm 	c #755935",
"tm 	c #755934",
"um 	c #674C2B",
"vm 	c #5F4B35",
"wm 	c #917964",
"xm 	c #8A725D",
"ym 	c #755E49",
"zm 	c #6F5843",
"Am 	c #755C46",
"Bm 	c #725944",
"Cm 	c #69513C",
"Dm 	c #6A4D2D",
"Em 	c #866C54",
"Fm 	c #846C54",
"Gm 	c #836C56",
"Hm 	c #856F58",
"Im 	c #816B54",
"Jm 	c #7C6750",
"Km 	c #7F6B53",
"Lm 	c #7B654F",
"Mm 	c #7C6650",
"Nm 	c #7C6550",
"Om 	c #705B46",
"Pm 	c #79644E",
"Qm 	c #715C46",
"Rm 	c #735E48",
"Sm 	c #79654D",
"Tm 	c #695A41",
"Um 	c #74644A",
"Vm 	c #6D5942",
"Wm 	c #705A43",
"Xm 	c #644E38",
"Ym 	c #8F765E",
"Zm 	c #63502E",
"`m 	c #745F41",
" n 	c #897357",
".n 	c #98816B",
"+n 	c #5C4927",
"@n 	c #635227",
"#n 	c #6B592C",
"$n 	c #726031",
"%n 	c #645329",
"&n 	c #6A5A2A",
"*n 	c #705F2E",
"=n 	c #584E3A",
"-n 	c #867F71",
";n 	c #696054",
">n 	c #766E61",
",n 	c #756D5F",
"'n 	c #61584B",
")n 	c #5A5144",
"!n 	c #5A5244",
"~n 	c #534B3D",
"{n 	c #726D5F",
"]n 	c #655E51",
"^n 	c #6E675A",
"/n 	c #645C4F",
"(n 	c #696153",
"_n 	c #635B4D",
":n 	c #736E60",
"<n 	c #7D7769",
"[n 	c #50422D",
"}n 	c #58482D",
"|n 	c #615134",
"1n 	c #625337",
"2n 	c #68593C",
"3n 	c #6E5E41",
"4n 	c #655539",
"5n 	c #69593B",
"6n 	c #68593A",
"7n 	c #594A2F",
"8n 	c #473A2C",
"9n 	c #877C71",
"0n 	c #857A6F",
"an 	c #5B4F46",
"bn 	c #70675D",
"cn 	c #7A7067",
"dn 	c #756C62",
"en 	c #5F5042",
"fn 	c #655A50",
"gn 	c #5F544A",
"hn 	c #5E5248",
"in 	c #7F756B",
"jn 	c #82776E",
"kn 	c #71675E",
"ln 	c #897F75",
"mn 	c #534333",
"nn 	c #635240",
"on 	c #635140",
"pn 	c #6A5744",
"qn 	c #645240",
"rn 	c #6D5A48",
"sn 	c #725E4B",
"tn 	c #6A5643",
"un 	c #5E5448",
"vn 	c #6C6458",
"wn 	c #5A5044",
"xn 	c #696155",
"yn 	c #4A4033",
"zn 	c #665B4C",
"An 	c #736A5C",
"Bn 	c #7A7063",
"Cn 	c #574D40",
"Dn 	c #594F42",
"En 	c #6E6557",
"Fn 	c #5E5548",
"Gn 	c #5A5246",
"Hn 	c #4A4436",
"In 	c #555444",
"Jn 	c #585245",
"Kn 	c #72695C",
"Ln 	c #7C7265",
"Mn 	c #877C6E",
"Nn 	c #817568",
"On 	c #553D27",
"Pn 	c #785B36",
"Qn 	c #775B36",
"Rn 	c #745835",
"Sn 	c #7C603B",
"Tn 	c #735835",
"Un 	c #6F5431",
"Vn 	c #735733",
"Wn 	c #725632",
"Xn 	c #6A5542",
"Yn 	c #8B745E",
"Zn 	c #826B56",
"`n 	c #6C5643",
" o 	c #654F3C",
".o 	c #725A45",
"+o 	c #6B533E",
"@o 	c #74593B",
"#o 	c #7D644C",
"$o 	c #7B644D",
"%o 	c #7B634C",
"&o 	c #7B6751",
"*o 	c #78634D",
"=o 	c #78644E",
"-o 	c #836D56",
";o 	c #816B55",
">o 	c #79624D",
",o 	c #76604B",
"'o 	c #77624C",
")o 	c #78624D",
"!o 	c #6D5B44",
"~o 	c #725D47",
"{o 	c #7A634C",
"]o 	c #6A5640",
"^o 	c #7D654C",
"/o 	c #776241",
"(o 	c #755F40",
"_o 	c #947F68",
":o 	c #9B846D",
"<o 	c #614D28",
"[o 	c #6D5C2D",
"}o 	c #6E5C2F",
"|o 	c #736131",
"1o 	c #776534",
"2o 	c #736132",
"3o 	c #605027",
"4o 	c #6F5F2E",
"5o 	c #715F2F",
"6o 	c #645327",
"7o 	c #66593F",
"8o 	c #695D44",
"9o 	c #6A5D3B",
"0o 	c #7F786A",
"ao 	c #685F52",
"bo 	c #676051",
"co 	c #696152",
"do 	c #686254",
"eo 	c #6B6356",
"fo 	c #675F52",
"go 	c #757062",
"ho 	c #7E786B",
"io 	c #4B4032",
"jo 	c #605033",
"ko 	c #68593B",
"lo 	c #6A5B3D",
"mo 	c #635439",
"no 	c #695A3E",
"oo 	c #6D5D40",
"po 	c #6C5D3F",
"qo 	c #5E4F34",
"ro 	c #52442A",
"so 	c #53462D",
"to 	c #81756A",
"uo 	c #5C5046",
"vo 	c #5B5046",
"wo 	c #756C63",
"xo 	c #635640",
"yo 	c #63574E",
"zo 	c #655A4F",
"Ao 	c #7A6F66",
"Bo 	c #7D746A",
"Co 	c #887D73",
"Do 	c #80776D",
"Eo 	c #5B4D40",
"Fo 	c #5A4836",
"Go 	c #604F3D",
"Ho 	c #6B5846",
"Io 	c #73604C",
"Jo 	c #6E5A48",
"Ko 	c #74614E",
"Lo 	c #73604D",
"Mo 	c #735F4C",
"No 	c #6D5A47",
"Oo 	c #4A3F30",
"Po 	c #6E6C5D",
"Qo 	c #605A4F",
"Ro 	c #656156",
"So 	c #5A4F43",
"To 	c #5A4C3E",
"Uo 	c #52493C",
"Vo 	c #6B6152",
"Wo 	c #645647",
"Xo 	c #776D60",
"Yo 	c #6B5942",
"Zo 	c #62564A",
"`o 	c #696053",
" p 	c #5E564A",
".p 	c #473B2F",
"+p 	c #554C40",
"@p 	c #595244",
"#p 	c #575043",
"$p 	c #534E40",
"%p 	c #535041",
"&p 	c #636353",
"*p 	c #5E594C",
"=p 	c #71675B",
"-p 	c #7D7466",
";p 	c #7F7364",
">p 	c #6D5332",
",p 	c #6B5130",
"'p 	c #7B5F39",
")p 	c #7E623C",
"!p 	c #81643E",
"~p 	c #7D613C",
"{p 	c #715634",
"]p 	c #6E522F",
"^p 	c #6A4F2B",
"/p 	c #684D2B",
"(p 	c #624E3C",
"_p 	c #8D7560",
":p 	c #806954",
"<p 	c #67513E",
"[p 	c #705843",
"}p 	c #81664A",
"|p 	c #826B54",
"1p 	c #7D6751",
"2p 	c #7E6751",
"3p 	c #79634D",
"4p 	c #7A644E",
"5p 	c #826C55",
"6p 	c #826C56",
"7p 	c #76614C",
"8p 	c #77604B",
"9p 	c #76604A",
"0p 	c #6F5944",
"ap 	c #634E3A",
"bp 	c #755D45",
"cp 	c #887052",
"dp 	c #806A47",
"ep 	c #937A62",
"fp 	c #917961",
"gp 	c #927A64",
"hp 	c #98816A",
"ip 	c #6E5742",
"jp 	c #655329",
"kp 	c #6C5C2F",
"lp 	c #796837",
"mp 	c #726233",
"np 	c #766736",
"op 	c #65572B",
"pp 	c #6A5B2E",
"qp 	c #68582C",
"rp 	c #6D5C2E",
"sp 	c #6A582B",
"tp 	c #5E4E24",
"up 	c #71695C",
"vp 	c #837C6F",
"wp 	c #665837",
"xp 	c #6F675A",
"yp 	c #5C5546",
"zp 	c #5D5548",
"Ap 	c #60584B",
"Bp 	c #61594B",
"Cp 	c #686355",
"Dp 	c #605C4F",
"Ep 	c #7D786A",
"Fp 	c #858072",
"Gp 	c #888376",
"Hp 	c #5C5446",
"Ip 	c #594A2E",
"Jp 	c #706043",
"Kp 	c #6B5C3F",
"Lp 	c #6E5F42",
"Mp 	c #6F6043",
"Np 	c #6D5E41",
"Op 	c #6C5D41",
"Pp 	c #605136",
"Qp 	c #5D4F34",
"Rp 	c #635538",
"Sp 	c #51442D",
"Tp 	c #70645A",
"Up 	c #7B7269",
"Vp 	c #7A7167",
"Wp 	c #5E5348",
"Xp 	c #5E5349",
"Yp 	c #63584D",
"Zp 	c #80766C",
"`p 	c #6A5845",
" q 	c #72604E",
".q 	c #786451",
"+q 	c #796654",
"@q 	c #796552",
"#q 	c #6B5746",
"$q 	c #64513F",
"%q 	c #565244",
"&q 	c #5B5347",
"*q 	c #5F5448",
"=q 	c #645B4E",
"-q 	c #4B4236",
";q 	c #6D6457",
">q 	c #746B5D",
",q 	c #54483C",
"'q 	c #564B3F",
")q 	c #493C2B",
"!q 	c #504837",
"~q 	c #4F483B",
"{q 	c #655D50",
"]q 	c #746B5E",
"^q 	c #83786A",
"/q 	c #6C5130",
"(q 	c #7D603A",
"_q 	c #7D613B",
":q 	c #7F633E",
"<q 	c #846843",
"[q 	c #775C39",
"}q 	c #7F633D",
"|q 	c #7C603A",
"1q 	c #775B37",
"2q 	c #715532",
"3q 	c #5C4325",
"4q 	c #5B4836",
"5q 	c #8B745F",
"6q 	c #7D6652",
"7q 	c #67503D",
"8q 	c #735B46",
"9q 	c #725639",
"0q 	c #736049",
"aq 	c #78644D",
"bq 	c #7A654E",
"cq 	c #7B6650",
"dq 	c #7D6852",
"eq 	c #7E6953",
"fq 	c #695541",
"gq 	c #715D48",
"hq 	c #6E5844",
"iq 	c #6D5743",
"jq 	c #66523E",
"kq 	c #69523E",
"lq 	c #776049",
"mq 	c #7B644C",
"nq 	c #755D47",
"oq 	c #7D6447",
"pq 	c #695532",
"qq 	c #866E51",
"rq 	c #91785F",
"sq 	c #937B63",
"tq 	c #967E67",
"uq 	c #9A836C",
"vq 	c #8A735D",
"wq 	c #655429",
"xq 	c #6C5B2D",
"yq 	c #726232",
"zq 	c #6D5D32",
"Aq 	c #796939",
"Bq 	c #6D5F34",
"Cq 	c #6B5D31",
"Dq 	c #776735",
"Eq 	c #6A5B2D",
"Fq 	c #67572A",
"Gq 	c #716030",
"Hq 	c #6B5A2B",
"Iq 	c #4E4024",
"Jq 	c #7C7467",
"Kq 	c #7E7669",
"Lq 	c #635536",
"Mq 	c #5E5648",
"Nq 	c #676050",
"Oq 	c #6C6656",
"Pq 	c #6E6859",
"Qq 	c #767163",
"Rq 	c #756F62",
"Sq 	c #777164",
"Tq 	c #665E4A",
"Uq 	c #5C5445",
"Vq 	c #767164",
"Wq 	c #51483D",
"Xq 	c #665F51",
"Yq 	c #635B4E",
"Zq 	c #5D5649",
"`q 	c #686356",
" r 	c #706B5D",
".r 	c #7B7669",
"+r 	c #56462D",
"@r 	c #655537",
"#r 	c #716244",
"$r 	c #736346",
"%r 	c #726346",
"&r 	c #79694B",
"*r 	c #746448",
"=r 	c #6B5C40",
"-r 	c #64553B",
";r 	c #4D3F29",
">r 	c #4C3F28",
",r 	c #4D4129",
"'r 	c #5E4F33",
")r 	c #5C4F39",
"!r 	c #73675E",
"~r 	c #776E65",
"{r 	c #584A35",
"]r 	c #75695F",
"^r 	c #60554B",
"/r 	c #564A41",
"(r 	c #5D5248",
"_r 	c #8B8076",
":r 	c #776C60",
"<r 	c #4A3B2A",
"[r 	c #5C4C3A",
"}r 	c #5A4938",
"|r 	c #5C4C3B",
"1r 	c #5E4E3D",
"2r 	c #685745",
"3r 	c #72604D",
"4r 	c #746250",
"5r 	c #776552",
"6r 	c #73604E",
"7r 	c #645242",
"8r 	c #624F3F",
"9r 	c #614F3E",
"0r 	c #534332",
"ar 	c #595449",
"br 	c #564B3E",
"cr 	c #5B5449",
"dr 	c #514639",
"er 	c #63584C",
"fr 	c #665C4F",
"gr 	c #61574A",
"hr 	c #625B4D",
"ir 	c #4E4639",
"jr 	c #6A6052",
"kr 	c #6C6255",
"lr 	c #645A4D",
"mr 	c #584E42",
"nr 	c #534F41",
"or 	c #60594B",
"pr 	c #665E52",
"qr 	c #70685C",
"rr 	c #837B6E",
"sr 	c #604C38",
"tr 	c #715531",
"ur 	c #6E5432",
"vr 	c #7B5F3A",
"wr 	c #80633E",
"xr 	c #846741",
"yr 	c #7F623E",
"zr 	c #795E3B",
"Ar 	c #826640",
"Br 	c #866943",
"Cr 	c #7B5F3B",
"Dr 	c #745934",
"Er 	c #664C2C",
"Fr 	c #6E522E",
"Gr 	c #6A4E2C",
"Hr 	c #70532C",
"Ir 	c #6D5741",
"Jr 	c #7E6854",
"Kr 	c #755E4B",
"Lr 	c #765E49",
"Mr 	c #7A624C",
"Nr 	c #745C46",
"Or 	c #7E644D",
"Pr 	c #785D3E",
"Qr 	c #765B3E",
"Rr 	c #7F6549",
"Sr 	c #7C644C",
"Tr 	c #826C53",
"Ur 	c #695235",
"Vr 	c #74664B",
"Wr 	c #6F5E41",
"Xr 	c #77684F",
"Yr 	c #826D56",
"Zr 	c #836E58",
"`r 	c #847059",
" s 	c #735E49",
".s 	c #79644F",
"+s 	c #74604B",
"@s 	c #77614C",
"#s 	c #665340",
"$s 	c #75604A",
"%s 	c #755E48",
"&s 	c #725B46",
"*s 	c #735B45",
"=s 	c #685233",
"-s 	c #6E573D",
";s 	c #866D55",
">s 	c #947C62",
",s 	c #957F65",
"'s 	c #988068",
")s 	c #8C755F",
"!s 	c #846D58",
"~s 	c #71602F",
"{s 	c #716031",
"]s 	c #7A6937",
"^s 	c #796838",
"/s 	c #736537",
"(s 	c #716336",
"_s 	c #64552D",
":s 	c #736333",
"<s 	c #6D5D30",
"[s 	c #766433",
"}s 	c #715F30",
"|s 	c #675628",
"1s 	c #594A27",
"2s 	c #726A5D",
"3s 	c #756C5F",
"4s 	c #70675A",
"5s 	c #615333",
"6s 	c #716C5E",
"7s 	c #767063",
"8s 	c #696356",
"9s 	c #625B4E",
"0s 	c #4E4332",
"as 	c #6C675A",
"bs 	c #807B6D",
"cs 	c #8A8578",
"ds 	c #55462C",
"es 	c #635438",
"fs 	c #6E5F43",
"gs 	c #716246",
"hs 	c #78694C",
"is 	c #69593F",
"js 	c #766749",
"ks 	c #63543A",
"ls 	c #64573A",
"ms 	c #54492F",
"ns 	c #544930",
"os 	c #594B31",
"ps 	c #5B4C33",
"qs 	c #64594E",
"rs 	c #72695F",
"ss 	c #56483B",
"ts 	c #857C72",
"us 	c #413324",
"vs 	c #443526",
"ws 	c #463929",
"xs 	c #665744",
"ys 	c #584837",
"zs 	c #635342",
"As 	c #4D3E2E",
"Bs 	c #5F503F",
"Cs 	c #705E4D",
"Ds 	c #6E5B49",
"Es 	c #756250",
"Fs 	c #685544",
"Gs 	c #5D4B39",
"Hs 	c #504030",
"Is 	c #554E42",
"Js 	c #676255",
"Ks 	c #585145",
"Ls 	c #635F52",
"Ms 	c #4E4539",
"Ns 	c #483D2F",
"Os 	c #5D5A4C",
"Ps 	c #534C3F",
"Qs 	c #62594C",
"Rs 	c #5A4A39",
"Ss 	c #584C40",
"Ts 	c #5E4F3E",
"Us 	c #574C3F",
"Vs 	c #675F53",
"Ws 	c #6C6357",
"Xs 	c #6F5332",
"Ys 	c #7A5E39",
"Zs 	c #886B45",
"`s 	c #816540",
" t 	c #836641",
".t 	c #846842",
"+t 	c #816441",
"@t 	c #7C603D",
"#t 	c #634B2E",
"$t 	c #725734",
"%t 	c #6E5330",
"&t 	c #745833",
"*t 	c #5E4526",
"=t 	c #705B47",
"-t 	c #846C58",
";t 	c #745E4A",
">t 	c #6E553A",
",t 	c #74593C",
"'t 	c #79674E",
")t 	c #77694E",
"!t 	c #705D42",
"~t 	c #7F6954",
"{t 	c #806B55",
"]t 	c #816C56",
"^t 	c #806A54",
"/t 	c #79634E",
"(t 	c #7C6851",
"_t 	c #755F4B",
":t 	c #6F5A46",
"<t 	c #76634C",
"[t 	c #7C6751",
"}t 	c #76644D",
"|t 	c #72604A",
"1t 	c #715A46",
"2t 	c #69533F",
"3t 	c #695435",
"4t 	c #6B5535",
"5t 	c #796049",
"6t 	c #8C765E",
"7t 	c #9C846D",
"8t 	c #866F59",
"9t 	c #69572B",
"0t 	c #6D5C2F",
"at 	c #695A2F",
"bt 	c #726335",
"ct 	c #746637",
"dt 	c #766536",
"et 	c #736335",
"ft 	c #776637",
"gt 	c #7C6B39",
"ht 	c #715F31",
"it 	c #69582C",
"jt 	c #705E2E",
"kt 	c #6C5A2B",
"lt 	c #615028",
"mt 	c #584A2B",
"nt 	c #6D685B",
"ot 	c #766F62",
"pt 	c #5F584C",
"qt 	c #615A4E",
"rt 	c #594F3C",
"st 	c #534636",
"tt 	c #53432A",
"ut 	c #716245",
"vt 	c #746547",
"wt 	c #756649",
"xt 	c #706144",
"yt 	c #796A4D",
"zt 	c #77674A",
"At 	c #695A3F",
"Bt 	c #5B5036",
"Ct 	c #6A5F42",
"Dt 	c #6A5C3F",
"Et 	c #5B4D34",
"Ft 	c #4E4338",
"Gt 	c #5D4F39",
"Ht 	c #5C4D35",
"It 	c #716553",
"Jt 	c #63553F",
"Kt 	c #7F756A",
"Lt 	c #7D7368",
"Mt 	c #82796F",
"Nt 	c #887E74",
"Ot 	c #4B3F2D",
"Pt 	c #4F4433",
"Qt 	c #625241",
"Rt 	c #554837",
"St 	c #6C5A49",
"Tt 	c #6B5947",
"Ut 	c #74614F",
"Vt 	c #6A5745",
"Wt 	c #6F5C4A",
"Xt 	c #604D3C",
"Yt 	c #5E4B39",
"Zt 	c #474131",
"`t 	c #686C5B",
" u 	c #6C6E5D",
".u 	c #616453",
"+u 	c #646555",
"@u 	c #5E5D50",
"#u 	c #62614F",
"$u 	c #6A705E",
"%u 	c #594939",
"&u 	c #6B6256",
"*u 	c #6E6558",
"=u 	c #796F62",
"-u 	c #695F52",
";u 	c #55432F",
">u 	c #524434",
",u 	c #5F5343",
"'u 	c #4B4135",
")u 	c #4F473B",
"!u 	c #473A2B",
"~u 	c #654B2B",
"{u 	c #785C38",
"]u 	c #785C39",
"^u 	c #7B5F3D",
"/u 	c #795E3C",
"(u 	c #856843",
"_u 	c #826642",
":u 	c #654C2F",
"<u 	c #7E623D",
"[u 	c #694E2D",
"}u 	c #7A5D38",
"|u 	c #745834",
"1u 	c #684D2C",
"2u 	c #644929",
"3u 	c #6D543A",
"4u 	c #6D5336",
"5u 	c #674C2F",
"6u 	c #6C5440",
"7u 	c #8A7058",
"8u 	c #856E56",
"9u 	c #846E56",
"0u 	c #7E6B53",
"au 	c #756146",
"bu 	c #7A6650",
"cu 	c #75624C",
"du 	c #796550",
"eu 	c #7E6954",
"fu 	c #7F6A55",
"gu 	c #7D6853",
"hu 	c #78634E",
"iu 	c #725E49",
"ju 	c #715F4A",
"ku 	c #76624D",
"lu 	c #7A654F",
"mu 	c #725E48",
"nu 	c #6E5945",
"ou 	c #6E593F",
"pu 	c #67522D",
"qu 	c #866D56",
"ru 	c #7D644E",
"su 	c #91775F",
"tu 	c #664F36",
"uu 	c #5D4C23",
"vu 	c #66552B",
"wu 	c #7D6C39",
"xu 	c #7B6939",
"yu 	c #81703E",
"zu 	c #796739",
"Au 	c #7F6E3C",
"Bu 	c #786738",
"Cu 	c #81703F",
"Du 	c #766538",
"Eu 	c #7B6A3A",
"Fu 	c #6C5A2F",
"Gu 	c #786635",
"Hu 	c #705E30",
"Iu 	c #6D5B2E",
"Ju 	c #524637",
"Ku 	c #736B5E",
"Lu 	c #605231",
"Mu 	c #5D564A",
"Nu 	c #655F52",
"Ou 	c #5E574A",
"Pu 	c #555045",
"Qu 	c #544B3F",
"Ru 	c #524A3E",
"Su 	c #5E5549",
"Tu 	c #797467",
"Uu 	c #857F72",
"Vu 	c #584B38",
"Wu 	c #5B4B2F",
"Xu 	c #665739",
"Yu 	c #6A5B3E",
"Zu 	c #77684B",
"`u 	c #78684B",
" v 	c #7A6B4E",
".v 	c #6E5E43",
"+v 	c #736347",
"@v 	c #6D5F43",
"#v 	c #6E6044",
"$v 	c #6F6145",
"%v 	c #6A5C41",
"&v 	c #67573C",
"*v 	c #594A32",
"=v 	c #53452D",
"-v 	c #796C62",
";v 	c #645641",
">v 	c #5C4E31",
",v 	c #7D736A",
"'v 	c #675C4A",
")v 	c #80756C",
"!v 	c #847A71",
"~v 	c #524435",
"{v 	c #433E2A",
"]v 	c #46432F",
"^v 	c #443D2A",
"/v 	c #705F4D",
"(v 	c #776654",
"_v 	c #5D4D3C",
":v 	c #564838",
"<v 	c #4B3E2E",
"[v 	c #665645",
"}v 	c #625141",
"|v 	c #5C4B3B",
"1v 	c #74624F",
"2v 	c #705D4B",
"3v 	c #6F5C49",
"4v 	c #6C5846",
"5v 	c #685442",
"6v 	c #514231",
"7v 	c #4B553C",
"8v 	c #5B7054",
"9v 	c #5D7352",
"0v 	c #58724C",
"av 	c #597453",
"bv 	c #59533F",
"cv 	c #655E52",
"dv 	c #51483B",
"ev 	c #776F63",
"fv 	c #80776A",
"gv 	c #7C7164",
"hv 	c #655A4E",
"iv 	c #594F43",
"jv 	c #4B3E32",
"kv 	c #61584C",
"lv 	c #554B3E",
"mv 	c #6A6154",
"nv 	c #493F31",
"ov 	c #5B4C36",
"pv 	c #745731",
"qv 	c #7F623D",
"rv 	c #7E613C",
"sv 	c #785D3B",
"tv 	c #7C613F",
"uv 	c #826540",
"vv 	c #7F633F",
"wv 	c #765B39",
"xv 	c #7C613D",
"yv 	c #755A38",
"zv 	c #684E2E",
"Av 	c #6B512F",
"Bv 	c #6C512F",
"Cv 	c #6B502D",
"Dv 	c #6D502B",
"Ev 	c #513C28",
"Fv 	c #78614D",
"Gv 	c #7A634E",
"Hv 	c #78604B",
"Iv 	c #89725A",
"Jv 	c #88715A",
"Kv 	c #856E57",
"Lv 	c #846D57",
"Mv 	c #857059",
"Nv 	c #7A6851",
"Ov 	c #6B573F",
"Pv 	c #79654F",
"Qv 	c #74624C",
"Rv 	c #7E6A54",
"Sv 	c #7C6752",
"Tv 	c #816C57",
"Uv 	c #77624D",
"Vv 	c #806A55",
"Wv 	c #705C48",
"Xv 	c #715C48",
"Yv 	c #6B5743",
"Zv 	c #7C6852",
"`v 	c #745E44",
" w 	c #6A5631",
".w 	c #937A61",
"+w 	c #90775F",
"@w 	c #5F4A30",
"#w 	c #6E5D2B",
"$w 	c #6E5C2E",
"%w 	c #7A6837",
"&w 	c #786639",
"*w 	c #776638",
"=w 	c #816F3E",
"-w 	c #7E6C3C",
";w 	c #7B6A3B",
">w 	c #756336",
",w 	c #726132",
"'w 	c #69572D",
")w 	c #6E5C2C",
"!w 	c #715F2E",
"~w 	c #4F412B",
"{w 	c #6C6356",
"]w 	c #6E685C",
"^w 	c #746F62",
"/w 	c #676155",
"(w 	c #4F493D",
"_w 	c #656257",
":w 	c #50493E",
"<w 	c #5C5038",
"[w 	c #686458",
"}w 	c #574D3F",
"|w 	c #53442C",
"1w 	c #5F5033",
"2w 	c #675839",
"3w 	c #665639",
"4w 	c #736447",
"5w 	c #716247",
"6w 	c #706146",
"7w 	c #78694D",
"8w 	c #75674B",
"9w 	c #706246",
"0w 	c #746549",
"aw 	c #5F5138",
"bw 	c #5E4F36",
"cw 	c #564830",
"dw 	c #5E5034",
"ew 	c #483B2A",
"fw 	c #524432",
"gw 	c #574A2E",
"hw 	c #84796F",
"iw 	c #7D7269",
"jw 	c #847A70",
"kw 	c #605540",
"lw 	c #625446",
"mw 	c #857B71",
"nw 	c #4A3B2B",
"ow 	c #544835",
"pw 	c #4D4C34",
"qw 	c #505038",
"rw 	c #584E3C",
"sw 	c #594C3B",
"tw 	c #594A3A",
"uw 	c #786654",
"vw 	c #796754",
"ww 	c #685645",
"xw 	c #625140",
"yw 	c #604F3E",
"zw 	c #705C4A",
"Aw 	c #594937",
"Bw 	c #4A5837",
"Cw 	c #658A55",
"Dw 	c #618651",
"Ew 	c #577548",
"Fw 	c #475338",
"Gw 	c #636253",
"Hw 	c #615E51",
"Iw 	c #5B554A",
"Jw 	c #6B6357",
"Kw 	c #4B4034",
"Lw 	c #585247",
"Mw 	c #81786B",
"Nw 	c #6D6256",
"Ow 	c #635B4F",
"Pw 	c #62584C",
"Qw 	c #675D51",
"Rw 	c #7C7366",
"Sw 	c #5B5144",
"Tw 	c #5C4427",
"Uw 	c #785D3A",
"Vw 	c #7E623E",
"Ww 	c #836642",
"Xw 	c #866944",
"Yw 	c #755937",
"Zw 	c #6F5533",
"`w 	c #735834",
" x 	c #725733",
".x 	c #755A35",
"+x 	c #6D5331",
"@x 	c #765A36",
"#x 	c #614829",
"$x 	c #553C1E",
"%x 	c #513B25",
"&x 	c #705A46",
"*x 	c #866D57",
"=x 	c #8B735C",
"-x 	c #89725C",
";x 	c #846F58",
">x 	c #786148",
",x 	c #85715B",
"'x 	c #7A6550",
")x 	c #816B56",
"!x 	c #75604C",
"~x 	c #856F5A",
"{x 	c #846F5A",
"]x 	c #77634F",
"^x 	c #745F4B",
"/x 	c #6E5A46",
"(x 	c #796750",
"_x 	c #66532E",
":x 	c #6A553D",
"<x 	c #77604C",
"[x 	c #8F765F",
"}x 	c #8C735D",
"|x 	c #5F4C27",
"1x 	c #73612F",
"2x 	c #72602E",
"3x 	c #69582B",
"4x 	c #6F5D2E",
"5x 	c #7C6A3B",
"6x 	c #756337",
"7x 	c #7F6E3E",
"8x 	c #7C6A3C",
"9x 	c #7B693B",
"0x 	c #847241",
"ax 	c #806E3E",
"bx 	c #7F6D3D",
"cx 	c #736135",
"dx 	c #6F5D30",
"ex 	c #776535",
"fx 	c #736133",
"gx 	c #796736",
"hx 	c #715F32",
"ix 	c #5C4B25",
"jx 	c #80796B",
"kx 	c #65552E",
"lx 	c #7C7769",
"mx 	c #777063",
"nx 	c #51493D",
"ox 	c #5B564B",
"px 	c #5F5C52",
"qx 	c #4E483D",
"rx 	c #625D52",
"sx 	c #504639",
"tx 	c #625B4F",
"ux 	c #584B36",
"vx 	c #4A3E2B",
"wx 	c #615234",
"xx 	c #655538",
"yx 	c #635338",
"zx 	c #76674A",
"Ax 	c #706044",
"Bx 	c #75664A",
"Cx 	c #7B6C4F",
"Dx 	c #756549",
"Ex 	c #7E7053",
"Fx 	c #64573F",
"Gx 	c #5F523B",
"Hx 	c #62563D",
"Ix 	c #5C4F38",
"Jx 	c #51442E",
"Kx 	c #50452E",
"Lx 	c #574C33",
"Mx 	c #64583C",
"Nx 	c #5F5238",
"Ox 	c #50432C",
"Px 	c #4B412A",
"Qx 	c #584C30",
"Rx 	c #857B72",
"Sx 	c #827970",
"Tx 	c #82786F",
"Ux 	c #5D513D",
"Vx 	c #6D6056",
"Wx 	c #63513D",
"Xx 	c #493A2A",
"Yx 	c #4A3F2E",
"Zx 	c #5A513D",
"`x 	c #4C4331",
" y 	c #544937",
".y 	c #71604E",
"+y 	c #615141",
"@y 	c #605140",
"#y 	c #574939",
"$y 	c #4D4635",
"%y 	c #524233",
"&y 	c #615140",
"*y 	c #705E4C",
"=y 	c #7A6755",
"-y 	c #715F4D",
";y 	c #5C4B3A",
">y 	c #574635",
",y 	c #3A4626",
"'y 	c #558247",
")y 	c #5A6542",
"!y 	c #4C573E",
"~y 	c #69705D",
"{y 	c #636354",
"]y 	c #625C50",
"^y 	c #646054",
"/y 	c #5B564C",
"(y 	c #797164",
"_y 	c #7E7467",
":y 	c #6B6054",
"<y 	c #63594D",
"[y 	c #55493D",
"}y 	c #655B4E",
"|y 	c #5B4834",
"1y 	c #5F4525",
"2y 	c #755832",
"3y 	c #795C36",
"4y 	c #826541",
"5y 	c #7E623F",
"6y 	c #886B46",
"7y 	c #7D613E",
"8y 	c #816440",
"9y 	c #7A5E3B",
"0y 	c #785E3A",
"ay 	c #795E39",
"by 	c #715632",
"cy 	c #785C37",
"dy 	c #715633",
"ey 	c #664C2B",
"fy 	c #6D522E",
"gy 	c #6B4F2B",
"hy 	c #664926",
"iy 	c #5D4322",
"jy 	c #57412C",
"ky 	c #7F6853",
"ly 	c #876F59",
"my 	c #886F59",
"ny 	c #8D7660",
"oy 	c #8D7661",
"py 	c #87715B",
"qy 	c #8A755F",
"ry 	c #87715C",
"sy 	c #664E30",
"ty 	c #87725C",
"uy 	c #846E59",
"vy 	c #86705C",
"wy 	c #806A56",
"xy 	c #87725D",
"yy 	c #796451",
"zy 	c #836E59",
"Ay 	c #7F6D57",
"By 	c #5F4F29",
"Cy 	c #7C6651",
"Dy 	c #836D57",
"Ey 	c #604B31",
"Fy 	c #665429",
"Gy 	c #6E5C2D",
"Hy 	c #6F5D2F",
"Iy 	c #6F5E2E",
"Jy 	c #776634",
"Ky 	c #7D6C3A",
"Ly 	c #756436",
"My 	c #7D6B3C",
"Ny 	c #7B693A",
"Oy 	c #746336",
"Py 	c #7D6C3C",
"Qy 	c #79683B",
"Ry 	c #6B5A32",
"Sy 	c #746235",
"Ty 	c #796737",
"Uy 	c #736235",
"Vy 	c #6E5C31",
"Wy 	c #7C6A3A",
"Xy 	c #67562D",
"Yy 	c #746232",
"Zy 	c #6B5A2D",
"`y 	c #6C5C34",
" z 	c #7C7669",
".z 	c #797466",
"+z 	c #787164",
"@z 	c #655D49",
"#z 	c #564E42",
"$z 	c #5F5B50",
"%z 	c #6A655A",
"&z 	c #696459",
"*z 	c #605D54",
"=z 	c #605E55",
"-z 	c #716D62",
";z 	c #666055",
">z 	c #4B3C26",
",z 	c #4C3E2C",
"'z 	c #4A3C24",
")z 	c #5D4F31",
"!z 	c #5C4D32",
"~z 	c #5F5034",
"{z 	c #66573B",
"]z 	c #6A5B3F",
"^z 	c #6E5F44",
"/z 	c #78694B",
"(z 	c #6C5D43",
"_z 	c #6D5E44",
":z 	c #5D4F38",
"<z 	c #65593F",
"[z 	c #534A32",
"}z 	c #635B41",
"|z 	c #5D523A",
"1z 	c #4E432E",
"2z 	c #544B33",
"3z 	c #4A412B",
"4z 	c #554D34",
"5z 	c #554C34",
"6z 	c #423823",
"7z 	c #50462E",
"8z 	c #5A5034",
"9z 	c #554E32",
"0z 	c #5C5236",
"az 	c #6B6050",
"bz 	c #8A7F76",
"cz 	c #8B8178",
"dz 	c #80766B",
"ez 	c #7E746B",
"fz 	c #706554",
"gz 	c #7A6E64",
"hz 	c #796D63",
"iz 	c #544230",
"jz 	c #675643",
"kz 	c #61503E",
"lz 	c #544535",
"mz 	c #5B4D3C",
"nz 	c #5E5141",
"oz 	c #5B4D3D",
"pz 	c #4C3E2F",
"qz 	c #514232",
"rz 	c #574A39",
"sz 	c #5F5946",
"tz 	c #524D39",
"uz 	c #514738",
"vz 	c #514535",
"wz 	c #443929",
"xz 	c #5F5040",
"yz 	c #665544",
"zz 	c #5A4B39",
"Az 	c #463D2A",
"Bz 	c #4C4832",
"Cz 	c #74806B",
"Dz 	c #616F59",
"Ez 	c #65715D",
"Fz 	c #757C6B",
"Gz 	c #5A6652",
"Hz 	c #757C6C",
"Iz 	c #5B5B4D",
"Jz 	c #645D52",
"Kz 	c #867D70",
"Lz 	c #7F7568",
"Mz 	c #73695D",
"Nz 	c #73675A",
"Oz 	c #665542",
"Pz 	c #634929",
"Qz 	c #765933",
"Rz 	c #6F522F",
"Sz 	c #6F5433",
"Tz 	c #816541",
"Uz 	c #735836",
"Vz 	c #735938",
"Wz 	c #6E5434",
"Xz 	c #7C603C",
"Yz 	c #836742",
"Zz 	c #795D3A",
"`z 	c #6C5332",
" A 	c #7B603B",
".A 	c #6E5534",
"+A 	c #6E5430",
"@A 	c #795D37",
"#A 	c #6B4F2D",
"$A 	c #6C4F2A",
"%A 	c #654B2A",
"&A 	c #604A34",
"*A 	c #8E755F",
"=A 	c #8C7560",
"-A 	c #917A64",
";A 	c #89735E",
">A 	c #927C67",
",A 	c #917C66",
"'A 	c #6F5637",
")A 	c #907A65",
"!A 	c #877158",
"~A 	c #806952",
"{A 	c #8A745F",
"]A 	c #8A7560",
"^A 	c #8F7A65",
"/A 	c #8C7661",
"(A 	c #7A6552",
"_A 	c #846F5B",
":A 	c #85715C",
"<A 	c #6F5E44",
"[A 	c #645430",
"}A 	c #76644B",
"|A 	c #7E6E57",
"1A 	c #76624E",
"2A 	c #8E7862",
"3A 	c #806C56",
"4A 	c #927B64",
"5A 	c #8F7761",
"6A 	c #715A40",
"7A 	c #67542B",
"8A 	c #6C5A2D",
"9A 	c #756333",
"0A 	c #706032",
"aA 	c #766635",
"bA 	c #7A693A",
"cA 	c #806E3D",
"dA 	c #7F6D3C",
"eA 	c #827141",
"fA 	c #79683A",
"gA 	c #83713F",
"hA 	c #7A6839",
"iA 	c #756437",
"jA 	c #64532C",
"kA 	c #746233",
"lA 	c #5E4E2A",
"mA 	c #5A4921",
"nA 	c #777266",
"oA 	c #797366",
"pA 	c #787266",
"qA 	c #756E5B",
"rA 	c #7F796C",
"sA 	c #7F7A6D",
"tA 	c #5C5449",
"uA 	c #5B5448",
"vA 	c #5E594F",
"wA 	c #737268",
"xA 	c #575146",
"yA 	c #584F42",
"zA 	c #6D6A61",
"AA 	c #6A655B",
"BA 	c #60594E",
"CA 	c #4C4131",
"DA 	c #5A4B31",
"EA 	c #605134",
"FA 	c #685A3C",
"GA 	c #6E5F41",
"HA 	c #645439",
"IA 	c #6F6042",
"JA 	c #6E5E40",
"KA 	c #716144",
"LA 	c #736446",
"MA 	c #726345",
"NA 	c #6F6044",
"OA 	c #7C6E51",
"PA 	c #736449",
"QA 	c #6D5F45",
"RA 	c #76684C",
"SA 	c #5B573C",
"TA 	c #606044",
"UA 	c #58543C",
"VA 	c #5F573D",
"WA 	c #534F36",
"XA 	c #5E563C",
"YA 	c #655B40",
"ZA 	c #504830",
"`A 	c #4B432C",
" B 	c #514B32",
".B 	c #443B25",
"+B 	c #564B32",
"@B 	c #51462E",
"#B 	c #5C4F36",
"$B 	c #887E73",
"%B 	c #897E74",
"&B 	c #584A33",
"*B 	c #8A7F75",
"=B 	c #83776D",
"-B 	c #544435",
";B 	c #5D4A38",
">B 	c #675441",
",B 	c #685542",
"'B 	c #6F5E4B",
")B 	c #6F5D4B",
"!B 	c #554736",
"~B 	c #5C5140",
"{B 	c #574A3A",
"]B 	c #5D5645",
"^B 	c #5A4D3D",
"/B 	c #574F3E",
"(B 	c #6B5A49",
"_B 	c #655545",
":B 	c #5A4939",
"<B 	c #655744",
"[B 	c #423726",
"}B 	c #424932",
"|B 	c #53694D",
"1B 	c #5A6E53",
"2B 	c #4D6642",
"3B 	c #5E6B54",
"4B 	c #76816F",
"5B 	c #6F6B5F",
"6B 	c #887E71",
"7B 	c #897F72",
"8B 	c #857B6E",
"9B 	c #83786C",
"0B 	c #7F7569",
"aB 	c #7D7367",
"bB 	c #867C6F",
"cB 	c #7A7064",
"dB 	c #61564A",
"eB 	c #60574B",
"fB 	c #6F5738",
"gB 	c #84796C",
"hB 	c #5C4834",
"iB 	c #674C2D",
"jB 	c #745732",
"kB 	c #624829",
"lB 	c #7C5F3A",
"mB 	c #7A5E38",
"nB 	c #82653E",
"oB 	c #856842",
"pB 	c #7A5D3A",
"qB 	c #81643F",
"rB 	c #80643F",
"sB 	c #7B5F3C",
"tB 	c #80643E",
"uB 	c #7A5F3B",
"vB 	c #785B37",
"wB 	c #7D603B",
"xB 	c #715431",
"yB 	c #694D2C",
"zB 	c #563E23",
"AB 	c #644F3B",
"BB 	c #97806A",
"CB 	c #9A846E",
"DB 	c #99826C",
"EB 	c #8E7964",
"FB 	c #8F7964",
"GB 	c #755C3D",
"HB 	c #97826D",
"IB 	c #96816C",
"JB 	c #887460",
"KB 	c #8D7763",
"LB 	c #8C7763",
"MB 	c #86705D",
"NB 	c #836E5A",
"OB 	c #79674F",
"PB 	c #544822",
"QB 	c #7F6C58",
"RB 	c #796753",
"SB 	c #86725D",
"TB 	c #7F6B56",
"UB 	c #8F7A64",
"VB 	c #6A5540",
"WB 	c #5C492B",
"XB 	c #625029",
"YB 	c #615026",
"ZB 	c #5E4E25",
"`B 	c #746333",
" C 	c #736435",
".C 	c #6A5C31",
"+C 	c #766636",
"@C 	c #7B6B3A",
"#C 	c #7E6D3E",
"$C 	c #857443",
"%C 	c #7A683A",
"&C 	c #7F6E3D",
"*C 	c #7E6D3D",
"=C 	c #716036",
"-C 	c #867443",
";C 	c #8A7947",
">C 	c #847242",
",C 	c #7B693C",
"'C 	c #715F35",
")C 	c #776537",
"!C 	c #695830",
"~C 	c #6C5B31",
"{C 	c #716033",
"]C 	c #766435",
"^C 	c #756335",
"/C 	c #776536",
"(C 	c #6B5A2E",
"_C 	c #6C5B2C",
":C 	c #655427",
"<C 	c #4C3F2A",
"[C 	c #7F7A6C",
"}C 	c #77705D",
"|C 	c #7E796D",
"1C 	c #726E63",
"2C 	c #868074",
"3C 	c #898376",
"4C 	c #888275",
"5C 	c #817A6E",
"6C 	c #6E665A",
"7C 	c #686155",
"8C 	c #686257",
"9C 	c #615B50",
"0C 	c #5F5D52",
"aC 	c #5F5E52",
"bC 	c #575040",
"cC 	c #564932",
"dC 	c #54462D",
"eC 	c #605337",
"fC 	c #584B31",
"gC 	c #564930",
"hC 	c #52442C",
"iC 	c #5B4D33",
"jC 	c #6B5B3F",
"kC 	c #68593E",
"lC 	c #756648",
"mC 	c #746548",
"nC 	c #746649",
"oC 	c #76674B",
"pC 	c #736448",
"qC 	c #726348",
"rC 	c #66583E",
"sC 	c #64573E",
"tC 	c #584B34",
"uC 	c #716449",
"vC 	c #534731",
"wC 	c #575339",
"xC 	c #504F35",
"yC 	c #504D35",
"zC 	c #61583F",
"AC 	c #70654A",
"BC 	c #52462F",
"CC 	c #6F674A",
"DC 	c #544C33",
"EC 	c #545035",
"FC 	c #5B563A",
"GC 	c #5E5639",
"HC 	c #5F5439",
"IC 	c #64573B",
"JC 	c #65563A",
"KC 	c #594C31",
"LC 	c #5D5135",
"MC 	c #8D8278",
"NC 	c #867C73",
"OC 	c #877D73",
"PC 	c #62543B",
"QC 	c #807567",
"RC 	c #8D8379",
"SC 	c #8D8378",
"TC 	c #85796F",
"UC 	c #57483B",
"VC 	c #544332",
"WC 	c #5B4837",
"XC 	c #6A5644",
"YC 	c #705D4A",
"ZC 	c #5D4B3A",
"`C 	c #6E5B48",
" D 	c #756350",
".D 	c #75614F",
"+D 	c #5C4F3F",
"@D 	c #665B49",
"#D 	c #594B3C",
"$D 	c #70604E",
"%D 	c #605040",
"&D 	c #544636",
"*D 	c #5D4E3D",
"=D 	c #5D503F",
"-D 	c #514534",
";D 	c #5B4C3A",
">D 	c #453929",
",D 	c #433B29",
"'D 	c #3F432B",
")D 	c #40502F",
"!D 	c #47543C",
"~D 	c #666256",
"{D 	c #79756A",
"]D 	c #766E62",
"^D 	c #897F73",
"/D 	c #8D8376",
"(D 	c #8E8477",
"_D 	c #8C8276",
":D 	c #8C8376",
"<D 	c #7B7165",
"[D 	c #83796D",
"}D 	c #786E62",
"|D 	c #6B5436",
"1D 	c #715E44",
"2D 	c #68553D",
"3D 	c #5D462D",
"4D 	c #6E5230",
"5D 	c #6E5331",
"6D 	c #755936",
"7D 	c #7A5E3A",
"8D 	c #836640",
"9D 	c #7D603C",
"0D 	c #775C3A",
"aD 	c #7D613D",
"bD 	c #735837",
"cD 	c #816640",
"dD 	c #7E633E",
"eD 	c #7C5F3B",
"fD 	c #6E5332",
"gD 	c #7A5D37",
"hD 	c #725633",
"iD 	c #6C502D",
"jD 	c #5D4425",
"kD 	c #5B4327",
"lD 	c #7D6651",
"mD 	c #937D68",
"nD 	c #937C67",
"oD 	c #97816D",
"pD 	c #927B63",
"qD 	c #947D65",
"rD 	c #9B8671",
"sD 	c #9A8470",
"tD 	c #998470",
"uD 	c #9D8874",
"vD 	c #957F6C",
"wD 	c #85725C",
"xD 	c #665941",
"yD 	c #575026",
"zD 	c #57492B",
"AD 	c #8A7561",
"BD 	c #84705C",
"CD 	c #695440",
"DD 	c #68562C",
"ED 	c #5C4B24",
"FD 	c #6D5A2B",
"GD 	c #635127",
"HD 	c #7F6D3B",
"ID 	c #816F3D",
"JD 	c #786836",
"KD 	c #746635",
"LD 	c #766737",
"MD 	c #786737",
"ND 	c #7C6C3C",
"OD 	c #7A693C",
"PD 	c #78683A",
"QD 	c #776639",
"RD 	c #7C6B3C",
"SD 	c #837141",
"TD 	c #7F6D3F",
"UD 	c #7D6B3D",
"VD 	c #837140",
"WD 	c #736136",
"XD 	c #705E32",
"YD 	c #7D6B3B",
"ZD 	c #796738",
"`D 	c #6F5D31",
" E 	c #655428",
".E 	c #655325",
"+E 	c #675526",
"@E 	c #4E3E1B",
"#E 	c #5D4D23",
"$E 	c #797266",
"%E 	c #7A7468",
"&E 	c #7B7569",
"*E 	c #817D70",
"=E 	c #5B5649",
"-E 	c #4C453A",
";E 	c #494339",
">E 	c #4B4437",
",E 	c #42382B",
"'E 	c #5C584D",
")E 	c #575140",
"!E 	c #463A25",
"~E 	c #5D4E34",
"{E 	c #5C4E34",
"]E 	c #51452D",
"^E 	c #554830",
"/E 	c #554930",
"(E 	c #6C5E40",
"_E 	c #69593E",
":E 	c #6D5D41",
"<E 	c #726347",
"[E 	c #695A40",
"}E 	c #4F422D",
"|E 	c #594C34",
"1E 	c #544832",
"2E 	c #6A5E44",
"3E 	c #554933",
"4E 	c #4E4B31",
"5E 	c #413F28",
"6E 	c #4B4A31",
"7E 	c #514D36",
"8E 	c #584F37",
"9E 	c #554B34",
"0E 	c #665B41",
"aE 	c #625A40",
"bE 	c #473F2A",
"cE 	c #525036",
"dE 	c #565037",
"eE 	c #50472F",
"fE 	c #696143",
"gE 	c #6A5D40",
"hE 	c #6B5D41",
"iE 	c #695C40",
"jE 	c #5D4F35",
"kE 	c #615539",
"lE 	c #56482F",
"mE 	c #57482F",
"nE 	c #50412B",
"oE 	c #574936",
"pE 	c #53483E",
"qE 	c #52483D",
"rE 	c #50463C",
"sE 	c #51432C",
"tE 	c #50453B",
"uE 	c #4F453B",
"vE 	c #52473D",
"wE 	c #51463C",
"xE 	c #43382F",
"yE 	c #483D33",
"zE 	c #4D3E31",
"AE 	c #4F3E2E",
"BE 	c #6D5948",
"CE 	c #655241",
"DE 	c #63503F",
"EE 	c #75624F",
"FE 	c #705E4B",
"GE 	c #6D5B49",
"HE 	c #786553",
"IE 	c #766553",
"JE 	c #746352",
"KE 	c #6E5E4D",
"LE 	c #615545",
"ME 	c #645847",
"NE 	c #625343",
"OE 	c #5C4B3C",
"PE 	c #786856",
"QE 	c #5C513F",
"RE 	c #675B48",
"SE 	c #594C3A",
"TE 	c #594D3B",
"UE 	c #514533",
"VE 	c #504634",
"WE 	c #413525",
"XE 	c #62503E",
"YE 	c #4D3E2D",
"ZE 	c #514537",
"`E 	c #443B2F",
" F 	c #4D4437",
".F 	c #4D4236",
"+F 	c #4E4437",
"@F 	c #4D4337",
"#F 	c #504333",
"$F 	c #614E36",
"%F 	c #5F4627",
"&F 	c #6A563B",
"*F 	c #534B40",
"=F 	c #524537",
"-F 	c #5B4A37",
";F 	c #694F30",
">F 	c #64492A",
",F 	c #6F5330",
"'F 	c #6B5131",
")F 	c #6F5432",
"!F 	c #6F5331",
"~F 	c #6D5232",
"{F 	c #826641",
"]F 	c #765B3A",
"^F 	c #765A38",
"/F 	c #846742",
"(F 	c #7B603C",
"_F 	c #7D623E",
":F 	c #795D3B",
"<F 	c #795D38",
"[F 	c #684E2D",
"}F 	c #785B35",
"|F 	c #70542F",
"1F 	c #745932",
"2F 	c #684E2C",
"3F 	c #644B2D",
"4F 	c #6F583D",
"5F 	c #6B553C",
"6F 	c #745E49",
"7F 	c #6F5A45",
"8F 	c #5E4935",
"9F 	c #584330",
"0F 	c #523D2A",
"aF 	c #4E3926",
"bF 	c #3D3D1C",
"cF 	c #45311F",
"dF 	c #4D3824",
"eF 	c #4D3925",
"fF 	c #503C2A",
"gF 	c #544228",
"hF 	c #564424",
"iF 	c #645326",
"jF 	c #5D4C25",
"kF 	c #7B6838",
"lF 	c #705F34",
"mF 	c #7A6939",
"nF 	c #776938",
"oF 	c #7D6D3B",
"pF 	c #82723F",
"qF 	c #7C6D3D",
"rF 	c #756538",
"sF 	c #7F6E3F",
"tF 	c #827140",
"uF 	c #7B6B3B",
"vF 	c #837443",
"wF 	c #7D6D3E",
"xF 	c #857342",
"yF 	c #847243",
"zF 	c #7E6D3F",
"AF 	c #736237",
"BF 	c #806E3F",
"CF 	c #746237",
"DF 	c #705F32",
"EF 	c #726032",
"FF 	c #726036",
"GF 	c #7F6D3E",
"HF 	c #776539",
"IF 	c #665529",
"JF 	c #736230",
"KF 	c #695829",
"LF 	c #6A5828",
"MF 	c #685626",
"NF 	c #6B5928",
"OF 	c #6C5A2A",
"PF 	c #5B4A24",
"QF 	c #574724",
"RF 	c #554421",
"SF 	c #554523",
"TF 	c #57482A",
"UF 	c #483A23",
"VF 	c #392D1E",
"WF 	c #3D3222",
"XF 	c #453826",
"YF 	c #463823",
"ZF 	c #493B22",
"`F 	c #4F4025",
" G 	c #5B4C31",
".G 	c #584A31",
"+G 	c #554730",
"@G 	c #52442D",
"#G 	c #635539",
"$G 	c #6D6143",
"%G 	c #66583D",
"&G 	c #726245",
"*G 	c #706145",
"=G 	c #736548",
"-G 	c #706045",
";G 	c #695B40",
">G 	c #65583E",
",G 	c #514730",
"'G 	c #5A5037",
")G 	c #5A4E36",
"!G 	c #695E44",
"~G 	c #4F442D",
"{G 	c #45452C",
"]G 	c #55573B",
"^G 	c #58553A",
"/G 	c #645A41",
"(G 	c #72694D",
"_G 	c #6D6047",
":G 	c #6F6147",
"<G 	c #524630",
"[G 	c #4C432D",
"}G 	c #4C5033",
"|G 	c #605F42",
"1G 	c #554C33",
"2G 	c #5A5138",
"3G 	c #6B5D42",
"4G 	c #65593E",
"5G 	c #63573C",
"6G 	c #695B3F",
"7G 	c #584C32",
"8G 	c #50442C",
"9G 	c #685D40",
"0G 	c #5E5035",
"aG 	c #645639",
"bG 	c #65573B",
"cG 	c #67583B",
"dG 	c #5F5035",
"eG 	c #54452F",
"fG 	c #4A3D2B",
"gG 	c #504230",
"hG 	c #483820",
"iG 	c #392709",
"jG 	c #493A2B",
"kG 	c #564535",
"lG 	c #594737",
"mG 	c #62503F",
"nG 	c #5D4B3B",
"oG 	c #6C5947",
"pG 	c #695746",
"qG 	c #6A5746",
"rG 	c #6D5A49",
"sG 	c #6E5C4B",
"tG 	c #766250",
"uG 	c #786552",
"vG 	c #756351",
"wG 	c #7D6C5B",
"xG 	c #5E4F40",
"yG 	c #695E4D",
"zG 	c #5A4B3C",
"AG 	c #786655",
"BG 	c #6B5949",
"CG 	c #816F5D",
"DG 	c #665543",
"EG 	c #5F4E3C",
"FG 	c #534232",
"GG 	c #63513F",
"HG 	c #675543",
"IG 	c #524131",
"JG 	c #4B3B2C",
"KG 	c #392C20",
"LG 	c #554534",
"MG 	c #453420",
"NG 	c #412F13",
"OG 	c #695030",
"PG 	c #59452E",
"QG 	c #533E26",
"RG 	c #584126",
"SG 	c #674C2C",
"TG 	c #705432",
"UG 	c #6D5231",
"VG 	c #735735",
"WG 	c #705534",
"XG 	c #765A37",
"YG 	c #775B38",
"ZG 	c #725634",
"`G 	c #7A5E3C",
" H 	c #755A37",
".H 	c #7A5F3C",
"+H 	c #7E613D",
"@H 	c #866A44",
"#H 	c #806440",
"$H 	c #7B603D",
"%H 	c #806540",
"&H 	c #6F5535",
"*H 	c #735833",
"=H 	c #785C36",
"-H 	c #775C37",
";H 	c #715732",
">H 	c #5D4827",
",H 	c #624A28",
"'H 	c #554224",
")H 	c #4F4023",
"!H 	c #493E22",
"~H 	c #41341C",
"{H 	c #40311A",
"]H 	c #41301B",
"^H 	c #3E2B1A",
"/H 	c #3C2B18",
"(H 	c #3C2E18",
"_H 	c #343314",
":H 	c #3E491D",
"<H 	c #3A391A",
"[H 	c #4B4920",
"}H 	c #594D22",
"|H 	c #695A29",
"1H 	c #6D5C2C",
"2H 	c #6A582A",
"3H 	c #6C5B2E",
"4H 	c #67562B",
"5H 	c #6F5E2F",
"6H 	c #705F33",
"7H 	c #7C6B3B",
"8H 	c #7C6C3D",
"9H 	c #7D6D3D",
"0H 	c #827543",
"aH 	c #847745",
"bH 	c #7D6C3D",
"cH 	c #74673A",
"dH 	c #6D5F36",
"eH 	c #73663B",
"fH 	c #7A6A3D",
"gH 	c #726337",
"hH 	c #705F36",
"iH 	c #806F3E",
"jH 	c #726035",
"kH 	c #716034",
"lH 	c #726034",
"mH 	c #6C5B2F",
"nH 	c #715F33",
"oH 	c #746337",
"pH 	c #6B5A31",
"qH 	c #66552D",
"rH 	c #716032",
"sH 	c #746331",
"tH 	c #736130",
"uH 	c #726030",
"vH 	c #6A592B",
"wH 	c #756435",
"xH 	c #635029",
"yH 	c #3A2A11",
"zH 	c #5B4C32",
"AH 	c #615338",
"BH 	c #574931",
"CH 	c #67583C",
"DH 	c #65563C",
"EH 	c #726446",
"FH 	c #77684A",
"GH 	c #6D5E43",
"HH 	c #63553C",
"IH 	c #695C42",
"JH 	c #665E42",
"KH 	c #62573D",
"LH 	c #4E432D",
"MH 	c #675C41",
"NH 	c #5A5038",
"OH 	c #71674B",
"PH 	c #6F6247",
"QH 	c #695E45",
"RH 	c #74664C",
"SH 	c #6B5D44",
"TH 	c #645940",
"UH 	c #5B523A",
"VH 	c #4F4F35",
"WH 	c #595A3E",
"XH 	c #57543A",
"YH 	c #72684B",
"ZH 	c #67593F",
"`H 	c #5C4E35",
" I 	c #6B5E41",
".I 	c #6D6145",
"+I 	c #66593E",
"@I 	c #605237",
"#I 	c #64563B",
"$I 	c #67593E",
"%I 	c #5F5036",
"&I 	c #66583B",
"*I 	c #6E6043",
"=I 	c #605239",
"-I 	c #3B2912",
";I 	c #382608",
">I 	c #655343",
",I 	c #635241",
"'I 	c #5A4A3A",
")I 	c #635141",
"!I 	c #6A5847",
"~I 	c #675545",
"{I 	c #6B5847",
"]I 	c #725F4D",
"^I 	c #6C5948",
"/I 	c #735F4D",
"(I 	c #7C6956",
"_I 	c #7D6B59",
":I 	c #605343",
"<I 	c #7E6E5C",
"[I 	c #726151",
"}I 	c #746453",
"|I 	c #7C6B5A",
"1I 	c #5C4D3E",
"2I 	c #7B6B59",
"3I 	c #776554",
"4I 	c #7E6B5A",
"5I 	c #7E6C5A",
"6I 	c #5E503F",
"7I 	c #695745",
"8I 	c #685543",
"9I 	c #5B4D39",
"0I 	c #4E3E2F",
"aI 	c #483619",
"bI 	c #715736",
"cI 	c #705533",
"dI 	c #725735",
"eI 	c #836741",
"fI 	c #80633F",
"gI 	c #816641",
"hI 	c #836743",
"iI 	c #896D47",
"jI 	c #8A6D47",
"kI 	c #755B39",
"lI 	c #6C5333",
"mI 	c #674E2E",
"nI 	c #6A502E",
"oI 	c #735935",
"pI 	c #7C613B",
"qI 	c #7A613A",
"rI 	c #695730",
"sI 	c #695D33",
"tI 	c #5D5A2E",
"uI 	c #424C21",
"vI 	c #3C3A1A",
"wI 	c #383F1B",
"xI 	c #363F18",
"yI 	c #3B2C07",
"zI 	c #3B481C",
"AI 	c #384F1B",
"BI 	c #384B1B",
"CI 	c #445E23",
"DI 	c #3E5420",
"EI 	c #45431E",
"FI 	c #544C24",
"GI 	c #6E6031",
"HI 	c #6F5E30",
"II 	c #6D5C30",
"JI 	c #786636",
"KI 	c #786637",
"LI 	c #6B5A2F",
"MI 	c #776636",
"NI 	c #80703E",
"OI 	c #82713F",
"PI 	c #766638",
"QI 	c #766739",
"RI 	c #72683B",
"SI 	c #756A3D",
"TI 	c #7B7040",
"UI 	c #786B3C",
"VI 	c #7D7241",
"WI 	c #685C33",
"XI 	c #716237",
"YI 	c #817141",
"ZI 	c #756539",
"`I 	c #806F3F",
" J 	c #76653A",
".J 	c #786638",
"+J 	c #6F5D32",
"@J 	c #7B6A39",
"#J 	c #756334",
"$J 	c #726131",
"%J 	c #7C6B3A",
"&J 	c #6D5A31",
"*J 	c #3B2B12",
"=J 	c #615237",
"-J 	c #68593D",
";J 	c #574830",
">J 	c #5E5036",
",J 	c #625439",
"'J 	c #6A5C40",
")J 	c #5C4E36",
"!J 	c #6C5E42",
"~J 	c #66573E",
"{J 	c #5B4D35",
"]J 	c #6B5C41",
"^J 	c #61533A",
"/J 	c #65563D",
"(J 	c #716448",
"_J 	c #5F533A",
":J 	c #63563D",
"<J 	c #574C35",
"[J 	c #493F2A",
"}J 	c #5A4F36",
"|J 	c #706347",
"1J 	c #6C5F45",
"2J 	c #5A4F37",
"3J 	c #584E37",
"4J 	c #594B35",
"5J 	c #74674C",
"6J 	c #7E7054",
"7J 	c #63563E",
"8J 	c #5C513A",
"9J 	c #514831",
"0J 	c #524E36",
"aJ 	c #575239",
"bJ 	c #4B4C32",
"cJ 	c #575238",
"dJ 	c #564B33",
"eJ 	c #62553B",
"fJ 	c #67593D",
"gJ 	c #63563B",
"hJ 	c #66573C",
"iJ 	c #685A3F",
"jJ 	c #6D5E42",
"kJ 	c #716347",
"lJ 	c #68593F",
"mJ 	c #4A3922",
"nJ 	c #3E2D13",
"oJ 	c #6D5B4A",
"pJ 	c #715F4E",
"qJ 	c #736150",
"rJ 	c #776453",
"sJ 	c #695747",
"tJ 	c #7C6957",
"uJ 	c #6E5B4A",
"vJ 	c #7A6856",
"wJ 	c #7B6958",
"xJ 	c #7A6958",
"yJ 	c #7E6D5C",
"zJ 	c #786756",
"AJ 	c #6C5D4D",
"BJ 	c #635545",
"CJ 	c #685748",
"DJ 	c #756A58",
"EJ 	c #6D5D4D",
"FJ 	c #756352",
"GJ 	c #776655",
"HJ 	c #6B5A4A",
"IJ 	c #7A6857",
"JJ 	c #7C6B59",
"KJ 	c #5C5040",
"LJ 	c #625644",
"MJ 	c #6C5B49",
"NJ 	c #675544",
"OJ 	c #665545",
"PJ 	c #62543F",
"QJ 	c #584A3A",
"RJ 	c #504231",
"SJ 	c #483919",
"TJ 	c #67512D",
"UJ 	c #664F2D",
"VJ 	c #725935",
"WJ 	c #745837",
"XJ 	c #6C5231",
"YJ 	c #735937",
"ZJ 	c #745938",
"`J 	c #775B39",
" K 	c #7F6440",
".K 	c #715735",
"+K 	c #755C38",
"@K 	c #795F3B",
"#K 	c #826843",
"$K 	c #725938",
"%K 	c #7A603E",
"&K 	c #735939",
"*K 	c #7A5F3D",
"=K 	c #866A46",
"-K 	c #765C3B",
";K 	c #806640",
">K 	c #7D633F",
",K 	c #745935",
"'K 	c #7A5F39",
")K 	c #755C36",
"!K 	c #755D39",
"~K 	c #745B36",
"{K 	c #705D37",
"]K 	c #675731",
"^K 	c #675C32",
"/K 	c #635931",
"(K 	c #5F5C32",
"_K 	c #555329",
":K 	c #38401B",
"<K 	c #48662B",
"[K 	c #3A481D",
"}K 	c #352E0C",
"|K 	c #4A6729",
"1K 	c #363E1A",
"2K 	c #353E1B",
"3K 	c #445D26",
"4K 	c #405723",
"5K 	c #595A2C",
"6K 	c #706534",
"7K 	c #726435",
"8K 	c #756636",
"9K 	c #706133",
"0K 	c #706134",
"aK 	c #706034",
"bK 	c #726235",
"cK 	c #62522B",
"dK 	c #7B6A38",
"eK 	c #766637",
"fK 	c #79693A",
"gK 	c #80703F",
"hK 	c #7F703F",
"iK 	c #756739",
"jK 	c #655B32",
"kK 	c #60582F",
"lK 	c #5A532C",
"mK 	c #726B3B",
"nK 	c #78713F",
"oK 	c #5F552D",
"pK 	c #786B3D",
"qK 	c #7B6D3E",
"rK 	c #736337",
"sK 	c #776739",
"tK 	c #7B6A3D",
"uK 	c #715F36",
"vK 	c #786739",
"wK 	c #6E5D32",
"xK 	c #6C5A31",
"yK 	c #7A6A3B",
"zK 	c #7A693B",
"AK 	c #786736",
"BK 	c #746334",
"CK 	c #817041",
"DK 	c #7A683C",
"EK 	c #715E35",
"FK 	c #453314",
"GK 	c #6B5C42",
"HK 	c #605137",
"IK 	c #675A3E",
"JK 	c #75674A",
"KK 	c #5E5139",
"LK 	c #5B4C34",
"MK 	c #6E6246",
"NK 	c #74684C",
"OK 	c #6D6046",
"PK 	c #5E523A",
"QK 	c #5F553C",
"RK 	c #6F6448",
"SK 	c #5E533A",
"TK 	c #63583F",
"UK 	c #61543C",
"VK 	c #62553C",
"WK 	c #6E6046",
"XK 	c #6D5F46",
"YK 	c #524B33",
"ZK 	c #585A3E",
"`K 	c #5A533B",
" L 	c #4C4931",
".L 	c #4E4D34",
"+L 	c #5B553B",
"@L 	c #61573C",
"#L 	c #5B5138",
"$L 	c #6C5F44",
"%L 	c #695C41",
"&L 	c #5E5339",
"*L 	c #6A5F43",
"=L 	c #6D5F44",
"-L 	c #73654A",
";L 	c #4A381E",
">L 	c #6C5A4A",
",L 	c #655444",
"'L 	c #746251",
")L 	c #635243",
"!L 	c #6A5848",
"~L 	c #726050",
"{L 	c #6F5D4C",
"]L 	c #7D6A58",
"^L 	c #726251",
"/L 	c #81705F",
"(L 	c #5D4E3F",
"_L 	c #715F4F",
":L 	c #7D6B5A",
"<L 	c #5B4E3D",
"[L 	c #5D5140",
"}L 	c #796653",
"|L 	c #665444",
"1L 	c #6E5D4C",
"2L 	c #72614F",
"3L 	c #705F4E",
"4L 	c #524333",
"5L 	c #4A3E2F",
"6L 	c #574C3B",
"7L 	c #5E5140",
"8L 	c #514333",
"9L 	c #4B3C1E",
"0L 	c #7E6441",
"aL 	c #7F6341",
"bL 	c #725736",
"cL 	c #795F3C",
"dL 	c #836844",
"eL 	c #745A39",
"fL 	c #785C3A",
"gL 	c #705635",
"hL 	c #6F5534",
"iL 	c #806441",
"jL 	c #755B37",
"kL 	c #775E3A",
"lL 	c #705837",
"mL 	c #725937",
"nL 	c #846944",
"oL 	c #836843",
"pL 	c #7F6340",
"qL 	c #846844",
"rL 	c #856A45",
"sL 	c #836845",
"tL 	c #715737",
"uL 	c #7B613E",
"vL 	c #876C46",
"wL 	c #78613D",
"xL 	c #846841",
"yL 	c #836942",
"zL 	c #7F663F",
"AL 	c #78613A",
"BL 	c #736138",
"CL 	c #706438",
"DL 	c #5A542D",
"EL 	c #615931",
"FL 	c #444E24",
"GL 	c #47632B",
"HL 	c #517333",
"IL 	c #3B441C",
"JL 	c #453D15",
"KL 	c #445A27",
"LL 	c #47562A",
"ML 	c #494B24",
"NL 	c #3A481F",
"OL 	c #565E2F",
"PL 	c #6A6034",
"QL 	c #6E6234",
"RL 	c #6C5C32",
"SL 	c #5D4F28",
"TL 	c #65572E",
"UL 	c #6C5D31",
"VL 	c #766537",
"WL 	c #6A5A30",
"XL 	c #776737",
"YL 	c #6B5C30",
"ZL 	c #776838",
"`L 	c #78693B",
" M 	c #6E5F34",
".M 	c #6D5E33",
"+M 	c #685D32",
"@M 	c #716737",
"#M 	c #645C31",
"$M 	c #444824",
"%M 	c #676436",
"&M 	c #817945",
"*M 	c #797040",
"=M 	c #716A39",
"-M 	c #776C3D",
";M 	c #7A6B3D",
">M 	c #6A5931",
",M 	c #6F5E33",
"'M 	c #695931",
")M 	c #65542C",
"!M 	c #6D5C31",
"~M 	c #6A5A2F",
"{M 	c #6F5F33",
"]M 	c #736234",
"^M 	c #796839",
"/M 	c #7C6B3D",
"(M 	c #857344",
"_M 	c #725F36",
":M 	c #48361B",
"<M 	c #62533A",
"[M 	c #5D4F37",
"}M 	c #66573D",
"|M 	c #67583D",
"1M 	c #685A40",
"2M 	c #6D6044",
"3M 	c #695D42",
"4M 	c #584B35",
"5M 	c #71664B",
"6M 	c #534832",
"7M 	c #5B5239",
"8M 	c #665B42",
"9M 	c #5C5139",
"0M 	c #6E6247",
"aM 	c #6F6248",
"bM 	c #6B5F45",
"cM 	c #786A4F",
"dM 	c #5D563D",
"eM 	c #514E36",
"fM 	c #585D40",
"gM 	c #5C553B",
"hM 	c #534B34",
"iM 	c #595339",
"jM 	c #62593E",
"kM 	c #61573D",
"lM 	c #6A5E43",
"mM 	c #786A4D",
"nM 	c #6E6145",
"oM 	c #62563C",
"pM 	c #5D533A",
"qM 	c #655B41",
"rM 	c #6D6045",
"sM 	c #695B41",
"tM 	c #6C5E44",
"uM 	c #716348",
"vM 	c #625139",
"wM 	c #4D3B1F",
"xM 	c #655445",
"yM 	c #635242",
"zM 	c #6C5B4A",
"AM 	c #766453",
"BM 	c #6A5849",
"CM 	c #685647",
"DM 	c #685747",
"EM 	c #72604F",
"FM 	c #6F5C4C",
"GM 	c #766351",
"HM 	c #715E4D",
"IM 	c #806E5C",
"JM 	c #796857",
"KM 	c #776756",
"LM 	c #736151",
"MM 	c #625242",
"NM 	c #514A39",
"OM 	c #5A4E3E",
"PM 	c #73614F",
"QM 	c #493E2E",
"RM 	c #514A3A",
"SM 	c #483C2D",
"TM 	c #564A3A",
"UM 	c #493B1E",
"VM 	c #7A623F",
"WM 	c #795F3E",
"XM 	c #755B3B",
"YM 	c #856944",
"ZM 	c #856844",
"`M 	c #7E6340",
" N 	c #7C603E",
".N 	c #6E5536",
"+N 	c #6E5535",
"@N 	c #6C5233",
"#N 	c #795D39",
"$N 	c #745937",
"%N 	c #745A37",
"&N 	c #7E643E",
"*N 	c #7B623D",
"=N 	c #6F5836",
"-N 	c #775E3B",
";N 	c #785E3C",
">N 	c #6F5636",
",N 	c #816642",
"'N 	c #7B613F",
")N 	c #826742",
"!N 	c #7A613E",
"~N 	c #846A44",
"{N 	c #7D6843",
"]N 	c #846B45",
"^N 	c #7D623F",
"/N 	c #836B44",
"(N 	c #79603D",
"_N 	c #735A37",
":N 	c #7E6740",
"<N 	c #675B34",
"[N 	c #5C562E",
"}N 	c #58542D",
"|N 	c #605E35",
"1N 	c #535A2F",
"2N 	c #495128",
"3N 	c #526132",
"4N 	c #373918",
"5N 	c #463E1A",
"6N 	c #516633",
"7N 	c #4D5429",
"8N 	c #47411E",
"9N 	c #59572E",
"0N 	c #5D5E32",
"aN 	c #716538",
"bN 	c #62552D",
"cN 	c #6B5D32",
"dN 	c #6B5D33",
"eN 	c #6B6133",
"fN 	c #655B30",
"gN 	c #5C522A",
"hN 	c #7E6F3C",
"iN 	c #746335",
"jN 	c #746435",
"kN 	c #7E6E3C",
"lN 	c #756836",
"mN 	c #7E6D3B",
"nN 	c #7B6C3C",
"oN 	c #675B31",
"pN 	c #6C6234",
"qN 	c #525029",
"rN 	c #494824",
"sN 	c #4A572A",
"tN 	c #435327",
"uN 	c #504E28",
"vN 	c #716639",
"wN 	c #6E5F35",
"xN 	c #736538",
"yN 	c #685C32",
"zN 	c #827342",
"AN 	c #817042",
"BN 	c #837243",
"CN 	c #78673B",
"DN 	c #79673A",
"EN 	c #705E33",
"FN 	c #746437",
"GN 	c #736134",
"HN 	c #715F34",
"IN 	c #68572E",
"JN 	c #7A6938",
"KN 	c #7E6C3B",
"LN 	c #7E6D3C",
"MN 	c #7D6C3F",
"NN 	c #715E36",
"ON 	c #716248",
"PN 	c #67583E",
"QN 	c #5C4D36",
"RN 	c #63553B",
"SN 	c #5D5037",
"TN 	c #5A4D35",
"UN 	c #65573C",
"VN 	c #726448",
"WN 	c #76694C",
"XN 	c #786A4E",
"YN 	c #776A4E",
"ZN 	c #695C43",
"`N 	c #61563D",
" O 	c #6D6348",
".O 	c #695F45",
"+O 	c #665C42",
"@O 	c #594F37",
"#O 	c #5C543B",
"$O 	c #594E37",
"%O 	c #71644A",
"&O 	c #6F6349",
"*O 	c #685A41",
"=O 	c #504630",
"-O 	c #534E36",
";O 	c #525237",
">O 	c #413A25",
",O 	c #4B452D",
"'O 	c #60573D",
")O 	c #74684B",
"!O 	c #706348",
"~O 	c #736549",
"{O 	c #76694D",
"]O 	c #7C6E52",
"^O 	c #65553D",
"/O 	c #4F3D20",
"(O 	c #746252",
"_O 	c #705F4F",
":O 	c #695748",
"<O 	c #6D5B4B",
"[O 	c #786554",
"}O 	c #7B6957",
"|O 	c #7F6D5B",
"1O 	c #7C6A59",
"2O 	c #7F6D5C",
"3O 	c #7F6E5D",
"4O 	c #7E6E5D",
"5O 	c #5E5041",
"6O 	c #5B4C3C",
"7O 	c #5C4C3D",
"8O 	c #645947",
"9O 	c #58503F",
"0O 	c #554838",
"aO 	c #4E4131",
"bO 	c #5E5241",
"cO 	c #605141",
"dO 	c #4D4132",
"eO 	c #463C2D",
"fO 	c #4D4031",
"gO 	c #524522",
"hO 	c #74603D",
"iO 	c #816944",
"jO 	c #816743",
"kO 	c #866B46",
"lO 	c #856945",
"mO 	c #6D5334",
"nO 	c #876B45",
"oO 	c #735936",
"pO 	c #816741",
"qO 	c #836943",
"rO 	c #816542",
"sO 	c #6D5333",
"tO 	c #7C623F",
"uO 	c #856D47",
"vO 	c #7B643F",
"wO 	c #866D48",
"xO 	c #78603E",
"yO 	c #836C46",
"zO 	c #7F6843",
"AO 	c #7C643F",
"BO 	c #795F3D",
"CO 	c #78603C",
"DO 	c #79643E",
"EO 	c #695633",
"FO 	c #7C643E",
"GO 	c #76623C",
"HO 	c #76673E",
"IO 	c #6B693B",
"JO 	c #434925",
"KO 	c #6D643A",
"LO 	c #54522D",
"MO 	c #6B6C3F",
"NO 	c #5C5730",
"OO 	c #433D1A",
"PO 	c #49431E",
"QO 	c #5F6737",
"RO 	c #656638",
"SO 	c #645C32",
"TO 	c #616235",
"UO 	c #6E6637",
"VO 	c #746A3A",
"WO 	c #726436",
"XO 	c #756839",
"YO 	c #675F34",
"ZO 	c #4A4623",
"`O 	c #686435",
" P 	c #827441",
".P 	c #726338",
"+P 	c #706035",
"@P 	c #7E6F3E",
"#P 	c #6C5E30",
"$P 	c #746536",
"%P 	c #7C6E3C",
"&P 	c #5E592C",
"*P 	c #646030",
"=P 	c #4E4E27",
"-P 	c #5F5F33",
";P 	c #414622",
">P 	c #5A5A2E",
",P 	c #746E3C",
"'P 	c #796E3D",
")P 	c #817140",
"!P 	c #79693D",
"~P 	c #746338",
"{P 	c #7E6E3D",
"]P 	c #6D5B32",
"^P 	c #6E5C32",
"/P 	c #816F3F",
"(P 	c #746236",
"_P 	c #7B693D",
":P 	c #807155",
"<P 	c #7C6E53",
"[P 	c #76674D",
"}P 	c #74654A",
"|P 	c #6E5F45",
"1P 	c #6C5D42",
"2P 	c #6A5B40",
"3P 	c #6A5C42",
"4P 	c #6F6447",
"5P 	c #7B6D4F",
"6P 	c #7D6F53",
"7P 	c #7A6C51",
"8P 	c #554833",
"9P 	c #655A41",
"0P 	c #5D533C",
"aP 	c #4C402C",
"bP 	c #62583F",
"cP 	c #4A412C",
"dP 	c #5C533B",
"eP 	c #7A6E53",
"fP 	c #695B43",
"gP 	c #5D553C",
"hP 	c #514F35",
"iP 	c #4B472E",
"jP 	c #505036",
"kP 	c #565038",
"lP 	c #6F6347",
"mP 	c #6B5D43",
"nP 	c #72654A",
"oP 	c #73664A",
"pP 	c #75684B",
"qP 	c #6F6146",
"rP 	c #706349",
"sP 	c #7B6D52",
"tP 	c #75664C",
"uP 	c #6A5A42",
"vP 	c #554326",
"wP 	c #68584A",
"xP 	c #645445",
"yP 	c #705E4E",
"zP 	c #675646",
"AP 	c #685646",
"BP 	c #837261",
"CP 	c #7C6C5B",
"DP 	c #4F4032",
"EP 	c #7A6858",
"FP 	c #5E4D3E",
"GP 	c #4D4131",
"HP 	c #554D3A",
"IP 	c #554F3C",
"JP 	c #62644A",
"KP 	c #4B4332",
"LP 	c #4D4332",
"MP 	c #4B3F2F",
"NP 	c #443E2D",
"OP 	c #54513E",
"PP 	c #4C4633",
"QP 	c #504636",
"RP 	c #564925",
"SP 	c #6B5B38",
"TP 	c #735E3C",
"UP 	c #806844",
"VP 	c #8A6E4A",
"WP 	c #7F6441",
"XP 	c #7D6341",
"YP 	c #785E3D",
"ZP 	c #6B5334",
"`P 	c #7E633F",
" Q 	c #866945",
".Q 	c #876B46",
"+Q 	c #876A45",
"@Q 	c #775D38",
"#Q 	c #7F653F",
"$Q 	c #7F643F",
"%Q 	c #826643",
"&Q 	c #806944",
"*Q 	c #816C45",
"=Q 	c #695736",
"-Q 	c #806C45",
";Q 	c #7B6440",
">Q 	c #765B38",
",Q 	c #856A44",
"'Q 	c #886E47",
")Q 	c #7E6842",
"!Q 	c #75603A",
"~Q 	c #79643D",
"{Q 	c #7C6640",
"]Q 	c #675F37",
"^Q 	c #4D4D28",
"/Q 	c #5D5932",
"(Q 	c #746840",
"_Q 	c #7A6843",
":Q 	c #6F613B",
"<Q 	c #4A3C16",
"[Q 	c #6B683B",
"}Q 	c #787241",
"|Q 	c #837846",
"1Q 	c #6E6237",
"2Q 	c #776B3C",
"3Q 	c #746639",
"4Q 	c #726438",
"5Q 	c #61582F",
"6Q 	c #6D6636",
"7Q 	c #756E3C",
"8Q 	c #76693B",
"9Q 	c #6C5F33",
"0Q 	c #6E6134",
"aQ 	c #726738",
"bQ 	c #776939",
"cQ 	c #796B39",
"dQ 	c #6D6132",
"eQ 	c #695D30",
"fQ 	c #736C38",
"gQ 	c #6D6837",
"hQ 	c #56522A",
"iQ 	c #6F6836",
"jQ 	c #615E30",
"kQ 	c #6B6736",
"lQ 	c #716636",
"mQ 	c #817342",
"nQ 	c #837342",
"oQ 	c #857343",
"pQ 	c #736236",
"qQ 	c #766437",
"rQ 	c #6F5E34",
"sQ 	c #705E34",
"tQ 	c #726033",
"uQ 	c #746234",
"vQ 	c #766539",
"wQ 	c #8A7948",
"xQ 	c #7A673D",
"yQ 	c #48381F",
"zQ 	c #73654B",
"AQ 	c #77684C",
"BQ 	c #6A5B42",
"CQ 	c #716447",
"DQ 	c #77694C",
"EQ 	c #66583F",
"FQ 	c #6E6045",
"GQ 	c #75674D",
"HQ 	c #695C44",
"IQ 	c #6E6248",
"JQ 	c #5F543C",
"KQ 	c #4A402B",
"LQ 	c #685C43",
"MQ 	c #7E7055",
"NQ 	c #685941",
"OQ 	c #5B4F38",
"PQ 	c #4E462F",
"QQ 	c #4F4E34",
"RQ 	c #40422A",
"SQ 	c #615F44",
"TQ 	c #655940",
"UQ 	c #77694D",
"VQ 	c #72674B",
"WQ 	c #726449",
"XQ 	c #75684C",
"YQ 	c #7A6D51",
"ZQ 	c #7A6E52",
"`Q 	c #72664B",
" R 	c #766A4E",
".R 	c #7C6F53",
"+R 	c #83755A",
"@R 	c #716148",
"#R 	c #513F24",
"$R 	c #6C5B4B",
"%R 	c #756353",
"&R 	c #73604F",
"*R 	c #837160",
"=R 	c #796958",
"-R 	c #786958",
";R 	c #7D6D5D",
">R 	c #59493B",
",R 	c #695949",
"'R 	c #675747",
")R 	c #59523E",
"!R 	c #5C5741",
"~R 	c #65684F",
"{R 	c #515039",
"]R 	c #5B5942",
"^R 	c #625645",
"/R 	c #554D3D",
"(R 	c #5B5644",
"_R 	c #514F3A",
":R 	c #4B4735",
"<R 	c #5D5845",
"[R 	c #4B4633",
"}R 	c #574E27",
"|R 	c #6F6B41",
"1R 	c #695F38",
"2R 	c #786540",
"3R 	c #7D6543",
"4R 	c #77603E",
"5R 	c #775E3D",
"6R 	c #826743",
"7R 	c #785D3C",
"8R 	c #6B5234",
"9R 	c #7E6240",
"0R 	c #755A36",
"aR 	c #785F3A",
"bR 	c #725A36",
"cR 	c #725B38",
"dR 	c #745D3B",
"eR 	c #856B46",
"fR 	c #7B6240",
"gR 	c #675032",
"hR 	c #806742",
"iR 	c #775F3D",
"jR 	c #6B5837",
"kR 	c #675535",
"lR 	c #73623D",
"mR 	c #7E6B43",
"nR 	c #695936",
"oR 	c #7E6541",
"pR 	c #7F6540",
"qR 	c #6E5435",
"rR 	c #846943",
"sR 	c #7F6641",
"tR 	c #665132",
"uR 	c #75673E",
"vR 	c #72643C",
"wR 	c #847249",
"xR 	c #87734B",
"yR 	c #423113",
"zR 	c #5B5028",
"AR 	c #6C6339",
"BR 	c #7D7143",
"CR 	c #7C7041",
"DR 	c #74663B",
"ER 	c #837343",
"FR 	c #6F6035",
"GR 	c #695B30",
"HR 	c #7F723F",
"IR 	c #75673A",
"JR 	c #645A30",
"KR 	c #706637",
"LR 	c #766838",
"MR 	c #766D3B",
"NR 	c #676233",
"OR 	c #716C39",
"PR 	c #6D6536",
"QR 	c #6D6533",
"RR 	c #726B37",
"SR 	c #746C3A",
"TR 	c #7D713F",
"UR 	c #73693A",
"VR 	c #776C3B",
"WR 	c #786C3C",
"XR 	c #736436",
"YR 	c #665A2F",
"ZR 	c #5C4F29",
"`R 	c #746537",
" S 	c #837241",
".S 	c #78663B",
"+S 	c #7C6A3D",
"@S 	c #6D5B31",
"#S 	c #6F5D33",
"$S 	c #6B5930",
"%S 	c #65542B",
"&S 	c #64532B",
"*S 	c #62512A",
"=S 	c #705E31",
"-S 	c #887645",
";S 	c #827040",
">S 	c #887747",
",S 	c #77643B",
"'S 	c #74654B",
")S 	c #716249",
"!S 	c #7F7156",
"~S 	c #817257",
"{S 	c #71624A",
"]S 	c #6E5F46",
"^S 	c #66573F",
"/S 	c #6F6046",
"(S 	c #75664B",
"_S 	c #695B42",
":S 	c #63583D",
"<S 	c #50442E",
"[S 	c #5F543B",
"}S 	c #594D35",
"|S 	c #594E36",
"1S 	c #695D43",
"2S 	c #5C4F37",
"3S 	c #706247",
"4S 	c #7F7155",
"5S 	c #706248",
"6S 	c #796B50",
"7S 	c #73664C",
"8S 	c #574A35",
"9S 	c #6C6348",
"0S 	c #645840",
"aS 	c #72674C",
"bS 	c #75684E",
"cS 	c #6E6149",
"dS 	c #6E6147",
"eS 	c #65573F",
"fS 	c #5C533A",
"gS 	c #45442C",
"hS 	c #555B3E",
"iS 	c #675E44",
"jS 	c #685B42",
"kS 	c #5F563E",
"lS 	c #675D43",
"mS 	c #776B50",
"nS 	c #756A4F",
"oS 	c #76684E",
"pS 	c #72654C",
"qS 	c #7D7055",
"rS 	c #7D6F54",
"sS 	c #75664D",
"tS 	c #64543D",
"uS 	c #503E21",
"vS 	c #63533F",
"wS 	c #6B5A48",
"xS 	c #776555",
"yS 	c #756251",
"zS 	c #806E5D",
"AS 	c #7B6A59",
"BS 	c #7D6E5D",
"CS 	c #756656",
"DS 	c #726152",
"ES 	c #665546",
"FS 	c #4A4332",
"GS 	c #595F43",
"HS 	c #5D6546",
"IS 	c #52553C",
"JS 	c #54523B",
"KS 	c #4A4331",
"LS 	c #645848",
"MS 	c #504737",
"NS 	c #5D5A48",
"OS 	c #56523F",
"PS 	c #595743",
"QS 	c #515438",
"RS 	c #524723",
"SS 	c #596939",
"TS 	c #645F38",
"US 	c #7E7248",
"VS 	c #766540",
"WS 	c #6E5C3A",
"XS 	c #715B3B",
"YS 	c #8A6F4B",
"ZS 	c #6F5536",
"`S 	c #7D613F",
" T 	c #795E3D",
".T 	c #896C47",
"+T 	c #765C39",
"@T 	c #705735",
"#T 	c #6F5635",
"$T 	c #755D38",
"%T 	c #6F5736",
"&T 	c #7A603C",
"*T 	c #735A38",
"=T 	c #7E6642",
"-T 	c #796440",
";T 	c #826945",
">T 	c #7D6440",
",T 	c #836944",
"'T 	c #886E48",
")T 	c #826F48",
"!T 	c #6D643C",
"~T 	c #7E7047",
"{T 	c #76623D",
"]T 	c #6C5836",
"^T 	c #735A39",
"/T 	c #816C44",
"(T 	c #7F6D45",
"_T 	c #89764E",
":T 	c #8A744E",
"<T 	c #6C5435",
"[T 	c #443614",
"}T 	c #5C542B",
"|T 	c #8C7F4D",
"1T 	c #73633A",
"2T 	c #73653A",
"3T 	c #5D512C",
"4T 	c #6F6136",
"5T 	c #5F532C",
"6T 	c #6E6436",
"7T 	c #675931",
"8T 	c #61592F",
"9T 	c #6B6334",
"0T 	c #726837",
"aT 	c #79743F",
"bT 	c #4B552B",
"cT 	c #494E28",
"dT 	c #76703B",
"eT 	c #5C5A2D",
"fT 	c #78713C",
"gT 	c #776F3C",
"hT 	c #796D3D",
"iT 	c #796E3E",
"jT 	c #7C6E3D",
"kT 	c #6C6034",
"lT 	c #756738",
"mT 	c #6F5F32",
"nT 	c #706233",
"oT 	c #7A6B3A",
"pT 	c #78673A",
"qT 	c #6E5D33",
"rT 	c #766438",
"sT 	c #6A592F",
"tT 	c #69572E",
"uT 	c #7B6938",
"vT 	c #837142",
"wT 	c #7E6C3D",
"xT 	c #857444",
"yT 	c #877545",
"zT 	c #877546",
"AT 	c #736038",
"BT 	c #7F7055",
"CT 	c #78694E",
"DT 	c #6C5D45",
"ET 	c #65563F",
"FT 	c #76674C",
"GT 	c #7C6F52",
"HT 	c #6C5E45",
"IT 	c #5B4E38",
"JT 	c #524831",
"KT 	c #4B4930",
"LT 	c #585137",
"MT 	c #574E36",
"NT 	c #58573B",
"OT 	c #524A32",
"PT 	c #675B41",
"QT 	c #796C50",
"RT 	c #72644A",
"ST 	c #7A6C52",
"TT 	c #786B50",
"UT 	c #70634A",
"VT 	c #594D37",
"WT 	c #5C513B",
"XT 	c #625840",
"YT 	c #5A4F39",
"ZT 	c #73684D",
"`T 	c #665841",
" U 	c #5E513A",
".U 	c #60533C",
"+U 	c #62573E",
"@U 	c #443A25",
"#U 	c #4A442D",
"$U 	c #5B573E",
"%U 	c #746B4F",
"&U 	c #6C6045",
"*U 	c #72664A",
"=U 	c #74684D",
"-U 	c #72664C",
";U 	c #796C51",
">U 	c #7F7256",
",U 	c #7F7257",
"'U 	c #796A50",
")U 	c #6C5C42",
"!U 	c #534224",
"~U 	c #766757",
"{U 	c #746354",
"]U 	c #716050",
"^U 	c #796655",
"/U 	c #827160",
"(U 	c #453729",
"_U 	c #3F3223",
":U 	c #5A5641",
"<U 	c #61654A",
"[U 	c #596041",
"}U 	c #4E4B35",
"|U 	c #6A5E4C",
"1U 	c #766654",
"2U 	c #58493A",
"3U 	c #584E3D",
"4U 	c #595744",
"5U 	c #4E4D38",
"6U 	c #55583C",
"7U 	c #574F28",
"8U 	c #535B32",
"9U 	c #5B5C35",
"0U 	c #6D653D",
"aU 	c #616138",
"bU 	c #66613A",
"cU 	c #816D46",
"dU 	c #71593A",
"eU 	c #715738",
"fU 	c #775D3B",
"gU 	c #816742",
"hU 	c #715838",
"iU 	c #775C3B",
"jU 	c #765C3A",
"kU 	c #775D3C",
"lU 	c #765B36",
"mU 	c #7B613C",
"nU 	c #795E3A",
"oU 	c #79603B",
"pU 	c #77603B",
"qU 	c #755F3C",
"rU 	c #826844",
"sU 	c #755D3B",
"tU 	c #836A45",
"uU 	c #826744",
"vU 	c #705C3A",
"wU 	c #645433",
"xU 	c #5A502D",
"yU 	c #6E5C37",
"zU 	c #6C5534",
"AU 	c #866A45",
"BU 	c #7A613D",
"CU 	c #735E3B",
"DU 	c #816A45",
"EU 	c #7F6744",
"FU 	c #4E381E",
"GU 	c #463711",
"HU 	c #52451F",
"IU 	c #817244",
"JU 	c #7C6B3F",
"KU 	c #7B6C40",
"LU 	c #6E6036",
"MU 	c #736838",
"NU 	c #5C502A",
"OU 	c #5F562D",
"PU 	c #6B6033",
"QU 	c #6F6135",
"RU 	c #675A31",
"SU 	c #645C2F",
"TU 	c #585128",
"UU 	c #676333",
"VU 	c #48532A",
"WU 	c #54592F",
"XU 	c #57552C",
"YU 	c #706B39",
"ZU 	c #7C743F",
"`U 	c #706937",
" V 	c #786939",
".V 	c #7B6C3D",
"+V 	c #665A30",
"@V 	c #776839",
"#V 	c #7C6D3B",
"$V 	c #7D6E3D",
"%V 	c #756438",
"&V 	c #68572F",
"*V 	c #6D5B2F",
"=V 	c #68562B",
"-V 	c #7D6B39",
";V 	c #7C6A39",
">V 	c #817040",
",V 	c #78663A",
"'V 	c #79683C",
")V 	c #7F6D40",
"!V 	c #78663D",
"~V 	c #715F37",
"{V 	c #48381D",
"]V 	c #6E5F47",
"^V 	c #675841",
"/V 	c #7B6C50",
"(V 	c #5F533B",
"_V 	c #4E4930",
":V 	c #515337",
"<V 	c #47402A",
"[V 	c #4F4A32",
"}V 	c #555137",
"|V 	c #5D543B",
"1V 	c #625A3F",
"2V 	c #564D35",
"3V 	c #786B4E",
"4V 	c #75684D",
"5V 	c #665942",
"6V 	c #655A42",
"7V 	c #70654B",
"8V 	c #61563E",
"9V 	c #5F553D",
"0V 	c #5B513B",
"aV 	c #6D6148",
"bV 	c #60543D",
"cV 	c #685C42",
"dV 	c #5B4F37",
"eV 	c #696045",
"fV 	c #6C6549",
"gV 	c #73664B",
"hV 	c #74674D",
"iV 	c #76684D",
"jV 	c #796B51",
"kV 	c #706249",
"lV 	c #6D5D45",
"mV 	c #534227",
"nV 	c #6B5B4C",
"oV 	c #675546",
"pV 	c #766352",
"qV 	c #796856",
"rV 	c #7B6A58",
"sV 	c #827262",
"tV 	c #695849",
"uV 	c #695848",
"vV 	c #4D3E30",
"wV 	c #544A3A",
"xV 	c #4D4434",
"yV 	c #4C4533",
"zV 	c #5C5D45",
"AV 	c #564E3B",
"BV 	c #6B5F4D",
"CV 	c #796957",
"DV 	c #4D4334",
"EV 	c #54523F",
"FV 	c #4C4734",
"GV 	c #4F4C39",
"HV 	c #453D2C",
"IV 	c #5D532C",
"JV 	c #505B32",
"KV 	c #595532",
"LV 	c #796F45",
"MV 	c #5F5E36",
"NV 	c #676039",
"OV 	c #72603C",
"PV 	c #846C47",
"QV 	c #866C47",
"RV 	c #755C3B",
"SV 	c #886C46",
"TV 	c #81653F",
"UV 	c #7D633D",
"VV 	c #785D39",
"WV 	c #7D623D",
"XV 	c #7C6540",
"YV 	c #826B45",
"ZV 	c #745C3A",
"`V 	c #7D6340",
" W 	c #7C6340",
".W 	c #7B6541",
"+W 	c #595731",
"@W 	c #71613B",
"#W 	c #6E5836",
"$W 	c #755A39",
"%W 	c #806541",
"&W 	c #826842",
"*W 	c #7C633F",
"=W 	c #876C47",
"-W 	c #8D744E",
";W 	c #48331A",
">W 	c #4C3E14",
",W 	c #605329",
"'W 	c #7E6E41",
")W 	c #706037",
"!W 	c #665730",
"~W 	c #584D28",
"{W 	c #666033",
"]W 	c #474723",
"^W 	c #525229",
"/W 	c #655D30",
"(W 	c #514E27",
"_W 	c #515129",
":W 	c #3D441F",
"<W 	c #435629",
"[W 	c #4A612F",
"}W 	c #414322",
"|W 	c #4C4D27",
"1W 	c #736F3B",
"2W 	c #6B6536",
"3W 	c #6F6737",
"4W 	c #7F6F3E",
"5W 	c #78693A",
"6W 	c #736638",
"7W 	c #706437",
"8W 	c #716436",
"9W 	c #756737",
"0W 	c #816F40",
"aW 	c #68562E",
"bW 	c #68572D",
"cW 	c #7B6A3C",
"dW 	c #806F40",
"eW 	c #877547",
"fW 	c #7C6B40",
"gW 	c #46351D",
"hW 	c #6F6148",
"iW 	c #7A6B50",
"jW 	c #675940",
"kW 	c #62553D",
"lW 	c #433A24",
"mW 	c #424029",
"nW 	c #475133",
"oW 	c #4E5338",
"pW 	c #514C33",
"qW 	c #5A5339",
"rW 	c #686145",
"sW 	c #686144",
"tW 	c #796A4F",
"uW 	c #77684D",
"vW 	c #6A5F46",
"wW 	c #5F533C",
"xW 	c #544833",
"yW 	c #6F664C",
"zW 	c #695A43",
"AW 	c #60533B",
"BW 	c #6A5D44",
"CW 	c #6C6046",
"DW 	c #73694D",
"EW 	c #74674B",
"FW 	c #7B6D51",
"GW 	c #817357",
"HW 	c #7C6D52",
"IW 	c #6F5F47",
"JW 	c #554429",
"KW 	c #7C6B5C",
"LW 	c #7B6B5A",
"MW 	c #6F5D4D",
"NW 	c #716252",
"OW 	c #544637",
"PW 	c #4F4333",
"QW 	c #65644D",
"RW 	c #776755",
"SW 	c #766655",
"TW 	c #7A6A59",
"UW 	c #54543E",
"VW 	c #5F5B48",
"WW 	c #656450",
"XW 	c #534B3A",
"YW 	c #594D2A",
"ZW 	c #525F35",
"`W 	c #4A512C",
" X 	c #5D6338",
".X 	c #49512B",
"+X 	c #616238",
"@X 	c #7A6A42",
"#X 	c #7F6743",
"$X 	c #685031",
"%X 	c #7B623E",
"&X 	c #7E6540",
"*X 	c #745B3A",
"=X 	c #79603E",
"-X 	c #705A38",
";X 	c #826B46",
">X 	c #78603F",
",X 	c #765D3B",
"'X 	c #7A603D",
")X 	c #6E5737",
"!X 	c #776740",
"~X 	c #73613C",
"{X 	c #7B6740",
"]X 	c #6C5A36",
"^X 	c #7A613C",
"/X 	c #715635",
"(X 	c #82653F",
"_X 	c #7E6440",
":X 	c #7F6842",
"<X 	c #6E5A37",
"[X 	c #7E6442",
"}X 	c #886E4A",
"|X 	c #644D2F",
"1X 	c #4A3C15",
"2X 	c #6A5C32",
"3X 	c #5B4D24",
"4X 	c #736439",
"5X 	c #746738",
"6X 	c #6B5E33",
"7X 	c #59532A",
"8X 	c #57542A",
"9X 	c #545C2F",
"0X 	c #485A2D",
"aX 	c #55552A",
"bX 	c #4D4823",
"cX 	c #37411C",
"dX 	c #39451F",
"eX 	c #415827",
"fX 	c #4D6831",
"gX 	c #3F4D25",
"hX 	c #425527",
"iX 	c #555B30",
"jX 	c #7B7A43",
"kX 	c #77703E",
"lX 	c #7D6E3E",
"mX 	c #736637",
"nX 	c #776C3A",
"oX 	c #726134",
"pX 	c #827142",
"qX 	c #827041",
"rX 	c #726135",
"sX 	c #806F3D",
"tX 	c #837242",
"uX 	c #806E40",
"vX 	c #867545",
"wX 	c #8C7B4B",
"xX 	c #75623A",
"yX 	c #45351C",
"zX 	c #75684F",
"AX 	c #73644B",
"BX 	c #544D35",
"CX 	c #515B3D",
"DX 	c #40442B",
"EX 	c #535D3F",
"FX 	c #4C5437",
"GX 	c #586042",
"HX 	c #59543B",
"IX 	c #63573E",
"JX 	c #726549",
"KX 	c #60553E",
"LX 	c #675B43",
"MX 	c #5E523B",
"NX 	c #5D513A",
"OX 	c #70644A",
"PX 	c #5E543D",
"QX 	c #6C5F46",
"RX 	c #6A5D45",
"SX 	c #6A5C44",
"TX 	c #665940",
"UX 	c #73674C",
"VX 	c #817358",
"WX 	c #807257",
"XX 	c #7E6F54",
"YX 	c #807256",
"ZX 	c #86785D",
"`X 	c #6C5C45",
" Y 	c #45351F",
".Y 	c #615041",
"+Y 	c #766554",
"@Y 	c #594F40",
"#Y 	c #6F5E4F",
"$Y 	c #554738",
"%Y 	c #54513C",
"&Y 	c #554C3C",
"*Y 	c #585542",
"=Y 	c #4E4636",
"-Y 	c #4B4936",
";Y 	c #524D3D",
">Y 	c #5A4D2A",
",Y 	c #62673D",
"'Y 	c #4C572E",
")Y 	c #585B33",
"!Y 	c #424A25",
"~Y 	c #665F39",
"{Y 	c #7B6943",
"]Y 	c #8A724C",
"^Y 	c #6E5939",
"/Y 	c #7A5F3E",
"(Y 	c #735A3A",
"_Y 	c #6A5232",
":Y 	c #725836",
"<Y 	c #7C623D",
"[Y 	c #79633D",
"}Y 	c #816842",
"|Y 	c #6A5334",
"1Y 	c #826A44",
"2Y 	c #785F3D",
"3Y 	c #715A38",
"4Y 	c #7D6542",
"5Y 	c #7B6340",
"6Y 	c #77633E",
"7Y 	c #705938",
"8Y 	c #7D6642",
"9Y 	c #74603B",
"0Y 	c #806942",
"aY 	c #775F3C",
"bY 	c #866E48",
"cY 	c #876E48",
"dY 	c #886D48",
"eY 	c #806643",
"fY 	c #7C6441",
"gY 	c #725939",
"hY 	c #453516",
"iY 	c #7D6D3F",
"jY 	c #61532C",
"kY 	c #716535",
"lY 	c #6D6638",
"mY 	c #686535",
"nY 	c #444723",
"oY 	c #51512A",
"pY 	c #465329",
"qY 	c #6E6D3A",
"rY 	c #525129",
"sY 	c #3E4C23",
"tY 	c #445929",
"uY 	c #4F6C31",
"vY 	c #4F7031",
"wY 	c #567837",
"xY 	c #3F5125",
"yY 	c #394520",
"zY 	c #48562C",
"AY 	c #6C6939",
"BY 	c #7A6F3D",
"CY 	c #746739",
"DY 	c #796B3B",
"EY 	c #7B6F3D",
"FY 	c #675C2F",
"GY 	c #827241",
"HY 	c #7E6E3E",
"IY 	c #756637",
"JY 	c #736238",
"KY 	c #705F35",
"LY 	c #7A683B",
"MY 	c #7E6C3E",
"NY 	c #7B6A3E",
"OY 	c #8D7D4C",
"PY 	c #7A673E",
"QY 	c #45351D",
"RY 	c #73654C",
"SY 	c #76694F",
"TY 	c #62553E",
"UY 	c #5D543C",
"VY 	c #505439",
"WY 	c #50573A",
"XY 	c #4B5035",
"YY 	c #41442B",
"ZY 	c #4D5036",
"`Y 	c #5F5C41",
" Z 	c #706147",
".Z 	c #71644B",
"+Z 	c #554934",
"@Z 	c #665A41",
"#Z 	c #675B42",
"$Z 	c #655840",
"%Z 	c #75674C",
"&Z 	c #7A6C50",
"*Z 	c #827459",
"=Z 	c #786A50",
"-Z 	c #7A6D53",
";Z 	c #7E6F55",
">Z 	c #675740",
",Z 	c #47371D",
"'Z 	c #796756",
")Z 	c #5D4F41",
"!Z 	c #595042",
"~Z 	c #514739",
"{Z 	c #5C4F41",
"]Z 	c #6A5A4A",
"^Z 	c #534435",
"/Z 	c #746452",
"(Z 	c #7F6F5E",
"_Z 	c #817161",
":Z 	c #7C6E5E",
"<Z 	c #4B4535",
"[Z 	c #5A5644",
"}Z 	c #605B4B",
"|Z 	c #574F3F",
"1Z 	c #5E4F2C",
"2Z 	c #84744D",
"3Z 	c #4C522C",
"4Z 	c #49532B",
"5Z 	c #546536",
"6Z 	c #776841",
"7Z 	c #6A5737",
"8Z 	c #6A5736",
"9Z 	c #79613E",
"0Z 	c #674F31",
"aZ 	c #7F6741",
"bZ 	c #6E5B37",
"cZ 	c #7A653D",
"dZ 	c #79603A",
"eZ 	c #775E39",
"fZ 	c #775D39",
"gZ 	c #7E6640",
"hZ 	c #79613C",
"iZ 	c #7C613E",
"jZ 	c #7E643F",
"kZ 	c #816843",
"lZ 	c #79623F",
"mZ 	c #79633F",
"nZ 	c #78623D",
"oZ 	c #7D6842",
"pZ 	c #725B3A",
"qZ 	c #745E3B",
"rZ 	c #715C3A",
"sZ 	c #705C39",
"tZ 	c #755C3A",
"uZ 	c #785F3C",
"vZ 	c #655132",
"wZ 	c #76613D",
"xZ 	c #6D5736",
"yZ 	c #745B39",
"zZ 	c #7C6240",
"AZ 	c #846A45",
"BZ 	c #816744",
"CZ 	c #856A46",
"DZ 	c #8A704B",
"EZ 	c #463518",
"FZ 	c #6A5C33",
"GZ 	c #766639",
"HZ 	c #594C25",
"IZ 	c #635B31",
"JZ 	c #696436",
"KZ 	c #59542C",
"LZ 	c #5E6536",
"MZ 	c #454120",
"NZ 	c #4C532B",
"OZ 	c #517134",
"PZ 	c #455C2A",
"QZ 	c #415528",
"RZ 	c #4E6E31",
"SZ 	c #537636",
"TZ 	c #537437",
"UZ 	c #4A5D2E",
"VZ 	c #566333",
"WZ 	c #50552C",
"XZ 	c #736C3A",
"YZ 	c #726939",
"ZZ 	c #79713E",
"`Z 	c #756B39",
" ` 	c #716536",
".` 	c #7A6B3B",
"+` 	c #6F5F34",
"@` 	c #7F6F40",
"#` 	c #78673C",
"$` 	c #6C5B33",
"%` 	c #716035",
"&` 	c #776538",
"*` 	c #82703F",
"=` 	c #867544",
"-` 	c #897848",
";` 	c #827144",
">` 	c #44341B",
",` 	c #77694F",
"'` 	c #62543E",
")` 	c #4A3F2A",
"!` 	c #5B563D",
"~` 	c #46442D",
"{` 	c #495E3A",
"]` 	c #485B38",
"^` 	c #596444",
"/` 	c #6B6448",
"(` 	c #675A41",
"_` 	c #796B4F",
":` 	c #716349",
"<` 	c #766A4F",
"[` 	c #61533C",
"}` 	c #5D5038",
"|` 	c #65573E",
"1` 	c #6B5E45",
"2` 	c #7A6B51",
"3` 	c #827359",
"4` 	c #7C6E54",
"5` 	c #807157",
"6` 	c #655647",
"7` 	c #594C3F",
"8` 	c #56493B",
"9` 	c #5C5143",
"0` 	c #5F5143",
"a` 	c #5E4E3F",
"b` 	c #847463",
"c` 	c #5B5142",
"d` 	c #706657",
"e` 	c #736658",
"f` 	c #554724",
"g` 	c #7D6846",
"h` 	c #716A42",
"i` 	c #536736",
"j` 	c #4A592D",
"k` 	c #4F572F",
"l` 	c #4F542D",
"m` 	c #524A29",
"n` 	c #695834",
"o` 	c #6C5735",
"p` 	c #695133",
"q` 	c #6F5937",
"r` 	c #79653F",
"s` 	c #6B5836",
"t` 	c #79663E",
"u` 	c #7C6B42",
"v` 	c #705D39",
"w` 	c #7A623C",
"x` 	c #79623C",
"y` 	c #7D6640",
"z` 	c #806641",
"A` 	c #806642",
"B` 	c #7D6641",
"C` 	c #6F5939",
"D` 	c #6B5736",
"E` 	c #74633C",
"F` 	c #7B6942",
"G` 	c #796441",
"H` 	c #7B6741",
"I` 	c #7E6943",
"J` 	c #73603C",
"K` 	c #836C45",
"L` 	c #7D6441",
"M` 	c #675031",
"N` 	c #765D3A",
"O` 	c #7D6240",
"P` 	c #816844",
"Q` 	c #7A6643",
"R` 	c #635031",
"S` 	c #443417",
"T` 	c #76683D",
"U` 	c #75683A",
"V` 	c #786A3C",
"W` 	c #6A5F34",
"X` 	c #605A2D",
"Y` 	c #676335",
"Z` 	c #665F33",
"`` 	c #5E5D31",
"  .	c #49562B",
". .	c #404B26",
"+ .	c #4C6531",
"@ .	c #3F4F25",
"# .	c #3B4A22",
"$ .	c #517236",
"% .	c #537638",
"& .	c #4A652F",
"* .	c #4D5F30",
"= .	c #4E582D",
"- .	c #4C542C",
"; .	c #605C31",
"> .	c #726D3A",
", .	c #776E3D",
"' .	c #626234",
") .	c #76733F",
"! .	c #6F6537",
"~ .	c #6E6236",
"{ .	c #6F6338",
"] .	c #716133",
"^ .	c #7C6C3B",
"/ .	c #7F7040",
"( .	c #807040",
"_ .	c #706036",
": .	c #7D6B3E",
"< .	c #756338",
"[ .	c #7C6B3E",
"} .	c #7D6C3E",
"| .	c #816F41",
"1 .	c #857445",
"2 .	c #7C6940",
"3 .	c #433217",
"4 .	c #72644B",
"5 .	c #776A50",
"6 .	c #6E6146",
"7 .	c #615840",
"8 .	c #4E4B34",
"9 .	c #504F37",
"0 .	c #464A30",
"a .	c #484D32",
"b .	c #454F33",
"c .	c #475839",
"d .	c #51583B",
"e .	c #776B4F",
"f .	c #675941",
"g .	c #75674E",
"h .	c #675A42",
"i .	c #76694E",
"j .	c #63553E",
"k .	c #62543C",
"l .	c #544732",
"m .	c #6A5C43",
"n .	c #7F7157",
"o .	c #6E6048",
"p .	c #7D6F55",
"q .	c #807258",
"r .	c #5A4932",
"s .	c #46361B",
"t .	c #5F5446",
"u .	c #4F4335",
"v .	c #5A4C3D",
"w .	c #504536",
"x .	c #5D4D3A",
"y .	c #6B5739",
"z .	c #766B44",
"A .	c #585430",
"B .	c #59522E",
"C .	c #464B27",
"D .	c #495D2D",
"E .	c #3C4A20",
"F .	c #4A4824",
"G .	c #6F5C38",
"H .	c #765E3B",
"I .	c #604C2E",
"J .	c #706039",
"K .	c #6A5C37",
"L .	c #584D2B",
"M .	c #645833",
"N .	c #7D7146",
"O .	c #75683F",
"P .	c #7D6840",
"Q .	c #7F643E",
"R .	c #7D653F",
"S .	c #7C6741",
"T .	c #816B44",
"U .	c #7D643F",
"V .	c #806842",
"W .	c #7D6741",
"X .	c #6A5434",
"Y .	c #77603C",
"Z .	c #79633E",
"` .	c #725E3B",
" ..	c #796B42",
"...	c #74663F",
"+..	c #70623D",
"@..	c #695334",
"#..	c #6D5635",
"$..	c #705736",
"%..	c #856943",
"&..	c #826C46",
"*..	c #756A42",
"=..	c #6A5B37",
"-..	c #3C2E11",
";..	c #594B26",
">..	c #706538",
",..	c #7B6E3E",
"'..	c #726639",
")..	c #655C31",
"!..	c #504D27",
"~..	c #484924",
"{..	c #4C4823",
"]..	c #656336",
"^..	c #52572F",
"/..	c #46572C",
"(..	c #404F26",
"_..	c #3B4822",
":..	c #445B2C",
"<..	c #55773B",
"[..	c #4D6933",
"}..	c #577A3E",
"|..	c #455A2B",
"1..	c #46582C",
"2..	c #52572D",
"3..	c #5A6736",
"4..	c #59592E",
"5..	c #57532C",
"6..	c #5E6035",
"7..	c #73683A",
"8..	c #65592F",
"9..	c #675E32",
"0..	c #786B3B",
"a..	c #5F562C",
"b..	c #62552C",
"c..	c #6B5E32",
"d..	c #77683A",
"e..	c #7E6E3F",
"f..	c #736338",
"g..	c #75643A",
"h..	c #736137",
"i..	c #897747",
"j..	c #837143",
"k..	c #8B7A49",
"l..	c #362811",
"m..	c #685A42",
"n..	c #5D4F3A",
"o..	c #655942",
"p..	c #5D503A",
"q..	c #59543C",
"r..	c #464E32",
"s..	c #3F482D",
"t..	c #41462D",
"u..	c #515036",
"v..	c #546142",
"w..	c #505339",
"x..	c #4C4A32",
"y..	c #6F6549",
"z..	c #64583F",
"A..	c #70624A",
"B..	c #6A5C45",
"C..	c #62543D",
"D..	c #63553D",
"E..	c #6D5E45",
"F..	c #78694F",
"G..	c #74674E",
"H..	c #786A51",
"I..	c #7A6D52",
"J..	c #796B52",
"K..	c #7E7056",
"L..	c #5D4D36",
"M..	c #503F23",
"N..	c #635446",
"O..	c #574A3D",
"P..	c #54493B",
"Q..	c #6D5F51",
"R..	c #7C6A5A",
"S..	c #7F6D5D",
"T..	c #5F503A",
"U..	c #5F512C",
"V..	c #7D6947",
"W..	c #83704C",
"X..	c #7B6A45",
"Y..	c #675B37",
"Z..	c #5F5A34",
"`..	c #485C2B",
" +.	c #49622B",
".+.	c #414721",
"++.	c #696138",
"@+.	c #705A37",
"#+.	c #5E4A2C",
"$+.	c #6C6038",
"%+.	c #524928",
"&+.	c #53512B",
"*+.	c #615A33",
"=+.	c #484524",
"-+.	c #4F4E29",
";+.	c #5D4F2E",
">+.	c #645331",
",+.	c #7A643E",
"'+.	c #826943",
")+.	c #7E6A42",
"!+.	c #7E6843",
"~+.	c #7E6743",
"{+.	c #836B45",
"]+.	c #846A46",
"^+.	c #7A633D",
"/+.	c #6F5E39",
"(+.	c #74653E",
"_+.	c #6E5D3A",
":+.	c #71623C",
"<+.	c #796A43",
"[+.	c #715F3C",
"}+.	c #74613E",
"|+.	c #7C6140",
"1+.	c #7C623E",
"2+.	c #7B603E",
"3+.	c #77643F",
"4+.	c #5C4B2C",
"5+.	c #493B12",
"6+.	c #564E24",
"7+.	c #756A3C",
"8+.	c #615830",
"9+.	c #58552C",
"0+.	c #3D4E24",
"a+.	c #435227",
"b+.	c #5D6235",
"c+.	c #4A4A24",
"d+.	c #454D27",
"e+.	c #43562A",
"f+.	c #3E5025",
"g+.	c #425629",
"h+.	c #3D4A23",
"i+.	c #4A6231",
"j+.	c #3D4E26",
"k+.	c #415327",
"l+.	c #3E4622",
"m+.	c #596335",
"n+.	c #596A39",
"o+.	c #45592C",
"p+.	c #3F4C24",
"q+.	c #464F27",
"r+.	c #676636",
"s+.	c #60572E",
"t+.	c #554D26",
"u+.	c #706D39",
"v+.	c #726A3A",
"w+.	c #5D592E",
"x+.	c #756A39",
"y+.	c #77693A",
"z+.	c #77663B",
"A+.	c #726137",
"B+.	c #6F5E35",
"C+.	c #705E35",
"D+.	c #7A6838",
"E+.	c #766436",
"F+.	c #756239",
"G+.	c #47361B",
"H+.	c #807358",
"I+.	c #5D4E35",
"J+.	c #534C35",
"K+.	c #43452D",
"L+.	c #333C22",
"M+.	c #474E33",
"N+.	c #504E35",
"O+.	c #56553B",
"P+.	c #5A5D41",
"Q+.	c #615B41",
"R+.	c #675942",
"S+.	c #655740",
"T+.	c #7E7156",
"U+.	c #84765D",
"V+.	c #524128",
"W+.	c #736253",
"X+.	c #6A594A",
"Y+.	c #5F4E40",
"Z+.	c #54483A",
"`+.	c #807060",
" @.	c #655730",
".@.	c #826D4B",
"+@.	c #86714E",
"@@.	c #857A51",
"#@.	c #6E5D3B",
"$@.	c #766F44",
"%@.	c #455328",
"&@.	c #527131",
"*@.	c #424923",
"=@.	c #5B522C",
"-@.	c #73603B",
";@.	c #71643C",
">@.	c #6D623A",
",@.	c #6B6139",
"'@.	c #615732",
")@.	c #424A24",
"!@.	c #464C25",
"~@.	c #434522",
"{@.	c #504A27",
"]@.	c #665D34",
"^@.	c #6A5A35",
"/@.	c #76683F",
"(@.	c #72653D",
"_@.	c #6F5C39",
":@.	c #6C5837",
"<@.	c #806845",
"[@.	c #76603E",
"}@.	c #7C6641",
"|@.	c #7C6642",
"1@.	c #725F3C",
"2@.	c #746740",
"3@.	c #655A35",
"4@.	c #5E4F2F",
"5@.	c #645533",
"6@.	c #6B5A37",
"7@.	c #6C5636",
"8@.	c #856946",
"9@.	c #7A603F",
"0@.	c #7C6440",
"a@.	c #7C6D44",
"b@.	c #6D633D",
"c@.	c #655F37",
"d@.	c #4D3F16",
"e@.	c #594E26",
"f@.	c #6C6037",
"g@.	c #685C34",
"h@.	c #6A6035",
"i@.	c #6B6B3A",
"j@.	c #47572C",
"k@.	c #3E5226",
"l@.	c #495327",
"m@.	c #475029",
"n@.	c #4F582E",
"o@.	c #37451F",
"p@.	c #415328",
"q@.	c #4A6432",
"r@.	c #4D6835",
"s@.	c #445029",
"t@.	c #5E6738",
"u@.	c #606034",
"v@.	c #4A4D27",
"w@.	c #496331",
"x@.	c #3C4A23",
"y@.	c #405226",
"z@.	c #3E4C24",
"A@.	c #36411D",
"B@.	c #3F4821",
"C@.	c #4C4F27",
"D@.	c #524D27",
"E@.	c #4F4B26",
"F@.	c #626033",
"G@.	c #635E31",
"H@.	c #7C6D3C",
"I@.	c #716137",
"J@.	c #78683C",
"K@.	c #3F2F17",
"L@.	c #786B51",
"M@.	c #685A43",
"N@.	c #6F6149",
"O@.	c #655841",
"P@.	c #675A43",
"Q@.	c #61533D",
"R@.	c #544A33",
"S@.	c #58583D",
"T@.	c #514D35",
"U@.	c #545138",
"V@.	c #595A40",
"W@.	c #5E5B40",
"X@.	c #71684D",
"Y@.	c #6E6047",
"Z@.	c #6C5E46",
"`@.	c #7C6F55",
" #.	c #6F6249",
".#.	c #645740",
"+#.	c #7D6E55",
"@#.	c #82745A",
"##.	c #86785E",
"$#.	c #74664E",
"%#.	c #776A51",
"&#.	c #64543E",
"*#.	c #463622",
"=#.	c #685D4F",
"-#.	c #584D3F",
";#.	c #4A4233",
">#.	c #645344",
",#.	c #645343",
"'#.	c #5C4D38",
")#.	c #665933",
"!#.	c #937957",
"~#.	c #907855",
"{#.	c #7D6948",
"]#.	c #806C48",
"^#.	c #625433",
"/#.	c #4A552B",
"(#.	c #4C652E",
"_#.	c #4D552D",
":#.	c #5E5532",
"<#.	c #685A36",
"[#.	c #6B683D",
"}#.	c #675D37",
"|#.	c #665734",
"1#.	c #645E35",
"2#.	c #4D4B26",
"3#.	c #46592A",
"4#.	c #444A24",
"5#.	c #495529",
"6#.	c #504927",
"7#.	c #73653C",
"8#.	c #6F683F",
"9#.	c #817148",
"0#.	c #7A633E",
"a#.	c #7E6742",
"b#.	c #816E47",
"c#.	c #756B43",
"d#.	c #655E37",
"e#.	c #74683F",
"f#.	c #7B6B43",
"g#.	c #70603C",
"h#.	c #786B42",
"i#.	c #615B33",
"j#.	c #615A32",
"k#.	c #635C34",
"l#.	c #7C6942",
"m#.	c #7F6442",
"n#.	c #846946",
"o#.	c #685033",
"p#.	c #6C5334",
"q#.	c #816643",
"r#.	c #7F6943",
"s#.	c #786741",
"t#.	c #776A43",
"u#.	c #6C5F3A",
"v#.	c #443612",
"w#.	c #5D522A",
"x#.	c #675C34",
"y#.	c #6C6237",
"z#.	c #6D6537",
"A#.	c #746E3D",
"B#.	c #5A5C32",
"C#.	c #3C4822",
"D#.	c #494D28",
"E#.	c #435429",
"F#.	c #506233",
"G#.	c #42572A",
"H#.	c #4B532B",
"I#.	c #405429",
"J#.	c #3F5428",
"K#.	c #53733C",
"L#.	c #4C6433",
"M#.	c #3C4421",
"N#.	c #4E4F2A",
"O#.	c #414D26",
"P#.	c #4A6832",
"Q#.	c #47592C",
"R#.	c #44562A",
"S#.	c #4A522A",
"T#.	c #313C1A",
"U#.	c #3F4C22",
"V#.	c #464A23",
"W#.	c #3F4320",
"X#.	c #56562B",
"Y#.	c #626333",
"Z#.	c #5E5B30",
"`#.	c #6F6636",
" $.	c #726736",
".$.	c #6C5F34",
"+$.	c #766439",
"@$.	c #65542D",
"#$.	c #847343",
"$$.	c #887647",
"%$.	c #7D6C40",
"&$.	c #746138",
"*$.	c #3E2E17",
"=$.	c #766A50",
"-$.	c #7B6E54",
";$.	c #74664D",
">$.	c #63563F",
",$.	c #6F624A",
"'$.	c #60533D",
")$.	c #615940",
"!$.	c #554A33",
"~$.	c #60573F",
"{$.	c #72654B",
"]$.	c #776A4F",
"^$.	c #7C6F54",
"/$.	c #7E7157",
"($.	c #6D6048",
"_$.	c #64563F",
":$.	c #584C36",
"<$.	c #61553E",
"[$.	c #72644C",
"}$.	c #786B52",
"|$.	c #776951",
"1$.	c #6A5D46",
"2$.	c #685942",
"3$.	c #806F5E",
"4$.	c #6D5E4E",
"5$.	c #6C5F51",
"6$.	c #67574A",
"7$.	c #736254",
"8$.	c #625542",
"9$.	c #564929",
"0$.	c #957A58",
"a$.	c #8B7251",
"b$.	c #6B573A",
"c$.	c #614D31",
"d$.	c #594E2D",
"e$.	c #4C562C",
"f$.	c #557833",
"g$.	c #5E5A34",
"h$.	c #625A33",
"i$.	c #655833",
"j$.	c #705B38",
"k$.	c #7D6942",
"l$.	c #74633D",
"m$.	c #4B4223",
"n$.	c #50522A",
"o$.	c #3C4821",
"p$.	c #445927",
"q$.	c #4A542B",
"r$.	c #615631",
"s$.	c #73683E",
"t$.	c #685A37",
"u$.	c #796740",
"v$.	c #685F39",
"w$.	c #5A5531",
"x$.	c #5D5A34",
"y$.	c #6F683E",
"z$.	c #666038",
"A$.	c #57502D",
"B$.	c #666339",
"C$.	c #5C5530",
"D$.	c #635A34",
"E$.	c #70693F",
"F$.	c #806A45",
"G$.	c #7C6241",
"H$.	c #846945",
"I$.	c #836744",
"J$.	c #866A48",
"K$.	c #745B3B",
"L$.	c #6A5234",
"M$.	c #6B5132",
"N$.	c #7D6541",
"O$.	c #806945",
"P$.	c #423315",
"Q$.	c #796C3E",
"R$.	c #756B3C",
"S$.	c #7E6F40",
"T$.	c #46552A",
"U$.	c #404B25",
"V$.	c #4A5A2D",
"W$.	c #515A2F",
"X$.	c #414E26",
"Y$.	c #34401D",
"Z$.	c #3F5127",
"`$.	c #3F4822",
" %.	c #4D6030",
".%.	c #424D25",
"+%.	c #414420",
"@%.	c #565129",
"#%.	c #5B592E",
"$%.	c #515A2E",
"%%.	c #3E4921",
"&%.	c #57592D",
"*%.	c #5F5F30",
"=%.	c #5B582C",
"-%.	c #42441F",
";%.	c #636031",
">%.	c #60572C",
",%.	c #695E30",
"'%.	c #6C6031",
")%.	c #726536",
"!%.	c #736437",
"~%.	c #756339",
"{%.	c #6D5C32",
"]%.	c #756439",
"^%.	c #867445",
"/%.	c #746139",
"(%.	c #3F2F18",
"_%.	c #5F5039",
":%.	c #6B5D45",
"<%.	c #4D422D",
"[%.	c #534A33",
"}%.	c #75694D",
"|%.	c #796C52",
"1%.	c #7B6D53",
"2%.	c #776950",
"3%.	c #685B44",
"4%.	c #675A44",
"5%.	c #71634B",
"6%.	c #6A5E46",
"7%.	c #5B4E39",
"8%.	c #594F38",
"9%.	c #4F442F",
"0%.	c #62563E",
"a%.	c #796A51",
"b%.	c #71614A",
"c%.	c #44341E",
"d%.	c #63584A",
"e%.	c #4A4133",
"f%.	c #5D5445",
"g%.	c #837567",
"h%.	c #756456",
"i%.	c #5F522F",
"j%.	c #826A4B",
"k%.	c #7F6546",
"l%.	c #776140",
"m%.	c #7D6742",
"n%.	c #786942",
"o%.	c #6D653C",
"p%.	c #404E26",
"q%.	c #465A2D",
"r%.	c #474E28",
"s%.	c #504B28",
"t%.	c #534C2A",
"u%.	c #665733",
"v%.	c #79673F",
"w%.	c #76643F",
"x%.	c #594A2B",
"y%.	c #4A4625",
"z%.	c #565F31",
"A%.	c #404A24",
"B%.	c #435328",
"C%.	c #58502C",
"D%.	c #72653C",
"E%.	c #70643C",
"F%.	c #7A6841",
"G%.	c #6D643B",
"H%.	c #4A4B28",
"I%.	c #494D27",
"J%.	c #4E552D",
"K%.	c #575530",
"L%.	c #6F6A3F",
"M%.	c #6B633B",
"N%.	c #6D613A",
"O%.	c #786640",
"P%.	c #7E6C45",
"Q%.	c #72593A",
"R%.	c #7F6542",
"S%.	c #806644",
"T%.	c #7D6241",
"U%.	c #745A3A",
"V%.	c #745A38",
"W%.	c #775D3A",
"X%.	c #695031",
"Y%.	c #745836",
"Z%.	c #7C6341",
"`%.	c #6C5535",
" &.	c #3F3010",
".&.	c #6B5C2E",
"+&.	c #756639",
"@&.	c #706337",
"#&.	c #807142",
"$&.	c #7C7844",
"%&.	c #787141",
"&&.	c #746E3E",
"*&.	c #6F6E3E",
"=&.	c #494A26",
"-&.	c #3F4B25",
";&.	c #475129",
">&.	c #404722",
",&.	c #5F6132",
"'&.	c #686936",
")&.	c #434A22",
"!&.	c #494D25",
"~&.	c #504D26",
"{&.	c #6C6837",
"]&.	c #766F3B",
"^&.	c #695F32",
"/&.	c #625C2D",
"(&.	c #686633",
"_&.	c #5C592D",
":&.	c #5C582D",
"<&.	c #6A6634",
"[&.	c #5E572A",
"}&.	c #585127",
"|&.	c #6B5F30",
"1&.	c #7D6D3C",
"2&.	c #685A30",
"3&.	c #6C5B32",
"4&.	c #726236",
"5&.	c #6C5B30",
"6&.	c #77663A",
"7&.	c #413018",
"8&.	c #554832",
"9&.	c #685F44",
"0&.	c #5D5239",
"a&.	c #6A5E45",
"b&.	c #73664D",
"c&.	c #71634A",
"d&.	c #7A6C53",
"e&.	c #6C5F47",
"f&.	c #6B5E46",
"g&.	c #74694F",
"h&.	c #5A4D38",
"i&.	c #5A4E38",
"j&.	c #58533B",
"k&.	c #4E4631",
"l&.	c #635A42",
"m&.	c #7B6D54",
"n&.	c #7F7258",
"o&.	c #7C6F56",
"p&.	c #4E3E24",
"q&.	c #716052",
"r&.	c #7A695A",
"s&.	c #716051",
"t&.	c #50493B",
"u&.	c #796B5C",
"v&.	c #7B6E5F",
"w&.	c #675A4C",
"x&.	c #6E5D4F",
"y&.	c #5C4D2C",
"z&.	c #806948",
"A&.	c #6D5B37",
"B&.	c #876D4B",
"C&.	c #8B734E",
"D&.	c #786040",
"E&.	c #6D5E3A",
"F&.	c #555730",
"G&.	c #4C6232",
"H&.	c #56532D",
"I&.	c #605331",
"J&.	c #77653E",
"K&.	c #75653E",
"L&.	c #6F603A",
"M&.	c #615230",
"N&.	c #73643C",
"O&.	c #645A35",
"P&.	c #5A502E",
"Q&.	c #4E502A",
"R&.	c #494F27",
"S&.	c #4D4726",
"T&.	c #5E5832",
"U&.	c #6A6037",
"V&.	c #7A6B41",
"W&.	c #816F46",
"X&.	c #6D603A",
"Y&.	c #55532E",
"Z&.	c #54542E",
"`&.	c #5F5F35",
" *.	c #73673E",
".*.	c #76673F",
"+*.	c #7D6844",
"@*.	c #836B47",
"#*.	c #7F6642",
"$*.	c #896E4A",
"%*.	c #856B47",
"&*.	c #806744",
"**.	c #6D5537",
"=*.	c #775E3C",
"-*.	c #6B5531",
";*.	c #6E5932",
">*.	c #765E3D",
",*.	c #403113",
"'*.	c #7E7040",
")*.	c #75673B",
"!*.	c #685932",
"~*.	c #726839",
"{*.	c #5D542B",
"]*.	c #5F542D",
"^*.	c #6F663A",
"/*.	c #6C6839",
"(*.	c #49532A",
"_*.	c #475329",
":*.	c #536232",
"<*.	c #595129",
"[*.	c #726B38",
"}*.	c #6B6032",
"|*.	c #494A23",
"1*.	c #54582C",
"2*.	c #636232",
"3*.	c #6D6033",
"4*.	c #6C6132",
"5*.	c #746936",
"6*.	c #776B38",
"7*.	c #726A37",
"8*.	c #766D3A",
"9*.	c #726D39",
"0*.	c #746736",
"a*.	c #6E6132",
"b*.	c #726534",
"c*.	c #6E5F33",
"d*.	c #776738",
"e*.	c #6F5F35",
"f*.	c #726136",
"g*.	c #62512B",
"h*.	c #857345",
"i*.	c #6B5D46",
"j*.	c #71644C",
"k*.	c #645741",
"l*.	c #544731",
"m*.	c #5E5239",
"n*.	c #665A40",
"o*.	c #74684E",
"p*.	c #6E6148",
"q*.	c #655842",
"r*.	c #4E4530",
"s*.	c #554A35",
"t*.	c #56533B",
"u*.	c #564F38",
"v*.	c #6B6349",
"w*.	c #6B6047",
"x*.	c #73674D",
"y*.	c #807359",
"z*.	c #64553E",
"A*.	c #4F4026",
"B*.	c #7C6E5F",
"C*.	c #7D6C5D",
"D*.	c #705F51",
"E*.	c #756455",
"F*.	c #736659",
"G*.	c #4F4336",
"H*.	c #635345",
"I*.	c #7F6E5E",
"J*.	c #61523B",
"K*.	c #5C4E2B",
"L*.	c #625032",
"M*.	c #735E3D",
"N*.	c #6D5A36",
"O*.	c #77623E",
"P*.	c #6B5835",
"Q*.	c #786442",
"R*.	c #645F39",
"S*.	c #4B4A27",
"T*.	c #68643A",
"U*.	c #6C5A37",
"V*.	c #76663E",
"W*.	c #72613C",
"X*.	c #5E502F",
"Y*.	c #6B5F39",
"Z*.	c #7B6D44",
"`*.	c #6B5D37",
" =.	c #655532",
".=.	c #6F6039",
"+=.	c #605B34",
"@=.	c #5D532F",
"#=.	c #7C6B43",
"$=.	c #74623C",
"%=.	c #4B4C27",
"&=.	c #504B27",
"*=.	c #4E522C",
"==.	c #756B40",
"-=.	c #74643D",
";=.	c #7E6844",
">=.	c #876C48",
",=.	c #715B3A",
"'=.	c #806843",
")=.	c #816745",
"!=.	c #7F6544",
"~=.	c #765D3D",
"{=.	c #765D3C",
"]=.	c #644D30",
"^=.	c #6E5333",
"/=.	c #695331",
"(=.	c #77603F",
"_=.	c #6E5537",
":=.	c #3F2F12",
"<=.	c #796A3E",
"[=.	c #77673C",
"}=.	c #736539",
"|=.	c #726638",
"1=.	c #646033",
"2=.	c #666034",
"3=.	c #4D5129",
"4=.	c #36451F",
"5=.	c #4B552C",
"6=.	c #41572A",
"7=.	c #424C25",
"8=.	c #6A6335",
"9=.	c #6A6033",
"0=.	c #675A2F",
"a=.	c #695B2E",
"b=.	c #706231",
"c=.	c #655C2D",
"d=.	c #6A6733",
"e=.	c #726635",
"f=.	c #756736",
"g=.	c #716232",
"h=.	c #6F6634",
"i=.	c #736A39",
"j=.	c #776B3B",
"k=.	c #796B3A",
"l=.	c #786838",
"m=.	c #675930",
"n=.	c #726334",
"o=.	c #66562F",
"p=.	c #6B5B32",
"q=.	c #64532D",
"r=.	c #6E5C30",
"s=.	c #897849",
"t=.	c #7B683E",
"u=.	c #3E2F18",
"v=.	c #665842",
"w=.	c #6E6249",
"x=.	c #74654C",
"y=.	c #5F523C",
"z=.	c #71654A",
"A=.	c #6B5F44",
"B=.	c #786B4F",
"C=.	c #796C53",
"D=.	c #60533E",
"E=.	c #5D503B",
"F=.	c #5D543D",
"G=.	c #443A26",
"H=.	c #5A553D",
"I=.	c #5D5940",
"J=.	c #5C533C",
"K=.	c #685D44",
"L=.	c #7B6E53",
"M=.	c #74674F",
"N=.	c #47381E",
"O=.	c #635447",
"P=.	c #5B4E2F",
"Q=.	c #5F513E",
"R=.	c #594929",
"S=.	c #8A704E",
"T=.	c #8F7552",
"U=.	c #8B704F",
"V=.	c #907652",
"W=.	c #7F6645",
"X=.	c #72603D",
"Y=.	c #6F653D",
"Z=.	c #5B572E",
"`=.	c #6D5D39",
" -.	c #6B633A",
".-.	c #585730",
"+-.	c #506834",
"@-.	c #425128",
"#-.	c #4F5A2F",
"$-.	c #5D5833",
"%-.	c #4E4A28",
"&-.	c #7E6941",
"*-.	c #695935",
"=-.	c #685B35",
"--.	c #78633D",
";-.	c #75633D",
">-.	c #79643F",
",-.	c #7D6A43",
"'-.	c #786940",
")-.	c #736A40",
"!-.	c #605F35",
"~-.	c #7E6542",
"{-.	c #7E6543",
"]-.	c #846B47",
"^-.	c #7D6443",
"/-.	c #735D3D",
"(-.	c #856F4A",
"_-.	c #745C3C",
":-.	c #856D48",
"<-.	c #785F3F",
"[-.	c #6F5638",
"}-.	c #765B37",
"|-.	c #6E5531",
"1-.	c #644F29",
"2-.	c #69522C",
"3-.	c #68512E",
"4-.	c #6C5335",
"5-.	c #3D2E10",
"6-.	c #7B6B3C",
"7-.	c #7E6F3F",
"8-.	c #716438",
"9-.	c #605B30",
"0-.	c #6E6837",
"a-.	c #414521",
"b-.	c #454D26",
"c-.	c #454B26",
"d-.	c #4B5029",
"e-.	c #676435",
"f-.	c #6E6335",
"g-.	c #64552C",
"h-.	c #6F6030",
"i-.	c #686030",
"j-.	c #706332",
"k-.	c #716836",
"l-.	c #6D6032",
"m-.	c #6F6232",
"n-.	c #796C3B",
"o-.	c #786B3A",
"p-.	c #63552C",
"q-.	c #6F5E32",
"r-.	c #706033",
"s-.	c #756537",
"t-.	c #6A5A33",
"u-.	c #6B5B31",
"v-.	c #67562E",
"w-.	c #857346",
"x-.	c #77643C",
"y-.	c #3D2D17",
"z-.	c #685B41",
"A-.	c #6D5F47",
"B-.	c #73674E",
"C-.	c #4F4128",
"D-.	c #6D5F48",
"E-.	c #665943",
"F-.	c #756951",
"G-.	c #756850",
"H-.	c #70634B",
"I-.	c #685C45",
"J-.	c #62563F",
"K-.	c #544D37",
"L-.	c #645F47",
"M-.	c #615740",
"N-.	c #5D533D",
"O-.	c #675F45",
"P-.	c #796D51",
"Q-.	c #81745A",
"R-.	c #72664D",
"S-.	c #7E7158",
"T-.	c #5F513B",
"U-.	c #4B3A1E",
"V-.	c #5A4C39",
"W-.	c #60503A",
"X-.	c #584933",
"Y-.	c #7B6D5E",
"Z-.	c #806F5F",
"`-.	c #726557",
" ;.	c #5B4E2C",
".;.	c #48392B",
"+;.	c #554626",
"@;.	c #917753",
"#;.	c #917855",
"$;.	c #886E4C",
"%;.	c #806746",
"&;.	c #7C6442",
"*;.	c #6F5C3A",
"=;.	c #55512D",
"-;.	c #585731",
";;.	c #6C5B38",
">;.	c #544E2B",
",;.	c #405026",
"';.	c #48652C",
");.	c #4D672F",
"!;.	c #465F2A",
"~;.	c #3C4521",
"{;.	c #4D4827",
"];.	c #625331",
"^;.	c #6B5B37",
"/;.	c #7C6941",
"(;.	c #7D6A42",
"_;.	c #7D6740",
":;.	c #7A633F",
"<;.	c #846E48",
"[;.	c #826C47",
"};.	c #7C6C45",
"|;.	c #7B6E44",
"1;.	c #756C41",
"2;.	c #806B45",
"3;.	c #856D49",
"4;.	c #836946",
"5;.	c #7D6544",
"6;.	c #735B3C",
"7;.	c #785E3E",
"8;.	c #715739",
"9;.	c #705636",
"0;.	c #3C2C0F",
"a;.	c #78693C",
"b;.	c #7F6F3F",
"c;.	c #686033",
"d;.	c #5E5D32",
"e;.	c #51592C",
"f;.	c #5F5C30",
"g;.	c #7A6C3D",
"h;.	c #6B5C32",
"i;.	c #62522A",
"j;.	c #6E5E2F",
"k;.	c #6D612F",
"l;.	c #6F6532",
"m;.	c #6A5D30",
"n;.	c #706533",
"o;.	c #736735",
"p;.	c #736535",
"q;.	c #756536",
"r;.	c #796A3A",
"s;.	c #6E5D31",
"t;.	c #807042",
"u;.	c #746439",
"v;.	c #897749",
"w;.	c #76633B",
"x;.	c #3A2A14",
"y;.	c #55472C",
"z;.	c #7D7056",
"A;.	c #76684F",
"B;.	c #6D5E47",
"C;.	c #685B43",
"D;.	c #6E624A",
"E;.	c #70644C",
"F;.	c #6B6149",
"G;.	c #736A51",
"H;.	c #61563F",
"I;.	c #493D2B",
"J;.	c #635741",
"K;.	c #786C53",
"L;.	c #71644D",
"M;.	c #7C7056",
"N;.	c #685B45",
"O;.	c #584B3E",
"P;.	c #6C5C4E",
"Q;.	c #4E4336",
"R;.	c #61563B",
"S;.	c #58483A",
"T;.	c #534525",
"U;.	c #846E4B",
"V;.	c #866F4C",
"W;.	c #8C7551",
"X;.	c #7D6644",
"Y;.	c #7F6945",
"Z;.	c #826C48",
"`;.	c #71643E",
" >.	c #66673C",
".>.	c #58512F",
"+>.	c #69693C",
"@>.	c #3E3D1E",
"#>.	c #4E6E2F",
"$>.	c #4A6B2B",
"%>.	c #537532",
"&>.	c #3F5325",
"*>.	c #555931",
"=>.	c #5F532F",
"->.	c #6D5F38",
";>.	c #78673E",
">>.	c #79623D",
",>.	c #7E6641",
"'>.	c #7A623E",
")>.	c #7E6E46",
"!>.	c #7D6B44",
"~>.	c #796741",
"{>.	c #896F4B",
"]>.	c #836846",
"^>.	c #7B6241",
"/>.	c #876C49",
"(>.	c #7B603F",
"_>.	c #806543",
":>.	c #72583A",
"<>.	c #866A47",
"[>.	c #725838",
"}>.	c #6B5233",
"|>.	c #755B3A",
"1>.	c #40320D",
"2>.	c #807342",
"3>.	c #807140",
"4>.	c #7A6B3C",
"5>.	c #6B6637",
"6>.	c #6A6233",
"7>.	c #7B6E3F",
"8>.	c #65552B",
"9>.	c #766434",
"0>.	c #756533",
"a>.	c #6E6330",
"b>.	c #736634",
"c>.	c #706232",
"d>.	c #706333",
"e>.	c #726433",
"f>.	c #746937",
"g>.	c #716136",
"h>.	c #6E5D34",
"i>.	c #63522C",
"j>.	c #6D5C34",
"k>.	c #3A2B14",
"l>.	c #73654D",
"m>.	c #73664E",
"n>.	c #5B4E37",
"o>.	c #695D45",
"p>.	c #695D46",
"q>.	c #77684E",
"r>.	c #5A4F3A",
"s>.	c #5F533E",
"t>.	c #776B51",
"u>.	c #61543F",
"v>.	c #5E533D",
"w>.	c #6B5E48",
"x>.	c #82765D",
"y>.	c #5A492E",
"z>.	c #48371E",
"A>.	c #4D3C23",
"B>.	c #7B6A5B",
"C>.	c #4C4134",
"D>.	c #5F522D",
"E>.	c #5A4B2A",
"F>.	c #85754F",
"G>.	c #897851",
"H>.	c #82704B",
"I>.	c #84754D",
"J>.	c #776743",
"K>.	c #7F6845",
"L>.	c #7B6B44",
"M>.	c #635B35",
"N>.	c #575A32",
"O>.	c #4F502A",
"P>.	c #46642D",
"Q>.	c #547B33",
"R>.	c #5B833A",
"S>.	c #485428",
"T>.	c #675C36",
"U>.	c #554B2A",
"V>.	c #7A6941",
"W>.	c #846B46",
"X>.	c #7F6643",
"Y>.	c #846D47",
"Z>.	c #87734D",
"`>.	c #846F4A",
" ,.	c #826A46",
".,.	c #856C47",
"+,.	c #7D6342",
"@,.	c #866B48",
"#,.	c #7E6342",
"$,.	c #856A48",
"%,.	c #846A48",
"&,.	c #836947",
"*,.	c #7F6443",
"=,.	c #6D5436",
"-,.	c #705637",
";,.	c #62492D",
">,.	c #68532D",
",,.	c #866B47",
"',.	c #765B3B",
"),.	c #3D2F0F",
"!,.	c #74683B",
"~,.	c #76673B",
"{,.	c #76683A",
"],.	c #685931",
"^,.	c #74663A",
"/,.	c #776A3C",
"(,.	c #7F6E41",
"_,.	c #675630",
":,.	c #63532C",
"<,.	c #756433",
"[,.	c #786837",
"},.	c #6F6132",
"|,.	c #6E6131",
"1,.	c #695B2F",
"2,.	c #7A6A3A",
"3,.	c #716135",
"4,.	c #736336",
"5,.	c #53462A",
"6,.	c #6C5E47",
"7,.	c #544733",
"8,.	c #61543E",
"9,.	c #695C45",
"0,.	c #665A43",
"a,.	c #61553F",
"b,.	c #6B5F47",
"c,.	c #645842",
"d,.	c #6C634A",
"e,.	c #594C38",
"f,.	c #62553F",
"g,.	c #625540",
"h,.	c #695B44",
"i,.	c #786C52",
"j,.	c #776B52",
"k,.	c #80755C",
"l,.	c #7E7259",
"m,.	c #74654E",
"n,.	c #483822",
"o,.	c #574835",
"p,.	c #685946",
"q,.	c #514538",
"r,.	c #615649",
"s,.	c #514837",
"t,.	c #564A34",
"u,.	c #594B2A",
"v,.	c #8E7A54",
"w,.	c #8E7752",
"x,.	c #8E7652",
"y,.	c #856F4B",
"z,.	c #7E6C48",
"A,.	c #7C6643",
"B,.	c #7C6A45",
"C,.	c #575732",
"D,.	c #5A5E35",
"E,.	c #5B5B33",
"F,.	c #425D2C",
"G,.	c #49692D",
"H,.	c #4E6D30",
"I,.	c #464F28",
"J,.	c #5A5630",
"K,.	c #5D5631",
"L,.	c #6E603A",
"M,.	c #7A643F",
"N,.	c #876E4A",
"O,.	c #836A46",
"P,.	c #837049",
"Q,.	c #796844",
"R,.	c #856C49",
"S,.	c #876D4A",
"T,.	c #7B6140",
"U,.	c #826845",
"V,.	c #856B49",
"W,.	c #7A6041",
"X,.	c #7D6343",
"Y,.	c #765C3C",
"Z,.	c #785D3D",
"`,.	c #664D30",
" '.	c #3B2D10",
".'.	c #695C33",
"+'.	c #706539",
"@'.	c #686034",
"#'.	c #746F3D",
"$'.	c #786E3D",
"%'.	c #7A6D3D",
"&'.	c #796B3C",
"*'.	c #7C6E3F",
"='.	c #76663A",
"-'.	c #6F5F36",
";'.	c #61502C",
">'.	c #6F5E31",
",'.	c #716132",
"''.	c #766735",
")'.	c #6E6834",
"!'.	c #716633",
"~'.	c #6D6031",
"{'.	c #7D6F3E",
"]'.	c #6D5C33",
"^'.	c #7E6D40",
"/'.	c #847445",
"('.	c #877647",
"_'.	c #897748",
":'.	c #372810",
"<'.	c #6C5F48",
"['.	c #655741",
"}'.	c #665840",
"|'.	c #75694F",
"1'.	c #695E46",
"2'.	c #675C44",
"3'.	c #6D644C",
"4'.	c #766950",
"5'.	c #72654D",
"6'.	c #786A52",
"7'.	c #6E6049",
"8'.	c #75674F",
"9'.	c #6C6047",
"0'.	c #74684F",
"a'.	c #7B6F55",
"b'.	c #766D55",
"c'.	c #776B54",
"d'.	c #80745C",
"e'.	c #5C4C35",
"f'.	c #493A24",
"g'.	c #4E3D22",
"h'.	c #817466",
"i'.	c #7F7264",
"j'.	c #68584B",
"k'.	c #716456",
"l'.	c #655749",
"m'.	c #615749",
"n'.	c #5C5748",
"o'.	c #4F4B3B",
"p'.	c #4F4427",
"q'.	c #554C3F",
"r'.	c #4C4135",
"s'.	c #564827",
"t'.	c #8A734F",
"u'.	c #7A6444",
"v'.	c #806A48",
"w'.	c #86714D",
"x'.	c #7D6C47",
"y'.	c #82714B",
"z'.	c #695A39",
"A'.	c #5A5331",
"B'.	c #66643B",
"C'.	c #605F37",
"D'.	c #4B542D",
"E'.	c #384420",
"F'.	c #494F29",
"G'.	c #4B582E",
"H'.	c #4C4826",
"I'.	c #4E552C",
"J'.	c #56512D",
"K'.	c #7F6A43",
"L'.	c #876D48",
"M'.	c #886D49",
"N'.	c #886D4A",
"O'.	c #866C48",
"P'.	c #89704C",
"Q'.	c #796140",
"R'.	c #826745",
"S'.	c #795F3F",
"T'.	c #745B3C",
"U'.	c #775D3D",
"V'.	c #73593A",
"W'.	c #836945",
"X'.	c #816945",
"Y'.	c #755C3C",
"Z'.	c #3D2F11",
"`'.	c #756D3E",
" ).	c #565A30",
".).	c #4C512A",
"+).	c #7A7340",
"@).	c #7D7341",
"#).	c #7C6C3F",
"$).	c #5A4B21",
"%).	c #6A5930",
"&).	c #746434",
"*).	c #736837",
"=).	c #706435",
"-).	c #796A3C",
";).	c #796A3B",
">).	c #7E6D41",
",).	c #8B794B",
"').	c #40341A",
")).	c #74664F",
"!).	c #6E614A",
"~).	c #60523C",
"{).	c #61543D",
"]).	c #7B6C52",
"^).	c #574E39",
"/).	c #615640",
"().	c #70664D",
"_).	c #686048",
":).	c #5A513B",
"<).	c #655B44",
"[).	c #71664D",
"}).	c #6A6047",
"|).	c #766B51",
"1).	c #7B6F56",
"2).	c #736751",
"3).	c #70644E",
"4).	c #70624C",
"5).	c #4D3E27",
"6).	c #5F4F42",
"7).	c #515540",
"8).	c #525942",
"9).	c #666349",
"0).	c #52472D",
"a).	c #464233",
"b).	c #4A4232",
"c).	c #514423",
"d).	c #81704B",
"e).	c #867A50",
"f).	c #776341",
"g).	c #675637",
"h).	c #71613E",
"i).	c #70613D",
"j).	c #5D5632",
"k).	c #494F2A",
"l).	c #534F2B",
"m).	c #464D27",
"n).	c #4D532C",
"o).	c #4D4F2A",
"p).	c #53512D",
"q).	c #5C5A32",
"r).	c #4E4D28",
"s).	c #53512C",
"t).	c #685F38",
"u).	c #876D49",
"v).	c #8C724E",
"w).	c #7F6543",
"x).	c #8A704D",
"y).	c #846947",
"z).	c #6B5235",
"A).	c #685034",
"B).	c #654C30",
"C).	c #755A3A",
"D).	c #8A714D",
"E).	c #423516",
"F).	c #7B7644",
"G).	c #524E2A",
"H).	c #43542A",
"I).	c #535B31",
"J).	c #6B6337",
"K).	c #776C3E",
"L).	c #817443",
"M).	c #574921",
"N).	c #7B6C3E",
"O).	c #736339",
"P).	c #66552E",
"Q).	c #68582D",
"R).	c #716234",
"S).	c #726535",
"T).	c #736936",
"U).	c #6E5E32",
"V).	c #77673A",
"W).	c #685831",
"X).	c #877747",
"Y).	c #847345",
"Z).	c #887749",
"`).	c #584928",
" !.	c #3D2F19",
".!.	c #7B6E56",
"+!.	c #6F624B",
"@!.	c #7A6D54",
"#!.	c #6B644C",
"$!.	c #5D523C",
"%!.	c #564D38",
"&!.	c #4E4330",
"*!.	c #6B5E47",
"=!.	c #5B503C",
"-!.	c #665C46",
";!.	c #80745D",
">!.	c #51422A",
",!.	c #61554A",
"'!.	c #51432E",
")!.	c #645549",
"!!.	c #625346",
"~!.	c #6A5C4D",
"{!.	c #626652",
"]!.	c #55523C",
"^!.	c #5B5647",
"/!.	c #524E41",
"(!.	c #5B593E",
"_!.	c #564928",
":!.	c #524523",
"<!.	c #675D3B",
"[!.	c #7A6D47",
"}!.	c #70643F",
"|!.	c #6E5E3B",
"1!.	c #736740",
"2!.	c #7B6A44",
"3!.	c #736840",
"4!.	c #605934",
"5!.	c #3C4522",
"6!.	c #455128",
"7!.	c #4B4F2A",
"8!.	c #524B2A",
"9!.	c #51542D",
"0!.	c #49582E",
"a!.	c #49502A",
"b!.	c #606238",
"c!.	c #4F4D2A",
"d!.	c #615431",
"e!.	c #8C714C",
"f!.	c #816746",
"g!.	c #8A6F4C",
"h!.	c #846A47",
"i!.	c #896E4B",
"j!.	c #826846",
"k!.	c #816644",
"l!.	c #7C6141",
"m!.	c #725737",
"n!.	c #7A623D",
"o!.	c #856C48",
"p!.	c #816A47",
"q!.	c #6C5537",
"r!.	c #3C2F13",
"s!.	c #7C7244",
"t!.	c #747142",
"u!.	c #4D5930",
"v!.	c #545B31",
"w!.	c #6A683A",
"x!.	c #7C7142",
"y!.	c #4E4118",
"z!.	c #76673A",
"A!.	c #68592E",
"B!.	c #716635",
"C!.	c #666133",
"D!.	c #5C572C",
"E!.	c #7A6D3B",
"F!.	c #726737",
"G!.	c #6E6435",
"H!.	c #766A3A",
"I!.	c #69582F",
"J!.	c #695930",
"K!.	c #6A5832",
"L!.	c #7A693D",
"M!.	c #847344",
"N!.	c #594927",
"O!.	c #3E2F19",
"P!.	c #786B53",
"Q!.	c #73664F",
"R!.	c #7A6D55",
"S!.	c #746750",
"T!.	c #73654E",
"U!.	c #70624B",
"V!.	c #685B40",
"W!.	c #796C54",
"X!.	c #766A52",
"Y!.	c #72654E",
"Z!.	c #786C54",
"`!.	c #514935",
" ~.	c #554E38",
".~.	c #5C523D",
"+~.	c #766850",
"@~.	c #776B53",
"#~.	c #7A6F57",
"$~.	c #686049",
"%~.	c #5A503C",
"&~.	c #7E755D",
"*~.	c #4E4230",
"=~.	c #4A3A21",
"-~.	c #554B3D",
";~.	c #61574B",
">~.	c #65564A",
",~.	c #5C584B",
"'~.	c #616050",
")~.	c #535241",
"!~.	c #4E483B",
"~~.	c #5B5B4A",
"{~.	c #54503A",
"]~.	c #4A3F20",
"^~.	c #625831",
"/~.	c #82724A",
"(~.	c #796B44",
"_~.	c #776C42",
":~.	c #6A5E39",
"<~.	c #625B35",
"[~.	c #4A562C",
"}~.	c #3F5328",
"|~.	c #49662F",
"1~.	c #4A4826",
"2~.	c #485029",
"3~.	c #4B562D",
"4~.	c #464A26",
"5~.	c #536034",
"6~.	c #58522F",
"7~.	c #6A5937",
"8~.	c #7B6A43",
"9~.	c #806A44",
"0~.	c #866C49",
"a~.	c #745A3B",
"b~.	c #7E6341",
"c~.	c #856A47",
"d~.	c #896D49",
"e~.	c #826946",
"f~.	c #654F2E",
"g~.	c #89714D",
"h~.	c #8A724E",
"i~.	c #765F3F",
"j~.	c #4F421B",
"k~.	c #645932",
"l~.	c #72693D",
"m~.	c #787040",
"n~.	c #827F4A",
"o~.	c #7B7645",
"p~.	c #4A3D15",
"q~.	c #5B552B",
"r~.	c #3D421E",
"s~.	c #4C4D25",
"t~.	c #676334",
"u~.	c #6D6333",
"v~.	c #766B39",
"w~.	c #776A3A",
"x~.	c #7B6D3F",
"y~.	c #7A6A3E",
"z~.	c #716134",
"A~.	c #6E5E33",
"B~.	c #69592F",
"C~.	c #61512D",
"D~.	c #65542E",
"E~.	c #67572F",
"F~.	c #877646",
"G~.	c #8B7A4A",
"H~.	c #7A673F",
"I~.	c #362813",
"J~.	c #776A52",
"K~.	c #7D7058",
"L~.	c #6B5D47",
"M~.	c #61533E",
"N~.	c #5C4E39",
"O~.	c #70634C",
"P~.	c #6A5D47",
"Q~.	c #6D614A",
"R~.	c #675A45",
"S~.	c #6D644B",
"T~.	c #57543E",
"U~.	c #675E47",
"V~.	c #766951",
"W~.	c #71654B",
"X~.	c #796D54",
"Y~.	c #6B5F48",
"Z~.	c #81765D",
"`~.	c #7C735A",
" {.	c #564F3A",
".{.	c #5A533D",
"+{.	c #463E2A",
"@{.	c #4C5039",
"#{.	c #463B24",
"${.	c #48391F",
"%{.	c #4A3F2C",
"&{.	c #595044",
"*{.	c #52483B",
"={.	c #575445",
"-{.	c #585942",
";{.	c #626252",
">{.	c #655D51",
",{.	c #443C2E",
"'{.	c #4F4323",
"){.	c #5C5E37",
"!{.	c #495B31",
"~{.	c #575930",
"{{.	c #514826",
"]{.	c #736A41",
"^{.	c #57502E",
"/{.	c #53572F",
"({.	c #3C4823",
"_{.	c #384C22",
":{.	c #4B512A",
"<{.	c #53522C",
"[{.	c #5B4E2E",
"}{.	c #685D38",
"|{.	c #514427",
"1{.	c #605632",
"2{.	c #7A6440",
"3{.	c #8C704D",
"4{.	c #886D4B",
"5{.	c #886E4B",
"6{.	c #806544",
"7{.	c #705738",
"8{.	c #816543",
"9{.	c #6C5634",
"0{.	c #846E4A",
"a{.	c #7B6845",
"b{.	c #665334",
"c{.	c #443814",
"d{.	c #564C28",
"e{.	c #857E4B",
"f{.	c #8D814F",
"g{.	c #796C40",
"h{.	c #52441B",
"i{.	c #76663B",
"j{.	c #716037",
"k{.	c #7A6A3C",
"l{.	c #726636",
"m{.	c #585529",
"n{.	c #425328",
"o{.	c #3F4C23",
"p{.	c #52582C",
"q{.	c #73703A",
"r{.	c #736C39",
"s{.	c #7B6F3E",
"t{.	c #796D3C",
"u{.	c #807041",
"v{.	c #7B6B3D",
"w{.	c #79693C",
"x{.	c #6F6034",
"y{.	c #847444",
"z{.	c #867645",
"A{.	c #867546",
"B{.	c #857446",
"C{.	c #8B7A4B",
"D{.	c #736039",
"E{.	c #3B2F15",
"F{.	c #766953",
"G{.	c #7B6E57",
"H{.	c #7E7159",
"I{.	c #776952",
"J{.	c #6C5F49",
"K{.	c #72644D",
"L{.	c #6E614B",
"M{.	c #5D523D",
"N{.	c #534835",
"O{.	c #584F3A",
"P{.	c #58543E",
"Q{.	c #524734",
"R{.	c #5E523D",
"S{.	c #766B52",
"T{.	c #7F735B",
"U{.	c #5C543E",
"V{.	c #645D48",
"W{.	c #5D5A44",
"X{.	c #52533C",
"Y{.	c #4B3F27",
"Z{.	c #4C4431",
"`{.	c #685F54",
" ].	c #4C4337",
".].	c #4E473A",
"+].	c #515140",
"@].	c #4F4939",
"#].	c #5B6439",
"$].	c #3E5127",
"%].	c #4E5B32",
"&].	c #4C4C29",
"*].	c #514F2A",
"=].	c #5B4F2B",
"-].	c #464522",
";].	c #3F4C26",
">].	c #3F4724",
",].	c #51572F",
"'].	c #50502C",
")].	c #6F673F",
"!].	c #68633B",
"~].	c #5E5130",
"{].	c #5C4F2E",
"]].	c #8C714E",
"^].	c #8B714D",
"/].	c #806542",
"(].	c #6D5435",
"_].	c #8A6E4B",
":].	c #806442",
"<].	c #856E49",
"[].	c #87704B",
"}].	c #6B5B34",
"|].	c #756A44",
"1].	c #67623C",
"2].	c #4B3D15",
"3].	c #5E562D",
"4].	c #807445",
"5].	c #7D7041",
"6].	c #453712",
"7].	c #857546",
"8].	c #827243",
"9].	c #62522C",
"0].	c #61532B",
"a].	c #62552A",
"b].	c #615E2E",
"c].	c #55582D",
"d].	c #414A23",
"e].	c #4E522A",
"f].	c #464722",
"g].	c #54522A",
"h].	c #746F3B",
"i].	c #746F3C",
"j].	c #817242",
"k].	c #76643A",
"l].	c #6B5C31",
"m].	c #65552D",
"n].	c #786839",
"o].	c #60522C",
"p].	c #6A5B31",
"q].	c #7F6E40",
"r].	c #827143",
"s].	c #8B7B4C",
"t].	c #8A794B",
"u].	c #7B6A40",
"v].	c #685832",
"w].	c #705D36",
"x].	c #3B2E14",
"y].	c #6D604A",
"z].	c #72654F",
"A].	c #776A53",
"B].	c #615440",
"C].	c #6D6049",
"D].	c #6F634C",
"E].	c #514734",
"F].	c #423B28",
"G].	c #625943",
"H].	c #534C37",
"I].	c #564E39",
"J].	c #544A36",
"K].	c #7A6C54",
"L].	c #837A62",
"M].	c #6E6852",
"N].	c #615E48",
"O].	c #46442E",
"P].	c #444029",
"Q].	c #57492D",
"R].	c #595C4A",
"S].	c #565043",
"T].	c #5E574C",
"U].	c #665C51",
"V].	c #5D4F42",
"W].	c #636051",
"X].	c #5F5A4E",
"Y].	c #595848",
"Z].	c #565847",
"`].	c #4E483A",
" ^.	c #4E4222",
".^.	c #63623B",
"+^.	c #5A6338",
"@^.	c #7E744B",
"#^.	c #7E7249",
"$^.	c #786F45",
"%^.	c #7A6742",
"&^.	c #615633",
"*^.	c #4F4B29",
"=^.	c #575931",
"-^.	c #675B38",
";^.	c #746942",
">^.	c #716640",
",^.	c #655936",
"'^.	c #6B5C38",
")^.	c #6C613B",
"!^.	c #876C4A",
"~^.	c #896F4D",
"{^.	c #8E7350",
"]^.	c #856A49",
"^^.	c #7C6242",
"/^.	c #836948",
"(^.	c #72593C",
"_^.	c #725839",
":^.	c #856B48",
"<^.	c #846C49",
"[^.	c #7F6846",
"}^.	c #6A5C39",
"|^.	c #827A4F",
"1^.	c #726F46",
"2^.	c #6A5C3A",
"3^.	c #4D4018",
"4^.	c #514721",
"5^.	c #60542A",
"6^.	c #4E4017",
"7^.	c #807145",
"8^.	c #887949",
"9^.	c #847446",
"0^.	c #64542F",
"a^.	c #6C5C31",
"b^.	c #67572D",
"c^.	c #706132",
"d^.	c #706836",
"e^.	c #786D3A",
"f^.	c #403E1E",
"g^.	c #465429",
"h^.	c #616233",
"i^.	c #7C7541",
"j^.	c #6E6738",
"k^.	c #676234",
"l^.	c #7C6E3E",
"m^.	c #827242",
"n^.	c #706137",
"o^.	c #716236",
"p^.	c #706336",
"q^.	c #716335",
"r^.	c #67572E",
"s^.	c #867646",
"t^.	c #7D6D40",
"u^.	c #857548",
"v^.	c #6E5E37",
"w^.	c #64522F",
"x^.	c #372914",
"y^.	c #766A53",
"z^.	c #786B54",
"A^.	c #71634C",
"B^.	c #5F513C",
"C^.	c #7B6E55",
"D^.	c #72664F",
"E^.	c #696049",
"F^.	c #645C46",
"G^.	c #554C37",
"H^.	c #5A553F",
"I^.	c #4C422F",
"J^.	c #655C45",
"K^.	c #615541",
"L^.	c #5F5742",
"M^.	c #605843",
"N^.	c #62604A",
"O^.	c #6C775B",
"P^.	c #484630",
"Q^.	c #4F452D",
"R^.	c #4F4F3E",
"S^.	c #5C5D4C",
"T^.	c #5F5E50",
"U^.	c #554B40",
"V^.	c #605145",
"W^.	c #74675C",
"X^.	c #564E35",
"Y^.	c #4B3F33",
"Z^.	c #4F463A",
"`^.	c #4B3E1F",
" /.	c #7C7049",
"./.	c #6B613C",
"+/.	c #85764E",
"@/.	c #866F4B",
"#/.	c #85734D",
"$/.	c #7E6845",
"%/.	c #7B6643",
"&/.	c #7E6B45",
"*/.	c #72633E",
"=/.	c #625534",
"-/.	c #6C5738",
";/.	c #76623F",
">/.	c #6E5D39",
",/.	c #615B35",
"'/.	c #4F4627",
")/.	c #75623D",
"!/.	c #816943",
"~/.	c #7B623F",
"{/.	c #866B49",
"]/.	c #806645",
"^/.	c #856E4A",
"//.	c #836A47",
"(/.	c #806C47",
"_/.	c #564D28",
":/.	c #68623D",
"</.	c #5D5533",
"[/.	c #4C3E16",
"}/.	c #51431A",
"|/.	c #4F4219",
"1/.	c #776C3F",
"2/.	c #7D7044",
"3/.	c #74673D",
"4/.	c #847648",
"5/.	c #827246",
"6/.	c #6E5D36",
"7/.	c #78683D",
"8/.	c #61512C",
"9/.	c #786A3A",
"0/.	c #746838",
"a/.	c #736938",
"b/.	c #7A6E3D",
"c/.	c #59562D",
"d/.	c #606435",
"e/.	c #515C2F",
"f/.	c #6E6939",
"g/.	c #7B7240",
"h/.	c #7B703F",
"i/.	c #736F3C",
"j/.	c #6D6437",
"k/.	c #72683A",
"l/.	c #71673A",
"m/.	c #6E6235",
"n/.	c #6F6435",
"o/.	c #6B6233",
"p/.	c #716837",
"q/.	c #685930",
"r/.	c #5F502A",
"s/.	c #79693B",
"t/.	c #6D5D34",
"u/.	c #65562F",
"v/.	c #6D5F33",
"w/.	c #76693A",
"x/.	c #746638",
"y/.	c #7E7140",
"z/.	c #887748",
"A/.	c #7A693F",
"B/.	c #4C3D1E",
"C/.	c #352712",
"D/.	c #71654E",
"E/.	c #71644E",
"F/.	c #6A5C46",
"G/.	c #675A3F",
"H/.	c #796D55",
"I/.	c #7A6E56",
"J/.	c #7A6D56",
"K/.	c #5B523E",
"L/.	c #645F49",
"M/.	c #5F5D47",
"N/.	c #536046",
"O/.	c #4C4D35",
"P/.	c #4E4629",
"Q/.	c #546449",
"R/.	c #56624B",
"S/.	c #454233",
"T/.	c #544B40",
"U/.	c #6E6458",
"V/.	c #5A4E2F",
"W/.	c #625646",
"X/.	c #6C6256",
"Y/.	c #5C5146",
"Z/.	c #87704E",
"`/.	c #83704B",
" (.	c #7A6844",
".(.	c #796744",
"+(.	c #736440",
"@(.	c #7A6743",
"#(.	c #7E6A46",
"$(.	c #755D3E",
"%(.	c #7E6644",
"&(.	c #796241",
"*(.	c #765E3E",
"=(.	c #7D6643",
"-(.	c #77633F",
";(.	c #77613F",
">(.	c #615433",
",(.	c #575B34",
"'(.	c #6B603B",
")(.	c #826D46",
"!(.	c #785F40",
"~(.	c #695033",
"{(.	c #7D6944",
"](.	c #7E6645",
"^(.	c #846B49",
"/(.	c #87724D",
"((.	c #746A42",
"_(.	c #545129",
":(.	c #4B502E",
"<(.	c #595632",
"[(.	c #453916",
"}(.	c #4E411C",
"|(.	c #4D401D",
"1(.	c #736A3F",
"2(.	c #887C4C",
"3(.	c #786C3F",
"4(.	c #847645",
"5(.	c #7E6C3F",
"6(.	c #695932",
"7(.	c #6A5A31",
"8(.	c #69582E",
"9(.	c #6D6334",
"0(.	c #6F6736",
"a(.	c #61592E",
"b(.	c #686134",
"c(.	c #5C5C31",
"d(.	c #696839",
"e(.	c #6A693B",
"f(.	c #726E3D",
"g(.	c #716A3A",
"h(.	c #6D6838",
"i(.	c #77713E",
"j(.	c #766B3B",
"k(.	c #6C6635",
"l(.	c #686032",
"m(.	c #736739",
"n(.	c #65572F",
"o(.	c #6F6235",
"p(.	c #675C30",
"q(.	c #706936",
"r(.	c #6C5E31",
"s(.	c #6D5E34",
"t(.	c #5F502B",
"u(.	c #746436",
"v(.	c #746636",
"w(.	c #756939",
"x(.	c #7A6F3E",
"y(.	c #837145",
"z(.	c #77653B",
"A(.	c #6F5D35",
"B(.	c #362912",
"C(.	c #796D56",
"D(.	c #7B6F58",
"E(.	c #766952",
"F(.	c #655844",
"G(.	c #746851",
"H(.	c #695D48",
"I(.	c #6C6049",
"J(.	c #756952",
"K(.	c #625641",
"L(.	c #685A44",
"M(.	c #71654C",
"N(.	c #5D523E",
"O(.	c #565742",
"P(.	c #4B5D3F",
"Q(.	c #4A583C",
"R(.	c #534A2D",
"S(.	c #59684F",
"T(.	c #4D5240",
"U(.	c #504A3E",
"V(.	c #514A3F",
"W(.	c #52483C",
"X(.	c #655D52",
"Y(.	c #67584C",
"Z(.	c #5B4F32",
"`(.	c #594A2A",
" _.	c #937B58",
"._.	c #8C7452",
"+_.	c #725E3E",
"@_.	c #7D7047",
"#_.	c #84724B",
"$_.	c #806B47",
"%_.	c #806D49",
"&_.	c #7E6744",
"*_.	c #6E5638",
"=_.	c #836B48",
"-_.	c #7B6443",
";_.	c #76603F",
">_.	c #74613D",
",_.	c #746340",
"'_.	c #514327",
")_.	c #71603C",
"!_.	c #826947",
"~_.	c #7E6443",
"{_.	c #7B6141",
"]_.	c #7E6544",
"^_.	c #7A6141",
"/_.	c #6D5335",
"(_.	c #705737",
"__.	c #7C6743",
":_.	c #826B47",
"<_.	c #866E4B",
"[_.	c #756F45",
"}_.	c #48512C",
"|_.	c #4C4B23",
"1_.	c #464A28",
"2_.	c #50461F",
"3_.	c #433716",
"4_.	c #524621",
"5_.	c #776A40",
"6_.	c #827647",
"7_.	c #8C7E4D",
"8_.	c #887849",
"9_.	c #7A683D",
"0_.	c #695A2E",
"a_.	c #736939",
"b_.	c #776D3B",
"c_.	c #736E3B",
"d_.	c #454824",
"e_.	c #56592E",
"f_.	c #4D562D",
"g_.	c #626134",
"h_.	c #4F4C26",
"i_.	c #464321",
"j_.	c #52522A",
"k_.	c #5D5C30",
"l_.	c #5A572C",
"m_.	c #666334",
"n_.	c #676031",
"o_.	c #655A2E",
"p_.	c #736636",
"q_.	c #706636",
"r_.	c #6E6334",
"s_.	c #6E5F32",
"t_.	c #6E5E34",
"u_.	c #756838",
"v_.	c #766738",
"w_.	c #817043",
"x_.	c #7F6E42",
"y_.	c #7A693E",
"z_.	c #806E42",
"A_.	c #806E41",
"B_.	c #33250E",
"C_.	c #796C56",
"D_.	c #7A6E57",
"E_.	c #70634E",
"F_.	c #736650",
"G_.	c #726650",
"H_.	c #6C604A",
"I_.	c #665843",
"J_.	c #695B45",
"K_.	c #7B6F57",
"L_.	c #60533F",
"M_.	c #6A614A",
"N_.	c #463D2B",
"O_.	c #504633",
"P_.	c #51523C",
"Q_.	c #465237",
"R_.	c #465436",
"S_.	c #4D4528",
"T_.	c #536844",
"U_.	c #636556",
"V_.	c #606053",
"W_.	c #423C31",
"X_.	c #5D554A",
"Y_.	c #625A4F",
"Z_.	c #62574C",
"`_.	c #625638",
" :.	c #564829",
".:.	c #917A59",
"+:.	c #806B4B",
"@:.	c #85704D",
"#:.	c #826D4A",
"$:.	c #796341",
"%:.	c #756441",
"&:.	c #725E3D",
"*:.	c #7F6545",
"=:.	c #816847",
"-:.	c #7D6444",
";:.	c #624C31",
">:.	c #79613F",
",:.	c #6C5637",
"':.	c #745E3C",
"):.	c #836D47",
"!:.	c #826848",
"~:.	c #755B3C",
"{:.	c #6A5133",
"]:.	c #7D6743",
"^:.	c #836E48",
"/:.	c #7E6B47",
"(:.	c #82704A",
"_:.	c #7F764D",
"::.	c #51532F",
"<:.	c #474521",
"[:.	c #433B1A",
"}:.	c #52461D",
"|:.	c #4C3F19",
"1:.	c #7E7347",
"2:.	c #75663D",
"3:.	c #8A7C4C",
"4:.	c #85794A",
"5:.	c #817145",
"6:.	c #79683D",
"7:.	c #6A5932",
"8:.	c #64532E",
"9:.	c #695831",
"0:.	c #766938",
"a:.	c #534C26",
"b:.	c #6E6636",
"c:.	c #6C6636",
"d:.	c #454823",
"e:.	c #505C30",
"f:.	c #596133",
"g:.	c #666134",
"h:.	c #615D32",
"i:.	c #656234",
"j:.	c #696637",
"k:.	c #3B3C1C",
"l:.	c #474823",
"m:.	c #726C39",
"n:.	c #5E572C",
"o:.	c #5C562D",
"p:.	c #6A5E31",
"q:.	c #695A30",
"r:.	c #756638",
"s:.	c #7B6C3B",
"t:.	c #7E6E40",
"u:.	c #827042",
"v:.	c #877648",
"w:.	c #75623B",
"x:.	c #3B2D18",
"y:.	c #756851",
"z:.	c #6D614B",
"A:.	c #655843",
"B:.	c #736750",
"C:.	c #6F624C",
"D:.	c #625642",
"E:.	c #6D604B",
"F:.	c #695C47",
"G:.	c #6F614A",
"H:.	c #60523D",
"I:.	c #756950",
"J:.	c #665F48",
"K:.	c #5C5742",
"L:.	c #55553F",
"M:.	c #51513B",
"N:.	c #4A4633",
"O:.	c #5A624A",
"P:.	c #4C503B",
"Q:.	c #48553A",
"R:.	c #52482D",
"S:.	c #5F6855",
"T:.	c #5A554B",
"U:.	c #625F52",
"V:.	c #4E4237",
"W:.	c #5C4F43",
"X:.	c #605347",
"Y:.	c #5C502D",
"Z:.	c #544729",
"`:.	c #554928",
" <.	c #806B4C",
".<.	c #937F5A",
"+<.	c #8A7652",
"@<.	c #866E4E",
"#<.	c #7F6747",
"$<.	c #816C48",
"%<.	c #796040",
"&<.	c #6F573A",
"*<.	c #6A5236",
"=<.	c #786140",
"-<.	c #866D4C",
";<.	c #7A6142",
"><.	c #7E6444",
",<.	c #846B4A",
"'<.	c #7F6646",
")<.	c #695135",
"!<.	c #7B613D",
"~<.	c #7F6541",
"{<.	c #836F49",
"]<.	c #716641",
"^<.	c #534D2C",
"/<.	c #4E502B",
"(<.	c #474D21",
"_<.	c #49461B",
":<.	c #403413",
"<<.	c #433A19",
"[<.	c #787645",
"}<.	c #8B7D4C",
"|<.	c #8C7D4D",
"1<.	c #88794A",
"2<.	c #807044",
"3<.	c #706335",
"4<.	c #726937",
"5<.	c #5D562C",
"6<.	c #645F2E",
"7<.	c #4D4A25",
"8<.	c #5D582D",
"9<.	c #6B6635",
"0<.	c #706536",
"a<.	c #736738",
"b<.	c #7A723F",
"c<.	c #4B4E27",
"d<.	c #6E6B3A",
"e<.	c #58582C",
"f<.	c #394721",
"g<.	c #585E2F",
"h<.	c #6D6133",
"i<.	c #756535",
"j<.	c #716235",
"k<.	c #8C7C4C",
"l<.	c #887649",
"m<.	c #3B2F17",
"n<.	c #726651",
"o<.	c #6E624C",
"p<.	c #6A5D49",
"q<.	c #786C55",
"r<.	c #6F624D",
"s<.	c #756852",
"t<.	c #5F523D",
"u<.	c #5A533E",
"v<.	c #625F48",
"w<.	c #68654E",
"x<.	c #5F5843",
"y<.	c #5F5743",
"z<.	c #5A5C46",
"A<.	c #4F563E",
"B<.	c #495137",
"C<.	c #53482E",
"D<.	c #4F5841",
"E<.	c #5E5A4C",
"F<.	c #554F44",
"G<.	c #565246",
"H<.	c #4C4538",
"I<.	c #5E584E",
"J<.	c #5B5146",
"K<.	c #615346",
"L<.	c #5A4E43",
"M<.	c #7B6E63",
"N<.	c #564A2A",
"O<.	c #5A4E2D",
"P<.	c #907958",
"Q<.	c #7B6648",
"R<.	c #897352",
"S<.	c #786243",
"T<.	c #7D6946",
"U<.	c #6F5B3B",
"V<.	c #7B6342",
"W<.	c #6F5739",
"X<.	c #70583A",
"Y<.	c #6D5437",
"Z<.	c #755D3F",
"`<.	c #866D4D",
" [.	c #826949",
".[.	c #856C4C",
"+[.	c #6D553A",
"@[.	c #7A6242",
"#[.	c #725A3C",
"$[.	c #72593B",
"%[.	c #705939",
"&[.	c #715839",
"*[.	c #806743",
"=[.	c #85714B",
"-[.	c #85744D",
";[.	c #626A3E",
">[.	c #405224",
",[.	c #415427",
"'[.	c #547340",
")[.	c #473B16",
"![.	c #483D19",
"~[.	c #89814F",
"{[.	c #8F8251",
"][.	c #8A7C4D",
"^[.	c #8D7E4F",
"/[.	c #7C6B41",
"([.	c #79673C",
"_[.	c #6C6133",
":[.	c #5D5C2F",
"<[.	c #4F4823",
"[[.	c #736B3A",
"}[.	c #736737",
"|[.	c #655E31",
"1[.	c #656434",
"2[.	c #7B703E",
"3[.	c #78713E",
"4[.	c #7D7140",
"5[.	c #736B3B",
"6[.	c #5D6031",
"7[.	c #6A5C30",
"8[.	c #6D5D31",
"9[.	c #746538",
"0[.	c #8A794C",
"a[.	c #837247",
"b[.	c #6A5733",
"c[.	c #382C12",
"d[.	c #645843",
"e[.	c #685C44",
"f[.	c #6C6048",
"g[.	c #6E614C",
"h[.	c #6F634D",
"i[.	c #796D57",
"j[.	c #746751",
"k[.	c #766A54",
"l[.	c #6D614C",
"m[.	c #635642",
"n[.	c #70634D",
"o[.	c #665944",
"p[.	c #635641",
"q[.	c #665D47",
"r[.	c #605742",
"s[.	c #5D5742",
"t[.	c #5E5541",
"u[.	c #615843",
"v[.	c #615945",
"w[.	c #584F3B",
"x[.	c #565640",
"y[.	c #4F6244",
"z[.	c #44462E",
"A[.	c #58492E",
"B[.	c #616654",
"C[.	c #636155",
"D[.	c #585446",
"E[.	c #565347",
"F[.	c #5D5348",
"G[.	c #5D5247",
"H[.	c #70665A",
"I[.	c #625549",
"J[.	c #6A5D48",
"K[.	c #564B2A",
"L[.	c #8E7858",
"M[.	c #7B6548",
"N[.	c #8D7655",
"O[.	c #7E6749",
"P[.	c #897150",
"Q[.	c #7C6545",
"R[.	c #785E3F",
"S[.	c #614F2C",
"T[.	c #866D4B",
"U[.	c #846A49",
"V[.	c #7D6546",
"W[.	c #836A4A",
"X[.	c #7B6344",
"Y[.	c #826A4A",
"Z[.	c #81694B",
"`[.	c #806849",
" }.	c #796144",
".}.	c #6F583C",
"+}.	c #745B3D",
"@}.	c #775F40",
"#}.	c #755D3D",
"$}.	c #6F613E",
"%}.	c #45421F",
"&}.	c #4A5029",
"*}.	c #434C27",
"=}.	c #5E6A41",
"-}.	c #5E4F2E",
";}.	c #493C16",
">}.	c #7C7343",
",}.	c #7F794A",
"'}.	c #887B4C",
")}.	c #796B41",
"!}.	c #806F42",
"~}.	c #5E4E2B",
"{}.	c #6A5B32",
"]}.	c #766C3A",
"^}.	c #6D6534",
"/}.	c #746839",
"(}.	c #7A6C3B",
"_}.	c #7A703E",
":}.	c #6F6535",
"<}.	c #75703D",
"[}.	c #6F6436",
"}}.	c #726637",
"|}.	c #7F6F41",
"1}.	c #817046",
"2}.	c #918153",
"3}.	c #524024",
"4}.	c #423619",
"5}.	c #53472D",
"6}.	c #7B6F59",
"7}.	c #7A6D57",
"8}.	c #7A6E58",
"9}.	c #7D715B",
"0}.	c #685B46",
"a}.	c #4F432A",
"b}.	c #756953",
"c}.	c #6E624D",
"d}.	c #59503C",
"e}.	c #5D5641",
"f}.	c #5C5743",
"g}.	c #5B5540",
"h}.	c #46412D",
"i}.	c #576B4F",
"j}.	c #485639",
"k}.	c #495035",
"l}.	c #525746",
"m}.	c #615F50",
"n}.	c #49503C",
"o}.	c #676959",
"p}.	c #4C4338",
"q}.	c #5B5248",
"r}.	c #6D6359",
"s}.	c #4D4237",
"t}.	c #81766B",
"u}.	c #574B2B",
"v}.	c #524728",
"w}.	c #5D4C33",
"x}.	c #917A5A",
"y}.	c #8C7656",
"z}.	c #7F6A4B",
"A}.	c #7F6849",
"B}.	c #7F6748",
"C}.	c #88704F",
"D}.	c #725A3D",
"E}.	c #775E3F",
"F}.	c #795F41",
"G}.	c #7C6343",
"H}.	c #7D6545",
"I}.	c #806848",
"J}.	c #7C6445",
"K}.	c #816A4B",
"L}.	c #7F6749",
"M}.	c #7E6648",
"N}.	c #6C563B",
"O}.	c #786041",
"P}.	c #7A6243",
"Q}.	c #7A6140",
"R}.	c #7E6745",
"S}.	c #7B6D46",
"T}.	c #4D431D",
"U}.	c #565934",
"V}.	c #4E5A34",
"W}.	c #585835",
"X}.	c #4D4425",
"Y}.	c #50431A",
"Z}.	c #4D401B",
"`}.	c #7B7446",
" |.	c #8B8250",
".|.	c #8A7B4D",
"+|.	c #847447",
"@|.	c #6C5C33",
"#|.	c #776A39",
"$|.	c #63552A",
"%|.	c #6B6434",
"&|.	c #766E3B",
"*|.	c #726C3C",
"=|.	c #77683C",
"-|.	c #716337",
";|.	c #716138",
">|.	c #6F5E36",
",|.	c #847347",
"'|.	c #8D7D50",
")|.	c #9A8A5D",
"!|.	c #46361C",
"~|.	c #45391D",
"{|.	c #7C705A",
"]|.	c #82765F",
"^|.	c #786C56",
"/|.	c #7C6F58",
"(|.	c #675A46",
"_|.	c #594C33",
":|.	c #71654F",
"<|.	c #6F634E",
"[|.	c #685C47",
"}|.	c #5D503D",
"||.	c #6C634C",
"1|.	c #625C47",
"2|.	c #5A5842",
"3|.	c #60604B",
"4|.	c #4D553B",
"5|.	c #4D613F",
"6|.	c #4C5C3F",
"7|.	c #534328",
"8|.	c #555143",
"9|.	c #5A5749",
"0|.	c #515443",
"a|.	c #595E4E",
"b|.	c #605B51",
"c|.	c #61594E",
"d|.	c #665D51",
"e|.	c #544632",
"f|.	c #655748",
"g|.	c #584C41",
"h|.	c #534428",
"i|.	c #514526",
"j|.	c #857151",
"k|.	c #8C7758",
"l|.	c #836E4F",
"m|.	c #836D4D",
"n|.	c #866E4F",
"o|.	c #735C40",
"p|.	c #765D3F",
"q|.	c #6E5738",
"r|.	c #705638",
"s|.	c #7B6242",
"t|.	c #765F41",
"u|.	c #7E6647",
"v|.	c #7B6445",
"w|.	c #80684A",
"x|.	c #80694A",
"y|.	c #7F684A",
"z|.	c #6F593D",
"A|.	c #765E40",
"B|.	c #7B6544",
"C|.	c #7A6443",
"D|.	c #6B5538",
"E|.	c #79603F",
"F|.	c #735A3C",
"G|.	c #62512C",
"H|.	c #6E6841",
"I|.	c #585832",
"J|.	c #796D48",
"K|.	c #7C754D",
"L|.	c #4F3F22",
"M|.	c #53461E",
"N|.	c #544722",
"O|.	c #5C4F27",
"P|.	c #81734A",
"Q|.	c #73653F",
"R|.	c #807046",
"S|.	c #7E6E43",
"T|.	c #6D5D38",
"U|.	c #6F5E37",
"V|.	c #604F2C",
"W|.	c #685830",
"X|.	c #706236",
"Y|.	c #6E6233",
"Z|.	c #7B6D3D",
"`|.	c #716B39",
" 1.	c #716838",
".1.	c #766B3A",
"+1.	c #746539",
"@1.	c #716338",
"#1.	c #6D6036",
"$1.	c #64562F",
"%1.	c #706135",
"&1.	c #7B6B3E",
"*1.	c #685731",
"=1.	c #827343",
"-1.	c #88774A",
";1.	c #8B7B4E",
">1.	c #958559",
",1.	c #7E6E44",
"'1.	c #403119",
")1.	c #4F4225",
"!1.	c #4C402B",
"~1.	c #8B7F68",
"{1.	c #877B64",
"]1.	c #7E725C",
"^1.	c #776B55",
"/1.	c #53472F",
"(1.	c #7C715A",
"_1.	c #5A4D3A",
":1.	c #645640",
"<1.	c #4B4330",
"[1.	c #6F6952",
"}1.	c #615B46",
"|1.	c #4E503A",
"11.	c #576B4D",
"21.	c #4F6747",
"31.	c #5F7F51",
"41.	c #4F623E",
"51.	c #4F4229",
"61.	c #514229",
"71.	c #5B5340",
"81.	c #716C62",
"91.	c #565747",
"01.	c #626355",
"a1.	c #646157",
"b1.	c #70675E",
"c1.	c #564835",
"d1.	c #5D5045",
"e1.	c #76695E",
"f1.	c #776B5E",
"g1.	c #473A22",
"h1.	c #847051",
"i1.	c #534728",
"j1.	c #7D694B",
"k1.	c #8A7455",
"l1.	c #836C4E",
"m1.	c #786044",
"n1.	c #7D6547",
"o1.	c #685136",
"p1.	c #6E5639",
"q1.	c #513F22",
"r1.	c #6C5536",
"s1.	c #705739",
"t1.	c #715A3D",
"u1.	c #7A6344",
"v1.	c #816949",
"w1.	c #81694A",
"x1.	c #876F50",
"y1.	c #786145",
"z1.	c #846C4D",
"A1.	c #7A6346",
"B1.	c #7C6547",
"C1.	c #7D6647",
"D1.	c #7C6946",
"E1.	c #735F3F",
"F1.	c #715B3C",
"G1.	c #735C3D",
"H1.	c #715A3B",
"I1.	c #7D6442",
"J1.	c #5F4F2D",
"K1.	c #706741",
"L1.	c #5C5935",
"M1.	c #69633E",
"N1.	c #5F5634",
"O1.	c #4E3F1D",
"P1.	c #584B22",
"Q1.	c #50421F",
"R1.	c #493B19",
"S1.	c #63562F",
"T1.	c #8A7B4F",
"U1.	c #85754A",
"V1.	c #7F6E44",
"W1.	c #8B7A4C",
"X1.	c #726037",
"Y1.	c #63532D",
"Z1.	c #796C3C",
"`1.	c #766F3D",
" 2.	c #5D562D",
".2.	c #696033",
"+2.	c #574F26",
"@2.	c #685D30",
"#2.	c #6C6432",
"$2.	c #685F30",
"%2.	c #716937",
"&2.	c #766E3C",
"*2.	c #7C6D3E",
"=2.	c #716739",
"-2.	c #756C3A",
";2.	c #675D33",
">2.	c #796B3D",
",2.	c #76663C",
"'2.	c #6C5B35",
")2.	c #7C6C40",
"!2.	c #837345",
"~2.	c #857449",
"{2.	c #8C7C50",
"]2.	c #837349",
"^2.	c #5A4823",
"/2.	c #4A3E22",
"(2.	c #4F4327",
"_2.	c #4A3F25",
":2.	c #7A6E59",
"<2.	c #81755F",
"[2.	c #8B8068",
"}2.	c #7E715B",
"|2.	c #746853",
"12.	c #776A54",
"22.	c #695C48",
"32.	c #685A45",
"42.	c #6D5F49",
"52.	c #6A5E49",
"62.	c #675B46",
"72.	c #666750",
"82.	c #555C44",
"92.	c #475539",
"02.	c #4C623D",
"a2.	c #4B4D2F",
"b2.	c #594B30",
"c2.	c #54462E",
"d2.	c #6B6A5D",
"e2.	c #646154",
"f2.	c #605A50",
"g2.	c #635C52",
"h2.	c #574B3E",
"i2.	c #60554A",
"j2.	c #54483D",
"k2.	c #5A4E2E",
"l2.	c #5F5332",
"m2.	c #5C4F30",
"n2.	c #846D4F",
"o2.	c #887354",
"p2.	c #4E4223",
"q2.	c #816C4D",
"r2.	c #7F684B",
"s2.	c #80694B",
"t2.	c #6A5339",
"u2.	c #664F35",
"v2.	c #574525",
"w2.	c #7B6343",
"x2.	c #796245",
"y2.	c #7C6447",
"z2.	c #7B6446",
"A2.	c #786144",
"B2.	c #6B573B",
"C2.	c #6C5E3D",
"D2.	c #635235",
"E2.	c #7D6645",
"F2.	c #6D5739",
"G2.	c #654D31",
"H2.	c #7B6341",
"I2.	c #816B47",
"J2.	c #5E4C2E",
"K2.	c #7B6745",
"L2.	c #7A6C47",
"M2.	c #686640",
"N2.	c #575833",
"O2.	c #534327",
"P2.	c #544720",
"Q2.	c #584A25",
"R2.	c #504321",
"S2.	c #524525",
"T2.	c #574923",
"U2.	c #7B6C44",
"V2.	c #8A7A4E",
"W2.	c #86764A",
"X2.	c #817146",
"Y2.	c #72613B",
"Z2.	c #6C5C35",
"`2.	c #67562F",
" 3.	c #685B32",
".3.	c #625F33",
"+3.	c #454422",
"@3.	c #534D26",
"#3.	c #5C572B",
"$3.	c #726A36",
"%3.	c #504D25",
"&3.	c #5D572C",
"*3.	c #746E3A",
"=3.	c #786C3B",
"-3.	c #7C7341",
";3.	c #706237",
">3.	c #76693C",
",3.	c #7D6D41",
"'3.	c #7E6E42",
")3.	c #77663C",
"!3.	c #736239",
"~3.	c #7F6F43",
"{3.	c #75643C",
"]3.	c #675732",
"^3.	c #726138",
"/3.	c #746438",
"(3.	c #817143",
"_3.	c #89794C",
":3.	c #928355",
"<3.	c #918155",
"[3.	c #645427",
"}3.	c #4C3A1B",
"|3.	c #4D4126",
"13.	c #54482C",
"23.	c #4E4328",
"33.	c #3A301D",
"43.	c #80745F",
"53.	c #897E67",
"63.	c #847861",
"73.	c #6A5E4A",
"83.	c #645844",
"93.	c #584C39",
"03.	c #605440",
"a3.	c #776C57",
"b3.	c #4F6842",
"c3.	c #434F30",
"d3.	c #55472E",
"e3.	c #4A3C26",
"f3.	c #535242",
"g3.	c #6A695A",
"h3.	c #615E53",
"i3.	c #675F55",
"j3.	c #776F65",
"k3.	c #5C4F45",
"l3.	c #615449",
"m3.	c #877C72",
"n3.	c #5B4D38",
"o3.	c #5C5130",
"p3.	c #5E5231",
"q3.	c #5D5131",
"r3.	c #5B4931",
"s3.	c #7C6549",
"t3.	c #786348",
"u3.	c #3F3519",
"v3.	c #6E5A3E",
"w3.	c #846D4E",
"x3.	c #7D6649",
"y3.	c #765F42",
"z3.	c #6F593B",
"A3.	c #534422",
"B3.	c #7A6040",
"C3.	c #7E6748",
"D3.	c #7A6244",
"E3.	c #725C40",
"F3.	c #766043",
"G3.	c #624E34",
"H3.	c #725F3F",
"I3.	c #756341",
"J3.	c #786342",
"K3.	c #665134",
"L3.	c #715939",
"M3.	c #725C39",
"N3.	c #6E5636",
"O3.	c #775F3E",
"P3.	c #7A613F",
"Q3.	c #876F4A",
"R3.	c #806946",
"S3.	c #7F6D47",
"T3.	c #554621",
"U3.	c #685537",
"V3.	c #7A6746",
"W3.	c #6E6440",
"X3.	c #6B6040",
"Y3.	c #322D13",
"Z3.	c #473819",
"`3.	c #564923",
" 4.	c #5A4C27",
".4.	c #534621",
"+4.	c #5E512E",
"@4.	c #433410",
"#4.	c #473B17",
"$4.	c #796943",
"%4.	c #7B6B42",
"&4.	c #7B6A41",
"*4.	c #6B5A34",
"=4.	c #6E5E35",
"-4.	c #64582E",
";4.	c #655B2F",
">4.	c #58562C",
",4.	c #4E4B23",
"'4.	c #736937",
")4.	c #796E3B",
"!4.	c #746A38",
"~4.	c #766A3D",
"{4.	c #7B6D40",
"]4.	c #7E7142",
"^4.	c #7E7444",
"/4.	c #74683C",
"(4.	c #796B3E",
"_4.	c #7B6B41",
":4.	c #6E5E38",
"<4.	c #6D5D36",
"[4.	c #7D6D42",
"}4.	c #71613A",
"|4.	c #6E5D35",
"14.	c #62522D",
"24.	c #6D5E35",
"34.	c #806F41",
"44.	c #88784A",
"54.	c #928254",
"64.	c #98885B",
"74.	c #77673B",
"84.	c #4D3B12",
"94.	c #4F4127",
"04.	c #51462A",
"a4.	c #594D30",
"b4.	c #52472C",
"c4.	c #544A2D",
"d4.	c #5A4E39",
"e4.	c #847862",
"f4.	c #6F634F",
"g4.	c #695D49",
"h4.	c #70644F",
"i4.	c #7B7059",
"j4.	c #786B55",
"k4.	c #71644F",
"l4.	c #4C402D",
"m4.	c #4E442F",
"n4.	c #7D715A",
"o4.	c #5F5B46",
"p4.	c #4A5B3D",
"q4.	c #50623F",
"r4.	c #55482F",
"s4.	c #584A30",
"t4.	c #574C36",
"u4.	c #5F5D51",
"v4.	c #61594F",
"w4.	c #665B51",
"x4.	c #776C5C",
"y4.	c #82776C",
"z4.	c #615534",
"A4.	c #645837",
"B4.	c #655A38",
"C4.	c #584B2F",
"D4.	c #614B30",
"E4.	c #7E694C",
"F4.	c #443A1B",
"G4.	c #7D6849",
"H4.	c #796246",
"I4.	c #55452A",
"J4.	c #46381D",
"K4.	c #7C6344",
"L4.	c #786143",
"M4.	c #6E593C",
"N4.	c #7C6649",
"O4.	c #7C6548",
"P4.	c #715B3F",
"Q4.	c #6D583C",
"R4.	c #6B583B",
"S4.	c #5E5032",
"T4.	c #6C5D3C",
"U4.	c #5C4E30",
"V4.	c #634F32",
"W4.	c #7A6241",
"X4.	c #634C31",
"Y4.	c #6D5637",
"Z4.	c #6A5233",
"`4.	c #86704A",
" 5.	c #84704B",
".5.	c #7C6C47",
"+5.	c #716340",
"@5.	c #6E6741",
"#5.	c #786E4A",
"$5.	c #6C6040",
"%5.	c #47361D",
"&5.	c #584B23",
"*5.	c #544621",
"=5.	c #554823",
"-5.	c #4E411F",
";5.	c #493C1D",
">5.	c #43350C",
",5.	c #54461C",
"'5.	c #4F421F",
")5.	c #88784D",
"!5.	c #89794D",
"~5.	c #76653E",
"{5.	c #7C6C41",
"]5.	c #75643B",
"^5.	c #66552F",
"/5.	c #5C4C28",
"(5.	c #5F512A",
"_5.	c #3F3E1B",
":5.	c #4C572D",
"<5.	c #59552C",
"[5.	c #6A6637",
"}5.	c #756D3B",
"|5.	c #766A39",
"15.	c #7C6F3F",
"25.	c #7D6E3F",
"35.	c #76673C",
"45.	c #7D6F42",
"55.	c #7C6D41",
"65.	c #71673B",
"75.	c #7B7042",
"85.	c #807144",
"95.	c #7D6E43",
"05.	c #78683E",
"a5.	c #706139",
"b5.	c #77673E",
"c5.	c #6F5F38",
"d5.	c #64542E",
"e5.	c #807043",
"f5.	c #867547",
"g5.	c #7F6E43",
"h5.	c #9A8B5F",
"i5.	c #8F7F54",
"j5.	c #4C3C10",
"k5.	c #55492F",
"l5.	c #5E5235",
"m5.	c #54492E",
"n5.	c #51452B",
"o5.	c #50442B",
"p5.	c #706450",
"q5.	c #7D725C",
"r5.	c #695E4A",
"s5.	c #7B6E58",
"t5.	c #746852",
"u5.	c #4D412E",
"v5.	c #5E523F",
"w5.	c #6F614C",
"x5.	c #4C422B",
"y5.	c #7D725A",
"z5.	c #827862",
"A5.	c #716C57",
"B5.	c #627156",
"C5.	c #504D34",
"D5.	c #584A32",
"E5.	c #5A4C34",
"F5.	c #64553A",
"G5.	c #3F3527",
"H5.	c #696258",
"I5.	c #60574D",
"J5.	c #615342",
"K5.	c #74665A",
"L5.	c #766A5D",
"M5.	c #71675C",
"N5.	c #7F7368",
"O5.	c #655A39",
"P5.	c #695E3D",
"Q5.	c #625737",
"R5.	c #594E31",
"S5.	c #4D3F24",
"T5.	c #664F32",
"U5.	c #8D7558",
"V5.	c #857052",
"W5.	c #463B1E",
"X5.	c #4F4224",
"Y5.	c #58492B",
"Z5.	c #7D6648",
"`5.	c #806749",
" 6.	c #6E563A",
".6.	c #785F3E",
"+6.	c #7C6546",
"@6.	c #796143",
"#6.	c #735F41",
"$6.	c #6A553C",
"%6.	c #705A3E",
"&6.	c #786344",
"*6.	c #766243",
"=6.	c #6D5B3C",
"-6.	c #6F5F3E",
";6.	c #635236",
">6.	c #604E33",
",6.	c #675436",
"'6.	c #6A5637",
")6.	c #674F32",
"!6.	c #715837",
"~6.	c #816A46",
"{6.	c #806E48",
"]6.	c #7D6B46",
"^6.	c #6C5C39",
"/6.	c #605532",
"(6.	c #574C2D",
"_6.	c #716A43",
":6.	c #60603A",
"<6.	c #65593A",
"[6.	c #6D5D3A",
"}6.	c #534023",
"|6.	c #60522B",
"16.	c #63552D",
"26.	c #574925",
"36.	c #5C4F26",
"46.	c #4A3E1E",
"56.	c #44350A",
"66.	c #514620",
"76.	c #87764C",
"86.	c #77673F",
"96.	c #6B5B35",
"06.	c #5E4E29",
"a6.	c #4B4723",
"b6.	c #46572B",
"c6.	c #3F5026",
"d6.	c #4A4C27",
"e6.	c #74643B",
"f6.	c #6C5D33",
"g6.	c #7F7245",
"h6.	c #776A3E",
"i6.	c #77693F",
"j6.	c #7E7145",
"k6.	c #70613B",
"l6.	c #78693F",
"m6.	c #6F6038",
"n6.	c #7A6A3F",
"o6.	c #73653B",
"p6.	c #695934",
"q6.	c #7B6A3F",
"r6.	c #88784B",
"s6.	c #8E7F53",
"t6.	c #938359",
"u6.	c #53441E",
"v6.	c #493713",
"w6.	c #584D32",
"x6.	c #5A4F35",
"y6.	c #62563A",
"z6.	c #5F5438",
"A6.	c #5C5035",
"B6.	c #594E32",
"C6.	c #52462C",
"D6.	c #403624",
"E6.	c #766E5A",
"F6.	c #746854",
"G6.	c #5D513F",
"H6.	c #796E59",
"I6.	c #5C4F3C",
"J6.	c #615540",
"K6.	c #7E735D",
"L6.	c #837761",
"M6.	c #685B48",
"N6.	c #79725E",
"O6.	c #4C4432",
"P6.	c #51432D",
"Q6.	c #584B33",
"R6.	c #5C4D33",
"S6.	c #423A30",
"T6.	c #7E756B",
"U6.	c #5C5147",
"V6.	c #62564B",
"W6.	c #5F5348",
"X6.	c #756B5F",
"Y6.	c #857B70",
"Z6.	c #5C5031",
"`6.	c #665B3A",
" 7.	c #6D6141",
".7.	c #675C3E",
"+7.	c #5B4F33",
"@7.	c #5A4F31",
"#7.	c #514529",
"$7.	c #463013",
"%7.	c #8E775B",
"&7.	c #7C674B",
"*7.	c #655536",
"=7.	c #887053",
"-7.	c #876F51",
";7.	c #765F44",
">7.	c #775D3E",
",7.	c #745C3F",
"'7.	c #7A6345",
")7.	c #7B6447",
"!7.	c #7D6749",
"~7.	c #816A4C",
"{7.	c #826B4E",
"]7.	c #7D674A",
"^7.	c #7A6447",
"/7.	c #786245",
"(7.	c #6F5B3E",
"_7.	c #7A6646",
":7.	c #746041",
"<7.	c #735F40",
"[7.	c #7A6445",
"}7.	c #725C3F",
"|7.	c #614C30",
"17.	c #634C30",
"27.	c #6F5737",
"37.	c #766642",
"47.	c #504724",
"57.	c #473F22",
"67.	c #605635",
"77.	c #555030",
"87.	c #65643D",
"97.	c #625A38",
"07.	c #42331B",
"a7.	c #594A26",
"b7.	c #60532C",
"c7.	c #61542F",
"d7.	c #62552F",
"e7.	c #645730",
"f7.	c #63562E",
"g7.	c #5C4F2A",
"h7.	c #43340B",
"i7.	c #594A1E",
"j7.	c #72633C",
"k7.	c #6E5F3A",
"l7.	c #71603D",
"m7.	c #685834",
"n7.	c #665A2E",
"o7.	c #646133",
"p7.	c #586536",
"q7.	c #5B582E",
"r7.	c #766A3B",
"s7.	c #7D6E41",
"t7.	c #7F6F42",
"u7.	c #77683D",
"v7.	c #7C7044",
"w7.	c #645D34",
"x7.	c #6F613A",
"y7.	c #76693E",
"z7.	c #716139",
"A7.	c #7C6D42",
"B7.	c #786A3F",
"C7.	c #6C5D36",
"D7.	c #74643A",
"E7.	c #63532B",
"F7.	c #8C7B4D",
"G7.	c #918156",
"H7.	c #47370A",
"I7.	c #4C3C23",
"J7.	c #574B33",
"K7.	c #5E5238",
"L7.	c #64583D",
"M7.	c #665B3E",
"N7.	c #63583B",
"O7.	c #564B30",
"P7.	c #463C29",
"Q7.	c #6B6651",
"R7.	c #5C5039",
"S7.	c #544735",
"T7.	c #6B5F4A",
"U7.	c #605441",
"V7.	c #51452E",
"W7.	c #827761",
"X7.	c #897E68",
"Y7.	c #4D4432",
"Z7.	c #4A3B26",
"`7.	c #64563C",
" 8.	c #50412D",
".8.	c #554A39",
"+8.	c #4D3E26",
"@8.	c #564939",
"#8.	c #615549",
"$8.	c #60564B",
"%8.	c #584F43",
"&8.	c #5D5246",
"*8.	c #5F5549",
"=8.	c #685D3D",
"-8.	c #5F5437",
";8.	c #64593A",
">8.	c #5C5134",
",8.	c #665B3B",
"'8.	c #5C5132",
")8.	c #504027",
"!8.	c #493419",
"~8.	c #7E674C",
"{8.	c #6B5B3B",
"]8.	c #846D50",
"^8.	c #80684B",
"/8.	c #7A6245",
"(8.	c #796141",
"_8.	c #826B4C",
":8.	c #796244",
"<8.	c #836C4F",
"[8.	c #705B40",
"}8.	c #7F694C",
"|8.	c #69573A",
"18.	c #766245",
"28.	c #725D41",
"38.	c #776244",
"48.	c #7A6446",
"58.	c #6B563A",
"68.	c #705E3F",
"78.	c #604D32",
"88.	c #645134",
"98.	c #6B5536",
"08.	c #6B5635",
"a8.	c #7B6540",
"b8.	c #7F6844",
"c8.	c #5B4B24",
"d8.	c #736742",
"e8.	c #62603A",
"f8.	c #726B46",
"g8.	c #5D5A35",
"h8.	c #4A4A26",
"i8.	c #3B3014",
"j8.	c #5B4D27",
"k8.	c #61542D",
"l8.	c #685B34",
"m8.	c #655832",
"n8.	c #655831",
"o8.	c #524425",
"p8.	c #44340A",
"q8.	c #665630",
"r8.	c #6F5F3A",
"s8.	c #696134",
"t8.	c #57592F",
"u8.	c #565C31",
"v8.	c #51502A",
"w8.	c #85764A",
"x8.	c #64562E",
"y8.	c #74673F",
"z8.	c #786C40",
"A8.	c #807346",
"B8.	c #72633D",
"C8.	c #7F7145",
"D8.	c #7A6C42",
"E8.	c #6E6039",
"F8.	c #796B3F",
"G8.	c #7C7143",
"H8.	c #6A5B36",
"I8.	c #7A6940",
"J8.	c #837246",
"K8.	c #908053",
"L8.	c #938357",
"M8.	c #48380C",
"N8.	c #4E3D20",
"O8.	c #685C40",
"P8.	c #655A3E",
"Q8.	c #675C40",
"R8.	c #665A3F",
"S8.	c #665A3E",
"T8.	c #5D5237",
"U8.	c #50452C",
"V8.	c #4E432A",
"W8.	c #312918",
"X8.	c #534A36",
"Y8.	c #584C3A",
"Z8.	c #665945",
"`8.	c #736852",
" 9.	c #6B5E4A",
".9.	c #685B47",
"+9.	c #635742",
"@9.	c #7C715B",
"#9.	c #857A63",
"$9.	c #837862",
"%9.	c #605439",
"&9.	c #5D5138",
"*9.	c #6F6045",
"=9.	c #574C41",
"-9.	c #463F33",
";9.	c #584D42",
">9.	c #675D52",
",9.	c #62584D",
"'9.	c #62584E",
")9.	c #8B8278",
"!9.	c #655A3B",
"~9.	c #63583A",
"{9.	c #695E3F",
"]9.	c #685D3E",
"^9.	c #726746",
"/9.	c #6A5F3F",
"(9.	c #6D6241",
"_9.	c #655A3A",
":9.	c #645938",
"<9.	c #3A2711",
"[9.	c #4C371C",
"}9.	c #6A5638",
"|9.	c #6A5A3B",
"19.	c #866F52",
"29.	c #80694C",
"39.	c #755E42",
"49.	c #7A6143",
"59.	c #6C5438",
"69.	c #826B4D",
"79.	c #7E684A",
"89.	c #776145",
"99.	c #786246",
"09.	c #7B674A",
"a9.	c #7A6A4A",
"b9.	c #715C41",
"c9.	c #6B553B",
"d9.	c #735E40",
"e9.	c #695436",
"f9.	c #715C3B",
"g9.	c #6D633C",
"h9.	c #776842",
"i9.	c #7B6944",
"j9.	c #806A46",
"k9.	c #735D3A",
"l9.	c #705C3B",
"m9.	c #786B46",
"n9.	c #5F5836",
"o9.	c #6D6240",
"p9.	c #5A5B34",
"q9.	c #32330E",
"r9.	c #584827",
"s9.	c #61552F",
"t9.	c #675A35",
"u9.	c #6C5F38",
"v9.	c #594D2C",
"w9.	c #645832",
"x9.	c #6A5F38",
"y9.	c #665934",
"z9.	c #5D502C",
"A9.	c #3C2E0F",
"B9.	c #4C3E17",
"C9.	c #5B4D2A",
"D9.	c #6E5F38",
"E9.	c #564A25",
"F9.	c #564E23",
"G9.	c #645A31",
"H9.	c #665E33",
"I9.	c #494B27",
"J9.	c #45542A",
"K9.	c #4B4A26",
"L9.	c #776D3C",
"M9.	c #7F6F44",
"N9.	c #716238",
"O9.	c #827248",
"P9.	c #84754A",
"Q9.	c #7B6C43",
"R9.	c #4D401A",
"S9.	c #7A6E42",
"T9.	c #7F7146",
"U9.	c #817248",
"V9.	c #817348",
"W9.	c #796D41",
"X9.	c #6E6139",
"Y9.	c #776C40",
"Z9.	c #807045",
"`9.	c #79683F",
" 0.	c #6F5D37",
".0.	c #78663C",
"+0.	c #7C6A3E",
"@0.	c #877748",
"#0.	c #928153",
"$0.	c #928257",
"%0.	c #4C3D14",
"&0.	c #5D5236",
"*0.	c #675C3F",
"=0.	c #6D6246",
"-0.	c #6B5F43",
";0.	c #5C5137",
">0.	c #5A5035",
",0.	c #615639",
"'0.	c #473C27",
")0.	c #3A3321",
"!0.	c #585240",
"~0.	c #68614E",
"{0.	c #716652",
"]0.	c #5C5239",
"^0.	c #4B4026",
"/0.	c #51462D",
"(0.	c #5C503D",
"_0.	c #655945",
":0.	c #736752",
"<0.	c #766B56",
"[0.	c #615441",
"}0.	c #5A4E3B",
"|0.	c #514431",
"10.	c #544734",
"20.	c #7F735D",
"30.	c #887E68",
"40.	c #8E826C",
"50.	c #55452D",
"60.	c #615339",
"70.	c #706047",
"80.	c #61523A",
"90.	c #47392A",
"00.	c #4D4238",
"a0.	c #6C6258",
"b0.	c #675E53",
"c0.	c #484035",
"d0.	c #595146",
"e0.	c #5B5348",
"f0.	c #564C41",
"g0.	c #45392E",
"h0.	c #645D53",
"i0.	c #5B5147",
"j0.	c #756D64",
"k0.	c #5B5043",
"l0.	c #5E5335",
"m0.	c #6A5E3F",
"n0.	c #6D6242",
"o0.	c #5C5136",
"p0.	c #685D3F",
"q0.	c #6B6041",
"r0.	c #6E6343",
"s0.	c #625739",
"t0.	c #5D5234",
"u0.	c #564A2E",
"v0.	c #422D13",
"w0.	c #554325",
"x0.	c #8C7558",
"y0.	c #8D7658",
"z0.	c #715B42",
"A0.	c #725A3E",
"B0.	c #755E41",
"C0.	c #6A5537",
"D0.	c #715B40",
"E0.	c #7B6549",
"F0.	c #6E593E",
"G0.	c #745E43",
"H0.	c #7F6A4C",
"I0.	c #6F5D3C",
"J0.	c #786346",
"K0.	c #6F5A3E",
"L0.	c #695B3B",
"M0.	c #645336",
"N0.	c #655334",
"O0.	c #71623D",
"P0.	c #665A38",
"Q0.	c #645936",
"R0.	c #665737",
"S0.	c #75613D",
"T0.	c #796544",
"U0.	c #8A7453",
"V0.	c #7C6B4C",
"W0.	c #635C3C",
"X0.	c #424921",
"Y0.	c #382C10",
"Z0.	c #62552E",
"`0.	c #62542F",
" a.	c #655933",
".a.	c #685B37",
"+a.	c #5D5130",
"@a.	c #635834",
"#a.	c #605733",
"$a.	c #665A36",
"%a.	c #41320D",
"&a.	c #493A15",
"*a.	c #84744B",
"=a.	c #7D6C46",
"-a.	c #847449",
";a.	c #766D41",
">a.	c #484825",
",a.	c #56562D",
"'a.	c #59582F",
")a.	c #454C27",
"!a.	c #344320",
"~a.	c #5C6A3A",
"{a.	c #696335",
"]a.	c #7E6F43",
"^a.	c #847448",
"/a.	c #65562C",
"(a.	c #837348",
"_a.	c #817147",
":a.	c #42350E",
"<a.	c #807247",
"[a.	c #807449",
"}a.	c #776942",
"|a.	c #756840",
"1a.	c #6F633B",
"2a.	c #7B7545",
"3a.	c #7D7346",
"4a.	c #756940",
"5a.	c #7A6B40",
"6a.	c #6A5934",
"7a.	c #6A5A32",
"8a.	c #74633A",
"9a.	c #89794A",
"0a.	c #8D7D4F",
"aa.	c #948457",
"ba.	c #88794C",
"ca.	c #524320",
"da.	c #55482E",
"ea.	c #61553C",
"fa.	c #584D35",
"ga.	c #655A3F",
"ha.	c #6F6449",
"ia.	c #716649",
"ja.	c #62573B",
"ka.	c #594E34",
"la.	c #554A30",
"ma.	c #524930",
"na.	c #474633",
"oa.	c #54503C",
"pa.	c #5B523F",
"qa.	c #534831",
"ra.	c #453921",
"sa.	c #4D4128",
"ta.	c #786C57",
"ua.	c #5B4E3C",
"va.	c #605340",
"wa.	c #514830",
"xa.	c #827760",
"ya.	c #877C65",
"za.	c #8D826B",
"Aa.	c #4E412A",
"Ba.	c #5F5139",
"Ca.	c #706148",
"Da.	c #65563E",
"Ea.	c #65584E",
"Fa.	c #685E53",
"Ga.	c #6B6459",
"Ha.	c #5F554A",
"Ia.	c #61574C",
"Ja.	c #61584D",
"Ka.	c #5A5247",
"La.	c #4B4438",
"Ma.	c #544D42",
"Na.	c #544D44",
"Oa.	c #4E453A",
"Pa.	c #5D5134",
"Qa.	c #655A3C",
"Ra.	c #6C6141",
"Sa.	c #706546",
"Ta.	c #675D3F",
"Ua.	c #574C2F",
"Va.	c #564429",
"Wa.	c #90795C",
"Xa.	c #856E52",
"Ya.	c #755E44",
"Za.	c #856D50",
"`a.	c #876E4E",
" b.	c #816849",
".b.	c #806745",
"+b.	c #7E684B",
"@b.	c #7A6548",
"#b.	c #7E694B",
"$b.	c #736043",
"%b.	c #675539",
"&b.	c #68553A",
"*b.	c #735E41",
"=b.	c #6E5A3D",
"-b.	c #615335",
";b.	c #56492D",
">b.	c #5A4C2F",
",b.	c #59482C",
"'b.	c #6E5E3C",
")b.	c #6D5D3C",
"!b.	c #776543",
"~b.	c #846E4D",
"{b.	c #877152",
"]b.	c #937F5E",
"^b.	c #44391F",
"/b.	c #342D10",
"(b.	c #61532F",
"_b.	c #6D5F39",
":b.	c #6C5F3B",
"<b.	c #594F2E",
"[b.	c #574D2D",
"}b.	c #574B2D",
"|b.	c #6B5E38",
"1b.	c #5E522F",
"2b.	c #5B4E2A",
"3b.	c #574A27",
"4b.	c #36290A",
"5b.	c #52431B",
"6b.	c #776742",
"7b.	c #7B6C46",
"8b.	c #42582D",
"9b.	c #3D3B16",
"0b.	c #3E5126",
"ab.	c #3C5028",
"bb.	c #354F26",
"cb.	c #4A552E",
"db.	c #56572F",
"eb.	c #625C30",
"fb.	c #786E3E",
"gb.	c #7B6B3F",
"hb.	c #827247",
"ib.	c #7C6C43",
"jb.	c #83744A",
"kb.	c #7D6E45",
"lb.	c #7B6D43",
"mb.	c #706238",
"nb.	c #63572D",
"ob.	c #695B38",
"pb.	c #84764C",
"qb.	c #71653E",
"rb.	c #807549",
"sb.	c #7D7548",
"tb.	c #7D7247",
"ub.	c #7C6F43",
"vb.	c #70613A",
"wb.	c #78673D",
"xb.	c #887848",
"yb.	c #8C7C4D",
"zb.	c #908051",
"Ab.	c #938356",
"Bb.	c #50421D",
"Cb.	c #46350E",
"Db.	c #6C6044",
"Eb.	c #6D6247",
"Fb.	c #685D42",
"Gb.	c #5C5037",
"Hb.	c #4C412B",
"Ib.	c #433924",
"Jb.	c #4C432B",
"Kb.	c #392F1E",
"Lb.	c #2D2716",
"Mb.	c #312B1B",
"Nb.	c #4C422C",
"Ob.	c #584D38",
"Pb.	c #53482B",
"Qb.	c #55492D",
"Rb.	c #77715B",
"Sb.	c #7B6F5A",
"Tb.	c #766A55",
"Ub.	c #493C27",
"Vb.	c #7F745C",
"Wb.	c #7F745D",
"Xb.	c #847963",
"Yb.	c #80755F",
"Zb.	c #4E3F2C",
"`b.	c #493D28",
" c.	c #61543A",
".c.	c #594C35",
"+c.	c #594D36",
"@c.	c #63573F",
"#c.	c #64553D",
"$c.	c #3E3329",
"%c.	c #5F5242",
"&c.	c #595045",
"*c.	c #5F564B",
"=c.	c #4A4137",
"-c.	c #4E463B",
";c.	c #636255",
">c.	c #6F6F63",
",c.	c #626052",
"'c.	c #574C30",
")c.	c #675C3C",
"!c.	c #716646",
"~c.	c #736848",
"{c.	c #716647",
"]c.	c #6D6244",
"^c.	c #6D6243",
"/c.	c #64593B",
"(c.	c #594D31",
"_c.	c #5F5435",
":c.	c #5E5232",
"<c.	c #8C7559",
"[c.	c #816A4E",
"}c.	c #826A4C",
"|c.	c #745C40",
"1c.	c #836C4D",
"2c.	c #635032",
"3c.	c #7C6648",
"4c.	c #7B6448",
"5c.	c #796345",
"6c.	c #776044",
"7c.	c #745E42",
"8c.	c #755F44",
"9c.	c #796346",
"0c.	c #7A6549",
"ac.	c #796548",
"bc.	c #7B6749",
"cc.	c #786447",
"dc.	c #746144",
"ec.	c #7A6648",
"fc.	c #715C40",
"gc.	c #6C5B3D",
"hc.	c #675437",
"ic.	c #5F4D30",
"jc.	c #796541",
"kc.	c #705C3D",
"lc.	c #7B6844",
"mc.	c #7A6545",
"nc.	c #5D4D2E",
"oc.	c #7F6C4C",
"pc.	c #907C5C",
"qc.	c #816D4C",
"rc.	c #5E522E",
"sc.	c #6F633C",
"tc.	c #766A42",
"uc.	c #6D613D",
"vc.	c #695F3B",
"wc.	c #685E3A",
"xc.	c #5E5331",
"yc.	c #6E633D",
"zc.	c #6C603B",
"Ac.	c #655834",
"Bc.	c #635630",
"Cc.	c #574A28",
"Dc.	c #342609",
"Ec.	c #4B3E18",
"Fc.	c #6C603A",
"Gc.	c #7D7549",
"Hc.	c #455C31",
"Ic.	c #404820",
"Jc.	c #3E4D25",
"Kc.	c #46562B",
"Lc.	c #3C572C",
"Mc.	c #4F6435",
"Nc.	c #605931",
"Oc.	c #79703F",
"Pc.	c #847746",
"Qc.	c #7E6F42",
"Rc.	c #7F7043",
"Sc.	c #796940",
"Tc.	c #7F7046",
"Uc.	c #5E5028",
"Vc.	c #807148",
"Wc.	c #83764B",
"Xc.	c #493B14",
"Yc.	c #382710",
"Zc.	c #736741",
"`c.	c #736441",
" d.	c #7F764B",
".d.	c #736C42",
"+d.	c #787045",
"@d.	c #7B7648",
"#d.	c #625B36",
"$d.	c #615733",
"%d.	c #72673D",
"&d.	c #75653D",
"*d.	c #6E5D38",
"=d.	c #8D7D4E",
"-d.	c #8C7B4E",
";d.	c #978759",
">d.	c #47380F",
",d.	c #4A3910",
"'d.	c #584B30",
")d.	c #655A3D",
"!d.	c #61553B",
"~d.	c #6E6347",
"{d.	c #544831",
"]d.	c #5C5238",
"^d.	c #524A31",
"/d.	c #4A422B",
"(d.	c #564C32",
"_d.	c #493E29",
":d.	c #3F3925",
"<d.	c #3A321E",
"[d.	c #433C26",
"}d.	c #463C28",
"|d.	c #554A2F",
"1d.	c #50452B",
"2d.	c #5B5035",
"3d.	c #756A55",
"4d.	c #726652",
"5d.	c #5D513C",
"6d.	c #7C7059",
"7d.	c #837760",
"8d.	c #857963",
"9d.	c #4D3E2B",
"0d.	c #403421",
"ad.	c #483F29",
"bd.	c #4B3E2A",
"cd.	c #6B5C43",
"dd.	c #5C4D37",
"ed.	c #40352C",
"fd.	c #796F64",
"gd.	c #665C52",
"hd.	c #6A6156",
"id.	c #695F54",
"jd.	c #5D5449",
"kd.	c #625C51",
"ld.	c #605E52",
"md.	c #737361",
"nd.	c #645839",
"od.	c #6A5F40",
"pd.	c #6F6344",
"qd.	c #6A5F41",
"rd.	c #74694A",
"sd.	c #6A5E41",
"td.	c #695E3E",
"ud.	c #675C3B",
"vd.	c #615637",
"wd.	c #46331C",
"xd.	c #8B7458",
"yd.	c #8B7457",
"zd.	c #7D664B",
"Ad.	c #8C7353",
"Bd.	c #856C4D",
"Cd.	c #826849",
"Dd.	c #775E40",
"Ed.	c #796041",
"Fd.	c #816A4A",
"Gd.	c #776343",
"Hd.	c #6F593E",
"Id.	c #755F43",
"Jd.	c #796347",
"Kd.	c #796448",
"Ld.	c #6E5B41",
"Md.	c #7A694A",
"Nd.	c #695839",
"Od.	c #746145",
"Pd.	c #786347",
"Qd.	c #645137",
"Rd.	c #756243",
"Sd.	c #645036",
"Td.	c #705F3E",
"Ud.	c #715F3E",
"Vd.	c #6D603D",
"Wd.	c #71623F",
"Xd.	c #816F4C",
"Yd.	c #857450",
"Zd.	c #7F6F4D",
"`d.	c #695C35",
" e.	c #5A462A",
".e.	c #5E522D",
"+e.	c #6B5F38",
"@e.	c #776B45",
"#e.	c #5F5333",
"$e.	c #6A5F3B",
"%e.	c #635937",
"&e.	c #70633E",
"*e.	c #6F623C",
"=e.	c #625530",
"-e.	c #5C4E2A",
";e.	c #44371B",
">e.	c #4B3E14",
",e.	c #4B4825",
"'e.	c #535D30",
")e.	c #4F5A33",
"!e.	c #484D27",
"~e.	c #455228",
"{e.	c #464926",
"]e.	c #5C542E",
"^e.	c #807444",
"/e.	c #7B6B40",
"(e.	c #75653C",
"_e.	c #827346",
":e.	c #827245",
"<e.	c #817246",
"[e.	c #6C5D35",
"}e.	c #7C6D45",
"|e.	c #807147",
"1e.	c #85764C",
"2e.	c #7D6F46",
"3e.	c #31250B",
"4e.	c #7C6F49",
"5e.	c #6C6840",
"6e.	c #5A5F38",
"7e.	c #5E663C",
"8e.	c #474928",
"9e.	c #605E39",
"0e.	c #665A35",
"ae.	c #786840",
"be.	c #73633B",
"ce.	c #8C7C4E",
"de.	c #8C7B4F",
"ee.	c #49390C",
"fe.	c #3A290D",
"ge.	c #54472E",
"he.	c #6A5E42",
"ie.	c #675B40",
"je.	c #6C6145",
"ke.	c #554A32",
"le.	c #574F36",
"me.	c #61593E",
"ne.	c #61573B",
"oe.	c #61563A",
"pe.	c #3A3523",
"qe.	c #251E0F",
"re.	c #302B1B",
"se.	c #57523C",
"te.	c #574B30",
"ue.	c #776B56",
"ve.	c #6D614D",
"we.	c #6C604C",
"xe.	c #645744",
"ye.	c #564937",
"ze.	c #60563C",
"Ae.	c #867A63",
"Be.	c #877C66",
"Ce.	c #897D67",
"De.	c #41331F",
"Ee.	c #403924",
"Fe.	c #584F35",
"Ge.	c #4F4730",
"He.	c #5A4D37",
"Ie.	c #564D37",
"Je.	c #685E46",
"Ke.	c #6B5C44",
"Le.	c #67583F",
"Me.	c #4E402C",
"Ne.	c #45392F",
"Oe.	c #5C4E3C",
"Pe.	c #53473D",
"Qe.	c #635A4F",
"Re.	c #5B5247",
"Se.	c #565045",
"Te.	c #514634",
"Ue.	c #5F5436",
"Ve.	c #6F6444",
"We.	c #6C6143",
"Xe.	c #726848",
"Ye.	c #6C6144",
"Ze.	c #796E4F",
"`e.	c #6F6547",
" f.	c #6B6042",
".f.	c #6C6243",
"+f.	c #4F4329",
"@f.	c #543F25",
"#f.	c #836B4E",
"$f.	c #897152",
"%f.	c #7F6647",
"&f.	c #826A49",
"*f.	c #786343",
"=f.	c #7C6747",
"-f.	c #866F50",
";f.	c #856D4F",
">f.	c #745F44",
",f.	c #715D42",
"'f.	c #735F43",
")f.	c #6C5A3F",
"!f.	c #584829",
"~f.	c #836D4F",
"{f.	c #645038",
"]f.	c #6E5A3F",
"^f.	c #675439",
"/f.	c #705C40",
"(f.	c #69563A",
"_f.	c #5D4E32",
":f.	c #796645",
"<f.	c #635234",
"[f.	c #605436",
"}f.	c #5F5334",
"|f.	c #776947",
"1f.	c #8E7B5A",
"2f.	c #7E6B4B",
"3f.	c #513E25",
"4f.	c #675934",
"5f.	c #675A34",
"6f.	c #6C5F37",
"7f.	c #70633C",
"8f.	c #756943",
"9f.	c #7A6D46",
"0f.	c #7B6E47",
"af.	c #756842",
"bf.	c #726641",
"cf.	c #786C46",
"df.	c #766942",
"ef.	c #524627",
"ff.	c #514422",
"gf.	c #382B09",
"hf.	c #403A10",
"if.	c #4B4520",
"jf.	c #53532E",
"kf.	c #5C5D36",
"lf.	c #6B663B",
"mf.	c #4E4A25",
"nf.	c #4B4F27",
"of.	c #6C663A",
"pf.	c #7B6F42",
"qf.	c #695A32",
"rf.	c #786941",
"sf.	c #84754C",
"tf.	c #83744C",
"uf.	c #776843",
"vf.	c #887A50",
"wf.	c #8B7D53",
"xf.	c #54492A",
"yf.	c #43371C",
"zf.	c #746D45",
"Af.	c #545533",
"Bf.	c #646A42",
"Cf.	c #706F46",
"Df.	c #7F7249",
"Ef.	c #72623D",
"Ff.	c #807047",
"Gf.	c #786841",
"Hf.	c #88784C",
"If.	c #756640",
"Jf.	c #5C4D27",
"Kf.	c #45350D",
"Lf.	c #44351D",
"Mf.	c #5B4F34",
"Nf.	c #5E5337",
"Of.	c #655A40",
"Pf.	c #706449",
"Qf.	c #716549",
"Rf.	c #71664A",
"Sf.	c #675D42",
"Tf.	c #64593E",
"Uf.	c #5C5138",
"Vf.	c #362F1E",
"Wf.	c #2E2D19",
"Xf.	c #31321F",
"Yf.	c #565036",
"Zf.	c #564B31",
"`f.	c #4F442C",
" g.	c #534A31",
".g.	c #7C755F",
"+g.	c #7F745E",
"@g.	c #675C48",
"#g.	c #645743",
"$g.	c #685C48",
"%g.	c #837861",
"&g.	c #81755D",
"*g.	c #4D3F2B",
"=g.	c #414028",
"-g.	c #43432A",
";g.	c #383421",
">g.	c #554C35",
",g.	c #574D38",
"'g.	c #504531",
")g.	c #63543D",
"!g.	c #5E5037",
"~g.	c #56472F",
"{g.	c #4E4134",
"]g.	c #73665C",
"^g.	c #80746A",
"/g.	c #574A36",
"(g.	c #594E44",
"_g.	c #736D62",
":g.	c #6A6358",
"<g.	c #6E6243",
"[g.	c #746949",
"}g.	c #766B4B",
"|g.	c #776C4C",
"1g.	c #776C4D",
"2g.	c #786D4E",
"3g.	c #74694B",
"4g.	c #62573C",
"5g.	c #685E40",
"6g.	c #625738",
"7g.	c #5C5033",
"8g.	c #453520",
"9g.	c #735D44",
"0g.	c #7B644B",
"ag.	c #7F684D",
"bg.	c #8A7355",
"cg.	c #735C42",
"dg.	c #876E4F",
"eg.	c #887050",
"fg.	c #776243",
"gg.	c #7F694B",
"hg.	c #806A4D",
"ig.	c #806A4E",
"jg.	c #735E42",
"kg.	c #756045",
"lg.	c #7D6A4C",
"mg.	c #7E6A4D",
"ng.	c #7D684C",
"og.	c #7A654A",
"pg.	c #6C583E",
"qg.	c #725D42",
"rg.	c #766145",
"sg.	c #776346",
"tg.	c #715F41",
"ug.	c #705F41",
"vg.	c #6B593C",
"wg.	c #706141",
"xg.	c #766F4A",
"yg.	c #554B2B",
"zg.	c #80724F",
"Ag.	c #786545",
"Bg.	c #4F3F21",
"Cg.	c #6A5D36",
"Dg.	c #6D603B",
"Eg.	c #6A5D38",
"Fg.	c #766943",
"Gg.	c #736542",
"Hg.	c #736743",
"Ig.	c #766945",
"Jg.	c #776944",
"Kg.	c #7A6E47",
"Lg.	c #756843",
"Mg.	c #736640",
"Ng.	c #6E613A",
"Og.	c #544725",
"Pg.	c #352B13",
"Qg.	c #483C1B",
"Rg.	c #49401E",
"Sg.	c #6E633C",
"Tg.	c #7B7044",
"Ug.	c #787142",
"Vg.	c #534A26",
"Wg.	c #70643A",
"Xg.	c #7F7044",
"Yg.	c #8E7F50",
"Zg.	c #897A4C",
"`g.	c #897A4D",
" h.	c #8B7B4F",
".h.	c #84754B",
"+h.	c #73643B",
"@h.	c #80724A",
"#h.	c #82734C",
"$h.	c #7A6B45",
"%h.	c #82744B",
"&h.	c #85774F",
"*h.	c #8A7C54",
"=h.	c #80724C",
"-h.	c #40351A",
";h.	c #392F14",
">h.	c #6A633E",
",h.	c #746A45",
"'h.	c #83764F",
")h.	c #83754E",
"!h.	c #7D6E49",
"~h.	c #7F6F49",
"{h.	c #7A6A44",
"]h.	c #74653C",
"^h.	c #57471B",
"/h.	c #4B3C22",
"(h.	c #55482D",
"_h.	c #63573B",
":h.	c #6E6348",
"<h.	c #73684C",
"[h.	c #685D43",
"}h.	c #6D6147",
"|h.	c #6A6045",
"1h.	c #6C6247",
"2h.	c #675C43",
"3h.	c #564C35",
"4h.	c #544932",
"5h.	c #433A27",
"6h.	c #2D301C",
"7h.	c #272A17",
"8h.	c #4D452D",
"9h.	c #53492F",
"0h.	c #564D31",
"ah.	c #7D725D",
"bh.	c #7B705B",
"ch.	c #786D58",
"dh.	c #81765F",
"eh.	c #8B7F69",
"fh.	c #483A25",
"gh.	c #5A5237",
"hh.	c #44442B",
"ih.	c #4B4D32",
"jh.	c #554F37",
"kh.	c #57503A",
"lh.	c #6E654D",
"mh.	c #554834",
"nh.	c #524430",
"oh.	c #443729",
"ph.	c #776C63",
"qh.	c #655B51",
"rh.	c #5D5349",
"sh.	c #645A50",
"th.	c #7A7166",
"uh.	c #5A4E33",
"vh.	c #645939",
"wh.	c #6F6445",
"xh.	c #695D40",
"yh.	c #6C6142",
"zh.	c #746A4B",
"Ah.	c #756A4C",
"Bh.	c #756A4B",
"Ch.	c #706647",
"Dh.	c #6A6042",
"Eh.	c #63593D",
"Fh.	c #6B6044",
"Gh.	c #60563A",
"Hh.	c #605539",
"Ih.	c #64583A",
"Jh.	c #5F5335",
"Kh.	c #50442A",
"Lh.	c #6E583F",
"Mh.	c #7C654B",
"Nh.	c #8A7253",
"Oh.	c #957D5D",
"Ph.	c #887153",
"Qh.	c #866F51",
"Rh.	c #826C4E",
"Sh.	c #846F52",
"Th.	c #826D50",
"Uh.	c #836E51",
"Vh.	c #7C674A",
"Wh.	c #786247",
"Xh.	c #7D694D",
"Yh.	c #846F53",
"Zh.	c #877155",
"`h.	c #776448",
" i.	c #746146",
".i.	c #776347",
"+i.	c #7D694C",
"@i.	c #786448",
"#i.	c #736044",
"$i.	c #766345",
"%i.	c #7C6949",
"&i.	c #766546",
"*i.	c #7B754E",
"=i.	c #4A4A23",
"-i.	c #504225",
";i.	c #61532E",
">i.	c #695C37",
",i.	c #665935",
"'i.	c #716440",
")i.	c #766944",
"!i.	c #776A46",
"~i.	c #766844",
"{i.	c #746743",
"]i.	c #7C704A",
"^i.	c #736642",
"/i.	c #6F613D",
"(i.	c #655835",
"_i.	c #5F5230",
":i.	c #60532D",
"<i.	c #534623",
"[i.	c #3A2F0C",
"}i.	c #594D24",
"|i.	c #807649",
"1i.	c #86804F",
"2i.	c #6C6138",
"3i.	c #4C401D",
"4i.	c #86764C",
"5i.	c #86764B",
"6i.	c #85764D",
"7i.	c #8E7E53",
"8i.	c #86764D",
"9i.	c #82734A",
"0i.	c #80714A",
"ai.	c #87784F",
"bi.	c #897B53",
"ci.	c #887B52",
"di.	c #847550",
"ei.	c #867851",
"fi.	c #372C10",
"gi.	c #4E4324",
"hi.	c #7F724C",
"ii.	c #8A7F55",
"ji.	c #82744E",
"ki.	c #756644",
"li.	c #726240",
"mi.	c #7A6A45",
"ni.	c #83734C",
"oi.	c #8A7951",
"pi.	c #7A6A43",
"qi.	c #5B4B26",
"ri.	c #45360D",
"si.	c #52452C",
"ti.	c #64593C",
"ui.	c #675B3F",
"vi.	c #685D41",
"wi.	c #6C6147",
"xi.	c #71674C",
"yi.	c #5B523C",
"zi.	c #595039",
"Ai.	c #4F452F",
"Bi.	c #514932",
"Ci.	c #60573E",
"Di.	c #544933",
"Ei.	c #403925",
"Fi.	c #3B3A25",
"Gi.	c #544A31",
"Hi.	c #5D5338",
"Ii.	c #4A4029",
"Ji.	c #887D66",
"Ki.	c #857B65",
"Li.	c #837863",
"Mi.	c #6C604D",
"Ni.	c #786C58",
"Oi.	c #7D715C",
"Pi.	c #796D58",
"Qi.	c #7D705A",
"Ri.	c #554731",
"Si.	c #483C27",
"Ti.	c #463E28",
"Ui.	c #524C35",
"Vi.	c #564B35",
"Wi.	c #75694E",
"Xi.	c #645841",
"Yi.	c #544E38",
"Zi.	c #4D4934",
"`i.	c #554C38",
" j.	c #50432F",
".j.	c #574B36",
"+j.	c #584A34",
"@j.	c #594B34",
"#j.	c #584C38",
"$j.	c #6A6157",
"%j.	c #6E665B",
"&j.	c #5C503B",
"*j.	c #726747",
"=j.	c #786E4E",
"-j.	c #726748",
";j.	c #706548",
">j.	c #716648",
",j.	c #6B6144",
"'j.	c #695F42",
")j.	c #645A3D",
"!j.	c #5B5137",
"~j.	c #665C3E",
"{j.	c #615638",
"]j.	c #52452A",
"^j.	c #635036",
"/j.	c #8B7356",
"(j.	c #856F51",
"_j.	c #726243",
":j.	c #846D51",
"<j.	c #877153",
"[j.	c #836D50",
"}j.	c #826C4F",
"|j.	c #857053",
"1j.	c #887256",
"2j.	c #816C51",
"3j.	c #796449",
"4j.	c #836E52",
"5j.	c #7F6A4F",
"6j.	c #857054",
"7j.	c #806B50",
"8j.	c #826E53",
"9j.	c #715E41",
"0j.	c #766148",
"aj.	c #857255",
"bj.	c #705D44",
"cj.	c #7B684C",
"dj.	c #756147",
"ej.	c #766448",
"fj.	c #877254",
"gj.	c #897556",
"hj.	c #736546",
"ij.	c #43451F",
"jj.	c #524A26",
"kj.	c #6F6239",
"lj.	c #6D5F3B",
"mj.	c #72643E",
"nj.	c #796B46",
"oj.	c #7D7049",
"pj.	c #796C46",
"qj.	c #635737",
"rj.	c #776A45",
"sj.	c #756743",
"tj.	c #70623E",
"uj.	c #625434",
"vj.	c #5A4D2D",
"wj.	c #6B5E3A",
"xj.	c #5E512F",
"yj.	c #635530",
"zj.	c #5D4F2A",
"Aj.	c #504322",
"Bj.	c #493B18",
"Cj.	c #4C4214",
"Dj.	c #4C431E",
"Ej.	c #7B7046",
"Fj.	c #796D45",
"Gj.	c #71673C",
"Hj.	c #4F421C",
"Ij.	c #86774D",
"Jj.	c #8C7D52",
"Kj.	c #938459",
"Lj.	c #8B7C53",
"Mj.	c #5B4D28",
"Nj.	c #8A7B52",
"Oj.	c #86774E",
"Pj.	c #80724B",
"Qj.	c #887A52",
"Rj.	c #8B7C54",
"Sj.	c #80724D",
"Tj.	c #7A6B47",
"Uj.	c #91835B",
"Vj.	c #887A54",
"Wj.	c #7F714A",
"Xj.	c #4E4122",
"Yj.	c #463B1F",
"Zj.	c #4B4022",
"`j.	c #4E431B",
" k.	c #574922",
".k.	c #5A4B27",
"+k.	c #5A4A27",
"@k.	c #443411",
"#k.	c #4A391C",
"$k.	c #483B22",
"%k.	c #5B5034",
"&k.	c #74694D",
"*k.	c #786D51",
"=k.	c #72674D",
"-k.	c #756A4E",
";k.	c #524A34",
">k.	c #5D5840",
",k.	c #5B533B",
"'k.	c #4C432F",
")k.	c #504933",
"!k.	c #514B34",
"~k.	c #504932",
"{k.	c #3F3623",
"]k.	c #4F4831",
"^k.	c #524B34",
"/k.	c #554D35",
"(k.	c #544B31",
"_k.	c #4B4229",
":k.	c #4B4127",
"<k.	c #897F69",
"[k.	c #867B67",
"}k.	c #8B806A",
"|k.	c #8B806B",
"1k.	c #897F6A",
"2k.	c #857964",
"3k.	c #7F745F",
"4k.	c #817660",
"5k.	c #766A56",
"6k.	c #736753",
"7k.	c #796D59",
"8k.	c #6E614E",
"9k.	c #7C705B",
"0k.	c #6D5F4B",
"ak.	c #5A4C38",
"bk.	c #54472F",
"ck.	c #5F5137",
"dk.	c #5E5138",
"ek.	c #524731",
"fk.	c #5F543D",
"gk.	c #685F47",
"hk.	c #473C29",
"ik.	c #534732",
"jk.	c #5E5942",
"kk.	c #504E36",
"lk.	c #4F4834",
"mk.	c #504632",
"nk.	c #453C29",
"ok.	c #524633",
"pk.	c #5A4C36",
"qk.	c #5A4C35",
"rk.	c #4E402B",
"sk.	c #54482F",
"tk.	c #8C8177",
"uk.	c #887D74",
"vk.	c #53452E",
"wk.	c #7B7268",
"xk.	c #867B72",
"yk.	c #6E6342",
"zk.	c #726749",
"Ak.	c #6E6346",
"Bk.	c #73694A",
"Ck.	c #766B4C",
"Dk.	c #665B40",
"Ek.	c #665B3F",
"Fk.	c #695F41",
"Gk.	c #574C34",
"Hk.	c #5C5237",
"Ik.	c #605535",
"Jk.	c #52442B",
"Kk.	c #615535",
"Lk.	c #6B5D3D",
"Mk.	c #897355",
"Nk.	c #937B5C",
"Ok.	c #957E5F",
"Pk.	c #8D775A",
"Qk.	c #907A5D",
"Rk.	c #856F54",
"Sk.	c #897458",
"Tk.	c #877256",
"Uk.	c #826E52",
"Vk.	c #857155",
"Wk.	c #8A7559",
"Xk.	c #846F55",
"Yk.	c #897459",
"Zk.	c #887258",
"`k.	c #715F43",
" l.	c #887358",
".l.	c #7C684E",
"+l.	c #836F53",
"@l.	c #887457",
"#l.	c #77654A",
"$l.	c #7D694E",
"%l.	c #776248",
"&l.	c #725F43",
"*l.	c #524426",
"=l.	c #60532E",
"-l.	c #6D6038",
";l.	c #71643D",
">l.	c #71633D",
",l.	c #6A5E3A",
"'l.	c #675C39",
")l.	c #6F633F",
"!l.	c #746741",
"~l.	c #796C45",
"{l.	c #70633F",
"]l.	c #726541",
"^l.	c #80734D",
"/l.	c #716541",
"(l.	c #7D714A",
"_l.	c #7E704A",
":l.	c #81744D",
"<l.	c #6E613D",
"[l.	c #73663F",
"}l.	c #72653E",
"|l.	c #6E613B",
"1l.	c #695C38",
"2l.	c #5B4E2D",
"3l.	c #544728",
"4l.	c #5E512C",
"5l.	c #534625",
"6l.	c #3A2D0F",
"7l.	c #55471A",
"8l.	c #817345",
"9l.	c #64572E",
"0l.	c #948559",
"al.	c #95855B",
"bl.	c #95865C",
"cl.	c #786A41",
"dl.	c #918259",
"el.	c #8B7D54",
"fl.	c #877850",
"gl.	c #877952",
"hl.	c #897A54",
"il.	c #82734E",
"jl.	c #7F704B",
"kl.	c #8D7F57",
"ll.	c #786A47",
"ml.	c #60522F",
"nl.	c #41330C",
"ol.	c #4C4126",
"pl.	c #483D24",
"ql.	c #4A3E23",
"rl.	c #3D2F0B",
"sl.	c #3A2C0A",
"tl.	c #382A08",
"ul.	c #302205",
"vl.	c #3C2C10",
"wl.	c #4F4228",
"xl.	c #685E42",
"yl.	c #64593F",
"zl.	c #74694E",
"Al.	c #766B50",
"Bl.	c #645941",
"Cl.	c #6F654A",
"Dl.	c #685E45",
"El.	c #4F4B35",
"Fl.	c #5B5B43",
"Gl.	c #58563F",
"Hl.	c #59533B",
"Il.	c #48442E",
"Jl.	c #5A543D",
"Kl.	c #615A41",
"Ll.	c #4D4630",
"Ml.	c #4C462F",
"Nl.	c #4D4932",
"Ol.	c #4F4530",
"Pl.	c #594E35",
"Ql.	c #51482F",
"Rl.	c #5A4F33",
"Sl.	c #52492D",
"Tl.	c #807660",
"Ul.	c #8A806C",
"Vl.	c #958A74",
"Wl.	c #8C816C",
"Xl.	c #847964",
"Yl.	c #867B66",
"Zl.	c #887D68",
"`l.	c #847863",
" m.	c #7C715D",
".m.	c #867A66",
"+m.	c #817561",
"@m.	c #817560",
"#m.	c #877B66",
"$m.	c #7E725E",
"%m.	c #80735E",
"&m.	c #584936",
"*m.	c #4C3D26",
"=m.	c #6B5E44",
"-m.	c #4F432F",
";m.	c #59523B",
">m.	c #554D37",
",m.	c #5A503A",
"'m.	c #59553D",
")m.	c #625F46",
"!m.	c #4D4632",
"~m.	c #514B36",
"{m.	c #564933",
"]m.	c #534631",
"^m.	c #564C33",
"/m.	c #4C432C",
"(m.	c #574A32",
"_m.	c #8F857B",
":m.	c #92877D",
"<m.	c #91877D",
"[m.	c #8E847A",
"}m.	c #7D7469",
"|m.	c #867E75",
"1m.	c #50432E",
"2m.	c #6F6443",
"3m.	c #706445",
"4m.	c #746849",
"5m.	c #73684B",
"6m.	c #706447",
"7m.	c #6B5F42",
"8m.	c #7B7152",
"9m.	c #73684A",
"0m.	c #766B4D",
"am.	c #73694B",
"bm.	c #74694C",
"cm.	c #6F6546",
"dm.	c #6E6446",
"em.	c #5C5133",
"fm.	c #584D30",
"gm.	c #554A2D",
"hm.	c #67583A",
"im.	c #967F61",
"jm.	c #8E795D",
"km.	c #8F7A5E",
"lm.	c #8F785C",
"mm.	c #8B7558",
"nm.	c #8B765A",
"om.	c #867157",
"pm.	c #8A755A",
"qm.	c #8E7A5F",
"rm.	c #8F7A5F",
"sm.	c #937E63",
"tm.	c #887359",
"um.	c #8D795E",
"vm.	c #8D785E",
"wm.	c #927D62",
"xm.	c #8A765C",
"ym.	c #857057",
"zm.	c #937E62",
"Am.	c #887259",
"Bm.	c #867156",
"Cm.	c #846F54",
"Dm.	c #7A674B",
"Em.	c #58442D",
"Fm.	c #49361E",
"Gm.	c #524322",
"Hm.	c #594C27",
"Im.	c #786B44",
"Jm.	c #6C5E3B",
"Km.	c #756942",
"Lm.	c #746944",
"Mm.	c #726844",
"Nm.	c #786C47",
"Om.	c #6C5F3D",
"Pm.	c #796D47",
"Qm.	c #776B46",
"Rm.	c #7E714A",
"Sm.	c #7F734D",
"Tm.	c #66593A",
"Um.	c #6B5D3B",
"Vm.	c #72653F",
"Wm.	c #635633",
"Xm.	c #5F522E",
"Ym.	c #645731",
"Zm.	c #61542E",
"`m.	c #534420",
" n.	c #4F4015",
".n.	c #635429",
"+n.	c #8D7E55",
"@n.	c #94865D",
"#n.	c #94865E",
"$n.	c #93865E",
"%n.	c #8F815A",
"&n.	c #92845D",
"*n.	c #8B7D57",
"=n.	c #493B16",
"-n.	c #41330B",
";n.	c #43350E",
">n.	c #403318",
",n.	c #4E4329",
"'n.	c #4F4326",
")n.	c #413113",
"!n.	c #43331E",
"~n.	c #51462C",
"{n.	c #544A2F",
"]n.	c #473D27",
"^n.	c #554B32",
"/n.	c #665C40",
"(n.	c #766B4F",
"_n.	c #776C51",
":n.	c #73684E",
"<n.	c #786D52",
"[n.	c #70664B",
"}n.	c #5A5039",
"|n.	c #4B412C",
"1n.	c #57573E",
"2n.	c #54533C",
"3n.	c #615C44",
"4n.	c #645E45",
"5n.	c #6E674E",
"6n.	c #6A664B",
"7n.	c #4A4630",
"8n.	c #5C5940",
"9n.	c #656045",
"0n.	c #5D5238",
"an.	c #544B32",
"bn.	c #483F28",
"cn.	c #52472F",
"dn.	c #554B38",
"en.	c #857A65",
"fn.	c #8C826D",
"gn.	c #8C816D",
"hn.	c #8D826E",
"in.	c #8D826D",
"jn.	c #928873",
"kn.	c #8B7F6B",
"ln.	c #8A7F6A",
"mn.	c #8A7F6B",
"nn.	c #857965",
"on.	c #5E5039",
"pn.	c #4D4230",
"qn.	c #433826",
"rn.	c #4C3E2A",
"sn.	c #473824",
"tn.	c #5C4D34",
"un.	c #5F5038",
"vn.	c #6E644B",
"wn.	c #574E38",
"xn.	c #565039",
"yn.	c #696048",
"zn.	c #58503A",
"An.	c #514530",
"Bn.	c #58513A",
"Cn.	c #524832",
"Dn.	c #504831",
"En.	c #4F472F",
"Fn.	c #3C3321",
"Gn.	c #433526",
"Hn.	c #81766D",
"In.	c #8C8279",
"Jn.	c #8E8379",
"Kn.	c #6B5F40",
"Ln.	c #605438",
"Mn.	c #6E6344",
"Nn.	c #706547",
"On.	c #776C4E",
"Pn.	c #776D4E",
"Qn.	c #786E50",
"Rn.	c #796E50",
"Sn.	c #756A4D",
"Tn.	c #7A7051",
"Un.	c #7A7052",
"Vn.	c #766C4E",
"Wn.	c #6D6245",
"Xn.	c #6B6043",
"Yn.	c #6D6346",
"Zn.	c #5F543A",
"`n.	c #665B3C",
" o.	c #605435",
".o.	c #564B2E",
"+o.	c #594E30",
"@o.	c #645238",
"#o.	c #7D684B",
"$o.	c #816B50",
"%o.	c #8C765A",
"&o.	c #8E795C",
"*o.	c #8C775B",
"=o.	c #8B775C",
"-o.	c #897358",
";o.	c #867257",
">o.	c #8B765B",
",o.	c #7F6B51",
"'o.	c #7D684E",
")o.	c #776349",
"!o.	c #715D43",
"~o.	c #4E3F24",
"{o.	c #59452C",
"]o.	c #5E492F",
"^o.	c #4F3C23",
"/o.	c #48361D",
"(o.	c #503C21",
"_o.	c #42311A",
":o.	c #4F4121",
"<o.	c #584B25",
"[o.	c #5B4E29",
"}o.	c #6D603C",
"|o.	c #71643F",
"1o.	c #776C45",
"2o.	c #7B714B",
"3o.	c #685D3C",
"4o.	c #6A5D3C",
"5o.	c #625635",
"6o.	c #6C603C",
"7o.	c #6D623D",
"8o.	c #706440",
"9o.	c #6B5E3D",
"0o.	c #796C47",
"ao.	c #6B5E3B",
"bo.	c #70623C",
"co.	c #6A5D37",
"do.	c #6C5F39",
"eo.	c #695B36",
"fo.	c #594C2A",
"go.	c #685B33",
"ho.	c #4B3B19",
"io.	c #564924",
"jo.	c #463813",
"ko.	c #4B3D16",
"lo.	c #4B3C13",
"mo.	c #564821",
"no.	c #6A5C35",
"oo.	c #847850",
"po.	c #857750",
"qo.	c #786944",
"ro.	c #62532E",
"so.	c #40320E",
"to.	c #42350F",
"uo.	c #40330F",
"vo.	c #50452D",
"wo.	c #4B422B",
"xo.	c #4E442D",
"yo.	c #544A32",
"zo.	c #6B6145",
"Ao.	c #6D6146",
"Bo.	c #706549",
"Co.	c #7C7156",
"Do.	c #6E6349",
"Eo.	c #746A4F",
"Fo.	c #625941",
"Go.	c #554C36",
"Ho.	c #494832",
"Io.	c #585940",
"Jo.	c #55533D",
"Ko.	c #564F39",
"Lo.	c #574F39",
"Mo.	c #675E46",
"No.	c #5C563F",
"Oo.	c #433C29",
"Po.	c #53513A",
"Qo.	c #4B4631",
"Ro.	c #645F45",
"So.	c #6A6044",
"To.	c #5D5439",
"Uo.	c #564C34",
"Vo.	c #5B5136",
"Wo.	c #594F35",
"Xo.	c #3B301D",
"Yo.	c #413621",
"Zo.	c #473D28",
"`o.	c #554B36",
" p.	c #5C513D",
".p.	c #524732",
"+p.	c #4A3F2B",
"@p.	c #433824",
"#p.	c #403420",
"$p.	c #433521",
"%p.	c #433622",
"&p.	c #4E3F2A",
"*p.	c #54452D",
"=p.	c #50422C",
"-p.	c #63543B",
";p.	c #62533B",
">p.	c #786950",
",p.	c #5B533D",
"'p.	c #605741",
")p.	c #584C37",
"!p.	c #564A35",
"~p.	c #665E45",
"{p.	c #4B432E",
"]p.	c #4D442F",
"^p.	c #585038",
"/p.	c #61593F",
"(p.	c #564D36",
"_p.	c #574D35",
":p.	c #4D3F2A",
"<p.	c #524533",
"[p.	c #483B2E",
"}p.	c #453A2F",
"|p.	c #43382E",
"1p.	c #4B3E28",
"2p.	c #43382C",
"3p.	c #40362C",
"4p.	c #463A2E",
"5p.	c #4A3E32",
"6p.	c #443A30",
"7p.	c #3F352C",
"8p.	c #493F35",
"9p.	c #4A3F36",
"0p.	c #53483D",
"ap.	c #504330",
"bp.	c #695E40",
"cp.	c #695E41",
"dp.	c #52472E",
"ep.	c #665A3D",
"fp.	c #625639",
"gp.	c #675C3D",
"hp.	c #756A4A",
"ip.	c #786D4F",
"jp.	c #7B7051",
"kp.	c #7C7153",
"lp.	c #7F7456",
"mp.	c #766B4E",
"np.	c #786D50",
"op.	c #6B6045",
"pp.	c #706649",
"qp.	c #776C4F",
"rp.	c #6C6246",
"sp.	c #60553B",
"tp.	c #625637",
"up.	c #625838",
"vp.	c #5F5536",
"wp.	c #53482C",
"xp.	c #453722",
"yp.	c #4D3A23",
"zp.	c #4F3A20",
"Ap.	c #4C371B",
"Bp.	c #4A3519",
"Cp.	c #4A351A",
"Dp.	c #49351A",
"Ep.	c #463217",
"Fp.	c #412D13",
"Gp.	c #402C12",
"Hp.	c #3F2C12",
"Ip.	c #342C0F",
"Jp.	c #3C2D13",
"Kp.	c #433315",
"Lp.	c #3D2D15",
"Mp.	c #3D2B16",
"Np.	c #45321A",
"Op.	c #4F3E23",
"Pp.	c #584A28",
"Qp.	c #554826",
"Rp.	c #63552F",
"Sp.	c #695C36",
"Tp.	c #70633D",
"Up.	c #746844",
"Vp.	c #746B46",
"Wp.	c #7E714C",
"Xp.	c #756944",
"Yp.	c #695E3C",
"Zp.	c #6E633F",
"`p.	c #6B5F3D",
" q.	c #706642",
".q.	c #6F6340",
"+q.	c #6F623F",
"@q.	c #685A3A",
"#q.	c #6E603E",
"$q.	c #736641",
"%q.	c #655837",
"&q.	c #6F613C",
"*q.	c #5F5232",
"=q.	c #645733",
"-q.	c #6B5E37",
";q.	c #5D502E",
">q.	c #5F522C",
",q.	c #5D502B",
"'q.	c #534521",
")q.	c #483A14",
"!q.	c #41340D",
"~q.	c #41340C",
"{q.	c #3E320C",
"]q.	c #40330E",
"^q.	c #3F310D",
"/q.	c #362914",
"(q.	c #483B23",
"_q.	c #4D4029",
":q.	c #544931",
"<q.	c #514630",
"[q.	c #665C41",
"}q.	c #655C41",
"|q.	c #766C50",
"1q.	c #776C50",
"2q.	c #796E53",
"3q.	c #5E543C",
"4q.	c #5C523C",
"5q.	c #4F4632",
"6q.	c #5D553E",
"7q.	c #635B43",
"8q.	c #514832",
"9q.	c #515239",
"0q.	c #53543C",
"aq.	c #5F5D44",
"bq.	c #6C654C",
"cq.	c #726C53",
"dq.	c #756C53",
"eq.	c #766C53",
"fq.	c #48402B",
"gq.	c #4A4931",
"hq.	c #4A4731",
"iq.	c #4E4730",
"jq.	c #514933",
"kq.	c #655B42",
"lq.	c #685F45",
"mq.	c #645A3F",
"nq.	c #5B5037",
"oq.	c #584C34",
"pq.	c #50432D",
"qq.	c #473B26",
"rq.	c #3A2D1B",
"sq.	c #3B2E1C",
"tq.	c #473B25",
"uq.	c #433723",
"vq.	c #3A2D1A",
"wq.	c #423422",
"xq.	c #60523A",
"yq.	c #605139",
"zq.	c #6C5D44",
"Aq.	c #534834",
"Bq.	c #686149",
"Cq.	c #746A51",
"Dq.	c #5B513A",
"Eq.	c #463925",
"Fq.	c #5A4D34",
"Gq.	c #524530",
"Hq.	c #453828",
"Iq.	c #4F422C",
"Jq.	c #5D5036",
"Kq.	c #4B3D28",
"Lq.	c #372713",
"Mq.	c #4B3F2B",
"Nq.	c #534632",
"Oq.	c #5E5338",
"Pq.	c #6E6244",
"Qq.	c #6C6042",
"Rq.	c #706545",
"Sq.	c #7A6F50",
"Tq.	c #796F50",
"Uq.	c #7F7455",
"Vq.	c #7A6F51",
"Wq.	c #776D4F",
"Xq.	c #7B7053",
"Yq.	c #7A7053",
"Zq.	c #807658",
"`q.	c #71674A",
" r.	c #756B4D",
".r.	c #746A4D",
"+r.	c #685C41",
"@r.	c #6B5F41",
"#r.	c #5E5336",
"$r.	c #53492E",
"%r.	c #605739",
"&r.	c #4B432A",
"*r.	c #4C4329",
"=r.	c #382F1B",
"-r.	c #3B311C",
";r.	c #3A301C",
">r.	c #2B1F0F",
",r.	c #372C19",
"'r.	c #3C381F",
")r.	c #382B16",
"!r.	c #3F381D",
"~r.	c #36250E",
"{r.	c #2B1F0C",
"]r.	c #3E361B",
"^r.	c #373318",
"/r.	c #444421",
"(r.	c #4A4121",
"_r.	c #544929",
":r.	c #645732",
"<r.	c #625531",
"[r.	c #5C4F2D",
"}r.	c #695B35",
"|r.	c #786A43",
"1r.	c #786C44",
"2r.	c #7B6F49",
"3r.	c #80754E",
"4r.	c #6F6240",
"5r.	c #81754E",
"6r.	c #69603D",
"7r.	c #594F31",
"8r.	c #645A39",
"9r.	c #675A3A",
"0r.	c #6B5F3C",
"ar.	c #6E623E",
"br.	c #685B3A",
"cr.	c #675A38",
"dr.	c #6F623D",
"er.	c #756841",
"fr.	c #655836",
"gr.	c #685B38",
"hr.	c #6E603C",
"ir.	c #71633C",
"jr.	c #675A33",
"kr.	c #5A4E28",
"lr.	c #584B28",
"mr.	c #433519",
"nr.	c #413216",
"or.	c #413215",
"pr.	c #3D2C0F",
"qr.	c #645A40",
"rr.	c #6A5F45",
"sr.	c #7A6F54",
"tr.	c #7B7055",
"ur.	c #656047",
"vr.	c #5C533D",
"wr.	c #524934",
"xr.	c #534A35",
"yr.	c #5F5941",
"zr.	c #736C52",
"Ar.	c #635942",
"Br.	c #796F56",
"Cr.	c #706850",
"Dr.	c #7D7359",
"Er.	c #5F553E",
"Fr.	c #534D37",
"Gr.	c #474630",
"Hr.	c #4A4832",
"Ir.	c #6D664B",
"Jr.	c #62593F",
"Kr.	c #5F563D",
"Lr.	c #665D42",
"Mr.	c #675D41",
"Nr.	c #3A2912",
"Or.	c #534630",
"Pr.	c #5F513A",
"Qr.	c #695A42",
"Rr.	c #675840",
"Sr.	c #6F6047",
"Tr.	c #615741",
"Ur.	c #7A6F56",
"Vr.	c #6F614B",
"Wr.	c #5E5038",
"Xr.	c #3A2408",
"Yr.	c #44361F",
"Zr.	c #6C6245",
"`r.	c #645A3E",
" s.	c #5F5339",
".s.	c #736849",
"+s.	c #7D7354",
"@s.	c #796E52",
"#s.	c #786E51",
"$s.	c #7C7255",
"%s.	c #6D6347",
"&s.	c #696044",
"*s.	c #766C4F",
"=s.	c #63583E",
"-s.	c #695E42",
";s.	c #62573A",
">s.	c #665C3D",
",s.	c #655B3D",
"'s.	c #665D3D",
")s.	c #5F5638",
"!s.	c #635B3D",
"~s.	c #4C472E",
"{s.	c #47412A",
"]s.	c #403B24",
"^s.	c #302E1A",
"/s.	c #2E321A",
"(s.	c #35361F",
"_s.	c #394225",
":s.	c #47562F",
"<s.	c #444F2B",
"[s.	c #3D4429",
"}s.	c #362B0E",
"|s.	c #41451C",
"1s.	c #485222",
"2s.	c #3E451E",
"3s.	c #3B3212",
"4s.	c #433B20",
"5s.	c #5A512F",
"6s.	c #685C36",
"7s.	c #615533",
"8s.	c #635634",
"9s.	c #685B36",
"0s.	c #675A36",
"as.	c #7E724C",
"bs.	c #736643",
"cs.	c #776C47",
"ds.	c #52492C",
"es.	c #67603D",
"fs.	c #564C2F",
"gs.	c #6C6440",
"hs.	c #5B5233",
"is.	c #665D3B",
"js.	c #6B613E",
"ks.	c #6F6440",
"ls.	c #645736",
"ms.	c #645737",
"ns.	c #71633F",
"os.	c #7C6F48",
"ps.	c #776A44",
"qs.	c #695D3B",
"rs.	c #71653F",
"ss.	c #655932",
"ts.	c #463417",
"us.	c #675C42",
"vs.	c #60553C",
"ws.	c #635940",
"xs.	c #50442F",
"ys.	c #796D52",
"zs.	c #756A50",
"As.	c #7B7156",
"Bs.	c #776C53",
"Cs.	c #524833",
"Ds.	c #564C36",
"Es.	c #473F2C",
"Fs.	c #5E553F",
"Gs.	c #6D634A",
"Hs.	c #615841",
"Is.	c #83795F",
"Js.	c #7E745A",
"Ks.	c #5D543E",
"Ls.	c #4D4B35",
"Ms.	c #514E38",
"Ns.	c #4B4C35",
"Os.	c #6D6449",
"Ps.	c #6D654A",
"Qs.	c #5A5139",
"Rs.	c #635A40",
"Ss.	c #695E43",
"Ts.	c #453319",
"Us.	c #665740",
"Vs.	c #6D5E46",
"Ws.	c #6F6048",
"Xs.	c #81735A",
"Ys.	c #6C634B",
"Zs.	c #5E513C",
"`s.	c #504732",
" t.	c #645B43",
".t.	c #594F39",
"+t.	c #5A4F38",
"@t.	c #564B36",
"#t.	c #493D2A",
"$t.	c #4D3D27",
"%t.	c #534026",
"&t.	c #4E320F",
"*t.	c #4E3412",
"=t.	c #716749",
"-t.	c #5F553A",
";t.	c #695D41",
">t.	c #6E6345",
",t.	c #766C4D",
"'t.	c #72684C",
")t.	c #73694C",
"!t.	c #71684C",
"~t.	c #786F51",
"{t.	c #6E6447",
"]t.	c #72684A",
"^t.	c #746B4D",
"/t.	c #6E6445",
"(t.	c #6F6646",
"_t.	c #5A5136",
":t.	c #686041",
"<t.	c #564F35",
"[t.	c #5A563A",
"}t.	c #47432C",
"|t.	c #3A3923",
"1t.	c #474F2F",
"2t.	c #4B552E",
"3t.	c #505A33",
"4t.	c #545F37",
"5t.	c #4D5531",
"6t.	c #372C12",
"7t.	c #3C3A1C",
"8t.	c #4B5124",
"9t.	c #444821",
"0t.	c #4D4E2B",
"at.	c #655D38",
"bt.	c #665C37",
"ct.	c #655A37",
"dt.	c #594E2E",
"et.	c #605432",
"ft.	c #6F633D",
"gt.	c #7C6F47",
"ht.	c #6D613E",
"it.	c #7E714B",
"jt.	c #7A6D49",
"kt.	c #716542",
"lt.	c #6A5E3D",
"mt.	c #564D2E",
"nt.	c #504A2B",
"ot.	c #443E23",
"pt.	c #5E5836",
"qt.	c #696540",
"rt.	c #534A2E",
"st.	c #625938",
"tt.	c #5E5333",
"ut.	c #6A5F3C",
"vt.	c #645836",
"wt.	c #665A37",
"xt.	c #726640",
"yt.	c #7B6E48",
"zt.	c #6C5F3C",
"At.	c #685B39",
"Bt.	c #6A5E3B",
"Ct.	c #655937",
"Dt.	c #706441",
"Et.	c #695C39",
"Ft.	c #6E613C",
"Gt.	c #645735",
"Ht.	c #6B5F3A",
"It.	c #726540",
"Jt.	c #685C38",
"Kt.	c #473519",
"Lt.	c #60553D",
"Mt.	c #6D6248",
"Nt.	c #6A6046",
"Ot.	c #70664C",
"Pt.	c #6E6449",
"Qt.	c #7C7257",
"Rt.	c #80765A",
"St.	c #7F755A",
"Tt.	c #6D644A",
"Ut.	c #696047",
"Vt.	c #584F39",
"Wt.	c #5C543D",
"Xt.	c #4E4632",
"Yt.	c #6A6249",
"Zt.	c #5E553E",
"`t.	c #70674E",
" u.	c #6A6049",
".u.	c #5B4F3B",
"+u.	c #53523A",
"@u.	c #59543D",
"#u.	c #52513B",
"$u.	c #595B43",
"%u.	c #57533C",
"&u.	c #675F46",
"*u.	c #6B654B",
"=u.	c #595139",
"-u.	c #6F684E",
";u.	c #5B533C",
">u.	c #635B42",
",u.	c #61573F",
"'u.	c #685E44",
")u.	c #71664C",
"!u.	c #48371D",
"~u.	c #675943",
"{u.	c #6F6049",
"]u.	c #72634A",
"^u.	c #7D7057",
"/u.	c #786A53",
"(u.	c #6B5C46",
"_u.	c #483E2B",
":u.	c #605740",
"<u.	c #52391A",
"[u.	c #544021",
"}u.	c #776D51",
"|u.	c #6C5C3C",
"1u.	c #6F6548",
"2u.	c #756B4E",
"3u.	c #7E7456",
"4u.	c #756B4F",
"5u.	c #61583E",
"6u.	c #6F664A",
"7u.	c #776E51",
"8u.	c #776D50",
"9u.	c #6E6448",
"0u.	c #695F44",
"au.	c #6B6246",
"bu.	c #685E41",
"cu.	c #6D6345",
"du.	c #62583C",
"eu.	c #645B3F",
"fu.	c #716748",
"gu.	c #6B6244",
"hu.	c #5A5238",
"iu.	c #5F5A3E",
"ju.	c #44422B",
"ku.	c #47472F",
"lu.	c #474D2F",
"mu.	c #515B34",
"nu.	c #535E36",
"ou.	c #57623A",
"pu.	c #59633C",
"qu.	c #4A5130",
"ru.	c #403616",
"su.	c #4A4723",
"tu.	c #43401D",
"uu.	c #474627",
"vu.	c #635A37",
"wu.	c #605433",
"xu.	c #5D5432",
"yu.	c #564C2D",
"zu.	c #665B38",
"Au.	c #675B39",
"Bu.	c #786C45",
"Cu.	c #7C714B",
"Du.	c #615536",
"Eu.	c #6E6340",
"Fu.	c #736C46",
"Gu.	c #564E30",
"Hu.	c #4E4E2E",
"Iu.	c #4B4428",
"Ju.	c #6C6640",
"Ku.	c #6A6340",
"Lu.	c #66613E",
"Mu.	c #625A39",
"Nu.	c #736943",
"Ou.	c #746842",
"Pu.	c #766A44",
"Qu.	c #7A6D48",
"Ru.	c #726542",
"Su.	c #786B47",
"Tu.	c #6E613E",
"Uu.	c #6F623E",
"Vu.	c #665938",
"Wu.	c #746742",
"Xu.	c #6F633E",
"Yu.	c #473318",
"Zu.	c #6F644A",
"`u.	c #70654C",
" v.	c #6D6249",
".v.	c #61553D",
"+v.	c #73674B",
"@v.	c #7A6F53",
"#v.	c #6E644A",
"$v.	c #766E53",
"%v.	c #635B44",
"&v.	c #665E46",
"*v.	c #696149",
"=v.	c #726950",
"-v.	c #5D5841",
";v.	c #4E4B36",
">v.	c #464630",
",v.	c #5C5740",
"'v.	c #56503A",
")v.	c #5B563F",
"!v.	c #6A6149",
"~v.	c #6F654B",
"{v.	c #544A34",
"]v.	c #5F5840",
"^v.	c #665C43",
"/v.	c #655C43",
"(v.	c #746A50",
"_v.	c #4C3A20",
":v.	c #796B53",
"<v.	c #76674E",
"[v.	c #7C6E55",
"}v.	c #766851",
"|v.	c #514532",
"1v.	c #594B37",
"2v.	c #645C44",
"3v.	c #69664A",
"4v.	c #514834",
"5v.	c #4B432F",
"6v.	c #57523D",
"7v.	c #4B422E",
"8v.	c #6E664E",
"9v.	c #6B6147",
"0v.	c #786E52",
"av.	c #766D50",
"bv.	c #6E664A",
"cv.	c #6C6248",
"dv.	c #746A4E",
"ev.	c #6C6349",
"fv.	c #685F43",
"gv.	c #5E543B",
"hv.	c #5D553A",
"iv.	c #6F6748",
"jv.	c #5D5339",
"kv.	c #675E42",
"lv.	c #6D6447",
"mv.	c #6B6346",
"nv.	c #565239",
"ov.	c #52523A",
"pv.	c #42422C",
"qv.	c #45442E",
"rv.	c #4C5036",
"sv.	c #474B31",
"tv.	c #474A30",
"uv.	c #515937",
"vv.	c #4F5437",
"wv.	c #545A3D",
"xv.	c #453919",
"yv.	c #504E2A",
"zv.	c #565735",
"Av.	c #4C4B2E",
"Bv.	c #5E5635",
"Cv.	c #5F5535",
"Dv.	c #615736",
"Ev.	c #625736",
"Fv.	c #5D5534",
"Gv.	c #5B5333",
"Hv.	c #51482B",
"Iv.	c #716741",
"Jv.	c #786B45",
"Kv.	c #7B6F48",
"Lv.	c #554D2F",
"Mv.	c #5E5636",
"Nv.	c #494529",
"Ov.	c #5A5A39",
"Pv.	c #565734",
"Qv.	c #4F502D",
"Rv.	c #4E4C2E",
"Sv.	c #625B39",
"Tv.	c #685D3B",
"Uv.	c #635A39",
"Vv.	c #6B5E3C",
"Wv.	c #6E6240",
"Xv.	c #6E613F",
"Yv.	c #685B3B",
"Zv.	c #716540",
"`v.	c #716441",
" w.	c #5E5132",
".w.	c #56492C",
"+w.	c #766A45",
"@w.	c #4A381D",
"#w.	c #776C52",
"$w.	c #786D53",
"%w.	c #7A7054",
"&w.	c #776E54",
"*w.	c #71674E",
"=w.	c #625841",
"-w.	c #665E47",
";w.	c #6D664D",
">w.	c #625A42",
",w.	c #5E5640",
"'w.	c #534D38",
")w.	c #534B35",
"!w.	c #675F47",
"~w.	c #493F2C",
"{w.	c #525039",
"]w.	c #5F644A",
"^w.	c #3F3725",
"/w.	c #5C553D",
"(w.	c #695F47",
"_w.	c #6A6248",
":w.	c #71674D",
"<w.	c #73694F",
"[w.	c #736950",
"}w.	c #4D3B20",
"|w.	c #796B54",
"1w.	c #80725A",
"2w.	c #73654F",
"3w.	c #756750",
"4w.	c #7B6D55",
"5w.	c #776851",
"6w.	c #635540",
"7w.	c #6C5D46",
"8w.	c #80735A",
"9w.	c #7C6F57",
"0w.	c #625743",
"aw.	c #615B44",
"bw.	c #59513B",
"cw.	c #645B44",
"dw.	c #4E412F",
"ew.	c #554935",
"fw.	c #4D4430",
"gw.	c #544F39",
"hw.	c #514A35",
"iw.	c #4F4733",
"jw.	c #605641",
"kw.	c #513B20",
"lw.	c #524127",
"mw.	c #776D52",
"nw.	c #7C7256",
"ow.	c #7E7458",
"pw.	c #746A4C",
"qw.	c #736749",
"rw.	c #6D6349",
"sw.	c #645B41",
"tw.	c #696147",
"uw.	c #5B5039",
"vw.	c #60563D",
"ww.	c #70684B",
"xw.	c #665D41",
"yw.	c #665C3F",
"zw.	c #655C40",
"Aw.	c #6D674A",
"Bw.	c #5B533A",
"Cw.	c #6F674B",
"Dw.	c #5D553D",
"Ew.	c #494933",
"Fw.	c #44442D",
"Gw.	c #514F37",
"Hw.	c #5A6045",
"Iw.	c #585B41",
"Jw.	c #454730",
"Kw.	c #4D4730",
"Lw.	c #555332",
"Mw.	c #4D462B",
"Nw.	c #595A38",
"Ow.	c #6E6944",
"Pw.	c #665F3D",
"Qw.	c #786E48",
"Rw.	c #554E2F",
"Sw.	c #555434",
"Tw.	c #4E482B",
"Uw.	c #6D623E",
"Vw.	c #716642",
"Ww.	c #786D47",
"Xw.	c #534E2F",
"Yw.	c #5B5837",
"Zw.	c #575736",
"`w.	c #5A5A3A",
" x.	c #545535",
".x.	c #63633D",
"+x.	c #66623D",
"@x.	c #685E3B",
"#x.	c #685C3A",
"$x.	c #7E734D",
"%x.	c #766946",
"&x.	c #796C48",
"*x.	c #5C5032",
"=x.	c #726843",
"-x.	c #726642",
";x.	c #665939",
">x.	c #655737",
",x.	c #655736",
"'x.	c #6C5E3A",
")x.	c #7D704A",
"!x.	c #7B6F4A",
"~x.	c #786B48",
"{x.	c #776A47",
"]x.	c #4E3B1F",
"^x.	c #796E54",
"/x.	c #6B6048",
"(x.	c #696046",
"_x.	c #4E4430",
":x.	c #6A6148",
"<x.	c #766C52",
"[x.	c #72684E",
"}x.	c #675D44",
"|x.	c #625A43",
"1x.	c #59513C",
"2x.	c #5E563F",
"3x.	c #645D45",
"4x.	c #5D5740",
"5x.	c #463E2B",
"6x.	c #6B644B",
"7x.	c #665C44",
"8x.	c #5B553E",
"9x.	c #504D37",
"0x.	c #51513A",
"ax.	c #514C37",
"bx.	c #6E654B",
"cx.	c #736A4F",
"dx.	c #635841",
"ex.	c #655C44",
"fx.	c #72684F",
"gx.	c #4B391F",
"hx.	c #756751",
"ix.	c #61523C",
"jx.	c #6F604A",
"kx.	c #72634B",
"lx.	c #74654D",
"mx.	c #72644E",
"nx.	c #564A37",
"ox.	c #796D53",
"px.	c #6E6B50",
"qx.	c #635E45",
"rx.	c #636045",
"sx.	c #605B42",
"tx.	c #524A35",
"ux.	c #615842",
"vx.	c #4C4933",
"wx.	c #55533B",
"xx.	c #636248",
"yx.	c #58503B",
"zx.	c #5C533E",
"Ax.	c #5B5740",
"Bx.	c #563E20",
"Cx.	c #564021",
"Dx.	c #786E53",
"Ex.	c #756B51",
"Fx.	c #72674A",
"Gx.	c #766E52",
"Hx.	c #70674C",
"Ix.	c #5D533B",
"Jx.	c #675E43",
"Kx.	c #534B33",
"Lx.	c #5B543B",
"Mx.	c #6F6649",
"Nx.	c #686045",
"Ox.	c #645C42",
"Px.	c #736C50",
"Qx.	c #45402A",
"Rx.	c #4D5038",
"Sx.	c #4C4C35",
"Tx.	c #5E5C43",
"Ux.	c #5E5840",
"Vx.	c #5D5A41",
"Wx.	c #494127",
"Xx.	c #68674E",
"Yx.	c #504224",
"Zx.	c #615838",
"`x.	c #635A3A",
" y.	c #6A6140",
".y.	c #716745",
"+y.	c #645A3A",
"@y.	c #7D724C",
"#y.	c #716643",
"$y.	c #5C5435",
"%y.	c #5E5737",
"&y.	c #6E6A44",
"*y.	c #756C47",
"=y.	c #5C5233",
"-y.	c #5E5435",
";y.	c #6C623E",
">y.	c #716743",
",y.	c #625939",
"'y.	c #706643",
")y.	c #5F5837",
"!y.	c #585333",
"~y.	c #595736",
"{y.	c #65603D",
"]y.	c #463D24",
"^y.	c #585433",
"/y.	c #665E3C",
"(y.	c #4D4428",
"_y.	c #786C48",
":y.	c #746744",
"<y.	c #7C6F4A",
"[y.	c #80744E",
"}y.	c #706342",
"|y.	c #594C2F",
"1y.	c #6D5F3C",
"2y.	c #6A5D3A",
"3y.	c #685C39",
"4y.	c #7A6E48",
"5y.	c #7A6E49",
"6y.	c #7D704C",
"7y.	c #7B6E4A",
"8y.	c #7B7056",
"9y.	c #5D523B",
"0y.	c #645A42",
"ay.	c #6C6249",
"by.	c #645A43",
"cy.	c #6B634B",
"dy.	c #635C45",
"ey.	c #4D4531",
"fy.	c #625942",
"gy.	c #4B442F",
"hy.	c #4B4C36",
"iy.	c #4C5139",
"jy.	c #62634A",
"ky.	c #574D37",
"ly.	c #5E563E",
"my.	c #726A50",
"ny.	c #6F654C",
"oy.	c #49381E",
"py.	c #7F7159",
"qy.	c #6C5D47",
"ry.	c #7D6F57",
"sy.	c #4F4B34",
"ty.	c #645F46",
"uy.	c #656348",
"vy.	c #57533A",
"wy.	c #544F38",
"xy.	c #564C38",
"yy.	c #554F3A",
"zy.	c #686A4D",
"Ay.	c #5D5B43",
"By.	c #67674C",
"Cy.	c #5F6042",
"Dy.	c #514E3A",
"Ey.	c #573D1E",
"Fy.	c #5B4525",
"Gy.	c #635A43",
"Hy.	c #5F563F",
"Iy.	c #554B35",
"Jy.	c #73694E",
"Ky.	c #797054",
"Ly.	c #7B7154",
"My.	c #796F51",
"Ny.	c #746C51",
"Oy.	c #6C654B",
"Py.	c #645B42",
"Qy.	c #665D45",
"Ry.	c #72694E",
"Sy.	c #635A41",
"Ty.	c #534833",
"Uy.	c #544C34",
"Vy.	c #473E29",
"Wy.	c #413925",
"Xy.	c #615C41",
"Yy.	c #524C34",
"Zy.	c #635A3F",
"`y.	c #746B4E",
" z.	c #7A7153",
".z.	c #534F38",
"+z.	c #4D4832",
"@z.	c #666147",
"#z.	c #706A50",
"$z.	c #584E33",
"%z.	c #4F4022",
"&z.	c #554B2E",
"*z.	c #766D49",
"=z.	c #685E3D",
"-z.	c #776C48",
";z.	c #6F6542",
">z.	c #756B48",
",z.	c #796F4A",
"'z.	c #645D3B",
")z.	c #544D2E",
"!z.	c #66623E",
"~z.	c #605A38",
"{z.	c #605938",
"]z.	c #635938",
"^z.	c #625B3A",
"/z.	c #6C6340",
"(z.	c #675E3C",
"_z.	c #5E5234",
":z.	c #52492B",
"<z.	c #5C5333",
"[z.	c #736744",
"}z.	c #756845",
"|z.	c #645638",
"1z.	c #695C3A",
"2z.	c #635635",
"3z.	c #675A39",
"4z.	c #766843",
"5z.	c #746845",
"6z.	c #766A46",
"7z.	c #7E714D",
"8z.	c #4D3A20",
"9z.	c #7B7057",
"0z.	c #4D432F",
"az.	c #686147",
"bz.	c #574E37",
"cz.	c #605840",
"dz.	c #564B37",
"ez.	c #5B523D",
"fz.	c #4C422E",
"gz.	c #6B624A",
"hz.	c #766D53",
"iz.	c #594E39",
"jz.	c #564E38",
"kz.	c #4B4F37",
"lz.	c #56583F",
"mz.	c #554E37",
"nz.	c #4E4832",
"oz.	c #4C4430",
"pz.	c #746C52",
"qz.	c #7B7157",
"rz.	c #4F3E1E",
"sz.	c #71634D",
"tz.	c #7A6B52",
"uz.	c #7F7259",
"vz.	c #554835",
"wz.	c #7D6F58",
"xz.	c #7E7059",
"yz.	c #606243",
"zz.	c #646745",
"Az.	c #57553B",
"Bz.	c #544F37",
"Cz.	c #736A52",
"Dz.	c #7D7157",
"Ez.	c #606047",
"Fz.	c #5A5740",
"Gz.	c #635F48",
"Hz.	c #5D5C44",
"Iz.	c #616342",
"Jz.	c #4F4D33",
"Kz.	c #52391B",
"Lz.	c #5B4A2C",
"Mz.	c #5E5740",
"Nz.	c #756C4E",
"Oz.	c #756C50",
"Pz.	c #7D7457",
"Qz.	c #655D44",
"Rz.	c #5F573E",
"Sz.	c #5D563E",
"Tz.	c #726B4F",
"Uz.	c #6C6449",
"Vz.	c #695F46",
"Wz.	c #575038",
"Xz.	c #48452F",
"Yz.	c #5C5A3F",
"Zz.	c #605A3F",
"`z.	c #60593F",
" A.	c #685E43",
".A.	c #796F52",
"+A.	c #6B654A",
"@A.	c #686348",
"#A.	c #777155",
"$A.	c #7B7358",
"%A.	c #61593A",
"&A.	c #524222",
"*A.	c #655939",
"=A.	c #6B603F",
"-A.	c #5B5335",
";A.	c #766B48",
">A.	c #635D3B",
",A.	c #5B5334",
"'A.	c #4F4B2E",
")A.	c #4C492D",
"!A.	c #66613D",
"~A.	c #635D3A",
"{A.	c #605E3C",
"]A.	c #78724B",
"^A.	c #79744E",
"/A.	c #736B46",
"(A.	c #6F6743",
"_A.	c #6E6441",
":A.	c #675D3C",
"<A.	c #554B2F",
"[A.	c #615636",
"}A.	c #6C613E",
"|A.	c #6F6341",
"1A.	c #726643",
"2A.	c #81744F",
"3A.	c #6E6140",
"4A.	c #726440",
"5A.	c #80734E",
"6A.	c #7C6F4C",
"7A.	c #4E3B20",
"8A.	c #6C6148",
"9A.	c #59503A",
"0A.	c #544C36",
"aA.	c #494631",
"bA.	c #4F4933",
"cA.	c #555039",
"dA.	c #44402B",
"eA.	c #49432E",
"fA.	c #564E37",
"gA.	c #5F5740",
"hA.	c #4E4531",
"iA.	c #605942",
"jA.	c #49402D",
"kA.	c #6D654C",
"lA.	c #5D533E",
"mA.	c #605841",
"nA.	c #423825",
"oA.	c #46422D",
"pA.	c #4C4833",
"qA.	c #6E654A",
"rA.	c #71684E",
"sA.	c #70664E",
"tA.	c #7A7056",
"uA.	c #706345",
"vA.	c #4E3D21",
"wA.	c #645742",
"xA.	c #5F513D",
"yA.	c #5E533F",
"zA.	c #796C55",
"AA.	c #695C46",
"BA.	c #463A28",
"CA.	c #423725",
"DA.	c #605D45",
"EA.	c #5A583E",
"FA.	c #686C48",
"GA.	c #6B614A",
"HA.	c #5E5540",
"IA.	c #6F7155",
"JA.	c #5B5842",
"KA.	c #69694F",
"LA.	c #606046",
"MA.	c #656847",
"NA.	c #646846",
"OA.	c #5B5A40",
"PA.	c #563E1E",
"QA.	c #4C4129",
"RA.	c #484732",
"SA.	c #494632",
"TA.	c #706B51",
"UA.	c #6B6249",
"VA.	c #797053",
"WA.	c #7C7355",
"XA.	c #786F52",
"YA.	c #685F46",
"ZA.	c #756D52",
"`A.	c #7C7458",
" B.	c #584F38",
".B.	c #6D664C",
"+B.	c #776E53",
"@B.	c #585139",
"#B.	c #48412C",
"$B.	c #3E3A26",
"%B.	c #4F4932",
"&B.	c #736A4D",
"*B.	c #6A6146",
"=B.	c #574D36",
"-B.	c #6E664D",
";B.	c #675C3A",
">B.	c #574725",
",B.	c #746846",
"'B.	c #7A6E4B",
")B.	c #6F6644",
"!B.	c #53492D",
"~B.	c #544D30",
"{B.	c #6B6340",
"]B.	c #6C6140",
"^B.	c #655B3B",
"/B.	c #5B5535",
"(B.	c #4D462A",
"_B.	c #5D5938",
":B.	c #514D30",
"<B.	c #565535",
"[B.	c #504C2E",
"}B.	c #514F31",
"|B.	c #585334",
"1B.	c #736D48",
"2B.	c #66603E",
"3B.	c #776D49",
"4B.	c #7B704B",
"5B.	c #7D714C",
"6B.	c #756B46",
"7B.	c #736944",
"8B.	c #746843",
"9B.	c #796D49",
"0B.	c #766947",
"aB.	c #80744F",
"bB.	c #685B3C",
"cB.	c #706340",
"dB.	c #706442",
"eB.	c #7C704C",
"fB.	c #7E724D",
"gB.	c #827550",
"hB.	c #796C49",
"iB.	c #4C391E",
"jB.	c #4B452F",
"kB.	c #4E4A35",
"lB.	c #4D4A34",
"mB.	c #5A543C",
"nB.	c #504A34",
"oB.	c #756C51",
"pB.	c #6D634B",
"qB.	c #71684F",
"rB.	c #5B513C",
"sB.	c #5E5741",
"tB.	c #564E3A",
"uB.	c #59503B",
"vB.	c #524B36",
"wB.	c #4C432E",
"xB.	c #5F5940",
"yB.	c #524933",
"zB.	c #7F765C",
"AB.	c #7D7259",
"BB.	c #7D7059",
"CB.	c #655742",
"DB.	c #7B6C54",
"EB.	c #6E5F48",
"FB.	c #7E7057",
"GB.	c #786951",
"HB.	c #7A6C55",
"IB.	c #695B46",
"JB.	c #59523C",
"KB.	c #5F5A43",
"LB.	c #4F4934",
"MB.	c #534E38",
"NB.	c #4E4931",
"OB.	c #5D563F",
"PB.	c #6D654D",
"QB.	c #5F5943",
"RB.	c #514D37",
"SB.	c #5B5A43",
"TB.	c #65664E",
"UB.	c #65654C",
"VB.	c #4C4631",
"WB.	c #68694D",
"XB.	c #534024",
"YB.	c #55553E",
"ZB.	c #615941",
"`B.	c #70664A",
" C.	c #695F43",
".C.	c #706648",
"+C.	c #756B50",
"@C.	c #766D52",
"#C.	c #615942",
"$C.	c #6D674D",
"%C.	c #5B523B",
"&C.	c #45452F",
"*C.	c #565139",
"=C.	c #7A6F52",
"-C.	c #736A4E",
";C.	c #71694D",
">C.	c #756E52",
",C.	c #5F573F",
"'C.	c #57513C",
")C.	c #63593C",
"!C.	c #5E5025",
"~C.	c #776C49",
"{C.	c #605A3A",
"]C.	c #595939",
"^C.	c #606140",
"/C.	c #564F32",
"(C.	c #574E32",
"_C.	c #504B2F",
":C.	c #46442A",
"<C.	c #555534",
"[C.	c #4E4F2F",
"}C.	c #565835",
"|C.	c #4E4D2F",
"1C.	c #484529",
"2C.	c #6A6842",
"3C.	c #595334",
"4C.	c #726C48",
"5C.	c #786D49",
"6C.	c #675B3C",
"7C.	c #756A45",
"8C.	c #7C6F4B",
"9C.	c #6F6342",
"0C.	c #716342",
"aC.	c #6D5F3E",
"bC.	c #695B39",
"cC.	c #766A43",
"dC.	c #7D714B",
"eC.	c #7F724D",
"fC.	c #756846",
"gC.	c #716240",
"hC.	c #4A442E",
"iC.	c #595941",
"jC.	c #44452E",
"kC.	c #4F4F38",
"lC.	c #55523B",
"mC.	c #57523A",
"nC.	c #615D43",
"oC.	c #676249",
"pC.	c #6C644B",
"qC.	c #6B6148",
"rC.	c #6A624A",
"sC.	c #645C45",
"tC.	c #655D46",
"uC.	c #676048",
"vC.	c #6E654C",
"wC.	c #665D44",
"xC.	c #666046",
"yC.	c #5E553D",
"zC.	c #7B7158",
"AC.	c #786E55",
"BC.	c #4E3C21",
"CC.	c #5C4F3B",
"DC.	c #675944",
"EC.	c #80735B",
"FC.	c #786A54",
"GC.	c #5C5A40",
"HC.	c #625E46",
"IC.	c #625D47",
"JC.	c #58583F",
"KC.	c #5D5B45",
"LC.	c #5A523E",
"MC.	c #5E5743",
"NC.	c #57573D",
"OC.	c #4F3C21",
"PC.	c #575B41",
"QC.	c #60654A",
"RC.	c #5A553E",
"SC.	c #776F53",
"TC.	c #6D654B",
"UC.	c #7A7155",
"VC.	c #797155",
"WC.	c #6B6248",
"XC.	c #534D36",
"YC.	c #5D583E",
"ZC.	c #5C563D",
"`C.	c #6A5F44",
" D.	c #6B6146",
".D.	c #584D37",
"+D.	c #625B42",
"@D.	c #544B35",
"#D.	c #726A4F",
"$D.	c #6E664C",
"%D.	c #756D53",
"&D.	c #766E54",
"*D.	c #7A7154",
"=D.	c #564721",
"-D.	c #655938",
";D.	c #675D3D",
">D.	c #5D5235",
",D.	c #524A2E",
"'D.	c #595637",
")D.	c #595A3A",
"!D.	c #515434",
"~D.	c #5B5B3A",
"{D.	c #554E30",
"]D.	c #484327",
"^D.	c #636841",
"/D.	c #4C4B2B",
"(D.	c #575C37",
"_D.	c #61683E",
":D.	c #575936",
"<D.	c #525330",
"[D.	c #575635",
"}D.	c #595535",
"|D.	c #605939",
"1D.	c #796E49",
"2D.	c #6C633F",
"3D.	c #706540",
"4D.	c #645838",
"5D.	c #625837",
"6D.	c #746745",
"7D.	c #81754F",
"8D.	c #7D704B",
"9D.	c #7F724E",
"0D.	c #857953",
"aD.	c #80734F",
"bD.	c #695C3D",
"cD.	c #7C714D",
"dD.	c #4B391E",
"eD.	c #5B543D",
"fD.	c #3D3D28",
"gD.	c #53573E",
"hD.	c #43422C",
"iD.	c #5D6448",
"jD.	c #47452F",
"kD.	c #645C43",
"lD.	c #645A44",
"mD.	c #534935",
"nD.	c #6B6046",
"oD.	c #7A7057",
"pD.	c #4A3D26",
"qD.	c #6B5D48",
"rD.	c #76674F",
"sD.	c #5B5440",
"tD.	c #6A5C48",
"uD.	c #625640",
"vD.	c #514633",
"wD.	c #5C553E",
"xD.	c #494430",
"yD.	c #4E4834",
"zD.	c #59533D",
"AD.	c #7D7159",
"BD.	c #66604A",
"CD.	c #5D5C45",
"DD.	c #524D38",
"ED.	c #65664C",
"FD.	c #65654D",
"GD.	c #5C5943",
"HD.	c #66614C",
"ID.	c #5E5D43",
"JD.	c #513E21",
"KD.	c #575740",
"LD.	c #5B6045",
"MD.	c #575741",
"ND.	c #615C45",
"OD.	c #796F53",
"PD.	c #6E6549",
"QD.	c #766D51",
"RD.	c #6F674C",
"SD.	c #726A4E",
"TD.	c #776F55",
"UD.	c #504832",
"VD.	c #534933",
"WD.	c #595239",
"XD.	c #665F44",
"YD.	c #6D6448",
"ZD.	c #5D4E21",
"`D.	c #564824",
" E.	c #706740",
".E.	c #5F593A",
"+E.	c #605D3D",
"@E.	c #555738",
"#E.	c #5B5B3C",
"$E.	c #5D613E",
"%E.	c #585637",
"&E.	c #4B472A",
"*E.	c #595F38",
"=E.	c #4F532D",
"-E.	c #5D663A",
";E.	c #606A3D",
">E.	c #697345",
",E.	c #515330",
"'E.	c #494829",
")E.	c #464327",
"!E.	c #5A5636",
"~E.	c #767049",
"{E.	c #655D3C",
"]E.	c #6D6340",
"^E.	c #716442",
"/E.	c #625537",
"(E.	c #5E5134",
"_E.	c #746641",
":E.	c #756844",
"<E.	c #7A6D4A",
"[E.	c #756946",
"}E.	c #6D6040",
"|E.	c #66593B",
"1E.	c #6A5E3E",
"2E.	c #7D714D",
"3E.	c #494531",
"4E.	c #474933",
"5E.	c #51533B",
"6E.	c #4A4A33",
"7E.	c #585740",
"8E.	c #786E54",
"9E.	c #665D46",
"0E.	c #534934",
"aE.	c #493A1F",
"bE.	c #6D5F4A",
"cE.	c #6A5C47",
"dE.	c #605945",
"eE.	c #4E4533",
"fE.	c #514632",
"gE.	c #645C47",
"hE.	c #57503B",
"iE.	c #605F47",
"jE.	c #56543F",
"kE.	c #615D48",
"lE.	c #5B5743",
"mE.	c #5E5440",
"nE.	c #4C3A1E",
"oE.	c #47442D",
"pE.	c #4F5339",
"qE.	c #565841",
"rE.	c #58523A",
"sE.	c #675E45",
"tE.	c #71694F",
"uE.	c #696148",
"vE.	c #544C37",
"wE.	c #615A43",
"xE.	c #534A34",
"yE.	c #6D6549",
"zE.	c #786F55",
"AE.	c #766D54",
"BE.	c #554827",
"CE.	c #5D5132",
"DE.	c #7C724D",
"EE.	c #665931",
"FE.	c #4F472C",
"GE.	c #585134",
"HE.	c #4E492E",
"IE.	c #565537",
"JE.	c #616441",
"KE.	c #49492D",
"LE.	c #626D3F",
"ME.	c #555B34",
"NE.	c #4C502D",
"OE.	c #647041",
"PE.	c #5D663C",
"QE.	c #434125",
"RE.	c #444025",
"SE.	c #5C5E3C",
"TE.	c #615A39",
"UE.	c #66603C",
"VE.	c #524D2E",
"WE.	c #5B5032",
"XE.	c #6B603E",
"YE.	c #756945",
"ZE.	c #635739",
"`E.	c #706341",
" F.	c #716543",
".F.	c #786C49",
"+F.	c #776B47",
"@F.	c #7F734E",
"#F.	c #766A48",
"$F.	c #4D3A1F",
"%F.	c #4D422F",
"&F.	c #473E2B",
"*F.	c #524F3A",
"=F.	c #54533D",
"-F.	c #535C3E",
";F.	c #565E40",
">F.	c #55583E",
",F.	c #68644B",
"'F.	c #7C7258",
")F.	c #796F55",
"!F.	c #574D39",
"~F.	c #6F664E",
"{F.	c #72684D",
"]F.	c #4C3D20",
"^F.	c #7F725C",
"/F.	c #7C6F59",
"(F.	c #6A624C",
"_F.	c #625A45",
":F.	c #4F4533",
"<F.	c #574E3B",
"[F.	c #766852",
"}F.	c #5B543F",
"|F.	c #736C56",
"1F.	c #4E391E",
"2F.	c #4C4025",
"3F.	c #4B4E34",
"4F.	c #565B42",
"5F.	c #55583F",
"6F.	c #443E2B",
"7F.	c #534B36",
"8F.	c #625C41",
"9F.	c #5C553C",
"0F.	c #4D452F",
"aF.	c #5A553B",
"bF.	c #6A6247",
"cF.	c #6F664B",
"dF.	c #746C50",
"eF.	c #6F684D",
"fF.	c #756D51",
"gF.	c #726B51",
"hF.	c #686047",
"iF.	c #5C573F",
"jF.	c #68634B",
"kF.	c #5B543E",
"lF.	c #70674D",
"mF.	c #615B42",
"nF.	c #7D745A",
"oF.	c #625C45",
"pF.	c #524323",
"qF.	c #68603F",
"rF.	c #61593B",
"sF.	c #645D39",
"tF.	c #605B3C",
"uF.	c #5D5738",
"vF.	c #5B5A3B",
"wF.	c #575A3A",
"xF.	c #515233",
"yF.	c #666E45",
"zF.	c #585B37",
"AF.	c #4D502E",
"BF.	c #647042",
"CF.	c #5D653B",
"DF.	c #444125",
"EF.	c #434227",
"FF.	c #4C4B2D",
"GF.	c #514E30",
"HF.	c #4F482B",
"IF.	c #5A5333",
"JF.	c #524C2F",
"KF.	c #574E30",
"LF.	c #6A623F",
"MF.	c #706541",
"NF.	c #736644",
"OF.	c #685C3C",
"PF.	c #6C5F3E",
"QF.	c #6D603E",
"RF.	c #635638",
"SF.	c #7E724E",
"TF.	c #796D4A",
"UF.	c #817551",
"VF.	c #453018",
"WF.	c #5D5741",
"XF.	c #4A4834",
"YF.	c #575842",
"ZF.	c #5E664B",
"`F.	c #474832",
" G.	c #52593F",
".G.	c #4A4F35",
"+G.	c #756C52",
"@G.	c #51401F",
"#G.	c #736550",
"$G.	c #7F725B",
"%G.	c #6E604B",
"&G.	c #5C533F",
"*G.	c #5F5643",
"=G.	c #5E513E",
"-G.	c #50391D",
";G.	c #5A4D31",
">G.	c #595E46",
",G.	c #51563A",
"'G.	c #505638",
")G.	c #555841",
"!G.	c #544A35",
"~G.	c #514F38",
"{G.	c #4A4631",
"]G.	c #423A26",
"^G.	c #443E29",
"/G.	c #70684F",
"(G.	c #665F47",
"_G.	c #544B37",
":G.	c #625B44",
"<G.	c #504834",
"[G.	c #56523C",
"}G.	c #47402D",
"|G.	c #4C4632",
"1G.	c #4F4B36",
"2G.	c #4F4833",
"3G.	c #4F4122",
"4G.	c #5C5234",
"5G.	c #615739",
"6G.	c #5B5235",
"7G.	c #5A5839",
"8G.	c #47442A",
"9G.	c #544E2F",
"0G.	c #504A2F",
"aG.	c #4E4D30",
"bG.	c #4E5131",
"cG.	c #585B38",
"dG.	c #4E4F30",
"eG.	c #4C512E",
"fG.	c #657243",
"gG.	c #565E36",
"hG.	c #6C7A4A",
"iG.	c #50542F",
"jG.	c #4B4B2B",
"kG.	c #4C4C2F",
"lG.	c #4B492B",
"mG.	c #565635",
"nG.	c #4C472C",
"oG.	c #515133",
"pG.	c #655E3C",
"qG.	c #5B5132",
"rG.	c #585132",
"sG.	c #595434",
"tG.	c #6E6541",
"uG.	c #4B4328",
"vG.	c #6A603F",
"wG.	c #726845",
"xG.	c #766B47",
"yG.	c #746945",
"zG.	c #6B5F3E",
"AG.	c #6B5E3E",
"BG.	c #7D714E",
"CG.	c #706343",
"DG.	c #756948",
"EG.	c #47311A",
"FG.	c #594F3B",
"GG.	c #6B624B",
"HG.	c #545B3F",
"IG.	c #444730",
"JG.	c #51563D",
"KG.	c #4A4C35",
"LG.	c #52543D",
"MG.	c #4C4B35",
"NG.	c #706950",
"OG.	c #746B51",
"PG.	c #766C51",
"QG.	c #7B7159",
"RG.	c #47371B",
"SG.	c #635844",
"TG.	c #5E5643",
"UG.	c #544836",
"VG.	c #564025",
"WG.	c #5A5742",
"XG.	c #504F3B",
"YG.	c #606A4B",
"ZG.	c #5F6B48",
"`G.	c #44432D",
" H.	c #484633",
".H.	c #574930",
"+H.	c #504B36",
"@H.	c #4C4B36",
"#H.	c #444530",
"$H.	c #3D3926",
"%H.	c #4D4F38",
"&H.	c #534C36",
"*H.	c #6D674C",
"=H.	c #5A533C",
"-H.	c #453B28",
";H.	c #625C43",
">H.	c #605941",
",H.	c #5D553F",
"'H.	c #787056",
")H.	c #504935",
"!H.	c #55503A",
"~H.	c #494330",
"{H.	c #797052",
"]H.	c #776F54",
"^H.	c #746B52",
"/H.	c #554E39",
"(H.	c #58523D",
"_H.	c #524C37",
":H.	c #4B3D1F",
"<H.	c #595033",
"[H.	c #584F32",
"}H.	c #504D31",
"|H.	c #565C39",
"1H.	c #454528",
"2H.	c #535437",
"3H.	c #4C4E2F",
"4H.	c #575F39",
"5H.	c #4E512F",
"6H.	c #515532",
"7H.	c #4D502F",
"8H.	c #5A6039",
"9H.	c #494B2B",
"0H.	c #444425",
"aH.	c #4A492B",
"bH.	c #4A482B",
"cH.	c #525532",
"dH.	c #585C38",
"eH.	c #454529",
"fH.	c #676743",
"gH.	c #463C23",
"hH.	c #686642",
"iH.	c #514B2E",
"jH.	c #5C5637",
"kH.	c #555233",
"lH.	c #736C48",
"mH.	c #6D6341",
"nH.	c #7C724E",
"oH.	c #6A5D3D",
"pH.	c #635636",
"qH.	c #7B6F4B",
"rH.	c #736645",
"sH.	c #796D4B",
"tH.	c #867B56",
"uH.	c #4E391F",
"vH.	c #604F38",
"wH.	c #484A33",
"xH.	c #454A30",
"yH.	c #474732",
"zH.	c #4A4734",
"AH.	c #565740",
"BH.	c #595D44",
"CH.	c #5A563F",
"DH.	c #6F664F",
"EH.	c #5D533F",
"FH.	c #776D53",
"GH.	c #797057",
"HH.	c #7D735C",
"IH.	c #7D735B",
"JH.	c #503F24",
"KH.	c #847761",
"LH.	c #756853",
"MH.	c #7B6D57",
"NH.	c #6E604A",
"OH.	c #483F2E",
"PH.	c #59513E",
"QH.	c #67604B",
"RH.	c #70624D",
"SH.	c #6C5E48",
"TH.	c #513C23",
"UH.	c #4D4734",
"VH.	c #4D4431",
"WH.	c #5B5742",
"XH.	c #5C6447",
"YH.	c #5E6847",
"ZH.	c #474931",
"`H.	c #4E472F",
" I.	c #4C4531",
".I.	c #4F4C37",
"+I.	c #4B4D35",
"@I.	c #50553C",
"#I.	c #52573E",
"$I.	c #53533C",
"%I.	c #54523A",
"&I.	c #5B533E",
"*I.	c #675F48",
"=I.	c #5C543F",
"-I.	c #483F2C",
";I.	c #52503C",
">I.	c #59553F",
",I.	c #68634A",
"'I.	c #72694F",
")I.	c #7B7054",
"!I.	c #4A422E",
"~I.	c #4E4733",
"{I.	c #464330",
"]I.	c #484B36",
"^I.	c #5D5637",
"/I.	c #4B3D1E",
"(I.	c #52482C",
"_I.	c #5E5637",
":I.	c #6D704B",
"<I.	c #545937",
"[I.	c #464A29",
"}I.	c #525430",
"|I.	c #565B39",
"1I.	c #525636",
"2I.	c #4D522F",
"3I.	c #454627",
"4I.	c #4C4F2E",
"5I.	c #555C36",
"6I.	c #585F3A",
"7I.	c #49482A",
"8I.	c #433F24",
"9I.	c #5D5E3B",
"0I.	c #535534",
"aI.	c #5B643B",
"bI.	c #545634",
"cI.	c #4B4D2D",
"dI.	c #4D4E2F",
"eI.	c #535735",
"fI.	c #424227",
"gI.	c #48472B",
"hI.	c #4E492C",
"iI.	c #3E3921",
"jI.	c #4D4B2E",
"kI.	c #575333",
"lI.	c #6B6744",
"mI.	c #766C49",
"nI.	c #807550",
"oI.	c #7C704D",
"pI.	c #6C603E",
"qI.	c #5D5031",
"rI.	c #675B3A",
"sI.	c #7A6E4A",
"tI.	c #766A47",
"uI.	c #7E724F",
"vI.	c #4C381F",
"wI.	c #796F57",
"xI.	c #554B37",
"yI.	c #595A43",
"zI.	c #4F4C38",
"AI.	c #4B4834",
"BI.	c #555740",
"CI.	c #504C37",
"DI.	c #756D54",
"EI.	c #786E56",
"FI.	c #786F57",
"GI.	c #776E56",
"HI.	c #80775F",
"II.	c #7E745C",
"JI.	c #4A3A22",
"KI.	c #837660",
"LI.	c #67604C",
"MI.	c #4E4A37",
"NI.	c #56513E",
"OI.	c #594E3B",
"PI.	c #564B38",
"QI.	c #584F3C",
"RI.	c #6C644F",
"SI.	c #615643",
"TI.	c #4F3A21",
"UI.	c #6A644E",
"VI.	c #64604A",
"WI.	c #43442F",
"XI.	c #555439",
"YI.	c #585640",
"ZI.	c #4D4530",
"`I.	c #423D2A",
" J.	c #524E38",
".J.	c #57523B",
"+J.	c #47432F",
"@J.	c #4C4E38",
"#J.	c #494D33",
"$J.	c #4F5139",
"%J.	c #575E42",
"&J.	c #56573F",
"*J.	c #615D44",
"=J.	c #4D4833",
"-J.	c #4D4A37",
";J.	c #4A432F",
">J.	c #5D5F4A",
",J.	c #4E4B37",
"'J.	c #44402E",
")J.	c #66614A",
"!J.	c #7F765A",
"~J.	c #786F54",
"{J.	c #736B51",
"]J.	c #4E4431",
"^J.	c #56503B",
"/J.	c #524729",
"(J.	c #4C3E20",
"_J.	c #625C3C",
":J.	c #5B5436",
"<J.	c #5B5C3B",
"[J.	c #4B4928",
"}J.	c #47472B",
"|J.	c #4A4F2E",
"1J.	c #444528",
"2J.	c #595E3C",
"3J.	c #4D5130",
"4J.	c #4D5330",
"5J.	c #657146",
"6J.	c #4F5330",
"7J.	c #5B603C",
"8J.	c #4A462A",
"9J.	c #4E5232",
"0J.	c #59623A",
"aJ.	c #434327",
"bJ.	c #403E23",
"cJ.	c #555838",
"dJ.	c #4A4D2D",
"eJ.	c #505533",
"fJ.	c #4B4A2D",
"gJ.	c #47482C",
"hJ.	c #4F5031",
"iJ.	c #4D492C",
"jJ.	c #585738",
"kJ.	c #716B48",
"lJ.	c #625A3B",
"mJ.	c #635A3B",
"nJ.	c #736947",
"oJ.	c #716544",
"pJ.	c #736844",
"qJ.	c #635738",
"rJ.	c #695C3B",
"sJ.	c #625536",
"tJ.	c #665937",
"uJ.	c #807450",
"vJ.	c #4E3A1F",
"wJ.	c #5E513B",
"xJ.	c #5A523B",
"yJ.	c #7A7157",
"zJ.	c #7A7158",
"AJ.	c #726951",
"BJ.	c #635B45",
"CJ.	c #574E3A",
"DJ.	c #716850",
"EJ.	c #6C644C",
"FJ.	c #796E55",
"GJ.	c #4B3B1E",
"HJ.	c #7C6F5A",
"IJ.	c #81745E",
"JJ.	c #766853",
"KJ.	c #736651",
"LJ.	c #796B55",
"MJ.	c #625945",
"NJ.	c #584F3D",
"OJ.	c #655A47",
"PJ.	c #5D4F3B",
"QJ.	c #4A351B",
"RJ.	c #655E47",
"SJ.	c #4A4D36",
"TJ.	c #4A4F36",
"UJ.	c #606D49",
"VJ.	c #4C4935",
"WJ.	c #605E48",
"XJ.	c #605F49",
"YJ.	c #686148",
"ZJ.	c #585941",
"`J.	c #585A41",
" K.	c #50553A",
".K.	c #4F5639",
"+K.	c #403F2A",
"@K.	c #4A442F",
"#K.	c #4C4834",
"$K.	c #4E4732",
"%K.	c #44412E",
"&K.	c #393524",
"*K.	c #494936",
"=K.	c #524F3B",
"-K.	c #54533E",
";K.	c #55543F",
">K.	c #5A5B46",
",K.	c #595945",
"'K.	c #5F5F49",
")K.	c #6A634B",
"!K.	c #69614A",
"~K.	c #615A44",
"{K.	c #6A644C",
"]K.	c #4D3E21",
"^K.	c #504629",
"/K.	c #6E6745",
"(K.	c #4D452A",
"_K.	c #4C4B2F",
":K.	c #4F5433",
"<K.	c #5F6740",
"[K.	c #4B4F30",
"}K.	c #403F25",
"|K.	c #4D4F30",
"1K.	c #3F3F23",
"2K.	c #444127",
"3K.	c #494A2C",
"4K.	c #4B4B2D",
"5K.	c #4F4A2D",
"6K.	c #4B482B",
"7K.	c #4E5332",
"8K.	c #555335",
"9K.	c #4D4F31",
"0K.	c #5A5637",
"aK.	c #6A6242",
"bK.	c #6C6342",
"cK.	c #786D4A",
"dK.	c #695D3D",
"eK.	c #655838",
"fK.	c #7F734F",
"gK.	c #6E6141",
"hK.	c #6D6140",
"iK.	c #7B6F4C",
"jK.	c #7B6F4D",
"kK.	c #5E4E36",
"lK.	c #645B45",
"mK.	c #6F674E",
"nK.	c #7D735A",
"oK.	c #7B725A",
"pK.	c #5D5540",
"qK.	c #574624",
"rK.	c #736652",
"sK.	c #80745E",
"tK.	c #746752",
"uK.	c #5F5641",
"vK.	c #5C5440",
"wK.	c #635B47",
"xK.	c #524E3A",
"yK.	c #726550",
"zK.	c #786B56",
"AK.	c #5B4D3A",
"BK.	c #544A38",
"CK.	c #625A46",
"DK.	c #625844",
"EK.	c #533817",
"FK.	c #625236",
"GK.	c #534C39",
"HK.	c #5E5D47",
"IK.	c #51563C",
"JK.	c #50573C",
"KK.	c #50523D",
"LK.	c #5A543F",
"MK.	c #646248",
"NK.	c #514A34",
"OK.	c #484932",
"PK.	c #596044",
"QK.	c #45482F",
"RK.	c #50513B",
"SK.	c #504C36",
"TK.	c #484430",
"UK.	c #605A43",
"VK.	c #52503B",
"WK.	c #454833",
"XK.	c #464933",
"YK.	c #4F533B",
"ZK.	c #51503B",
"`K.	c #5F5F4A",
" L.	c #423B29",
".L.	c #534D39",
"+L.	c #5C5540",
"@L.	c #56523D",
"#L.	c #655C46",
"$L.	c #797156",
"%L.	c #6F664D",
"&L.	c #615943",
"*L.	c #6C6241",
"=L.	c #53441D",
"-L.	c #574A20",
";L.	c #635836",
">L.	c #66613B",
",L.	c #5E5939",
"'L.	c #555334",
")L.	c #515535",
"!L.	c #444428",
"~L.	c #4D5032",
"{L.	c #545737",
"]L.	c #565536",
"^L.	c #524E32",
"/L.	c #4A4227",
"(L.	c #5C603D",
"_L.	c #413D23",
":L.	c #545233",
"<L.	c #5A5536",
"[L.	c #5E5838",
"}L.	c #534B2F",
"|L.	c #5B5636",
"1L.	c #61603E",
"2L.	c #565335",
"3L.	c #504C30",
"4L.	c #5A5738",
"5L.	c #5A5436",
"6L.	c #595336",
"7L.	c #6A6142",
"8L.	c #716846",
"9L.	c #726645",
"0L.	c #736846",
"aL.	c #615435",
"bL.	c #695D3E",
"cL.	c #7F724F",
"dL.	c #7D704E",
"eL.	c #4B371E",
"fL.	c #574832",
"gL.	c #6E684F",
"hL.	c #666049",
"iL.	c #5A523C",
"jL.	c #5C523E",
"kL.	c #6E654E",
"lL.	c #574F3B",
"mL.	c #53503B",
"nL.	c #4B4431",
"oL.	c #564F3B",
"pL.	c #70674F",
"qL.	c #80765F",
"rL.	c #7D745D",
"sL.	c #766954",
"tL.	c #796C57",
"uL.	c #6B5E49",
"vL.	c #5E513D",
"wL.	c #66604C",
"xL.	c #48412F",
"yL.	c #5A523F",
"zL.	c #71634E",
"AL.	c #675945",
"BL.	c #5D5340",
"CL.	c #76664D",
"DL.	c #513716",
"EL.	c #746C56",
"FL.	c #726A53",
"GL.	c #544D39",
"HL.	c #4A4936",
"IL.	c #5B5843",
"JL.	c #635E47",
"KL.	c #544D38",
"LL.	c #5E5841",
"ML.	c #554F38",
"NL.	c #5C563E",
"OL.	c #56543D",
"PL.	c #4F523B",
"QL.	c #494935",
"RL.	c #544F3A",
"SL.	c #453E2B",
"TL.	c #51553F",
"UL.	c #474835",
"VL.	c #575944",
"WL.	c #4E4835",
"XL.	c #524B37",
"YL.	c #5E5B47",
"ZL.	c #69614B",
"`L.	c #736E56",
" M.	c #726B53",
".M.	c #716A51",
"+M.	c #524935",
"@M.	c #726A51",
"#M.	c #665D43",
"$M.	c #736A50",
"%M.	c #756E55",
"&M.	c #676049",
"*M.	c #4E3F1C",
"=M.	c #574C28",
"-M.	c #575030",
";M.	c #554A2C",
">M.	c #635D3D",
",M.	c #625E3D",
"'M.	c #484A2C",
")M.	c #535B37",
"!M.	c #625C3B",
"~M.	c #5F5839",
"{M.	c #746C48",
"]M.	c #5F613F",
"^M.	c #413E24",
"/M.	c #675F3D",
"(M.	c #6F6541",
"_M.	c #615A38",
":M.	c #706844",
"<M.	c #6A6341",
"[M.	c #6A6846",
"}M.	c #786F4D",
"|M.	c #736A48",
"1M.	c #756C49",
"2M.	c #7B714E",
"3M.	c #6D6041",
"4M.	c #695F3F",
"5M.	c #6D613F",
"6M.	c #746946",
"7M.	c #65583A",
"8M.	c #695C3C",
"9M.	c #786C4A",
"0M.	c #746847",
"aM.	c #46331B",
"bM.	c #655B45",
"cM.	c #473A27",
"dM.	c #5E543F",
"eM.	c #756C54",
"fM.	c #797058",
"gM.	c #706750",
"hM.	c #4D4532",
"iM.	c #584E39",
"jM.	c #7A7159",
"kM.	c #7B735C",
"lM.	c #44341A",
"mM.	c #746753",
"nM.	c #706551",
"oM.	c #6C5E49",
"pM.	c #563D1D",
"qM.	c #624F32",
"rM.	c #69593C",
"sM.	c #514F3B",
"tM.	c #4E503D",
"uM.	c #54533F",
"vM.	c #655F48",
"wM.	c #66624B",
"xM.	c #5A5741",
"yM.	c #473F2B",
"zM.	c #5B553D",
"AM.	c #5A573F",
"BM.	c #545039",
"CM.	c #44422E",
"DM.	c #4F4D38",
"EM.	c #5C553F",
"FM.	c #58523C",
"GM.	c #484A36",
"HM.	c #4B4B37",
"IM.	c #5C5A45",
"JM.	c #5C5541",
"KM.	c #716952",
"LM.	c #7A725A",
"MM.	c #736B53",
"NM.	c #69624A",
"OM.	c #716950",
"PM.	c #675E48",
"QM.	c #5E543A",
"RM.	c #605842",
"SM.	c #655D47",
"TM.	c #776F57",
"UM.	c #51411D",
"VM.	c #6B6243",
"WM.	c #5D593A",
"XM.	c #595234",
"YM.	c #5E5A3B",
"ZM.	c #4D5331",
"`M.	c #46492D",
" N.	c #4D5231",
".N.	c #4E5032",
"+N.	c #625D3D",
"@N.	c #6F6744",
"#N.	c #7A714B",
"$N.	c #69623F",
"%N.	c #595032",
"&N.	c #756E48",
"*N.	c #5C5436",
"=N.	c #6E6846",
"-N.	c #736B48",
";N.	c #7C734F",
">N.	c #756B49",
",N.	c #817652",
"'N.	c #807552",
")N.	c #7A6E4C",
"!N.	c #63573A",
"~N.	c #5F5336",
"{N.	c #726744",
"]N.	c #685C3B",
"^N.	c #6C603D",
"/N.	c #6D623F",
"(N.	c #796C4A",
"_N.	c #3F2C17",
":N.	c #45331D",
"<N.	c #6B644D",
"[N.	c #6D644D",
"}N.	c #3C3422",
"|N.	c #4E4A36",
"1N.	c #504D38",
"2N.	c #433318",
"3N.	c #7A6D59",
"4N.	c #72644F",
"5N.	c #6E634F",
"6N.	c #614E31",
"7N.	c #786D59",
"8N.	c #7F735E",
"9N.	c #513B22",
"0N.	c #7C745C",
"aN.	c #57503D",
"bN.	c #4C442E",
"cN.	c #5E694C",
"dN.	c #484B32",
"eN.	c #52583E",
"fN.	c #4E4C36",
"gN.	c #575942",
"hN.	c #524B35",
"iN.	c #55523A",
"jN.	c #57553F",
"kN.	c #635D46",
"lN.	c #6A634C",
"mN.	c #5F5944",
"nN.	c #55523E",
"oN.	c #4D4E3A",
"pN.	c #605D48",
"qN.	c #736B54",
"rN.	c #766E57",
"sN.	c #746C55",
"tN.	c #5F5741",
"uN.	c #736C53",
"vN.	c #716951",
"wN.	c #797259",
"xN.	c #766B4A",
"yN.	c #63593B",
"zN.	c #544F33",
"AN.	c #4E5132",
"BN.	c #4B4F31",
"CN.	c #5D603E",
"DN.	c #646040",
"EN.	c #685F3F",
"FN.	c #6F6543",
"GN.	c #776B48",
"HN.	c #665A3B",
"IN.	c #66603D",
"JN.	c #665F3E",
"KN.	c #6B623F",
"LN.	c #68603D",
"MN.	c #6B6441",
"NN.	c #796F4C",
"ON.	c #827651",
"PN.	c #807451",
"QN.	c #796E4A",
"RN.	c #685E3F",
"SN.	c #706544",
"TN.	c #6F6343",
"UN.	c #615436",
"VN.	c #706542",
"WN.	c #665A39",
"XN.	c #5D5032",
"YN.	c #6A5E3C",
"ZN.	c #6E623F",
"`N.	c #726644",
" O.	c #756947",
".O.	c #675A3C",
"+O.	c #432F19",
"@O.	c #5E4D36",
"#O.	c #56442D",
"$O.	c #786F58",
"%O.	c #6F6750",
"&O.	c #706852",
"*O.	c #484330",
"=O.	c #57543F",
"-O.	c #6C644E",
";O.	c #7A715A",
">O.	c #79715A",
",O.	c #4B3C1C",
"'O.	c #4F3F1C",
")O.	c #7B6F5B",
"!O.	c #6D604C",
"~O.	c #776953",
"{O.	c #564A39",
"]O.	c #513C22",
"^O.	c #78705A",
"/O.	c #555742",
"(O.	c #464633",
"_O.	c #655F49",
":O.	c #52533E",
"<O.	c #545D42",
"[O.	c #5C6949",
"}O.	c #545D3E",
"|O.	c #566442",
"1O.	c #5B5B44",
"2O.	c #605D44",
"3O.	c #5B563E",
"4O.	c #655F45",
"5O.	c #514B35",
"6O.	c #5C5841",
"7O.	c #665F49",
"8O.	c #665E48",
"9O.	c #544D3A",
"0O.	c #585643",
"aO.	c #68624C",
"bO.	c #59513D",
"cO.	c #6C654D",
"dO.	c #797055",
"eO.	c #776E55",
"fO.	c #7B7259",
"gO.	c #786F56",
"hO.	c #797158",
"iO.	c #787057",
"jO.	c #665E49",
"kO.	c #796F4D",
"lO.	c #766C4A",
"mO.	c #514D32",
"nO.	c #545232",
"oO.	c #4B462C",
"pO.	c #6C6745",
"qO.	c #6A6040",
"rO.	c #675E3D",
"sO.	c #67603E",
"tO.	c #645B3A",
"uO.	c #5F5636",
"vO.	c #6E6542",
"wO.	c #6E6543",
"xO.	c #7E7450",
"yO.	c #837753",
"zO.	c #7C714E",
"AO.	c #756A47",
"BO.	c #665A3A",
"CO.	c #6F6441",
"DO.	c #5E5133",
"EO.	c #6B5F3B",
"FO.	c #786D48",
"GO.	c #6F6241",
"HO.	c #452E16",
"IO.	c #787059",
"JO.	c #7F765F",
"KO.	c #5E5641",
"LO.	c #6D654F",
"MO.	c #655E48",
"NO.	c #534B37",
"OO.	c #68634C",
"PO.	c #685F49",
"QO.	c #4C412F",
"RO.	c #6F6650",
"SO.	c #6E664F",
"TO.	c #6C6450",
"UO.	c #746D58",
"VO.	c #5B4E35",
"WO.	c #695B3E",
"XO.	c #887C67",
"YO.	c #7E725D",
"ZO.	c #7F735F",
"`O.	c #756854",
" P.	c #645745",
".P.	c #5C5441",
"+P.	c #635846",
"@P.	c #533E24",
"#P.	c #5C5340",
"$P.	c #595441",
"%P.	c #5A5C47",
"&P.	c #5C5B47",
"*P.	c #5F604C",
"=P.	c #5A6048",
"-P.	c #535E3E",
";P.	c #5E6E4A",
">P.	c #63754F",
",P.	c #494F34",
"'P.	c #4B4A35",
")P.	c #514732",
"!P.	c #706A52",
"~P.	c #514936",
"{P.	c #5B5642",
"]P.	c #5D5440",
"^P.	c #756D56",
"/P.	c #797159",
"(P.	c #796F54",
"_P.	c #7A7055",
":P.	c #736B52",
"<P.	c #7A7259",
"[P.	c #756D55",
"}P.	c #787058",
"|P.	c #655C47",
"1P.	c #4B3C1F",
"2P.	c #6D6343",
"3P.	c #756A49",
"4P.	c #605C3D",
"5P.	c #605937",
"6P.	c #695E3B",
"7P.	c #6C5F3F",
"8P.	c #726544",
"9P.	c #5A5032",
"0P.	c #7F7451",
"aP.	c #776C4A",
"bP.	c #6B5F3F",
"cP.	c #54472C",
"dP.	c #6F6442",
"eP.	c #6F6242",
"fP.	c #442F17",
"gP.	c #797059",
"hP.	c #726A54",
"iP.	c #675F4B",
"jP.	c #6E6650",
"kP.	c #6A634E",
"lP.	c #817661",
"mP.	c #837762",
"nP.	c #635643",
"oP.	c #756A56",
"pP.	c #726653",
"qP.	c #4A4030",
"rP.	c #534D3A",
"sP.	c #4F4A38",
"tP.	c #605946",
"uP.	c #554124",
"vP.	c #665F4C",
"wP.	c #523E23",
"xP.	c #554D39",
"yP.	c #58523F",
"zP.	c #67634F",
"AP.	c #766F59",
"BP.	c #4C4735",
"CP.	c #50533E",
"DP.	c #494E36",
"EP.	c #556141",
"FP.	c #677C54",
"GP.	c #697C55",
"HP.	c #5B6347",
"IP.	c #504C38",
"JP.	c #5A5A43",
"KP.	c #666047",
"LP.	c #726A52",
"MP.	c #6F6850",
"NP.	c #6B634D",
"OP.	c #625C48",
"PP.	c #635B46",
"QP.	c #7C755D",
"RP.	c #6F6751",
"SP.	c #6D654E",
"TP.	c #7A7257",
"UP.	c #7B7258",
"VP.	c #766E56",
"WP.	c #7F775E",
"XP.	c #746C54",
"YP.	c #685E3E",
"ZP.	c #746A49",
"`P.	c #6E6544",
" Q.	c #675A3B",
".Q.	c #695D3C",
"+Q.	c #756A46",
"@Q.	c #6A603E",
"#Q.	c #655B3A",
"$Q.	c #726846",
"%Q.	c #726847",
"&Q.	c #786D4B",
"*Q.	c #695D3F",
"=Q.	c #665A3C",
"-Q.	c #746947",
";Q.	c #706443",
">Q.	c #706444",
",Q.	c #6C5D3D",
"'Q.	c #47321A",
")Q.	c #7D745E",
"!Q.	c #645C48",
"~Q.	c #726A55",
"{Q.	c #716B55",
"]Q.	c #6C634D",
"^Q.	c #756E57",
"/Q.	c #6A624D",
"(Q.	c #7A725C",
"_Q.	c #7E7760",
":Q.	c #564624",
"<Q.	c #807461",
"[Q.	c #746855",
"}Q.	c #756955",
"|Q.	c #776B57",
"1Q.	c #726753",
"2Q.	c #5D503E",
"3Q.	c #665946",
"4Q.	c #5B4E3B",
"5Q.	c #534937",
"6Q.	c #5D5643",
"7Q.	c #5B5542",
"8Q.	c #554A34",
"9Q.	c #554732",
"0Q.	c #564026",
"aQ.	c #6D6551",
"bQ.	c #736D57",
"cQ.	c #535440",
"dQ.	c #4D503C",
"eQ.	c #545541",
"fQ.	c #4A4E37",
"gQ.	c #535D41",
"hQ.	c #546040",
"iQ.	c #566141",
"jQ.	c #545B42",
"kQ.	c #4B3A1D",
"lQ.	c #595640",
"mQ.	c #6F694F",
"nQ.	c #746C53",
"oQ.	c #6A624B",
"pQ.	c #605A45",
"qQ.	c #6C654F",
"rQ.	c #7F7760",
"sQ.	c #776F58",
"tQ.	c #746B50",
"uQ.	c #7A7156",
"vQ.	c #7B7257",
"wQ.	c #7D755D",
"xQ.	c #4D3F21",
"yQ.	c #5E5739",
"zQ.	c #6A6342",
"AQ.	c #716847",
"BQ.	c #736A49",
"CQ.	c #64572F",
"DQ.	c #6C5F40",
"EQ.	c #645739",
"FQ.	c #645738",
"GQ.	c #716742",
"HQ.	c #4E472B",
"IQ.	c #5A5133",
"JQ.	c #5C5334",
"KQ.	c #7B704D",
"LQ.	c #7D714F",
"MQ.	c #776B49",
"NQ.	c #615438",
"OQ.	c #716444",
"PQ.	c #574226",
"QQ.	c #412D16",
"RQ.	c #524937",
"SQ.	c #6A644F",
"TQ.	c #534A38",
"UQ.	c #655E49",
"VQ.	c #645D49",
"WQ.	c #564729",
"XQ.	c #4B3B21",
"YQ.	c #6B604D",
"ZQ.	c #7D715D",
"`Q.	c #675A48",
" R.	c #6C5F4B",
".R.	c #786D57",
"+R.	c #7A6E5A",
"@R.	c #776C58",
"#R.	c #655946",
"$R.	c #5E5240",
"%R.	c #5D5542",
"&R.	c #4B4634",
"*R.	c #53503C",
"=R.	c #534C3A",
"-R.	c #4F4837",
";R.	c #564127",
">R.	c #6B634F",
",R.	c #68604D",
"'R.	c #706B56",
")R.	c #504E3D",
"!R.	c #545440",
"~R.	c #52533F",
"{R.	c #575D46",
"]R.	c #555C42",
"^R.	c #454732",
"/R.	c #53543F",
"(R.	c #484833",
"_R.	c #54553F",
":R.	c #4C4A36",
"<R.	c #6A634A",
"[R.	c #716A54",
"}R.	c #68614C",
"|R.	c #706851",
"1R.	c #7C7359",
"2R.	c #777058",
"3R.	c #807860",
"4R.	c #4A3D21",
"5R.	c #474429",
"6R.	c #46452B",
"7R.	c #5E583A",
"8R.	c #676241",
"9R.	c #736B49",
"0R.	c #665B3D",
"aR.	c #5D4F26",
"bR.	c #776C46",
"cR.	c #6D603F",
"dR.	c #645C3B",
"eR.	c #645B39",
"fR.	c #5F5736",
"gR.	c #736945",
"hR.	c #736747",
"iR.	c #786E4C",
"jR.	c #736845",
"kR.	c #736745",
"lR.	c #6F6040",
"mR.	c #442D14",
"nR.	c #59523F",
"oR.	c #65604B",
"pR.	c #6F6954",
"qR.	c #716B56",
"rR.	c #766F5A",
"sR.	c #6B634E",
"tR.	c #77705B",
"uR.	c #685C3E",
"vR.	c #514128",
"wR.	c #6F6350",
"xR.	c #766A57",
"yR.	c #796D5A",
"zR.	c #7E735F",
"AR.	c #7A6F5B",
"BR.	c #756956",
"CR.	c #746955",
"DR.	c #796E5A",
"ER.	c #5D513E",
"FR.	c #534736",
"GR.	c #5D5844",
"HR.	c #5B6247",
"IR.	c #534F37",
"JR.	c #4E432F",
"KR.	c #53533F",
"LR.	c #63634F",
"MR.	c #5D5745",
"NR.	c #544938",
"OR.	c #4E3B22",
"PR.	c #645C49",
"QR.	c #5E5845",
"RR.	c #595946",
"SR.	c #5B6049",
"TR.	c #484634",
"UR.	c #586048",
"VR.	c #4D513C",
"WR.	c #50543F",
"XR.	c #52543F",
"YR.	c #555741",
"ZR.	c #51543E",
"`R.	c #4A4935",
" S.	c #3F3826",
".S.	c #776F56",
"+S.	c #746D56",
"@S.	c #7A725B",
"#S.	c #7B745D",
"$S.	c #706751",
"%S.	c #7E755C",
"&S.	c #80775E",
"*S.	c #7B735B",
"=S.	c #756D57",
"-S.	c #5F5744",
";S.	c #4A3D1F",
">S.	c #4B4925",
",S.	c #5A6141",
"'S.	c #595134",
")S.	c #696142",
"!S.	c #625429",
"~S.	c #5E5233",
"{S.	c #655839",
"]S.	c #726743",
"^S.	c #564D30",
"/S.	c #6A603D",
"(S.	c #6C6341",
"_S.	c #706645",
":S.	c #766C4B",
"<S.	c #605538",
"[S.	c #6C603F",
"}S.	c #716443",
"|S.	c #7C704B",
"1S.	c #625335",
"2S.	c #432E17",
"3S.	c #7B725B",
"4S.	c #66614D",
"5S.	c #736C57",
"6S.	c #665E4B",
"7S.	c #59503D",
"8S.	c #7C745D",
"9S.	c #59513F",
"0S.	c #6B6450",
"aS.	c #544D3C",
"bS.	c #4C3E21",
"cS.	c #847965",
"dS.	c #716653",
"eS.	c #716552",
"fS.	c #635745",
"gS.	c #7B705C",
"hS.	c #605442",
"iS.	c #554B39",
"jS.	c #5C5643",
"kS.	c #44432F",
"lS.	c #4E503B",
"mS.	c #514D3C",
"nS.	c #524124",
"oS.	c #625C46",
"pS.	c #64604E",
"qS.	c #543D20",
"rS.	c #595340",
"sS.	c #524A37",
"tS.	c #6E6C58",
"uS.	c #585340",
"vS.	c #504C3A",
"wS.	c #5D664E",
"xS.	c #51543D",
"yS.	c #4F523D",
"zS.	c #555441",
"AS.	c #51533E",
"BS.	c #4A4D37",
"CS.	c #4C4C38",
"DS.	c #585B45",
"ES.	c #5E5C46",
"FS.	c #696249",
"GS.	c #6B634C",
"HS.	c #6C644D",
"IS.	c #766F57",
"JS.	c #6D664F",
"KS.	c #79725B",
"LS.	c #766E55",
"MS.	c #7C735B",
"NS.	c #67624E",
"OS.	c #74705B",
"PS.	c #4B3D1C",
"QS.	c #4E4927",
"RS.	c #575D3E",
"SS.	c #5F5D3F",
"TS.	c #716948",
"US.	c #61542A",
"VS.	c #716746",
"WS.	c #6A5D3E",
"XS.	c #413B22",
"YS.	c #484328",
"ZS.	c #65603E",
"`S.	c #726945",
" T.	c #4B4128",
".T.	c #655E3D",
"+T.	c #62593A",
"@T.	c #716644",
"#T.	c #7B704C",
"$T.	c #7A6F4D",
"%T.	c #716545",
"&T.	c #7C724F",
"*T.	c #746948",
"=T.	c #776A48",
"-T.	c #5F5236",
";T.	c #605032",
">T.	c #46321A",
",T.	c #77705A",
"'T.	c #6E6752",
")T.	c #4F4937",
"!T.	c #4D4534",
"~T.	c #7A735D",
"{T.	c #625C49",
"]T.	c #514937",
"^T.	c #78725C",
"/T.	c #6E6753",
"(T.	c #463F2E",
"_T.	c #61604D",
":T.	c #544A37",
"<T.	c #554525",
"[T.	c #524428",
"}T.	c #7D7360",
"|T.	c #796E5B",
"1T.	c #6E6350",
"2T.	c #736754",
"3T.	c #665A47",
"4T.	c #7B715D",
"5T.	c #4F4A39",
"6T.	c #4D4F3B",
"7T.	c #4C4736",
"8T.	c #4A4736",
"9T.	c #525440",
"0T.	c #444431",
"aT.	c #604A2A",
"bT.	c #57472D",
"cT.	c #57503E",
"dT.	c #575442",
"eT.	c #474935",
"fT.	c #576147",
"gT.	c #586448",
"hT.	c #52523E",
"iT.	c #515842",
"jT.	c #474934",
"kT.	c #4F513B",
"lT.	c #464934",
"mT.	c #555540",
"nT.	c #67624A",
"oT.	c #666048",
"pT.	c #706952",
"qT.	c #79715B",
"rT.	c #746D57",
"sT.	c #6D6651",
"tT.	c #706954",
"uT.	c #625B48",
"vT.	c #605845",
"wT.	c #514420",
"xT.	c #605736",
"yT.	c #575034",
"zT.	c #615B3A",
"AT.	c #52441D",
"BT.	c #736847",
"CT.	c #796E4C",
"DT.	c #6E6643",
"ET.	c #4F5434",
"FT.	c #5B5E3D",
"GT.	c #585436",
"HT.	c #655C3C",
"IT.	c #6E6442",
"JT.	c #726745",
"KT.	c #756A48",
"LT.	c #7A704C",
"MT.	c #64583B",
"NT.	c #7C704E",
"OT.	c #6E6242",
"PT.	c #706344",
"QT.	c #6D5E3E",
"RT.	c #442F18",
"ST.	c #53513F",
"TT.	c #645E49",
"UT.	c #6E6853",
"VT.	c #4E4736",
"WT.	c #453F2D",
"XT.	c #4A4D3A",
"YT.	c #51523F",
"ZT.	c #595644",
"`T.	c #4C4330",
" U.	c #574726",
".U.	c #7E7461",
"+U.	c #786D5A",
"@U.	c #736854",
"#U.	c #746956",
"$U.	c #685D4A",
"%U.	c #756A57",
"&U.	c #615543",
"*U.	c #57563C",
"=U.	c #5D604B",
"-U.	c #625B49",
";U.	c #686250",
">U.	c #595542",
",U.	c #60624E",
"'U.	c #575240",
")U.	c #5A5945",
"!U.	c #534126",
"~U.	c #604725",
"{U.	c #614B2C",
"]U.	c #4F412C",
"^U.	c #585644",
"/U.	c #525441",
"(U.	c #484D37",
"_U.	c #3D3E29",
":U.	c #494B39",
"<U.	c #4D523D",
"[U.	c #595C48",
"}U.	c #524E3C",
"|U.	c #595742",
"1U.	c #585741",
"2U.	c #615B45",
"3U.	c #706853",
"4U.	c #78715B",
"5U.	c #7A7258",
"6U.	c #797056",
"7U.	c #7E775F",
"8U.	c #79725C",
"9U.	c #5C5442",
"0U.	c #524A38",
"aU.	c #5C5543",
"bU.	c #605C49",
"cU.	c #4F401E",
"dU.	c #665D3F",
"eU.	c #5B4D21",
"fU.	c #706744",
"gU.	c #7D7350",
"hU.	c #776D4B",
"iU.	c #746747",
"jU.	c #6D6142",
"kU.	c #746746",
"lU.	c #5F5637",
"mU.	c #615839",
"nU.	c #4E4B2D",
"oU.	c #404228",
"pU.	c #43472B",
"qU.	c #5E6441",
"rU.	c #4D472B",
"sU.	c #5A5435",
"tU.	c #6C6441",
"uU.	c #766B49",
"vU.	c #7D724F",
"wU.	c #7E7350",
"xU.	c #726646",
"yU.	c #766A49",
"zU.	c #796E4B",
"AU.	c #7A6F4C",
"BU.	c #7F7450",
"CU.	c #726343",
"DU.	c #796D4C",
"EU.	c #47321B",
"FU.	c #766E58",
"GU.	c #4F4635",
"HU.	c #58513E",
"IU.	c #5E5C49",
"JU.	c #504836",
"KU.	c #6F6852",
"LU.	c #5B5240",
"MU.	c #5B5643",
"NU.	c #575643",
"OU.	c #4C4D3B",
"PU.	c #4C503D",
"QU.	c #4B4F3B",
"RU.	c #474330",
"SU.	c #584826",
"TU.	c #534529",
"UU.	c #7F7562",
"VU.	c #7C705D",
"WU.	c #817562",
"XU.	c #6B5F4C",
"YU.	c #766B57",
"ZU.	c #736855",
"`U.	c #7D725E",
" V.	c #4F4D3B",
".V.	c #56503E",
"+V.	c #504938",
"@V.	c #4A4333",
"#V.	c #5D614B",
"$V.	c #656753",
"%V.	c #615A49",
"&V.	c #5C5F4A",
"*V.	c #616552",
"=V.	c #514934",
"-V.	c #533F23",
";V.	c #565F47",
">V.	c #474A37",
",V.	c #5B624D",
"'V.	c #555743",
")V.	c #565A45",
"!V.	c #443C2A",
"~V.	c #544F3C",
"{V.	c #59533E",
"]V.	c #716B52",
"^V.	c #787158",
"/V.	c #6E6750",
"(V.	c #6E6751",
"_V.	c #7B745B",
":V.	c #7D765E",
"<V.	c #817961",
"[V.	c #6C6550",
"}V.	c #6A6350",
"|V.	c #5B5C4A",
"1V.	c #514E3E",
"2V.	c #565443",
"3V.	c #565342",
"4V.	c #4C3F1C",
"5V.	c #584A21",
"6V.	c #50431C",
"7V.	c #6E6341",
"8V.	c #7D7351",
"9V.	c #6A613F",
"0V.	c #5C5A3A",
"aV.	c #4E4C2F",
"bV.	c #484B2E",
"cV.	c #575B3C",
"dV.	c #434027",
"eV.	c #534E31",
"fV.	c #4E472C",
"gV.	c #5E5437",
"hV.	c #7B704E",
"iV.	c #716645",
"jV.	c #746848",
"kV.	c #6C613F",
"lV.	c #7F7350",
"mV.	c #726443",
"nV.	c #796E4D",
"oV.	c #47331B",
"pV.	c #57513E",
"qV.	c #554F3D",
"rV.	c #736E59",
"sV.	c #655E4B",
"tV.	c #686451",
"uV.	c #5B5A48",
"vV.	c #3F3E2C",
"wV.	c #414431",
"xV.	c #535C46",
"yV.	c #4F5641",
"zV.	c #554524",
"AV.	c #594A29",
"BV.	c #7F7461",
"CV.	c #7F7361",
"DV.	c #817663",
"EV.	c #726551",
"FV.	c #7A6E5B",
"GV.	c #7C715E",
"HV.	c #7A6F5C",
"IV.	c #726654",
"JV.	c #5F5342",
"KV.	c #635744",
"LV.	c #584830",
"MV.	c #545240",
"NV.	c #676552",
"OV.	c #484030",
"PV.	c #595B47",
"QV.	c #535641",
"RV.	c #5C5A48",
"SV.	c #5A5443",
"TV.	c #5A5846",
"UV.	c #4A3920",
"VV.	c #50452F",
"WV.	c #575241",
"XV.	c #484130",
"YV.	c #6B6653",
"ZV.	c #585342",
"`V.	c #504B35",
" W.	c #5A5542",
".W.	c #595642",
"+W.	c #57533F",
"@W.	c #65614B",
"#W.	c #5C5945",
"$W.	c #59543F",
"%W.	c #56513D",
"&W.	c #4E4936",
"*W.	c #5F5A44",
"=W.	c #716A53",
"-W.	c #726B54",
";W.	c #5B513E",
">W.	c #78715A",
",W.	c #6E6652",
"'W.	c #4A4534",
")W.	c #5F5C4A",
"!W.	c #5C4E23",
"~W.	c #55481F",
"{W.	c #7A704E",
"]W.	c #716546",
"^W.	c #6E6241",
"/W.	c #746A46",
"(W.	c #66613F",
"_W.	c #3E3C24",
":W.	c #42462A",
"<W.	c #555636",
"[W.	c #645F3E",
"}W.	c #5A5537",
"|W.	c #6C6444",
"1W.	c #766D4B",
"2W.	c #726948",
"3W.	c #6F6243",
"4W.	c #6F6544",
"5W.	c #7D724E",
"6W.	c #7A6E4D",
"7W.	c #746545",
"8W.	c #7F7351",
"9W.	c #786C4B",
"0W.	c #48341C",
"aW.	c #68624F",
"bW.	c #65604D",
"cW.	c #564D3C",
"dW.	c #54503E",
"eW.	c #443B2B",
"fW.	c #615B47",
"gW.	c #655E4A",
"hW.	c #726B56",
"iW.	c #595341",
"jW.	c #595240",
"kW.	c #585745",
"lW.	c #626C56",
"mW.	c #474735",
"nW.	c #454A36",
"oW.	c #525C45",
"pW.	c #4C3E22",
"qW.	c #6D614F",
"rW.	c #685C4A",
"sW.	c #776C59",
"tW.	c #7B715E",
"uW.	c #746957",
"vW.	c #726754",
"wW.	c #786C59",
"xW.	c #5F4E30",
"yW.	c #645D4C",
"zW.	c #676452",
"AW.	c #5A5442",
"BW.	c #48351B",
"CW.	c #6C6754",
"DW.	c #5E5644",
"EW.	c #5F5A47",
"FW.	c #5B5441",
"GW.	c #544E3A",
"HW.	c #4C4835",
"IW.	c #676A53",
"JW.	c #6D6851",
"KW.	c #716A52",
"LW.	c #736C55",
"MW.	c #675F4A",
"NW.	c #69624E",
"OW.	c #6E6955",
"PW.	c #5E5C45",
"QW.	c #545241",
"RW.	c #4F4F3F",
"SW.	c #64604D",
"TW.	c #554925",
"UW.	c #594C23",
"VW.	c #5E5128",
"WW.	c #786F4F",
"XW.	c #6A6143",
"YW.	c #7B6F4E",
"ZW.	c #6E6142",
"`W.	c #665C3C",
" X.	c #5A5134",
".X.	c #4D4A2E",
"+X.	c #5C603E",
"@X.	c #4D5435",
"#X.	c #565234",
"$X.	c #676140",
"%X.	c #60583A",
"&X.	c #4F492E",
"*X.	c #595135",
"=X.	c #655F41",
"-X.	c #655F40",
";X.	c #706446",
">X.	c #6E6444",
",X.	c #554C31",
"'X.	c #675E3F",
")X.	c #78704C",
"!X.	c #5B5134",
"~X.	c #685C3D",
"{X.	c #6A5C3D",
"]X.	c #49351D",
"^X.	c #5B5341",
"/X.	c #7B745E",
"(X.	c #575543",
"_X.	c #4E5A43",
":X.	c #474936",
"<X.	c #57694D",
"[X.	c #536348",
"}X.	c #50462C",
"|X.	c #675D4C",
"1X.	c #645846",
"2X.	c #675A47",
"3X.	c #6A5F4D",
"4X.	c #736856",
"5X.	c #6E6351",
"6X.	c #706553",
"7X.	c #665A48",
"8X.	c #574B39",
"9X.	c #615B49",
"0X.	c #5B472B",
"aX.	c #7C7360",
"bX.	c #533C1F",
"cX.	c #595342",
"dX.	c #625C4A",
"eX.	c #4D4433",
"fX.	c #716B57",
"gX.	c #716A56",
"hX.	c #4C4C39",
"iX.	c #5F5D48",
"jX.	c #5A5642",
"kX.	c #645D47",
"lX.	c #746D55",
"mX.	c #675F49",
"nX.	c #766E59",
"oX.	c #7A725E",
"pX.	c #7C7560",
"qX.	c #716954",
"rX.	c #68604A",
"sX.	c #6A634F",
"tX.	c #4E4838",
"uX.	c #5F5E41",
"vX.	c #59634E",
"wX.	c #585C4A",
"xX.	c #54471E",
"yX.	c #564B2B",
"zX.	c #746B4B",
"AX.	c #6A6144",
"BX.	c #7D7453",
"CX.	c #6F6345",
"DX.	c #736746",
"EX.	c #594D32",
"FX.	c #68603E",
"GX.	c #4C462B",
"HX.	c #5E5536",
"IX.	c #565132",
"JX.	c #4A492E",
"KX.	c #60613F",
"LX.	c #4E4C30",
"MX.	c #4D492F",
"NX.	c #473F26",
"OX.	c #514B30",
"PX.	c #555034",
"QX.	c #6C6646",
"RX.	c #554E33",
"SX.	c #575035",
"TX.	c #5A4F34",
"UX.	c #6A6243",
"VX.	c #625B3D",
"WX.	c #5F583A",
"XX.	c #7D7250",
"YX.	c #685C3F",
"ZX.	c #6B6140",
"`X.	c #5F5537",
" Y.	c #7C714F",
".Y.	c #817654",
"+Y.	c #6A593B",
"@Y.	c #7F7452",
"#Y.	c #5A513F",
"$Y.	c #615946",
"%Y.	c #645D4A",
"&Y.	c #5B5D4B",
"*Y.	c #4A593F",
"=Y.	c #4C5A42",
"-Y.	c #424D36",
";Y.	c #49533B",
">Y.	c #4E4226",
",Y.	c #59523D",
"'Y.	c #534E3F",
")Y.	c #696251",
"!Y.	c #736957",
"~Y.	c #7D7260",
"{Y.	c #7B705D",
"]Y.	c #776C5A",
"^Y.	c #786D5B",
"/Y.	c #6A5F4E",
"(Y.	c #574327",
"_Y.	c #796F5D",
":Y.	c #6F6553",
"<Y.	c #585140",
"[Y.	c #736E5C",
"}Y.	c #696351",
"|Y.	c #5C5645",
"1Y.	c #625A48",
"2Y.	c #605944",
"3Y.	c #514A37",
"4Y.	c #63624D",
"5Y.	c #5C5641",
"6Y.	c #6F6953",
"7Y.	c #706953",
"8Y.	c #746E58",
"9Y.	c #736B57",
"0Y.	c #776F5B",
"aY.	c #6F6851",
"bY.	c #5D5642",
"cY.	c #5A5240",
"dY.	c #4B503D",
"eY.	c #4F5743",
"fY.	c #55573F",
"gY.	c #50431D",
"hY.	c #5F5534",
"iY.	c #50431F",
"jY.	c #766C4C",
"kY.	c #807654",
"lY.	c #796D4D",
"mY.	c #6B6341",
"nY.	c #554F31",
"oY.	c #6A6540",
"pY.	c #45492E",
"qY.	c #39351E",
"rY.	c #4C492F",
"sY.	c #49462B",
"tY.	c #48452C",
"uY.	c #535337",
"vY.	c #535134",
"wY.	c #545034",
"xY.	c #5B583A",
"yY.	c #595639",
"zY.	c #5F563A",
"AY.	c #6D6545",
"BY.	c #6A6141",
"CY.	c #564E33",
"DY.	c #6E6948",
"EY.	c #6E6847",
"FY.	c #655C3E",
"GY.	c #696140",
"HY.	c #706543",
"IY.	c #807553",
"JY.	c #807453",
"KY.	c #857A58",
"LY.	c #786A4A",
"MY.	c #796D4E",
"NY.	c #4C371F",
"OY.	c #7B735E",
"PY.	c #7C7460",
"QY.	c #494130",
"RY.	c #655F4C",
"SY.	c #515240",
"TY.	c #444C36",
"UY.	c #47553B",
"VY.	c #49593D",
"WY.	c #495739",
"XY.	c #4A3F26",
"YY.	c #5D5D4A",
"ZY.	c #514E3F",
"`Y.	c #615A4A",
" Z.	c #7D7361",
".Z.	c #7A6F5D",
"+Z.	c #766C58",
"@Z.	c #716654",
"#Z.	c #6F6452",
"$Z.	c #6D6250",
"%Z.	c #604828",
"&Z.	c #695F4E",
"*Z.	c #503B22",
"=Z.	c #5D5543",
"-Z.	c #6A6453",
";Z.	c #77715E",
">Z.	c #635E4D",
",Z.	c #67604D",
"'Z.	c #756E5A",
")Z.	c #79725D",
"!Z.	c #78715C",
"~Z.	c #756E59",
"{Z.	c #766F5B",
"]Z.	c #726B57",
"^Z.	c #67614B",
"/Z.	c #544C39",
"(Z.	c #534E3D",
"_Z.	c #484937",
":Z.	c #555438",
"<Z.	c #4F513A",
"[Z.	c #524C38",
"}Z.	c #686351",
"|Z.	c #4B3D22",
"1Z.	c #6C6345",
"2Z.	c #847A58",
"3Z.	c #7D7151",
"4Z.	c #716445",
"5Z.	c #574A2F",
"6Z.	c #5B5737",
"7Z.	c #635F3C",
"8Z.	c #575233",
"9Z.	c #414126",
"0Z.	c #464A2D",
"aZ.	c #505535",
"bZ.	c #5A593A",
"cZ.	c #514E32",
"dZ.	c #565437",
"eZ.	c #555135",
"fZ.	c #46462D",
"gZ.	c #4A492F",
"hZ.	c #615C3D",
"iZ.	c #4B442B",
"jZ.	c #4F4930",
"kZ.	c #635D3E",
"lZ.	c #756D4C",
"mZ.	c #5B5236",
"nZ.	c #716A4A",
"oZ.	c #776D4C",
"pZ.	c #6D6342",
"qZ.	c #6B613F",
"rZ.	c #726946",
"sZ.	c #7E7351",
"tZ.	c #7D7251",
"uZ.	c #857957",
"vZ.	c #76684A",
"wZ.	c #7F7453",
"xZ.	c #4C3821",
"yZ.	c #79715D",
"zZ.	c #726A56",
"AZ.	c #615D4A",
"BZ.	c #53503E",
"CZ.	c #4C4433",
"DZ.	c #585947",
"EZ.	c #535441",
"FZ.	c #474434",
"GZ.	c #555C48",
"HZ.	c #464A38",
"IZ.	c #404A35",
"JZ.	c #4B5B42",
"KZ.	c #464D39",
"LZ.	c #4C3F27",
"MZ.	c #54513F",
"NZ.	c #636250",
"OZ.	c #746A58",
"PZ.	c #776D5A",
"QZ.	c #786E5C",
"RZ.	c #766B59",
"SZ.	c #726755",
"TZ.	c #695E4C",
"UZ.	c #625745",
"VZ.	c #624A2A",
"WZ.	c #523A1D",
"XZ.	c #797260",
"YZ.	c #6E6856",
"ZZ.	c #716B58",
"`Z.	c #6C654E",
" `.	c #77715A",
".`.	c #79715C",
"+`.	c #736D59",
"@`.	c #79725F",
"#`.	c #766F5C",
"$`.	c #78715D",
"%`.	c #77705C",
"&`.	c #615944",
"*`.	c #6D6650",
"=`.	c #625B47",
"-`.	c #564F3E",
";`.	c #5C5947",
">`.	c #4C4B3B",
",`.	c #4D4E3C",
"'`.	c #514F2E",
")`.	c #555B3A",
"!`.	c #4C4D3D",
"~`.	c #585545",
"{`.	c #504226",
"]`.	c #807554",
"^`.	c #807452",
"/`.	c #726647",
"(`.	c #655F3D",
"_`.	c #625F3C",
":`.	c #57512F",
"<`.	c #595635",
"[`.	c #4B492D",
"}`.	c #575436",
"|`.	c #615A3B",
"1`.	c #746D4B",
"2`.	c #6D6747",
"3`.	c #515136",
"4`.	c #615D3F",
"5`.	c #545236",
"6`.	c #4B5638",
"7`.	c #5E6242",
"8`.	c #675F41",
"9`.	c #655B3E",
"0`.	c #756B4A",
"a`.	c #6B6142",
"b`.	c #6A5F3E",
"c`.	c #7D7150",
"d`.	c #827755",
"e`.	c #857A59",
"f`.	c #867A59",
"g`.	c #857958",
"h`.	c #4E3921",
"i`.	c #827A66",
"j`.	c #79705C",
"k`.	c #5C5A47",
"l`.	c #5D5B4A",
"m`.	c #5B5443",
"n`.	c #525442",
"o`.	c #4A503C",
"p`.	c #4A5740",
"q`.	c #4D5943",
"r`.	c #48513B",
"s`.	c #463922",
"t`.	c #544F3E",
"u`.	c #6A6A58",
"v`.	c #646050",
"w`.	c #7F7563",
"x`.	c #746958",
"y`.	c #756B59",
"z`.	c #5E5341",
"A`.	c #7A705D",
"B`.	c #7C725F",
"C`.	c #827865",
"D`.	c #766C5A",
"E`.	c #5D4627",
"F`.	c #573D1B",
"G`.	c #7D7764",
"H`.	c #655E4D",
"I`.	c #79735F",
"J`.	c #706956",
"K`.	c #746E5B",
"L`.	c #7A7461",
"M`.	c #5A503E",
"N`.	c #726B55",
"O`.	c #6D6854",
"P`.	c #4A4334",
"Q`.	c #454734",
"R`.	c #515C3F",
"S`.	c #4B573E",
"T`.	c #4C553F",
"U`.	c #595845",
"V`.	c #5A5241",
"W`.	c #493C22",
"X`.	c #847B59",
"Y`.	c #7E7352",
"Z`.	c #847857",
"``.	c #7A6E4E",
"  +	c #726648",
". +	c #6A5E40",
"+ +	c #605537",
"@ +	c #545435",
"# +	c #535031",
"$ +	c #6D6643",
"% +	c #635E3D",
"& +	c #595839",
"* +	c #655C3D",
"= +	c #706746",
"- +	c #6C6344",
"; +	c #706C4B",
"> +	c #746C4C",
", +	c #655F42",
"' +	c #5A5C3F",
") +	c #656244",
"! +	c #726A4B",
"~ +	c #7A6F4E",
"{ +	c #7E7250",
"] +	c #6B5E40",
"^ +	c #7B704F",
"/ +	c #877C5B",
"( +	c #837757",
"_ +	c #7D6F51",
": +	c #523C23",
"< +	c #62533D",
"[ +	c #7A725D",
"} +	c #5E5744",
"| +	c #564F3D",
"1 +	c #565140",
"2 +	c #4B4333",
"3 +	c #4A4938",
"4 +	c #495840",
"5 +	c #4A523D",
"6 +	c #56644D",
"7 +	c #596650",
"8 +	c #4F4126",
"9 +	c #53503D",
"0 +	c #5F5D4C",
"a +	c #686656",
"b +	c #615949",
"c +	c #716755",
"d +	c #685D4C",
"e +	c #675C4B",
"f +	c #726856",
"g +	c #5B4F3E",
"h +	c #7A705E",
"i +	c #807663",
"j +	c #604521",
"k +	c #5D4424",
"l +	c #5B411E",
"m +	c #76705F",
"n +	c #7B7563",
"o +	c #7E7661",
"p +	c #564326",
"q +	c #706955",
"r +	c #756F5B",
"s +	c #746D5A",
"t +	c #756F5C",
"u +	c #736D5B",
"v +	c #78725F",
"w +	c #69624F",
"x +	c #504735",
"y +	c #454635",
"z +	c #50543B",
"A +	c #494F3B",
"B +	c #525645",
"C +	c #483E22",
"D +	c #5B5444",
"E +	c #827756",
"F +	c #7B6F50",
"G +	c #716446",
"H +	c #5B4F35",
"I +	c #776B4A",
"J +	c #6D6542",
"K +	c #5F5939",
"L +	c #6D6543",
"M +	c #6C6242",
"N +	c #676040",
"O +	c #645D3E",
"P +	c #595337",
"Q +	c #665E40",
"R +	c #7B7454",
"S +	c #7D7252",
"T +	c #756949",
"U +	c #837755",
"V +	c #65593B",
"W +	c #786C4C",
"X +	c #776B4C",
"Y +	c #73674A",
"Z +	c #7F7354",
"` +	c #7E7051",
" .+	c #4D3820",
"..+	c #7B7460",
"+.+	c #615B48",
"@.+	c #4C4737",
"#.+	c #5D5C4B",
"$.+	c #423E2E",
"%.+	c #51614A",
"&.+	c #455339",
"*.+	c #566A50",
"=.+	c #464C38",
"-.+	c #4E5542",
";.+	c #48462E",
">.+	c #6A6F5B",
",.+	c #534B3C",
"'.+	c #645C4C",
").+	c #483D2E",
"!.+	c #6D6150",
"~.+	c #726756",
"{.+	c #776D5C",
"].+	c #5F5443",
"^.+	c #7C715F",
"/.+	c #7B715F",
"(.+	c #7C7260",
"_.+	c #614623",
":.+	c #614624",
"<.+	c #6F6958",
"[.+	c #7D7663",
"}.+	c #7A735E",
"|.+	c #5B4729",
"1.+	c #706A57",
"2.+	c #797360",
"3.+	c #7A7462",
"4.+	c #787260",
"5.+	c #6F6957",
"6.+	c #5C5444",
"7.+	c #655D4A",
"8.+	c #67604A",
"9.+	c #6B6552",
"0.+	c #575B4A",
"a.+	c #4E5543",
"b.+	c #525243",
"c.+	c #4F4C3C",
"d.+	c #5E5A46",
"e.+	c #46401E",
"f.+	c #473E1E",
"g.+	c #493F1D",
"h.+	c #7A7152",
"i.+	c #7C7151",
"j.+	c #7C7150",
"k.+	c #706644",
"l.+	c #6D633E",
"m.+	c #696342",
"n.+	c #6D6544",
"o.+	c #756D49",
"p.+	c #786E4B",
"q.+	c #7A704D",
"r.+	c #756C4A",
"s.+	c #696141",
"t.+	c #5F593B",
"u.+	c #706B49",
"v.+	c #686444",
"w.+	c #776D4D",
"x.+	c #7F7353",
"y.+	c #776B4B",
"z.+	c #706142",
"A.+	c #615439",
"B.+	c #766C48",
"C.+	c #8A7F5E",
"D.+	c #6A573B",
"E.+	c #523C26",
"F.+	c #50402B",
"G.+	c #887F6C",
"H.+	c #7B7360",
"I.+	c #7E7662",
"J.+	c #615A46",
"K.+	c #514B3A",
"L.+	c #565644",
"M.+	c #606251",
"N.+	c #4A513C",
"O.+	c #4D6042",
"P.+	c #4A583F",
"Q.+	c #54604C",
"R.+	c #677960",
"S.+	c #535240",
"T.+	c #585F4C",
"U.+	c #6B6151",
"V.+	c #716756",
"W.+	c #6D6251",
"X.+	c #615646",
"Y.+	c #706451",
"Z.+	c #776D5B",
"`.+	c #807765",
" ++	c #807664",
".++	c #877D6C",
"+++	c #63513A",
"@++	c #573E1F",
"#++	c #523C1F",
"$++	c #807A6A",
"%++	c #767160",
"&++	c #837D6B",
"*++	c #79715F",
"=++	c #5E523C",
"-++	c #6B644F",
";++	c #6C6551",
">++	c #6D6652",
",++	c #6C6654",
"'++	c #696352",
")++	c #51493A",
"!++	c #544E3E",
"~++	c #706A53",
"{++	c #736C58",
"]++	c #4D4837",
"^++	c #515342",
"/++	c #544E3F",
"(++	c #534F3F",
"_++	c #5B5545",
":++	c #4F4529",
"<++	c #4A401F",
"[++	c #4B411D",
"}++	c #5D5438",
"|++	c #62593B",
"1++	c #5C5135",
"2++	c #75704C",
"3++	c #766E4B",
"4++	c #706C4A",
"5++	c #6A6444",
"6++	c #6D6646",
"7++	c #746B4A",
"8++	c #685F41",
"9++	c #766D4D",
"0++	c #7C7251",
"a++	c #6F6446",
"b++	c #7E7251",
"c++	c #675B3E",
"d++	c #695C3E",
"e++	c #605437",
"f++	c #776D4A",
"g++	c #817655",
"h++	c #817554",
"i++	c #796B4C",
"j++	c #705F43",
"k++	c #574029",
"l++	c #56412A",
"m++	c #827966",
"n++	c #5D4E39",
"o++	c #7D7562",
"p++	c #7C735F",
"q++	c #68614D",
"r++	c #433B2C",
"s++	c #696451",
"t++	c #555140",
"u++	c #494C3A",
"v++	c #4F5F48",
"w++	c #4A5B42",
"x++	c #556F4A",
"y++	c #4A5A3B",
"z++	c #57644E",
"A++	c #5F6351",
"B++	c #5D4D2D",
"C++	c #433A26",
"D++	c #6C6B5B",
"E++	c #7E7463",
"F++	c #6D6352",
"G++	c #5A4C33",
"H++	c #786E5D",
"I++	c #6F6554",
"J++	c #756B58",
"K++	c #817765",
"L++	c #807563",
"M++	c #867C6A",
"N++	c #8C8271",
"O++	c #5A401F",
"P++	c #644E2E",
"Q++	c #817A69",
"R++	c #6F6854",
"S++	c #4C361A",
"T++	c #736D58",
"U++	c #6E6855",
"V++	c #746F5D",
"W++	c #746E5D",
"X++	c #76705E",
"Y++	c #625B4B",
"Z++	c #5B5544",
"`++	c #5F5947",
" @+	c #6D6753",
".@+	c #746E5A",
"+@+	c #5D5946",
"@@+	c #4B4536",
"#@+	c #545343",
"$@+	c #4E4B3C",
"%@+	c #5B594B",
"&@+	c #574D30",
"*@+	c #4E4320",
"=@+	c #594F25",
"-@+	c #615735",
";@+	c #827857",
">@+	c #887C5B",
",@+	c #7E7253",
"'@+	c #76694B",
")@+	c #666241",
"!@+	c #645E3F",
"~@+	c #564E2E",
"{@+	c #6E6744",
"]@+	c #686242",
"^@+	c #6E6947",
"/@+	c #6C6747",
"(@+	c #655F3F",
"_@+	c #716747",
":@+	c #696343",
"<@+	c #564F34",
"[@+	c #625A3D",
"}@+	c #635A3D",
"|@+	c #4E452C",
"1@+	c #766A4A",
"2@+	c #736748",
"3@+	c #766A4B",
"4@+	c #6E6143",
"5@+	c #675A3D",
"6@+	c #7F7554",
"7@+	c #867B5A",
"8@+	c #877B5A",
"9@+	c #897E5C",
"0@+	c #897D5B",
"a@+	c #5D452D",
"b@+	c #59422B",
"c@+	c #807865",
"d@+	c #655F4B",
"e@+	c #66604D",
"f@+	c #5F5846",
"g@+	c #5C5D4B",
"h@+	c #535A47",
"i@+	c #4C5C44",
"j@+	c #475A3C",
"k@+	c #46543A",
"l@+	c #586750",
"m@+	c #676453",
"n@+	c #605030",
"o@+	c #645432",
"p@+	c #847C6B",
"q@+	c #7D7362",
"r@+	c #6F6453",
"s@+	c #7B7160",
"t@+	c #766C5B",
"u@+	c #776C5B",
"v@+	c #746A59",
"w@+	c #716655",
"x@+	c #5C5141",
"y@+	c #5D5241",
"z@+	c #685943",
"A@+	c #7C7361",
"B@+	c #837968",
"C@+	c #847A68",
"D@+	c #837967",
"E@+	c #8B816F",
"F@+	c #8C8270",
"G@+	c #513B23",
"H@+	c #694E2A",
"I@+	c #594020",
"J@+	c #5D4728",
"K@+	c #837E6C",
"L@+	c #7E7766",
"M@+	c #513B1C",
"N@+	c #77715D",
"O@+	c #756F5D",
"P@+	c #77715F",
"Q@+	c #726C5A",
"R@+	c #433C2E",
"S@+	c #514C3C",
"T@+	c #5F5847",
"U@+	c #5A5341",
"V@+	c #635D4A",
"W@+	c #69624C",
"X@+	c #635D48",
"Y@+	c #5D5644",
"Z@+	c #635D4B",
"`@+	c #615D4C",
" #+	c #595949",
".#+	c #505242",
"+#+	c #5A5647",
"@#+	c #494334",
"##+	c #5C594B",
"$#+	c #4C4020",
"%#+	c #4D4220",
"&#+	c #5A502C",
"*#+	c #8F8461",
"=#+	c #807454",
"-#+	c #64573D",
";#+	c #5D5136",
">#+	c #685F40",
",#+	c #505035",
"'#+	c #686545",
")#+	c #706A48",
"!#+	c #676443",
"~#+	c #676342",
"{#+	c #706847",
"]#+	c #776F4D",
"^#+	c #7B7452",
"/#+	c #716B4A",
"(#+	c #6D6647",
"_#+	c #675E40",
":#+	c #706646",
"<#+	c #5F5338",
"[#+	c #867858",
"}#+	c #4D3922",
"|#+	c #654E35",
"1#+	c #5F4731",
"2#+	c #79705E",
"3#+	c #807864",
"4#+	c #68614F",
"5#+	c #5B5645",
"6#+	c #494D3B",
"7#+	c #3C4A2F",
"8#+	c #4B6346",
"9#+	c #4D5E47",
"0#+	c #64705C",
"a#+	c #55513F",
"b#+	c #655635",
"c#+	c #5A4C2E",
"d#+	c #635333",
"e#+	c #877D6B",
"f#+	c #62543A",
"g#+	c #756B5A",
"h#+	c #6D624F",
"i#+	c #706655",
"j#+	c #736857",
"k#+	c #7E7462",
"l#+	c #7B7260",
"m#+	c #827867",
"n#+	c #8D8473",
"o#+	c #654B29",
"p#+	c #6C522E",
"q#+	c #644B29",
"r#+	c #594122",
"s#+	c #5C4321",
"t#+	c #53422A",
"u#+	c #5A4322",
"v#+	c #726C59",
"w#+	c #6D6755",
"x#+	c #726C5B",
"y#+	c #5D5748",
"z#+	c #5A5544",
"A#+	c #504738",
"B#+	c #413A2B",
"C#+	c #645F4C",
"D#+	c #504736",
"E#+	c #5E5642",
"F#+	c #564F3C",
"G#+	c #67614C",
"H#+	c #504628",
"I#+	c #686453",
"J#+	c #554F40",
"K#+	c #494335",
"L#+	c #565040",
"M#+	c #535042",
"N#+	c #555747",
"O#+	c #524722",
"P#+	c #60542B",
"Q#+	c #5C4F28",
"R#+	c #897D59",
"S#+	c #827656",
"T#+	c #7D7050",
"U#+	c #7E7252",
"V#+	c #5F5639",
"W#+	c #675F40",
"X#+	c #575437",
"Y#+	c #6C6B46",
"Z#+	c #706848",
"`#+	c #6C6443",
" $+	c #736C49",
".$+	c #706948",
"+$+	c #7B7350",
"@$+	c #736949",
"#$+	c #726849",
"$$+	c #71694A",
"%$+	c #696043",
"&$+	c #6F6545",
"*$+	c #574D33",
"=$+	c #60573A",
"-$+	c #786D4C",
";$+	c #7B714F",
">$+	c #867B58",
",$+	c #8F8361",
"'$+	c #938866",
")$+	c #6B5B3E",
"!$+	c #483B1F",
"~$+	c #563F28",
"{$+	c #654D35",
"]$+	c #5F4832",
"^$+	c #59432E",
"/$+	c #7F7865",
"($+	c #7E7762",
"_$+	c #7D7560",
":$+	c #514737",
"<$+	c #696452",
"[$+	c #595241",
"}$+	c #575443",
"|$+	c #47573E",
"1$+	c #4B5D41",
"2$+	c #4A5A43",
"3$+	c #585846",
"4$+	c #5F5032",
"5$+	c #675837",
"6$+	c #655636",
"7$+	c #5C5343",
"8$+	c #746B5A",
"9$+	c #695F4F",
"0$+	c #726857",
"a$+	c #7F7564",
"b$+	c #89806E",
"c$+	c #8E8472",
"d$+	c #8D8371",
"e$+	c #634F36",
"f$+	c #674D2B",
"g$+	c #644B2A",
"h$+	c #624A29",
"i$+	c #674F2C",
"j$+	c #574225",
"k$+	c #5B4220",
"l$+	c #5A4425",
"m$+	c #5F4827",
"n$+	c #76715F",
"o$+	c #746E5C",
"p$+	c #6D6756",
"q$+	c #545142",
"r$+	c #5E5B4C",
"s$+	c #534E3E",
"t$+	c #534D3D",
"u$+	c #6F6955",
"v$+	c #605A46",
"w$+	c #57513F",
"x$+	c #534B39",
"y$+	c #4D4636",
"z$+	c #433D2E",
"A$+	c #504A3C",
"B$+	c #615D4E",
"C$+	c #6E6C5C",
"D$+	c #60594A",
"E$+	c #4C493A",
"F$+	c #4C401E",
"G$+	c #61552B",
"H$+	c #61552D",
"I$+	c #65582F",
"J$+	c #8C805F",
"K$+	c #837756",
"L$+	c #74674A",
"M$+	c #7B724F",
"N$+	c #4B492C",
"O$+	c #4A452C",
"P$+	c #6B6343",
"Q$+	c #746C4B",
"R$+	c #79704E",
"S$+	c #796F4F",
"T$+	c #7B7151",
"U$+	c #5D5332",
"V$+	c #7F7552",
"W$+	c #635B3E",
"X$+	c #5C4F33",
"Y$+	c #837857",
"Z$+	c #8B7F5D",
"`$+	c #918765",
" %+	c #79694C",
".%+	c #463B1D",
"+%+	c #5C452E",
"@%+	c #56402B",
"#%+	c #5D4732",
"$%+	c #5E4732",
"%%+	c #614A34",
"&%+	c #4D3E2C",
"*%+	c #7D7664",
"=%+	c #726B58",
"-%+	c #746D59",
";%+	c #665F4D",
">%+	c #4D4331",
",%+	c #5B5343",
"'%+	c #636050",
")%+	c #596751",
"!%+	c #5A6854",
"~%+	c #5E6F58",
"{%+	c #645536",
"]%+	c #6A5A3A",
"^%+	c #615133",
"/%+	c #6B5C3B",
"(%+	c #6E6251",
"_%+	c #635847",
":%+	c #8F8674",
"<%+	c #938978",
"[%+	c #7E7361",
"}%+	c #705531",
"|%+	c #725834",
"1%+	c #6A512F",
"2%+	c #523D21",
"3%+	c #4A3B23",
"4%+	c #554631",
"5%+	c #5E4522",
"6%+	c #5F4522",
"7%+	c #624B2B",
"8%+	c #68614B",
"9%+	c #6B644E",
"0%+	c #7B7564",
"a%+	c #564F41",
"b%+	c #565142",
"c%+	c #595446",
"d%+	c #5A5546",
"e%+	c #595344",
"f%+	c #534C3C",
"g%+	c #443C2C",
"h%+	c #606151",
"i%+	c #555243",
"j%+	c #595B4B",
"k%+	c #605E50",
"l%+	c #6B6758",
"m%+	c #7F7A69",
"n%+	c #5B4F26",
"o%+	c #63572E",
"p%+	c #6D6037",
"q%+	c #695C34",
"r%+	c #685B31",
"s%+	c #6B5E34",
"t%+	c #897E5D",
"u%+	c #7A6E50",
"v%+	c #41452A",
"w%+	c #454B2F",
"x%+	c #575B3D",
"y%+	c #807753",
"z%+	c #7B7150",
"A%+	c #7C7250",
"B%+	c #817755",
"C%+	c #7F7553",
"D%+	c #61552E",
"E%+	c #796F4E",
"F%+	c #716949",
"G%+	c #574C31",
"H%+	c #887D5B",
"I%+	c #908563",
"J%+	c #8E8261",
"K%+	c #4F4024",
"L%+	c #4C3A22",
"M%+	c #543E29",
"N%+	c #5E4730",
"O%+	c #5C4631",
"P%+	c #5F4A33",
"Q%+	c #55402C",
"R%+	c #644D35",
"S%+	c #615948",
"T%+	c #544B3B",
"U%+	c #4F4636",
"V%+	c #62583E",
"W%+	c #7C7562",
"X%+	c #6F6A5A",
"Y%+	c #575243",
"Z%+	c #747160",
"`%+	c #565D4A",
" &+	c #695A3A",
".&+	c #6B5B3C",
"+&+	c #54452B",
"@&+	c #645537",
"#&+	c #5A4B2E",
"$&+	c #332A1A",
"%&+	c #463E2D",
"&&+	c #65573D",
"*&+	c #544529",
"=&+	c #786F5D",
"-&+	c #7A705F",
";&+	c #7C7261",
">&+	c #7A7160",
",&+	c #7D7462",
"'&+	c #796F5E",
")&+	c #514636",
"!&+	c #837A69",
"~&+	c #908674",
"{&+	c #887D6C",
"]&+	c #574129",
"^&+	c #765C38",
"/&+	c #624C2C",
"(&+	c #564223",
"_&+	c #3D3425",
":&+	c #57462E",
"<&+	c #66502F",
"[&+	c #7F7867",
"}&+	c #5B533F",
"|&+	c #6F6853",
"1&+	c #777160",
"2&+	c #797462",
"3&+	c #797362",
"4&+	c #625C4C",
"5&+	c #6C6655",
"6&+	c #645F50",
"7&+	c #676252",
"8&+	c #615B4B",
"9&+	c #686251",
"0&+	c #66604F",
"a&+	c #544D3D",
"b&+	c #5E5745",
"c&+	c #6A6450",
"d&+	c #595442",
"e&+	c #585A4A",
"f&+	c #5B5949",
"g&+	c #606152",
"h&+	c #616354",
"i&+	c #4E493B",
"j&+	c #726F61",
"k&+	c #767161",
"l&+	c #4C3F24",
"m&+	c #6A5D33",
"n&+	c #6E6138",
"o&+	c #6C5F36",
"p&+	c #615530",
"q&+	c #75694B",
"r&+	c #847957",
"s&+	c #75694A",
"t&+	c #51472B",
"u&+	c #646142",
"v&+	c #43472C",
"w&+	c #5B5A3C",
"x&+	c #716A49",
"y&+	c #786E4D",
"z&+	c #837856",
"A&+	c #5F593C",
"B&+	c #655C3F",
"C&+	c #837957",
"D&+	c #887D5C",
"E&+	c #8D8160",
"F&+	c #908564",
"G&+	c #6B5A3C",
"H&+	c #423418",
"I&+	c #553E28",
"J&+	c #5F4730",
"K&+	c #695139",
"L&+	c #5C4732",
"M&+	c #5F4C35",
"N&+	c #58442F",
"O&+	c #5B4732",
"P&+	c #3E3627",
"Q&+	c #73705F",
"R&+	c #706756",
"S&+	c #5B4B38",
"T&+	c #7A7361",
"U&+	c #4F4532",
"V&+	c #69593A",
"W&+	c #5C4D30",
"X&+	c #6A5B3B",
"Y&+	c #5F5030",
"Z&+	c #5B4D30",
"`&+	c #807564",
" *+	c #7C7362",
".*+	c #786F5E",
"+*+	c #736958",
"@*+	c #685E4E",
"#*+	c #60523E",
"$*+	c #837A68",
"%*+	c #796950",
"&*+	c #908776",
"**+	c #8A7F6E",
"=*+	c #62503A",
"-*+	c #5F482A",
";*+	c #4E3A21",
">*+	c #5A4525",
",*+	c #52422A",
"'*+	c #5A492F",
")*+	c #6E6857",
"!*+	c #797361",
"~*+	c #75705F",
"{*+	c #777260",
"]*+	c #7A7463",
"^*+	c #4E4634",
"/*+	c #5A5547",
"(*+	c #656050",
"_*+	c #564E40",
":*+	c #4B4335",
"<*+	c #534D3E",
"[*+	c #615C4B",
"}*+	c #4E4534",
"|*+	c #595745",
"1*+	c #626655",
"2*+	c #4F4A3A",
"3*+	c #545445",
"4*+	c #606253",
"5*+	c #666658",
"6*+	c #625E51",
"7*+	c #6D6859",
"8*+	c #5A4D28",
"9*+	c #665930",
"0*+	c #6B5E36",
"a*+	c #73663C",
"b*+	c #6A5D35",
"c*+	c #594B28",
"d*+	c #5E5129",
"e*+	c #8A7E5D",
"f*+	c #766A4C",
"g*+	c #4B492F",
"h*+	c #555639",
"i*+	c #565B3C",
"j*+	c #59583B",
"k*+	c #756D4A",
"l*+	c #7A6F4F",
"m*+	c #7B6F4F",
"n*+	c #584C24",
"o*+	c #766D4E",
"p*+	c #79704F",
"q*+	c #5D4F32",
"r*+	c #8B7F5E",
"s*+	c #7C7050",
"t*+	c #413416",
"u*+	c #4B3721",
"v*+	c #634B34",
"w*+	c #68523B",
"x*+	c #65513B",
"y*+	c #6D5740",
"z*+	c #634D36",
"A*+	c #443827",
"B*+	c #3F3928",
"C*+	c #534C3B",
"D*+	c #645541",
"E*+	c #5B4833",
"F*+	c #7F7866",
"G*+	c #7A7360",
"H*+	c #7F7663",
"I*+	c #49412F",
"J*+	c #584A2E",
"K*+	c #685939",
"L*+	c #6E5F3E",
"M*+	c #726241",
"N*+	c #6F603F",
"O*+	c #66583C",
"P*+	c #423827",
"Q*+	c #837867",
"R*+	c #7B705F",
"S*+	c #786E5E",
"T*+	c #7D7463",
"U*+	c #655A4A",
"V*+	c #5A5646",
"W*+	c #584F3E",
"X*+	c #625A49",
"Y*+	c #827968",
"Z*+	c #887C66",
"`*+	c #8A7D68",
" =+	c #664E2F",
".=+	c #785E3B",
"+=+	c #6D5636",
"@=+	c #664F2F",
"#=+	c #6A522F",
"$=+	c #6F5531",
"%=+	c #5A4427",
"&=+	c #624D2D",
"*=+	c #595242",
"==+	c #7D7665",
"-=+	c #6F6A59",
";=+	c #736E5D",
">=+	c #7C7665",
",=+	c #6B6555",
"'=+	c #615B4C",
")=+	c #524D40",
"!=+	c #564E3F",
"~=+	c #453F31",
"{=+	c #615C4C",
"]=+	c #514938",
"^=+	c #41392A",
"/=+	c #4C4635",
"(=+	c #625E4B",
"_=+	c #645D4B",
":=+	c #5F6151",
"<=+	c #544F41",
"[=+	c #5D5F4F",
"}=+	c #606051",
"|=+	c #696456",
"1=+	c #6C6759",
"2=+	c #5D502D",
"3=+	c #675A32",
"4=+	c #73663D",
"5=+	c #6F6238",
"6=+	c #655830",
"7=+	c #7B6E4B",
"8=+	c #5C5432",
"9=+	c #5F573B",
"0=+	c #635C3E",
"a=+	c #42432A",
"b=+	c #43492E",
"c=+	c #515135",
"d=+	c #716A48",
"e=+	c #584C2A",
"f=+	c #71684A",
"g=+	c #61593C",
"h=+	c #6D6344",
"i=+	c #685B3E",
"j=+	c #574B31",
"k=+	c #837958",
"l=+	c #8A7F5D",
"m=+	c #897F5E",
"n=+	c #867859",
"o=+	c #59432D",
"p=+	c #644C35",
"q=+	c #68513A",
"r=+	c #594530",
"s=+	c #53412D",
"t=+	c #6A553F",
"u=+	c #705943",
"v=+	c #67513B",
"w=+	c #56432F",
"x=+	c #312A1A",
"y=+	c #483A28",
"z=+	c #5F4831",
"A=+	c #53402D",
"B=+	c #564D39",
"C=+	c #7C7561",
"D=+	c #8D8672",
"E=+	c #5B4B2E",
"F=+	c #635435",
"G=+	c #6E5F3F",
"H=+	c #716141",
"I=+	c #756545",
"J=+	c #736343",
"K=+	c #766746",
"L=+	c #635336",
"M=+	c #493F30",
"N=+	c #796E5D",
"O=+	c #716656",
"P=+	c #605339",
"Q=+	c #766B5A",
"R=+	c #716857",
"S=+	c #4E4536",
"T=+	c #635B49",
"U=+	c #483E30",
"V=+	c #5A5142",
"W=+	c #8C8372",
"X=+	c #6F614D",
"Y=+	c #6A5333",
"Z=+	c #705936",
"`=+	c #745C39",
" -+	c #705734",
".-+	c #6D5531",
"+-+	c #594324",
"@-+	c #3E3828",
"#-+	c #706B59",
"$-+	c #716C5B",
"%-+	c #736E5E",
"&-+	c #797463",
"*-+	c #7D7766",
"=-+	c #5D5647",
"--+	c #5E5748",
";-+	c #605A4A",
">-+	c #4E493C",
",-+	c #5C5847",
"'-+	c #4A4434",
")-+	c #4A4536",
"!-+	c #666451",
"~-+	c #645E47",
"{-+	c #595343",
"]-+	c #75715F",
"^-+	c #696454",
"/-+	c #5E6252",
"(-+	c #706D5F",
"_-+	c #7F7B6B",
":-+	c #615532",
"<-+	c #71643B",
"[-+	c #74673E",
"}-+	c #7A6D44",
"|-+	c #776A41",
"1-+	c #847859",
"2-+	c #58583C",
"3-+	c #524C2E",
"4-+	c #4E4D32",
"5-+	c #434028",
"6-+	c #45482D",
"7-+	c #434B2F",
"8-+	c #686243",
"9-+	c #7F7454",
"0-+	c #5A4E27",
"a-+	c #7E7354",
"b-+	c #796E4E",
"c-+	c #625A3E",
"d-+	c #6E6546",
"e-+	c #63583C",
"f-+	c #52462D",
"g-+	c #615538",
"h-+	c #5A4D32",
"i-+	c #837858",
"j-+	c #3A2C15",
"k-+	c #5A452E",
"l-+	c #624D37",
"m-+	c #604D38",
"n-+	c #78634B",
"o-+	c #755F48",
"p-+	c #735E47",
"q-+	c #6D5640",
"r-+	c #6B553E",
"s-+	c #2B2416",
"t-+	c #5B4631",
"u-+	c #513E2A",
"v-+	c #5F4932",
"w-+	c #574530",
"x-+	c #7F7764",
"y-+	c #877F6C",
"z-+	c #847B67",
"A-+	c #4A3A24",
"B-+	c #685938",
"C-+	c #716241",
"D-+	c #6B5D3E",
"E-+	c #6E5F40",
"F-+	c #756646",
"G-+	c #786949",
"H-+	c #786848",
"I-+	c #7D6D4D",
"J-+	c #7D6E4D",
"K-+	c #766647",
"L-+	c #615236",
"M-+	c #544939",
"N-+	c #5F5344",
"O-+	c #655F4E",
"P-+	c #5A5040",
"Q-+	c #635C4B",
"R-+	c #5A5343",
"S-+	c #6B6C5A",
"T-+	c #555041",
"U-+	c #5C5545",
"V-+	c #786F60",
"W-+	c #54412B",
"X-+	c #745C3B",
"Y-+	c #735C3B",
"Z-+	c #715936",
"`-+	c #745B37",
" ;+	c #664E2D",
".;+	c #443724",
"+;+	c #746F5E",
"@;+	c #787362",
"#;+	c #6A6555",
"$;+	c #635E4E",
"%;+	c #4D4538",
"&;+	c #666150",
"*;+	c #5F5849",
"=;+	c #565141",
"-;+	c #5D5947",
";;+	c #544A2B",
">;+	c #554E3E",
",;+	c #716C5A",
"';+	c #5F5949",
");+	c #6B695A",
"!;+	c #636254",
"~;+	c #514A3B",
"{;+	c #4B3F28",
"];+	c #71653B",
"^;+	c #73663E",
"/;+	c #7B6E45",
"(;+	c #71633E",
"_;+	c #62563B",
":;+	c #6D6548",
"<;+	c #586544",
"[;+	c #5C552E",
"};+	c #505433",
"|;+	c #4E5839",
"1;+	c #3D462A",
"2;+	c #515B3B",
"3;+	c #595B3D",
"4;+	c #5B5739",
"5;+	c #7E7353",
"6;+	c #807555",
"7;+	c #2B1B09",
"8;+	c #766E4E",
"9;+	c #6D6445",
"0;+	c #5F573A",
"a;+	c #6E6746",
"b;+	c #584F34",
"c;+	c #635838",
"d;+	c #625435",
"e;+	c #827856",
"f;+	c #817756",
"g;+	c #776949",
"h;+	c #857858",
"i;+	c #645937",
"j;+	c #553F2A",
"k;+	c #624C35",
"l;+	c #654F38",
"m;+	c #523F2C",
"n;+	c #725D45",
"o;+	c #6C5741",
"p;+	c #6B5741",
"q;+	c #6F5A44",
"r;+	c #6E5944",
"s;+	c #765F49",
"t;+	c #705942",
"u;+	c #614C37",
"v;+	c #4F3D2A",
"w;+	c #574733",
"x;+	c #664F37",
"y;+	c #5C4731",
"z;+	c #5B4B34",
"A;+	c #767361",
"B;+	c #6B6451",
"C;+	c #6D6653",
"D;+	c #807966",
"E;+	c #807965",
"F;+	c #877F6B",
"G;+	c #847C69",
"H;+	c #574933",
"I;+	c #635436",
"J;+	c #736443",
"K;+	c #796B4B",
"L;+	c #7A6B4B",
"M;+	c #7C6D4D",
"N;+	c #776849",
"O;+	c #756647",
"P;+	c #756547",
"Q;+	c #2B2216",
"R;+	c #7E7362",
"S;+	c #796E5C",
"T;+	c #766D5D",
"U;+	c #807665",
"V;+	c #7F7665",
"W;+	c #746A5A",
"X;+	c #6D6353",
"Y;+	c #5A4F40",
"Z;+	c #5B5041",
"`;+	c #564B3C",
" >+	c #524B3C",
".>+	c #5F5C4B",
"+>+	c #6E7260",
"@>+	c #707260",
"#>+	c #5F6150",
"$>+	c #615E50",
"%>+	c #55432E",
"&>+	c #816845",
"*>+	c #6A5535",
"=>+	c #725B39",
"->+	c #685131",
";>+	c #69502E",
">>+	c #3C3326",
",>+	c #7A7362",
"'>+	c #55442B",
")>+	c #6C6756",
"!>+	c #777261",
"~>+	c #756F5F",
"{>+	c #635D4E",
"]>+	c #5C5547",
"^>+	c #575041",
"/>+	c #544C3D",
"(>+	c #575344",
"_>+	c #5C584A",
":>+	c #5E5847",
"<>+	c #6A6552",
"[>+	c #52492F",
"}>+	c #625D4D",
"|>+	c #6B6757",
"1>+	c #777364",
"2>+	c #433724",
"3>+	c #5F552F",
"4>+	c #594D2B",
"5>+	c #655935",
"6>+	c #796D44",
"7>+	c #7B6E46",
"8>+	c #665936",
"9>+	c #4E422A",
"0>+	c #504928",
"a>+	c #444529",
"b>+	c #4D5938",
"c>+	c #4B5334",
"d>+	c #676544",
"e>+	c #6C6645",
"f>+	c #776E4C",
"g>+	c #726949",
"h>+	c #625634",
"i>+	c #35240F",
"j>+	c #66593C",
"k>+	c #72694A",
"l>+	c #585036",
"m>+	c #6D6546",
"n>+	c #62583B",
"o>+	c #584E31",
"p>+	c #7A704F",
"q>+	c #786B4C",
"r>+	c #726244",
"s>+	c #897E5E",
"t>+	c #403514",
"u>+	c #44321D",
"v>+	c #6A523B",
"w>+	c #6B5640",
"x>+	c #65523D",
"y>+	c #5F4C38",
"z>+	c #6D5A45",
"A>+	c #78614A",
"B>+	c #69533E",
"C>+	c #6B553F",
"D>+	c #644F39",
"E>+	c #6A553E",
"F>+	c #66503A",
"G>+	c #5D4A34",
"H>+	c #554430",
"I>+	c #78725E",
"J>+	c #7E7663",
"K>+	c #817A67",
"L>+	c #857E6A",
"M>+	c #89816E",
"N>+	c #8C8470",
"O>+	c #645636",
"P>+	c #7C6D4E",
"Q>+	c #756546",
"R>+	c #7D6D4E",
"S>+	c #655638",
"T>+	c #5A4A2E",
"U>+	c #44392A",
"V>+	c #847968",
"W>+	c #756C5C",
"X>+	c #776D5D",
"Y>+	c #7F7666",
"Z>+	c #756B5B",
"`>+	c #736959",
" ,+	c #675D4D",
".,+	c #5A5344",
"+,+	c #5D5949",
"@,+	c #5A5847",
"#,+	c #686E5B",
"$,+	c #6C6A5B",
"%,+	c #5C4931",
"&,+	c #6F5634",
"*,+	c #715836",
"=,+	c #695132",
"-,+	c #7F6644",
";,+	c #765E3C",
">,+	c #664F30",
",,+	c #644D2E",
"',+	c #5C4426",
"),+	c #4B4031",
"!,+	c #756F5E",
"~,+	c #726D5C",
"{,+	c #797363",
"],+	c #5F5B4D",
"^,+	c #483F2D",
"/,+	c #5C5648",
"(,+	c #6B6656",
"_,+	c #5E5849",
":,+	c #625E4F",
"<,+	c #4E4637",
"[,+	c #5F5A4A",
"},+	c #484031",
"|,+	c #5A5746",
"1,+	c #56503F",
"2,+	c #5D5746",
"3,+	c #696554",
"4,+	c #625B46",
"5,+	c #635C47",
"6,+	c #837F6F",
"7,+	c #504424",
"8,+	c #695E35",
"9,+	c #72663D",
"0,+	c #695D37",
"a,+	c #594F2F",
"b,+	c #776B43",
"c,+	c #7A6E45",
"d,+	c #4E472E",
"e,+	c #555333",
"f,+	c #5D5B3C",
"g,+	c #4F5338",
"h,+	c #5E6342",
"i,+	c #45472E",
"j,+	c #646041",
"k,+	c #7E7453",
"l,+	c #857B5B",
"m,+	c #7C7152",
"n,+	c #442C15",
"o,+	c #676345",
"p,+	c #544C31",
"q,+	c #4A432B",
"r,+	c #564C31",
"s,+	c #5B482D",
"t,+	c #7D7352",
"u,+	c #6C5D40",
"v,+	c #75684A",
"w,+	c #8D8361",
"x,+	c #423617",
"y,+	c #43311D",
"z,+	c #6C553E",
"A,+	c #68523C",
"B,+	c #6E5741",
"C,+	c #756049",
"D,+	c #6D5943",
"E,+	c #65533E",
"F,+	c #7E6851",
"G,+	c #6E5842",
"H,+	c #654F3A",
"I,+	c #624E38",
"J,+	c #644F3A",
"K,+	c #56412D",
"L,+	c #52412E",
"M,+	c #544A39",
"N,+	c #7D7662",
"O,+	c #78715E",
"P,+	c #867E6B",
"Q,+	c #8D8673",
"R,+	c #8C846F",
"S,+	c #584A2D",
"T,+	c #594C30",
"U,+	c #605336",
"V,+	c #655739",
"W,+	c #756645",
"X,+	c #706042",
"Y,+	c #796A4B",
"Z,+	c #6A5A3E",
"`,+	c #7B6C4C",
" '+	c #78684A",
".'+	c #6C5D3E",
"+'+	c #635434",
"@'+	c #4B3E2D",
"#'+	c #594E3F",
"$'+	c #827866",
"%'+	c #7A7060",
"&'+	c #7B7161",
"*'+	c #766C5C",
"='+	c #6E6454",
"-'+	c #676857",
";'+	c #727261",
">'+	c #6D705E",
",'+	c #5A5444",
"''+	c #634C2D",
")'+	c #654D2F",
"!'+	c #634D2F",
"~'+	c #755C39",
"{'+	c #6D5433",
"]'+	c #684F2E",
"^'+	c #654C2B",
"/'+	c #524532",
"('+	c #6D6455",
"_'+	c #6D6857",
":'+	c #7A7464",
"<'+	c #51483A",
"['+	c #5A533A",
"}'+	c #585142",
"|'+	c #524B3D",
"1'+	c #5F5B4A",
"2'+	c #585646",
"3'+	c #5D5C4D",
"4'+	c #747061",
"5'+	c #7A7460",
"6'+	c #645830",
"7'+	c #726840",
"8'+	c #5C5131",
"9'+	c #584F2E",
"0'+	c #5C5636",
"a'+	c #5E5E43",
"b'+	c #6C6849",
"c'+	c #3A351D",
"d'+	c #5A5539",
"e'+	c #544826",
"f'+	c #7E7454",
"g'+	c #7B7052",
"h'+	c #3F2913",
"i'+	c #525539",
"j'+	c #5B6042",
"k'+	c #44442C",
"l'+	c #616043",
"m'+	c #645F40",
"n'+	c #635034",
"o'+	c #7A6D4E",
"p'+	c #8D8260",
"q'+	c #877D5B",
"r'+	c #493621",
"s'+	c #6E5740",
"t'+	c #745D46",
"u'+	c #695540",
"v'+	c #74604A",
"w'+	c #806A53",
"x'+	c #6C5742",
"y'+	c #644F3C",
"z'+	c #6F5943",
"A'+	c #69543E",
"B'+	c #67523C",
"C'+	c #67513A",
"D'+	c #53412C",
"E'+	c #594A34",
"F'+	c #696453",
"G'+	c #7B7562",
"H'+	c #847D6A",
"I'+	c #7F7763",
"J'+	c #8A836F",
"K'+	c #827A68",
"L'+	c #4E4227",
"M'+	c #6E6040",
"N'+	c #6D5F40",
"O'+	c #736544",
"P'+	c #716344",
"Q'+	c #7E704F",
"R'+	c #746446",
"S'+	c #65553A",
"T'+	c #645538",
"U'+	c #56472B",
"V'+	c #453825",
"W'+	c #54462F",
"X'+	c #7B7261",
"Y'+	c #716757",
"Z'+	c #796F5F",
"`'+	c #6F6555",
" )+	c #524739",
".)+	c #4F4536",
"+)+	c #514638",
"@)+	c #625949",
"#)+	c #655F4F",
"$)+	c #686353",
"%)+	c #65614F",
"&)+	c #5F4829",
"*)+	c #6B5232",
"=)+	c #755E3D",
"-)+	c #775F3F",
";)+	c #624A2D",
">)+	c #5F4729",
",)+	c #473725",
"')+	c #7E7866",
"))+	c #7E7968",
"!)+	c #6E6858",
"~)+	c #767262",
"{)+	c #726D5D",
"])+	c #6A6454",
"^)+	c #574F40",
"/)+	c #645F4F",
"()+	c #4B4436",
"_)+	c #636656",
":)+	c #5C5849",
"<)+	c #635E4F",
"[)+	c #827D6C",
"})+	c #847F6F",
"|)+	c #615331",
"1)+	c #685D36",
"2)+	c #665D38",
"3)+	c #665B39",
"4)+	c #635A38",
"5)+	c #5C5433",
"6)+	c #655B39",
"7)+	c #746B45",
"8)+	c #6A5D39",
"9)+	c #72663F",
"0)+	c #615432",
"a)+	c #6A6345",
"b)+	c #5D512A",
"c)+	c #827957",
"d)+	c #655A36",
"e)+	c #7C7253",
"f)+	c #817657",
"g)+	c #827757",
"h)+	c #503B23",
"i)+	c #422E18",
"j)+	c #635C40",
"k)+	c #515138",
"l)+	c #626649",
"m)+	c #666547",
"n)+	c #756C4D",
"o)+	c #867C5A",
"p)+	c #8F8462",
"q)+	c #504524",
"r)+	c #3B2E12",
"s)+	c #634C35",
"t)+	c #78604A",
"u)+	c #765F48",
"v)+	c #735D47",
"w)+	c #6F5D46",
"x)+	c #755F49",
"y)+	c #735C46",
"z)+	c #66503C",
"A)+	c #69543F",
"B)+	c #6D5842",
"C)+	c #715C45",
"D)+	c #5E4A35",
"E)+	c #66533A",
"F)+	c #564831",
"G)+	c #493E2A",
"H)+	c #54472B",
"I)+	c #6F6142",
"J)+	c #736647",
"K)+	c #7B6D4D",
"L)+	c #807151",
"M)+	c #776749",
"N)+	c #78694A",
"O)+	c #7B6B4B",
"P)+	c #706143",
"Q)+	c #695939",
"R)+	c #59492C",
"S)+	c #5A4B2D",
"T)+	c #6F6454",
"U)+	c #817766",
"V)+	c #7E7563",
"W)+	c #807766",
"X)+	c #7E7564",
"Y)+	c #7E7464",
"Z)+	c #7C7262",
"`)+	c #61513A",
" !+	c #5B5344",
".!+	c #7A7260",
"+!+	c #7F7868",
"@!+	c #554531",
"#!+	c #6C5230",
"$!+	c #685536",
"%!+	c #624E31",
"&!+	c #755D3C",
"*!+	c #725A39",
"=!+	c #694F2D",
"-!+	c #614A2B",
";!+	c #867F6D",
">!+	c #86806E",
",!+	c #6F5C3F",
"'!+	c #817B6A",
")!+	c #7B7665",
"!!+	c #777262",
"~!+	c #7A7564",
"{!+	c #5B5546",
"]!+	c #6D6858",
"^!+	c #554D3E",
"/!+	c #4F4839",
"(!+	c #6D705F",
"_!+	c #5F594A",
":!+	c #7D7969",
"<!+	c #554729",
"[!+	c #665A34",
"}!+	c #69603C",
"|!+	c #4D4628",
"1!+	c #625E3B",
"2!+	c #5C5535",
"3!+	c #6B6440",
"4!+	c #7D724B",
"5!+	c #7A6F48",
"6!+	c #786B43",
"7!+	c #6D5F3A",
"8!+	c #5C4F2C",
"9!+	c #5E5439",
"0!+	c #60593D",
"a!+	c #6A6547",
"b!+	c #524624",
"c!+	c #7C7352",
"d!+	c #695D39",
"e!+	c #807656",
"f!+	c #7D7253",
"g!+	c #7F7555",
"h!+	c #837959",
"i!+	c #83795A",
"j!+	c #4B331C",
"k!+	c #544128",
"l!+	c #777455",
"m!+	c #807A5B",
"n!+	c #66593D",
"o!+	c #867D5B",
"p!+	c #8E8463",
"q!+	c #847657",
"r!+	c #7B6E4F",
"s!+	c #4C3C24",
"t!+	c #533F29",
"u!+	c #5F4933",
"v!+	c #705841",
"w!+	c #715A43",
"x!+	c #786149",
"y!+	c #715A45",
"z!+	c #735D48",
"A!+	c #76614A",
"B!+	c #715B46",
"C!+	c #6D5742",
"D!+	c #634E3B",
"E!+	c #68523D",
"F!+	c #6C5740",
"G!+	c #68533C",
"H!+	c #5F4D37",
"I!+	c #52442E",
"J!+	c #54452E",
"K!+	c #827B68",
"L!+	c #7F7864",
"M!+	c #7C745E",
"N!+	c #584B2D",
"O!+	c #574B2E",
"P!+	c #5A4C31",
"Q!+	c #5F5337",
"R!+	c #7D6F4F",
"S!+	c #807152",
"T!+	c #726447",
"U!+	c #716142",
"V!+	c #746544",
"W!+	c #5A4A2C",
"X!+	c #867D6B",
"Y!+	c #887F6D",
"Z!+	c #867D6C",
"`!+	c #8A816F",
" ~+	c #847B6B",
".~+	c #5B4F36",
"+~+	c #574834",
"@~+	c #644E2F",
"#~+	c #685030",
"$~+	c #654E2D",
"%~+	c #695637",
"&~+	c #776441",
"*~+	c #76613E",
"=~+	c #6D5533",
"-~+	c #6A5331",
";~+	c #674F2D",
">~+	c #664C2A",
",~+	c #5C4B34",
"'~+	c #8E8876",
")~+	c #867F6E",
"!~+	c #807B6A",
"~~+	c #7B7664",
"{~+	c #777161",
"]~+	c #7A7565",
"^~+	c #7D7767",
"/~+	c #7D7867",
"(~+	c #7C7666",
"_~+	c #7F7968",
":~+	c #7E7969",
"<~+	c #787262",
"[~+	c #5A5345",
"}~+	c #6E6959",
"|~+	c #707866",
"1~+	c #66755F",
"2~+	c #6B5E35",
"3~+	c #635835",
"4~+	c #575535",
"5~+	c #454329",
"6~+	c #565031",
"7~+	c #68613E",
"8~+	c #79704A",
"9~+	c #7F744D",
"0~+	c #7F734C",
"a~+	c #7A6E46",
"b~+	c #74683E",
"c~+	c #72653B",
"d~+	c #5B4E2B",
"e~+	c #665D40",
"f~+	c #736B4C",
"g~+	c #746D4A",
"h~+	c #857B5A",
"i~+	c #7D7254",
"j~+	c #827858",
"k~+	c #887D5E",
"l~+	c #807557",
"m~+	c #817758",
"n~+	c #867C5D",
"o~+	c #8D8363",
"p~+	c #7F7255",
"q~+	c #45301C",
"r~+	c #56432B",
"s~+	c #7E7558",
"t~+	c #756C4F",
"u~+	c #726649",
"v~+	c #726548",
"w~+	c #74684A",
"x~+	c #85795A",
"y~+	c #4D3B23",
"z~+	c #5D4731",
"A~+	c #685039",
"B~+	c #6D553F",
"C~+	c #725B44",
"D~+	c #775F47",
"E~+	c #755E47",
"F~+	c #766049",
"G~+	c #79624C",
"H~+	c #735C47",
"I~+	c #66513D",
"J~+	c #6A543F",
"K~+	c #735D46",
"L~+	c #7A634B",
"M~+	c #574430",
"N~+	c #473A26",
"O~+	c #54442E",
"P~+	c #614E37",
"Q~+	c #918A76",
"R~+	c #8E8773",
"S~+	c #8E8672",
"T~+	c #837B68",
"U~+	c #867F6C",
"V~+	c #837C69",
"W~+	c #857E6B",
"X~+	c #5A4B2C",
"Y~+	c #605333",
"Z~+	c #5D5133",
"`~+	c #7F7252",
" {+	c #827454",
".{+	c #685A3E",
"+{+	c #6F6143",
"@{+	c #736345",
"#{+	c #706041",
"${+	c #56472D",
"%{+	c #5E4F30",
"&{+	c #5E4E30",
"*{+	c #5D4E2F",
"={+	c #514328",
"-{+	c #877E6C",
";{+	c #8B8271",
">{+	c #887F6F",
",{+	c #8A806F",
"'{+	c #57492C",
"){+	c #877E6E",
"!{+	c #817767",
"~{+	c #7C7363",
"{{+	c #827969",
"]{+	c #7E7565",
"^{+	c #827868",
"/{+	c #62584A",
"({+	c #6A5230",
"_{+	c #654D2D",
":{+	c #785F3B",
"<{+	c #7C6342",
"[{+	c #725C3C",
"}{+	c #685436",
"|{+	c #74623F",
"1{+	c #725A38",
"2{+	c #715734",
"3{+	c #6F5532",
"4{+	c #5F4E37",
"5{+	c #827A69",
"6{+	c #898472",
"7{+	c #85806F",
"8{+	c #898372",
"9{+	c #878271",
"0{+	c #847F6E",
"a{+	c #827C6C",
"b{+	c #7D7868",
"c{+	c #757060",
"d{+	c #575141",
"e{+	c #5D5E4D",
"f{+	c #504526",
"g{+	c #5C502B",
"h{+	c #6F633A",
"i{+	c #766B43",
"j{+	c #584E2F",
"k{+	c #545030",
"l{+	c #4A5131",
"m{+	c #46452A",
"n{+	c #7B6F47",
"o{+	c #5D4F2D",
"p{+	c #62542C",
"q{+	c #66592E",
"r{+	c #574A26",
"s{+	c #594D2E",
"t{+	c #6A5E36",
"u{+	c #8B805E",
"v{+	c #827758",
"w{+	c #857A5B",
"x{+	c #5E512D",
"y{+	c #827859",
"z{+	c #8A8060",
"A{+	c #83785A",
"B{+	c #817658",
"C{+	c #877D5E",
"D{+	c #897F5F",
"E{+	c #827759",
"F{+	c #8B8061",
"G{+	c #8F8566",
"H{+	c #948A6B",
"I{+	c #543F29",
"J{+	c #553D26",
"K{+	c #4E3B25",
"L{+	c #71684B",
"M{+	c #7A6E51",
"N{+	c #796D4F",
"O{+	c #776A4D",
"P{+	c #867959",
"Q{+	c #64593D",
"R{+	c #534129",
"S{+	c #513D27",
"T{+	c #614933",
"U{+	c #735B44",
"V{+	c #725B45",
"W{+	c #7B644E",
"X{+	c #604B37",
"Y{+	c #705B44",
"Z{+	c #6F5C44",
"`{+	c #5B4C35",
" ]+	c #634F39",
".]+	c #594732",
"+]+	c #87806C",
"@]+	c #8F8874",
"#]+	c #807866",
"$]+	c #8A826F",
"%]+	c #857D6A",
"&]+	c #88806D",
"*]+	c #827A67",
"=]+	c #8E8673",
"-]+	c #52432B",
";]+	c #645534",
">]+	c #6A5B3A",
",]+	c #564A30",
"']+	c #675D40",
")]+	c #594D34",
"!]+	c #625338",
"~]+	c #796A4A",
"{]+	c #675737",
"]]+	c #685838",
"^]+	c #665636",
"/]+	c #605132",
"(]+	c #473922",
"_]+	c #867C6C",
":]+	c #887F6E",
"<]+	c #8E8574",
"[]+	c #857C6C",
"}]+	c #847B6A",
"|]+	c #857D6D",
"1]+	c #8D8373",
"2]+	c #847A6A",
"3]+	c #807666",
"4]+	c #736A5A",
"5]+	c #645A4B",
"6]+	c #523E26",
"7]+	c #664E2C",
"8]+	c #705935",
"9]+	c #765D39",
"0]+	c #745B38",
"a]+	c #826B48",
"b]+	c #836C48",
"c]+	c #75603E",
"d]+	c #766340",
"e]+	c #695335",
"f]+	c #816946",
"g]+	c #816846",
"h]+	c #6D5536",
"i]+	c #685032",
"j]+	c #6E5533",
"k]+	c #50412F",
"l]+	c #837D6D",
"m]+	c #878170",
"n]+	c #8A8575",
"o]+	c #898473",
"p]+	c #858070",
"q]+	c #8C8777",
"r]+	c #868070",
"s]+	c #857F6F",
"t]+	c #7F7969",
"u]+	c #5D512D",
"v]+	c #6D6137",
"w]+	c #6A5E37",
"x]+	c #544B2D",
"y]+	c #454024",
"z]+	c #454B2C",
"A]+	c #434C2C",
"B]+	c #484E2E",
"C]+	c #6B623E",
"D]+	c #746A44",
"E]+	c #7D7149",
"F]+	c #6E623C",
"G]+	c #6B5E39",
"H]+	c #635632",
"I]+	c #63562D",
"J]+	c #8A7F5F",
"K]+	c #867C5C",
"L]+	c #695D3A",
"M]+	c #877D5D",
"N]+	c #8F8666",
"O]+	c #8B8161",
"P]+	c #887D5F",
"Q]+	c #877C5E",
"R]+	c #8B8162",
"S]+	c #897E60",
"T]+	c #8F8567",
"U]+	c #4F4426",
"V]+	c #563F2A",
"W]+	c #503A26",
"X]+	c #58432A",
"Y]+	c #3E3319",
"Z]+	c #4C4123",
"`]+	c #54492D",
" ^+	c #5C4F32",
".^+	c #4D3D25",
"+^+	c #523E28",
"@^+	c #664E36",
"#^+	c #6F5842",
"$^+	c #6C5540",
"%^+	c #7F6953",
"&^+	c #6A5440",
"*^+	c #705A44",
"=^+	c #68533E",
"-^+	c #745E47",
";^+	c #725D46",
">^+	c #5B4934",
",^+	c #564832",
"'^+	c #51432F",
")^+	c #54422F",
"!^+	c #604B36",
"~^+	c #584530",
"{^+	c #554836",
"]^+	c #8C8572",
"^^+	c #8D8572",
"/^+	c #8C8471",
"(^+	c #7F7664",
"_^+	c #625334",
":^+	c #5E4F31",
"<^+	c #645637",
"[^+	c #64573C",
"}^+	c #514A31",
"|^+	c #6C5F42",
"1^+	c #77694A",
"2^+	c #766648",
"3^+	c #5A4B32",
"4^+	c #685839",
"5^+	c #635335",
"6^+	c #5B4C2F",
"7^+	c #625333",
"8^+	c #615232",
"9^+	c #5B4C2D",
"0^+	c #4D3F27",
"a^+	c #5E5135",
"b^+	c #837969",
"c^+	c #8A8170",
"d^+	c #8C8373",
"e^+	c #918878",
"f^+	c #7D7363",
"g^+	c #8B8171",
"h^+	c #817768",
"i^+	c #68583C",
"j^+	c #746A5B",
"k^+	c #574729",
"l^+	c #6F5935",
"m^+	c #735C38",
"n^+	c #6D5634",
"o^+	c #77613C",
"p^+	c #876E4B",
"q^+	c #7D6745",
"r^+	c #735F3E",
"s^+	c #705D3C",
"t^+	c #5F4B30",
"u^+	c #6F5839",
"v^+	c #725837",
"w^+	c #6A5131",
"x^+	c #6D5330",
"y^+	c #6D532F",
"z^+	c #513E26",
"A^+	c #524534",
"B^+	c #54422A",
"C^+	c #7B7566",
"D^+	c #878171",
"E^+	c #7F7869",
"F^+	c #52452F",
"G^+	c #6C6036",
"H^+	c #665B35",
"I^+	c #5B512F",
"J^+	c #6F643E",
"K^+	c #726740",
"L^+	c #706640",
"M^+	c #484427",
"N^+	c #4F5E36",
"O^+	c #44502B",
"P^+	c #4A5934",
"Q^+	c #4C5534",
"R^+	c #6C6543",
"S^+	c #6F6844",
"T^+	c #5B5133",
"U^+	c #796E47",
"V^+	c #6A5D34",
"W^+	c #635532",
"X^+	c #7E7455",
"Y^+	c #7F7558",
"Z^+	c #918869",
"`^+	c #8C8364",
" /+	c #887D60",
"./+	c #504727",
"+/+	c #3F3517",
"@/+	c #3C3215",
"#/+	c #534128",
"$/+	c #59432F",
"%/+	c #544029",
"&/+	c #34290F",
"*/+	c #352B0F",
"=/+	c #31260D",
"-/+	c #43331C",
";/+	c #54412A",
">/+	c #533E29",
",/+	c #644C34",
"'/+	c #685038",
")/+	c #786048",
"!/+	c #725C45",
"~/+	c #7F6952",
"{/+	c #765F4A",
"]/+	c #79624B",
"^/+	c #78624B",
"//+	c #725F47",
"(/+	c #695840",
"_/+	c #483B28",
":/+	c #655039",
"</+	c #5E4A34",
"[/+	c #5A4732",
"}/+	c #3D3120",
"|/+	c #413725",
"1/+	c #4A422F",
"2/+	c #4B4331",
"3/+	c #5A5340",
"4/+	c #403627",
"5/+	c #413524",
"6/+	c #50422B",
"7/+	c #5B4C2E",
"8/+	c #5A4C30",
"9/+	c #655637",
"0/+	c #6C5E3F",
"a/+	c #6B5E3F",
"b/+	c #64563A",
"c/+	c #766849",
"d/+	c #5B5339",
"e/+	c #776A4B",
"f/+	c #685B3F",
"g/+	c #746648",
"h/+	c #645438",
"i/+	c #6F5F3F",
"j/+	c #6B5B3A",
"k/+	c #645535",
"l/+	c #5F5031",
"m/+	c #665736",
"n/+	c #57482C",
"o/+	c #51432A",
"p/+	c #413522",
"q/+	c #5A4D2E",
"r/+	c #3B3222",
"s/+	c #483D2D",
"t/+	c #493E2D",
"u/+	c #4D4333",
"v/+	c #57462C",
"w/+	c #504434",
"x/+	c #4A3E2C",
"y/+	c #4C442A",
"z/+	c #4C4324",
"A/+	c #665331",
"B/+	c #675432",
"C/+	c #655131",
"D/+	c #6D5937",
"E/+	c #76603C",
"F/+	c #76613F",
"G/+	c #756040",
"H/+	c #806947",
"I/+	c #7C6543",
"J/+	c #806847",
"K/+	c #856C4A",
"L/+	c #776040",
"M/+	c #644F32",
"N/+	c #5F5132",
"O/+	c #7B6642",
"P/+	c #644D31",
"Q/+	c #705836",
"R/+	c #6A5231",
"S/+	c #755B38",
"T/+	c #745A36",
"U/+	c #705632",
"V/+	c #694E2C",
"W/+	c #584226",
"X/+	c #3C3225",
"Y/+	c #3C3627",
"Z/+	c #423C2C",
"`/+	c #443F2F",
" (+	c #454030",
".(+	c #443E2F",
"+(+	c #484232",
"@(+	c #574D31",
"#(+	c #3E3625",
"$(+	c #534B38",
"%(+	c #585243",
"&(+	c #5A4F2A",
"*(+	c #675B32",
"=(+	c #71653C",
"-(+	c #695E38",
";(+	c #635935",
">(+	c #6E643D",
",(+	c #6E633E",
"'(+	c #695E3A",
")(+	c #5D5232",
"!(+	c #545A37",
"~(+	c #4F5F36",
"{(+	c #4D5E35",
"](+	c #516436",
"^(+	c #48502D",
"/(+	c #5D5536",
"((+	c #776A42",
"_(+	c #70623B",
":(+	c #685A34",
"<(+	c #665932",
"[(+	c #60542C",
"}(+	c #5B512E",
"|(+	c #5D5436",
"1(+	c #554B2C",
"2(+	c #4E4425",
"3(+	c #403619",
"4(+	c #403516",
"5(+	c #403719",
"6(+	c #3C3317",
"7(+	c #413719",
"8(+	c #3D3119",
"9(+	c #5A452F",
"0(+	c #473721",
"a(+	c #624B34",
"b(+	c #624B35",
"c(+	c #786049",
"d(+	c #7C664F",
"e(+	c #7D664F",
"f(+	c #75614A",
"g(+	c #62503B",
"h(+	c #67543E",
"i(+	c #705B43",
"j(+	c #594632",
"k(+	c #54432F",
"l(+	c #54432E",
"m(+	c #473826",
"n(+	c #433323",
"o(+	c #433522",
"p(+	c #392D1B",
"q(+	c #3B2F1D",
"r(+	c #433722",
"s(+	c #55492E",
"t(+	c #54462B",
"u(+	c #594B2D",
"v(+	c #615132",
"w(+	c #5E4F32",
"x(+	c #706242",
"y(+	c #716243",
"z(+	c #594C32",
"A(+	c #796C4C",
"B(+	c #5E5137",
"C(+	c #534830",
"D(+	c #5E553A",
"E(+	c #6E6245",
"F(+	c #695C3F",
"G(+	c #6F6244",
"H(+	c #6A5D41",
"I(+	c #716143",
"J(+	c #726344",
"K(+	c #6D5E3F",
"L(+	c #615136",
"M(+	c #53472B",
"N(+	c #54462C",
"O(+	c #524429",
"P(+	c #53472A",
"Q(+	c #382812",
"R(+	c #503E27",
"S(+	c #443523",
"T(+	c #473925",
"U(+	c #513F29",
"V(+	c #564126",
"W(+	c #6A5330",
"X(+	c #614D2D",
"Y(+	c #64512F",
"Z(+	c #474321",
"`(+	c #615832",
" _+	c #72623C",
"._+	c #695837",
"+_+	c #574E2D",
"@_+	c #715E3B",
"#_+	c #6A5939",
"$_+	c #675838",
"%_+	c #6D5C3C",
"&_+	c #625033",
"*_+	c #806B48",
"=_+	c #88704E",
"-_+	c #715D3C",
";_+	c #755F3E",
">_+	c #6C5437",
",_+	c #6B5231",
"'_+	c #6E5532",
")_+	c #604727",
"!_+	c #5F4728",
"~_+	c #503B20",
"{_+	c #45331E",
"]_+	c #3A2E1A",
"^_+	c #3E3420",
"/_+	c #413821",
"(_+	c #504426",
"__+	c #4D4022",
":_+	c #504522",
"<_+	c #574D28",
"[_+	c #5C512D",
"}_+	c #6E623A",
"|_+	c #766941",
"1_+	c #675B36",
"2_+	c #70653F",
"3_+	c #716740",
"4_+	c #595031",
"5_+	c #484024",
"6_+	c #4E5D37",
"7_+	c #4B5A35",
"8_+	c #3F4929",
"9_+	c #3D4226",
"0_+	c #414026",
"a_+	c #635839",
"b_+	c #7E724B",
"c_+	c #837850",
"d_+	c #6E603B",
"e_+	c #685C35",
"f_+	c #665A32",
"g_+	c #685D35",
"h_+	c #5A4F2B",
"i_+	c #574A2C",
"j_+	c #493C20",
"k_+	c #3E3119",
"l_+	c #3F321B",
"m_+	c #44371F",
"n_+	c #473723",
"o_+	c #604C36",
"p_+	c #634D38",
"q_+	c #5F4A35",
"r_+	c #614B36",
"s_+	c #755D46",
"t_+	c #725A44",
"u_+	c #654E39",
"v_+	c #7A624B",
"w_+	c #7D664E",
"x_+	c #7E6852",
"y_+	c #725C47",
"z_+	c #6B5541",
"A_+	c #695640",
"B_+	c #725E47",
"C_+	c #6A5942",
"D_+	c #695740",
"E_+	c #67533D",
"F_+	c #68533D",
"G_+	c #6C5942",
"H_+	c #67533E",
"I_+	c #65523C",
"J_+	c #56412E",
"K_+	c #3E2A0A",
"L_+	c #594A2D",
"M_+	c #5D4F33",
"N_+	c #5B4D32",
"O_+	c #635334",
"P_+	c #6D5E3D",
"Q_+	c #54452A",
"R_+	c #675739",
"S_+	c #665638",
"T_+	c #786A49",
"U_+	c #5E563A",
"V_+	c #61583C",
"W_+	c #584D33",
"X_+	c #77694B",
"Y_+	c #786A4B",
"Z_+	c #7D6E4E",
"`_+	c #6C5C3F",
" :+	c #6F5F40",
".:+	c #776747",
"+:+	c #776848",
"@:+	c #766747",
"#:+	c #695A3B",
"$:+	c #726342",
"%:+	c #716242",
"&:+	c #665839",
"*:+	c #6A5C3C",
"=:+	c #695B3C",
"-:+	c #685A3B",
";:+	c #3B2A10",
">:+	c #5D4B2D",
",:+	c #735E3A",
"':+	c #604D2E",
"):+	c #6F5835",
"!:+	c #5D4C2D",
"~:+	c #625230",
"{:+	c #71603B",
"]:+	c #595331",
"^:+	c #595430",
"/:+	c #646139",
"(:+	c #786642",
"_:+	c #705C3C",
"::+	c #72623F",
"<:+	c #73613F",
"[:+	c #7F6C49",
"}:+	c #766142",
"|:+	c #816948",
"1:+	c #7E6643",
"2:+	c #866D49",
"3:+	c #79623E",
"4:+	c #725835",
"5:+	c #6C5330",
"6:+	c #38260B",
"7:+	c #685D37",
"8:+	c #655934",
"9:+	c #675B35",
"0:+	c #6A5E38",
"a:+	c #574A29",
"b:+	c #5A4E2B",
"c:+	c #5C522D",
"d:+	c #766A41",
"e:+	c #625533",
"f:+	c #6E643C",
"g:+	c #7A6F46",
"h:+	c #635B38",
"i:+	c #69623E",
"j:+	c #4D482B",
"k:+	c #4C5A35",
"l:+	c #555B39",
"m:+	c #4E5835",
"n:+	c #4E5333",
"o:+	c #5A5334",
"p:+	c #7A734C",
"q:+	c #6E623B",
"r:+	c #6D6139",
"s:+	c #73673F",
"t:+	c #695D36",
"u:+	c #574927",
"v:+	c #64552E",
"w:+	c #4C3C20",
"x:+	c #432D0C",
"y:+	c #69533D",
"z:+	c #67513D",
"A:+	c #6D5641",
"B:+	c #6A543E",
"C:+	c #68513C",
"D:+	c #735C45",
"E:+	c #816A53",
"F:+	c #715A44",
"G:+	c #6B5641",
"H:+	c #735F49",
"I:+	c #78654D",
"J:+	c #6B5842",
"K:+	c #64553F",
"L:+	c #5E4E39",
"M:+	c #63523D",
"N:+	c #77634B",
"O:+	c #67533F",
"P:+	c #75614B",
"Q:+	c #6D5944",
"R:+	c #473416",
"S:+	c #655639",
"T:+	c #625336",
"U:+	c #5A4B30",
"V:+	c #6D5D3D",
"W:+	c #6B5C3D",
"X:+	c #766847",
"Y:+	c #6D5F41",
"Z:+	c #5A5337",
"`:+	c #6D6847",
" <+	c #685F42",
".<+	c #645B3E",
"+<+	c #6E6144",
"@<+	c #7B6D4E",
"#<+	c #796C4D",
"$<+	c #67593C",
"%<+	c #736545",
"&<+	c #6E6041",
"*<+	c #695B3D",
"=<+	c #402F15",
"-<+	c #6D5737",
";<+	c #78613F",
"><+	c #7F6745",
",<+	c #735B3B",
"'<+	c #655032",
")<+	c #665333",
"!<+	c #5F5A35",
"~<+	c #4E6536",
"{<+	c #4F5B32",
"]<+	c #6D623C",
"^<+	c #7A6B44",
"/<+	c #816C49",
"(<+	c #836D4A",
"_<+	c #746040",
":<+	c #695336",
"<<+	c #7A6341",
"[<+	c #735B3A",
"}<+	c #6E5739",
"|<+	c #786341",
"1<+	c #3E2B11",
"2<+	c #615330",
"3<+	c #5E5230",
"4<+	c #5A4F2D",
"5<+	c #5B502E",
"6<+	c #776B44",
"7<+	c #7F744C",
"8<+	c #4B482A",
"9<+	c #4A4E2F",
"0<+	c #494A2E",
"a<+	c #6C6944",
"b<+	c #51482C",
"c<+	c #6C6541",
"d<+	c #6E623D",
"e<+	c #6D6039",
"f<+	c #746841",
"g<+	c #70643E",
"h<+	c #756941",
"i<+	c #796D46",
"j<+	c #452F11",
"k<+	c #4E3310",
"l<+	c #634F3B",
"m<+	c #715B47",
"n<+	c #6C5642",
"o<+	c #6A5541",
"p<+	c #6D5843",
"q<+	c #755F4A",
"r<+	c #725C48",
"s<+	c #6B5542",
"t<+	c #5F4B38",
"u<+	c #685540",
"v<+	c #6D5B45",
"w<+	c #63533D",
"x<+	c #74614B",
"y<+	c #745F49",
"z<+	c #6F5B46",
"A<+	c #6F5C47",
"B<+	c #705D47",
"C<+	c #62503C",
"D<+	c #614D37",
"E<+	c #6A5743",
"F<+	c #584632",
"G<+	c #46351A",
"H<+	c #756749",
"I<+	c #6C5E41",
"J<+	c #716343",
"K<+	c #645539",
"L<+	c #605135",
"M<+	c #6B5C3E",
"N<+	c #706346",
"O<+	c #726547",
"P<+	c #7A6B4C",
"Q<+	c #6D5D3F",
"R<+	c #766748",
"S<+	c #766848",
"T<+	c #746546",
"U<+	c #746748",
"V<+	c #46341A",
"W<+	c #806846",
"X<+	c #695536",
"Y<+	c #5D4B2E",
"Z<+	c #635132",
"`<+	c #746640",
" [+	c #726941",
".[+	c #44562D",
"+[+	c #625936",
"@[+	c #7F6946",
"#[+	c #6D5D3B",
"$[+	c #856D4A",
"%[+	c #836B49",
"&[+	c #7C6443",
"*[+	c #725D3D",
"=[+	c #745D3C",
"-[+	c #715A39",
";[+	c #624A2B",
">[+	c #39260C",
",[+	c #594D2D",
"'[+	c #5D5230",
")[+	c #6B613A",
"![+	c #5C5030",
"~[+	c #685C37",
"{[+	c #7E7149",
"][+	c #81754D",
"^[+	c #6D6541",
"/[+	c #605E3B",
"([+	c #716B46",
"_[+	c #69603E",
":[+	c #676240",
"<[+	c #625C3A",
"[[+	c #5F5231",
"}[+	c #7A6D45",
"|[+	c #544327",
"1[+	c #553916",
"2[+	c #6D563E",
"3[+	c #77614D",
"4[+	c #68533F",
"5[+	c #68523E",
"6[+	c #735D49",
"7[+	c #624F3B",
"8[+	c #5D4D39",
"9[+	c #685742",
"0[+	c #77624B",
"a[+	c #7A6751",
"b[+	c #6F5D48",
"c[+	c #665441",
"d[+	c #655340",
"e[+	c #4C3A21",
"f[+	c #6F6144",
"g[+	c #736445",
"h[+	c #6D5E40",
"i[+	c #6A5B3C",
"j[+	c #736444",
"k[+	c #6B5D40",
"l[+	c #7A6C4D",
"m[+	c #5C5036",
"n[+	c #63593E",
"o[+	c #736649",
"p[+	c #7A6B4D",
"q[+	c #594A31",
"r[+	c #7D6E4F",
"s[+	c #7B6C4D",
"t[+	c #7C6E4E",
"u[+	c #7A6C4C",
"v[+	c #49371D",
"w[+	c #836A49",
"x[+	c #89704E",
"y[+	c #886F4E",
"z[+	c #765E3F",
"A[+	c #6D5738",
"B[+	c #6B5636",
"C[+	c #726B42",
"D[+	c #6E673F",
"E[+	c #6A613C",
"F[+	c #5B6037",
"G[+	c #454B27",
"H[+	c #5F5F38",
"I[+	c #615B37",
"J[+	c #736541",
"K[+	c #7D6E48",
"L[+	c #866D4A",
"M[+	c #876E4C",
"N[+	c #745D3E",
"O[+	c #675336",
"P[+	c #7C6544",
"Q[+	c #695234",
"R[+	c #584026",
"S[+	c #3E2A0E",
"T[+	c #736843",
"U[+	c #605534",
"V[+	c #5C5332",
"W[+	c #68603B",
"X[+	c #776B42",
"Y[+	c #726742",
"Z[+	c #76714A",
"`[+	c #575133",
" }+	c #5E5938",
".}+	c #766D47",
"+}+	c #665D3C",
"@}+	c #736A46",
"#}+	c #70633B",
"$}+	c #847851",
"%}+	c #827650",
"&}+	c #4F3516",
"*}+	c #796148",
"=}+	c #776047",
"-}+	c #6F5844",
";}+	c #68523F",
">}+	c #6E5943",
",}+	c #6C5743",
"'}+	c #685340",
")}+	c #6C5B47",
"!}+	c #74614C",
"~}+	c #503E24",
"{}+	c #7D6F50",
"]}+	c #67573B",
"^}+	c #6F5F41",
"/}+	c #776A4C",
"(}+	c #736547",
"_}+	c #63563C",
":}+	c #786C4E",
"<}+	c #6F6041",
"[}+	c #746444",
"}}+	c #7E6F50",
"|}+	c #7D6E50",
"1}+	c #807153",
"2}+	c #7C6D4F",
"3}+	c #7F7051",
"4}+	c #827354",
"5}+	c #89704F",
"6}+	c #8A724F",
"7}+	c #775F41",
"8}+	c #6A633C",
"9}+	c #4C4C2A",
"0}+	c #596038",
"a}+	c #5F5936",
"b}+	c #45502B",
"c}+	c #587240",
"d}+	c #4D6336",
"e}+	c #5D5C37",
"f}+	c #7F704A",
"g}+	c #886F4C",
"h}+	c #745C3E",
"i}+	c #856D4B",
"j}+	c #7C6444",
"k}+	c #7A6342",
"l}+	c #766140",
"m}+	c #846B48",
"n}+	c #422E11",
"o}+	c #6F643F",
"p}+	c #5D5434",
"q}+	c #595433",
"r}+	c #6A653F",
"s}+	c #625734",
"t}+	c #716744",
"u}+	c #645B3B",
"v}+	c #7E744E",
"w}+	c #695D38",
"x}+	c #7C7048",
"y}+	c #7F734B",
"z}+	c #4E391C",
"A}+	c #75614C",
"B}+	c #735C44",
"C}+	c #7A644F",
"D}+	c #6D5744",
"E}+	c #715D49",
"F}+	c #705E49",
"G}+	c #604F3B",
"H}+	c #635440",
"I}+	c #786A4C",
"J}+	c #7B6C4E",
"K}+	c #7C6C4D",
"L}+	c #786948",
"M}+	c #6A5A3D",
"N}+	c #746445",
"O}+	c #796B4D",
"P}+	c #7E7052",
"Q}+	c #7F7052",
"R}+	c #796A4C",
"S}+	c #7A6E4F",
"T}+	c #796C4E",
"U}+	c #706245",
"V}+	c #786849",
"W}+	c #7C6E50",
"X}+	c #4F3C20",
"Y}+	c #907755",
"Z}+	c #846B4B",
"`}+	c #7D6445",
" |+	c #735D3E",
".|+	c #746A43",
"+|+	c #6F6E44",
"@|+	c #464E2A",
"#|+	c #5A5A34",
"$|+	c #576136",
"%|+	c #46592F",
"&|+	c #52753F",
"*|+	c #57673C",
"=|+	c #616D40",
"-|+	c #61693E",
";|+	c #706641",
">|+	c #625234",
",|+	c #7D6A46",
"'|+	c #786141",
")|+	c #826847",
"!|+	c #89704D",
"~|+	c #755E3E",
"{|+	c #705A3B",
"]|+	c #735C3C",
"^|+	c #775E3E",
"/|+	c #453317",
"(|+	c #675835",
"_|+	c #6E643F",
":|+	c #6B603D",
"<|+	c #514C2D",
"[|+	c #665F3B",
"}|+	c #625735",
"||+	c #80744C",
"1|+	c #655C3A",
"2|+	c #706743",
"3|+	c #80744D",
"4|+	c #877B54",
"5|+	c #867A53",
"6|+	c #887C56",
"7|+	c #817550",
"8|+	c #7E6853",
"9|+	c #846E58",
"0|+	c #705B48",
"a|+	c #7B6550",
"b|+	c #695441",
"c|+	c #78634C",
"d|+	c #6D5844",
"e|+	c #7A6750",
"f|+	c #584634",
"g|+	c #78664F",
"h|+	c #776650",
"i|+	c #6A5844",
"j|+	c #6E5B47",
"k|+	c #4D3D21",
"l|+	c #63553A",
"m|+	c #756748",
"n|+	c #625339",
"o|+	c #7A6C4E",
"p|+	c #6C5E43",
"q|+	c #76684B",
"r|+	c #776748",
"s|+	c #837455",
"t|+	c #897B5C",
"u|+	c #837456",
"v|+	c #827355",
"w|+	c #7D6E51",
"x|+	c #47351B",
"y|+	c #876E4D",
"z|+	c #836A48",
"A|+	c #705A3C",
"B|+	c #6F5C3B",
"C|+	c #766442",
"D|+	c #736B45",
"E|+	c #4A4E2C",
"F|+	c #4C532D",
"G|+	c #4C502C",
"H|+	c #44532C",
"I|+	c #566C3C",
"J|+	c #546138",
"K|+	c #535833",
"L|+	c #746541",
"M|+	c #7B6442",
"N|+	c #836B4A",
"O|+	c #7E6646",
"P|+	c #705839",
"Q|+	c #402D13",
"R|+	c #5D5333",
"S|+	c #544E2E",
"T|+	c #5D5635",
"U|+	c #675E39",
"V|+	c #575032",
"W|+	c #776D48",
"X|+	c #6F623B",
"Y|+	c #82764F",
"Z|+	c #837751",
"`|+	c #867A54",
" 1+	c #48341B",
".1+	c #7B6651",
"+1+	c #6B5642",
"@1+	c #695542",
"#1+	c #796751",
"$1+	c #816D57",
"%1+	c #7D6C56",
"&1+	c #5C4A37",
"*1+	c #48381E",
"=1+	c #66563B",
"-1+	c #756747",
";1+	c #827455",
">1+	c #716345",
",1+	c #706244",
"'1+	c #7C6E4F",
")1+	c #837557",
"!1+	c #87785A",
"~1+	c #827356",
"{1+	c #796A4E",
"]1+	c #857658",
"^1+	c #7E6F52",
"/1+	c #836B4B",
"(1+	c #745D3F",
"_1+	c #725C3D",
":1+	c #64603A",
"<1+	c #48542E",
"[1+	c #575E36",
"}1+	c #5E5835",
"|1+	c #554F2E",
"11+	c #6F6D43",
"21+	c #786142",
"31+	c #735C3E",
"41+	c #6D5639",
"51+	c #443116",
"61+	c #514A2E",
"71+	c #535232",
"81+	c #625F3A",
"91+	c #69603B",
"01+	c #635736",
"a1+	c #6B613D",
"b1+	c #67613D",
"c1+	c #6D643F",
"d1+	c #7B704A",
"e1+	c #6B603C",
"f1+	c #847953",
"g1+	c #8A7F58",
"h1+	c #50381A",
"i1+	c #6B5643",
"j1+	c #715E48",
"k1+	c #7D6752",
"l1+	c #725D49",
"m1+	c #735F4A",
"n1+	c #7E6A55",
"o1+	c #816E59",
"p1+	c #4C3B20",
"q1+	c #716145",
"r1+	c #746447",
"s1+	c #7C6D50",
"t1+	c #7B6D50",
"u1+	c #847658",
"v1+	c #87795A",
"w1+	c #615038",
"x1+	c #463319",
"y1+	c #624D30",
"z1+	c #766341",
"A1+	c #756642",
"B1+	c #615937",
"C1+	c #5B5532",
"D1+	c #756C43",
"E1+	c #82724B",
"F1+	c #726340",
"G1+	c #725A3B",
"H1+	c #816947",
"I1+	c #745C3D",
"J1+	c #624C30",
"K1+	c #6B5638",
"L1+	c #634D30",
"M1+	c #7F744F",
"N1+	c #69603F",
"O1+	c #4D492D",
"P1+	c #615434",
"Q1+	c #6C613D",
"R1+	c #796F47",
"S1+	c #6C623F",
"T1+	c #6D6540",
"U1+	c #665D3A",
"V1+	c #726944",
"W1+	c #796E48",
"X1+	c #695F3D",
"Y1+	c #7A6F49",
"Z1+	c #867B55",
"`1+	c #827753",
" 2+	c #827652",
".2+	c #49341B",
"+2+	c #836D58",
"@2+	c #735E4A",
"#2+	c #715C49",
"$2+	c #75604D",
"%2+	c #826D57",
"&2+	c #816C55",
"*2+	c #78644F",
"=2+	c #786550",
"-2+	c #7A6752",
";2+	c #86725C",
">2+	c #7C6954",
",2+	c #715F4B",
"'2+	c #6C5B48",
")2+	c #4A3921",
"!2+	c #7A7253",
"~2+	c #75694C",
"{2+	c #7F7254",
"]2+	c #766649",
"^2+	c #7E6F4F",
"/2+	c #87795B",
"(2+	c #817355",
"_2+	c #827456",
":2+	c #807255",
"<2+	c #6F5F44",
"[2+	c #4F3B1D",
"}2+	c #705A3D",
"|2+	c #856D4D",
"12+	c #7F6746",
"22+	c #715C3D",
"32+	c #756340",
"42+	c #82754D",
"52+	c #7A6944",
"62+	c #7E6946",
"72+	c #826A48",
"82+	c #826948",
"92+	c #655134",
"02+	c #665033",
"a2+	c #6A5235",
"b2+	c #705838",
"c2+	c #412F16",
"d2+	c #827752",
"e2+	c #7A704A",
"f2+	c #5D5636",
"g2+	c #625D3A",
"h2+	c #635E3B",
"i2+	c #7E734C",
"j2+	c #7E714E",
"k2+	c #7E704D",
"l2+	c #443219",
"m2+	c #6D5845",
"n2+	c #76604C",
"o2+	c #6F5945",
"p2+	c #614D3A",
"q2+	c #7D6750",
"r2+	c #86705B",
"s2+	c #78634F",
"t2+	c #78624E",
"u2+	c #846F59",
"v2+	c #77644F",
"w2+	c #826D58",
"x2+	c #7B6854",
"y2+	c #826F5A",
"z2+	c #4B3921",
"A2+	c #807254",
"B2+	c #7F7154",
"C2+	c #7A6C4F",
"D2+	c #817254",
"E2+	c #8C7E5F",
"F2+	c #847558",
"G2+	c #4B371D",
"H2+	c #8A7252",
"I2+	c #73603F",
"J2+	c #6D583A",
"K2+	c #826A47",
"L2+	c #6D573A",
"M2+	c #6F5E3D",
"N2+	c #5F5233",
"O2+	c #6B5A3A",
"P2+	c #6F5D3B",
"Q2+	c #6B593A",
"R2+	c #695838",
"S2+	c #695537",
"T2+	c #78623F",
"U2+	c #806747",
"V2+	c #70593A",
"W2+	c #423015",
"X2+	c #675B3B",
"Y2+	c #716943",
"Z2+	c #635B39",
"`2+	c #615634",
" 3+	c #6D613B",
".3+	c #746943",
"+3+	c #736946",
"@3+	c #685F3D",
"#3+	c #766C47",
"$3+	c #7F7550",
"%3+	c #887C57",
"&3+	c #47341B",
"*3+	c #79634F",
"=3+	c #64503D",
"-3+	c #7F6A54",
";3+	c #7A6450",
">3+	c #7D6954",
",3+	c #816D58",
"'3+	c #796551",
")3+	c #7C6753",
"!3+	c #75614D",
"~3+	c #513F25",
"{3+	c #796B4E",
"]3+	c #817253",
"^3+	c #7E6F53",
"/3+	c #7F7053",
"(3+	c #4F3C22",
"_3+	c #866D4E",
":3+	c #846D4C",
"<3+	c #796746",
"[3+	c #776342",
"}3+	c #745F3F",
"|3+	c #6E593A",
"13+	c #5C5533",
"23+	c #585934",
"33+	c #75613E",
"43+	c #796240",
"53+	c #725E3C",
"63+	c #75623F",
"73+	c #6E5B3A",
"83+	c #6D5B39",
"93+	c #735B3D",
"03+	c #6A5335",
"a3+	c #6E5637",
"b3+	c #453218",
"c3+	c #5B5234",
"d3+	c #5E5434",
"e3+	c #564B2D",
"f3+	c #70653D",
"g3+	c #6A5F3D",
"h3+	c #6F6642",
"i3+	c #776F4A",
"j3+	c #77704B",
"k3+	c #5C5737",
"l3+	c #645D3D",
"m3+	c #8A7E59",
"n3+	c #47341C",
"o3+	c #725D4A",
"p3+	c #66513E",
"q3+	c #67523F",
"r3+	c #856F59",
"s3+	c #76614D",
"t3+	c #6E5A45",
"u3+	c #705C47",
"v3+	c #836F59",
"w3+	c #7B6752",
"x3+	c #806D58",
"y3+	c #7D6955",
"z3+	c #7D6854",
"A3+	c #685541",
"B3+	c #74604D",
"C3+	c #7A6651",
"D3+	c #534427",
"E3+	c #746647",
"F3+	c #615238",
"G3+	c #837556",
"H3+	c #7D6F52",
"I3+	c #876F4E",
"J3+	c #776143",
"K3+	c #655034",
"L3+	c #745F3E",
"M3+	c #624E32",
"N3+	c #515430",
"O3+	c #6D5838",
"P3+	c #6D5B38",
"Q3+	c #765F3C",
"R3+	c #796142",
"S3+	c #71593B",
"T3+	c #765D3E",
"U3+	c #6C5436",
"V3+	c #816848",
"W3+	c #443218",
"X3+	c #766B46",
"Y3+	c #635735",
"Z3+	c #7A6F4A",
"`3+	c #5E5738",
" 4+	c #7C754F",
".4+	c #46331A",
"+4+	c #7B6551",
"@4+	c #7D6753",
"#4+	c #65503C",
"$4+	c #806B56",
"%4+	c #6F5B47",
"&4+	c #6C5844",
"*4+	c #735E4B",
"=4+	c #634F3C",
"-4+	c #78654F",
";4+	c #7A6853",
">4+	c #83705A",
",4+	c #7F6B57",
"'4+	c #7A6854",
")4+	c #7B6753",
"!4+	c #735F4B",
"~4+	c #77624E",
"{4+	c #7F6A56",
"]4+	c #4E3C23",
"^4+	c #817255",
"/4+	c #74664A",
"(4+	c #6F6245",
"_4+	c #7E6F51",
":4+	c #7A6B4F",
"<4+	c #6B5B40",
"[4+	c #44321A",
"}4+	c #8E7553",
"|4+	c #846B4C",
"14+	c #856D4C",
"24+	c #635134",
"34+	c #6F5E3C",
"44+	c #655B38",
"54+	c #6C623D",
"64+	c #6B623D",
"74+	c #6F5F3D",
"84+	c #6E583A",
"94+	c #6F5A3A",
"04+	c #6F5B39",
"a4+	c #78613E",
"b4+	c #6B5437",
"c4+	c #886E4D",
"d4+	c #8C7250",
"e4+	c #866C4A",
"f4+	c #423016",
"g4+	c #7E734E",
"h4+	c #736842",
"i4+	c #6D613C",
"j4+	c #7B7049",
"k4+	c #685E3C",
"l4+	c #5E5436",
"m4+	c #817752",
"n4+	c #867C57",
"o4+	c #887D58",
"p4+	c #7E6955",
"q4+	c #6D5946",
"r4+	c #796650",
"s4+	c #75634E",
"t4+	c #7E6B55",
"u4+	c #826E59",
"v4+	c #7C6853",
"w4+	c #786450",
"x4+	c #796450",
"y4+	c #7C6652",
"z4+	c #645338",
"A4+	c #88735E",
"B4+	c #87725E",
"C4+	c #503E26",
"D4+	c #7F7153",
"E4+	c #7C6D51",
"F4+	c #807154",
"G4+	c #746749",
"H4+	c #786B4D",
"I4+	c #85785A",
"J4+	c #897B5D",
"K4+	c #5C4C34",
"L4+	c #433218",
"M4+	c #917756",
"N4+	c #8C7352",
"O4+	c #846C4B",
"P4+	c #725C3E",
"Q4+	c #766240",
"R4+	c #685637",
"S4+	c #705E3C",
"T4+	c #755E3F",
"U4+	c #7A6343",
"V4+	c #664E32",
"W4+	c #886F4D",
"X4+	c #837853",
"Y4+	c #605434",
"Z4+	c #645A37",
"`4+	c #635837",
" 5+	c #7C714C",
".5+	c #625839",
"+5+	c #605334",
"@5+	c #7C714A",
"#5+	c #786E49",
"$5+	c #837854",
"%5+	c #74604C",
"&5+	c #85705B",
"*5+	c #826C58",
"=5+	c #6F5B48",
"-5+	c #6F5A47",
";5+	c #6C5744",
">5+	c #6D5945",
",5+	c #6E5946",
"'5+	c #705D49",
")5+	c #7D6B55",
"!5+	c #7D6A55",
"~5+	c #816C58",
"{5+	c #7E6B54",
"]5+	c #88735F",
"^5+	c #86785B",
"/5+	c #726445",
"(5+	c #65583C",
"_5+	c #736648",
":5+	c #7F7152",
"<5+	c #827457",
"[5+	c #4B3A23",
"}5+	c #473319",
"|5+	c #6D5839",
"15+	c #725B3B",
"25+	c #6A5435",
"35+	c #75603D",
"45+	c #7B6441",
"55+	c #71583A",
"65+	c #8A714F",
"75+	c #3F2D13",
"85+	c #5C4F31",
"95+	c #736841",
"05+	c #5E5334",
"a5+	c #7D734E",
"b5+	c #7C6854",
"c5+	c #806B57",
"d5+	c #786350",
"e5+	c #6E5845",
"f5+	c #826B55",
"g5+	c #826C57",
"h5+	c #836F5A",
"i5+	c #745F4C",
"j5+	c #6E5A47",
"k5+	c #705C49",
"l5+	c #725E4A",
"m5+	c #665240",
"n5+	c #705E4A",
"o5+	c #826D59",
"p5+	c #8B7763",
"q5+	c #75624D",
"r5+	c #8C7863",
"s5+	c #857659",
"t5+	c #756849",
"u5+	c #716346",
"v5+	c #7D7052",
"w5+	c #73644A",
"x5+	c #5F4D33",
"y5+	c #43311B",
"z5+	c #422F18",
"A5+	c #745E41",
"B5+	c #8E7554",
"C5+	c #6A5337",
"D5+	c #765F40",
"E5+	c #6A5538",
"F5+	c #6E5B3B",
"G5+	c #715938",
"H5+	c #6F5838",
"I5+	c #7B6243",
"J5+	c #755C3E",
"K5+	c #3D2A12",
"L5+	c #847854",
"M5+	c #7E734F",
"N5+	c #6F6948",
"O5+	c #605638",
"P5+	c #897E5A",
"Q5+	c #49351E",
"R5+	c #84705B",
"S5+	c #86715D",
"T5+	c #836D59",
"U5+	c #675240",
"V5+	c #86715C",
"W5+	c #76614E",
"X5+	c #7A6551",
"Y5+	c #65513F",
"Z5+	c #66523F",
"`5+	c #6C5944",
" 6+	c #705D48",
".6+	c #85705C",
"+6+	c #87735E",
"@6+	c #806D59",
"#6+	c #816D59",
"$6+	c #69583F",
"%6+	c #4A3822",
"&6+	c #847559",
"*6+	c #87785B",
"=6+	c #76694A",
"-6+	c #6F6246",
";6+	c #796C4F",
">6+	c #847659",
",6+	c #817356",
"'6+	c #47331C",
")6+	c #422E17",
"!6+	c #6C573A",
"~6+	c #8D7453",
"{6+	c #8A7151",
"]6+	c #775F42",
"^6+	c #7A6240",
"/6+	c #78603D",
"(6+	c #856C4B",
"_6+	c #6D5539",
":6+	c #806748",
"<6+	c #3E2C12",
"[6+	c #78704B",
"}6+	c #7E7452",
"|6+	c #48331B",
"16+	c #715F4C",
"26+	c #7E6752",
"36+	c #806C57",
"46+	c #7B6652",
"56+	c #685441",
"66+	c #63513E",
"76+	c #685643",
"86+	c #796651",
"96+	c #7D6953",
"06+	c #826E5A",
"a6+	c #836F5B",
"b6+	c #4A3D23",
"c6+	c #8B7D5F",
"d6+	c #8A7B5E",
"e6+	c #7D6E53",
"f6+	c #86775B",
"g6+	c #6D5F42",
"h6+	c #7C6F50",
"i6+	c #564A32",
"j6+	c #61583D",
"k6+	c #6B5E43",
"l6+	c #61543B",
"m6+	c #64553C",
"n6+	c #887A5C",
"o6+	c #807356",
"p6+	c #45321D",
"q6+	c #412E18",
"r6+	c #8F7655",
"s6+	c #6F583A",
"t6+	c #71593C",
"u6+	c #3C2B12",
"v6+	c #7A6F4B",
"w6+	c #706745",
"x6+	c #7F7753",
"y6+	c #887D59",
"z6+	c #4D331A",
"A6+	c #6D5237",
"B6+	c #7B6653",
"C6+	c #715D4A",
"D6+	c #7E6A56",
"E6+	c #6D5B46",
"F6+	c #75634D",
"G6+	c #77654F",
"H6+	c #76644F",
"I6+	c #897460",
"J6+	c #7C6F51",
"K6+	c #7B6E51",
"L6+	c #86785A",
"M6+	c #817256",
"N6+	c #69583E",
"O6+	c #46321B",
"P6+	c #58442B",
"Q6+	c #806646",
"R6+	c #715A3C",
"S6+	c #735B3E",
"T6+	c #3A280F",
"U6+	c #786D46",
"V6+	c #716A47",
"W6+	c #6B5434",
"X6+	c #53381B",
"Y6+	c #5A3F22",
"Z6+	c #7A6652",
"`6+	c #6D5947",
" 7+	c #75614E",
".7+	c #806C58",
"+7+	c #77624F",
"@7+	c #655641",
"#7+	c #685944",
"$7+	c #6A5B46",
"%7+	c #6F5D49",
"&7+	c #7C6955",
"*7+	c #826E5B",
"=7+	c #87735F",
"-7+	c #524528",
";7+	c #57492E",
">7+	c #8A7C5F",
",7+	c #807253",
"'7+	c #817456",
")7+	c #8D7454",
"!7+	c #6B5438",
"~7+	c #6E573B",
"{7+	c #796042",
"]7+	c #866E4D",
"^7+	c #8A7150",
"/7+	c #846C4A",
"(7+	c #3D2B12",
"_7+	c #7C724C",
":7+	c #776E4A",
"<7+	c #746542",
"[7+	c #655232",
"}7+	c #665231",
"|7+	c #887C59",
"17+	c #8D825E",
"27+	c #725E4C",
"37+	c #735D4A",
"47+	c #65503E",
"57+	c #634F3D",
"67+	c #7D6A54",
"77+	c #85715D",
"87+	c #836F5C",
"97+	c #85785B",
"07+	c #716548",
"a7+	c #817457",
"b7+	c #8A7251",
"c7+	c #8C7453",
"d7+	c #7C6446",
"e7+	c #786042",
"f7+	c #7B6244",
"g7+	c #37240E",
"h7+	c #796F4B",
"i7+	c #716341",
"j7+	c #665635",
"k7+	c #877C58",
"l7+	c #7C6855",
"m7+	c #7D6956",
"n7+	c #74604E",
"o7+	c #5E4A38",
"p7+	c #7B6754",
"q7+	c #76624F",
"r7+	c #6A5944",
"s7+	c #73604B",
"t7+	c #7E6956",
"u7+	c #816E5A",
"v7+	c #786452",
"w7+	c #7D6A57",
"x7+	c #7B6855",
"y7+	c #927A59",
"z7+	c #776041",
"A7+	c #7E6546",
"B7+	c #39260E",
"C7+	c #615537",
"D7+	c #7C704F",
"E7+	c #412E17",
"F7+	c #776350",
"G7+	c #695644",
"H7+	c #614D3C",
"I7+	c #6B5745",
"J7+	c #7F6A57",
"K7+	c #624F3D",
"L7+	c #6F5C48",
"M7+	c #6C5A46",
"N7+	c #74614D",
"O7+	c #6D5B47",
"P7+	c #7C6A55",
"Q7+	c #7E6B56",
"R7+	c #84715D",
"S7+	c #7F6C59",
"T7+	c #3F301A",
"U7+	c #6A5D43",
"V7+	c #837558",
"W7+	c #5B4E33",
"X7+	c #766A4D",
"Y7+	c #7A6D50",
"Z7+	c #87795D",
"`7+	c #827458",
" 8+	c #43321A",
".8+	c #937B5A",
"+8+	c #8E7556",
"@8+	c #725B3E",
"#8+	c #71593D",
"$8+	c #70593C",
"%8+	c #70593D",
"&8+	c #866C4B",
"*8+	c #8B7250",
"=8+	c #402E15",
"-8+	c #6C6240",
";8+	c #817651",
">8+	c #827754",
",8+	c #442F16",
"'8+	c #7E6A57",
")8+	c #67503B",
"!8+	c #64503E",
"~8+	c #7E6B57",
"{8+	c #826D5A",
"]8+	c #85715E",
"^8+	c #725F4C",
"/8+	c #675443",
"(8+	c #695846",
"_8+	c #7A6754",
":8+	c #40321B",
"<8+	c #7E7155",
"[8+	c #7B6F52",
"}8+	c #817458",
"|8+	c #43311A",
"18+	c #917858",
"28+	c #866E50",
"38+	c #876F4F",
"48+	c #735C3F",
"58+	c #6F573B",
"68+	c #765E41",
"78+	c #664F34",
"88+	c #664F33",
"98+	c #817754",
"08+	c #756B47",
"a8+	c #7D724D",
"b8+	c #837855",
"c8+	c #453017",
"d8+	c #7F6B58",
"e8+	c #65513C",
"f8+	c #6C5845",
"g8+	c #7A6653",
"h8+	c #75624E",
"i8+	c #76634E",
"j8+	c #7B6954",
"k8+	c #796652",
"l8+	c #766350",
"m8+	c #776653",
"n8+	c #826F5B",
"o8+	c #42321B",
"p8+	c #7E7154",
"q8+	c #786C4F",
"r8+	c #7A6D4F",
"s8+	c #706448",
"t8+	c #7B6E52",
"u8+	c #827558",
"v8+	c #877A5D",
"w8+	c #8F7656",
"x8+	c #897050",
"y8+	c #70583C",
"z8+	c #614A30",
"A8+	c #362610",
"B8+	c #746A47",
"C8+	c #70613E",
"D8+	c #746543",
"E8+	c #685535",
"F8+	c #7D734F",
"G8+	c #402B13",
"H8+	c #76634F",
"I8+	c #83705C",
"J8+	c #705D4C",
"K8+	c #695645",
"L8+	c #7A6753",
"M8+	c #756451",
"N8+	c #897663",
"O8+	c #625539",
"P8+	c #7B6F51",
"Q8+	c #776B4E",
"R8+	c #84765A",
"S8+	c #412F1A",
"T8+	c #8B7354",
"U8+	c #8D7555",
"V8+	c #725B3C",
"W8+	c #644E33",
"X8+	c #60492E",
"Y8+	c #817653",
"Z8+	c #776C4B",
"`8+	c #685F3E",
" 9+	c #756C48",
".9+	c #6D5E3C",
"+9+	c #827855",
"@9+	c #776847",
"#9+	c #6D5A39",
"$9+	c #482D12",
"%9+	c #5C4632",
"&9+	c #67523E",
"*9+	c #644A31",
"=9+	c #776451",
"-9+	c #7D6A56",
";9+	c #7A6654",
">9+	c #715E4C",
",9+	c #5A4838",
"'9+	c #776450",
")9+	c #725F4B",
"!9+	c #7F6D59",
"~9+	c #7E6B58",
"{9+	c #7E6C58",
"]9+	c #7B6956",
"^9+	c #85725F",
"/9+	c #867360",
"(9+	c #7C7055",
"_9+	c #6B5E42",
":9+	c #7B6E50",
"<9+	c #807354",
"[9+	c #83765A",
"}9+	c #42301A",
"|9+	c #6A553A",
"19+	c #866F4F",
"29+	c #846C4C",
"39+	c #665035",
"49+	c #70583B",
"59+	c #675034",
"69+	c #675035",
"79+	c #7F6848",
"89+	c #614A2F",
"99+	c #382610",
"09+	c #7E7451",
"a9+	c #857B58",
"b9+	c #422E16",
"c9+	c #685644",
"d9+	c #675442",
"e9+	c #715D4B",
"f9+	c #745F4D",
"g9+	c #796752",
"h9+	c #7B6955",
"i9+	c #83705D",
"j9+	c #86725F",
"k9+	c #7C6A57",
"l9+	c #7A6956",
"m9+	c #83715E",
"n9+	c #816E5B",
"o9+	c #473620",
"p9+	c #82765B",
"q9+	c #817559",
"r9+	c #7D7054",
"s9+	c #807357",
"t9+	c #817558",
"u9+	c #84775A",
"v9+	c #3E2B18",
"w9+	c #8E7656",
"x9+	c #8C7454",
"y9+	c #6D563B",
"z9+	c #6C5538",
"A9+	c #614B31",
"B9+	c #796243",
"C9+	c #38250F",
"D9+	c #675D3E",
"E9+	c #695F40",
"F9+	c #736948",
"G9+	c #432E14",
"H9+	c #6C5A48",
"I9+	c #614C39",
"J9+	c #5F4C3B",
"K9+	c #806D5A",
"L9+	c #806C59",
"M9+	c #645140",
"N9+	c #72604C",
"O9+	c #7D6B57",
"P9+	c #73624F",
"Q9+	c #7A6855",
"R9+	c #7E6D5A",
"S9+	c #84715E",
"T9+	c #7B6856",
"U9+	c #45361E",
"V9+	c #61533B",
"W9+	c #827559",
"X9+	c #382616",
"Y9+	c #6C583C",
"Z9+	c #725B3D",
"`9+	c #6B543A",
" 0+	c #644D32",
".0+	c #3D2B13",
"+0+	c #786E4F",
"@0+	c #6E6443",
"#0+	c #5F5739",
"$0+	c #6B6342",
"%0+	c #79704C",
"&0+	c #746B49",
"*0+	c #7F7654",
"=0+	c #432E15",
"-0+	c #675444",
";0+	c #786551",
">0+	c #715E4B",
",0+	c #796553",
"'0+	c #7D6957",
")0+	c #5E4D3C",
"!0+	c #73614E",
"~0+	c #82705C",
"{0+	c #61513C",
"]0+	c #7E6C59",
"^0+	c #7E6B59",
"/0+	c #826F5C",
"(0+	c #483B20",
"_0+	c #867A5E",
":0+	c #83765B",
"<0+	c #7D7053",
"[0+	c #82755A",
"}0+	c #342213",
"|0+	c #756042",
"10+	c #836B4D",
"20+	c #856D4E",
"30+	c #6A5338",
"40+	c #796242",
"50+	c #725B3F",
"60+	c #695237",
"70+	c #6B5336",
"80+	c #665034",
"90+	c #3E2D14",
"00+	c #695F3E",
"a0+	c #564C30",
"b0+	c #65603F",
"c0+	c #6F6846",
"d0+	c #726A49",
"e0+	c #807652",
"f0+	c #7C7051",
"g0+	c #84705D",
"h0+	c #5B4838",
"i0+	c #7E6A58",
"j0+	c #715E4A",
"k0+	c #60503D",
"l0+	c #705F4C",
"m0+	c #706049",
"n0+	c #6B5B44",
"o0+	c #6E5E47",
"p0+	c #574630",
"q0+	c #4A3D22",
"r0+	c #86795D",
"s0+	c #372412",
"t0+	c #907858",
"u0+	c #8E7657",
"v0+	c #897151",
"w0+	c #6B5439",
"x0+	c #654F34",
"y0+	c #816A49",
"z0+	c #675136",
"A0+	c #8B7352",
"B0+	c #3C2A13",
"C0+	c #786D4D",
"D0+	c #6B6141",
"E0+	c #5C5537",
"F0+	c #565133",
"G0+	c #857B59",
"H0+	c #6D6043",
"I0+	c #7C6856",
"J0+	c #776351",
"K0+	c #7B6755",
"L0+	c #776452",
"M0+	c #5F4D3E",
"N0+	c #665443",
"O0+	c #614E3D",
"P0+	c #786652",
"Q0+	c #7B6A56",
"R0+	c #83705E",
"S0+	c #806D5B",
"T0+	c #816E5C",
"U0+	c #5D4C36",
"V0+	c #4D4026",
"W0+	c #62553A",
"X0+	c #65583D",
"Y0+	c #64563E",
"Z0+	c #382512",
"`0+	c #776146",
" a+	c #7D664A",
".a+	c #776043",
"+a+	c #745D41",
"@a+	c #6E583D",
"#a+	c #5E482F",
"$a+	c #82694A",
"%a+	c #836A4B",
"&a+	c #755E40",
"*a+	c #614B32",
"=a+	c #7D6646",
"-a+	c #907857",
";a+	c #3D2C13",
">a+	c #595436",
",a+	c #5B5738",
"'a+	c #656141",
")a+	c #625F40",
"!a+	c #7A714E",
"~a+	c #837956",
"{a+	c #807655",
"]a+	c #826E5C",
"^a+	c #725F4E",
"/a+	c #7C6A58",
"(a+	c #796755",
"_a+	c #61503F",
":a+	c #6A5947",
"<a+	c #6C5A47",
"[a+	c #816F5B",
"}a+	c #7D6E59",
"|a+	c #6D5C48",
"1a+	c #7C6B58",
"2a+	c #877562",
"3a+	c #84715F",
"4a+	c #877461",
"5a+	c #877462",
"6a+	c #64503F",
"7a+	c #524529",
"8a+	c #7F735A",
"9a+	c #887A5F",
"0a+	c #84775C",
"aa+	c #7E7256",
"ba+	c #84785C",
"ca+	c #675A40",
"da+	c #817459",
"ea+	c #3C2916",
"fa+	c #765F43",
"ga+	c #58432B",
"ha+	c #6B5539",
"ia+	c #7D6747",
"ja+	c #755D40",
"ka+	c #6D5638",
"la+	c #8F7757",
"ma+	c #8C7354",
"na+	c #3C2B13",
"oa+	c #7B7050",
"pa+	c #56482B",
"qa+	c #746A48",
"ra+	c #62593C",
"sa+	c #5B5135",
"ta+	c #605738",
"ua+	c #524F32",
"va+	c #655F3E",
"wa+	c #645C3C",
"xa+	c #6C6846",
"ya+	c #766E4C",
"za+	c #776E4B",
"Aa+	c #605236",
"Ba+	c #51351A",
"Ca+	c #806C5A",
"Da+	c #624D3B",
"Ea+	c #766452",
"Fa+	c #766451",
"Ga+	c #6F5E4C",
"Ha+	c #6D5C4A",
"Ia+	c #82705E",
"Ja+	c #887663",
"Ka+	c #514428",
"La+	c #8B7E62",
"Ma+	c #7B6F54",
"Na+	c #5A4E37",
"Oa+	c #392714",
"Pa+	c #55412A",
"Qa+	c #503D28",
"Ra+	c #523E27",
"Sa+	c #7B6444",
"Ta+	c #836D4C",
"Ua+	c #7F6949",
"Va+	c #564229",
"Wa+	c #392610",
"Xa+	c #847959",
"Ya+	c #847958",
"Za+	c #5D5335",
"`a+	c #6C6244",
" b+	c #635B3C",
".b+	c #766D4A",
"+b+	c #5F5538",
"@b+	c #544C30",
"#b+	c #585435",
"$b+	c #5B5537",
"%b+	c #726B49",
"&b+	c #56371B",
"*b+	c #513D2A",
"=b+	c #6B5948",
"-b+	c #6E5C4A",
";b+	c #644E3A",
">b+	c #6E5D4B",
",b+	c #6A5948",
"'b+	c #645241",
")b+	c #6D5B48",
"!b+	c #776754",
"~b+	c #83725F",
"{b+	c #83715F",
"]b+	c #867461",
"^b+	c #897765",
"/b+	c #857361",
"(b+	c #8D8065",
"_b+	c #534431",
":b+	c #3D2B18",
"<b+	c #7A6449",
"[b+	c #887152",
"}b+	c #897051",
"|b+	c #6E563B",
"1b+	c #856E4D",
"2b+	c #665036",
"3b+	c #6F5A3F",
"4b+	c #47351D",
"5b+	c #605536",
"6b+	c #756B4B",
"7b+	c #706846",
"8b+	c #6B6242",
"9b+	c #696240",
"0b+	c #5B5437",
"ab+	c #736C4A",
"bb+	c #78704E",
"cb+	c #7A7050",
"db+	c #543518",
"eb+	c #624E37",
"fb+	c #7D6B58",
"gb+	c #6F5C4B",
"hb+	c #6C5847",
"ib+	c #5D4C3C",
"jb+	c #645443",
"kb+	c #574B3B",
"lb+	c #776551",
"mb+	c #82705D",
"nb+	c #806F5D",
"ob+	c #897C62",
"pb+	c #594C36",
"qb+	c #574A34",
"rb+	c #3E2D17",
"sb+	c #90795A",
"tb+	c #8D7657",
"ub+	c #856E4E",
"vb+	c #7D6548",
"wb+	c #6E573C",
"xb+	c #6C553A",
"yb+	c #675036",
"zb+	c #5F4A2F",
"Ab+	c #3D2B14",
"Bb+	c #887E5E",
"Cb+	c #867C5B",
"Db+	c #61573A",
"Eb+	c #6C6442",
"Fb+	c #706845",
"Gb+	c #6F6947",
"Hb+	c #78704D",
"Ib+	c #8A8160",
"Jb+	c #4B341A",
"Kb+	c #655240",
"Lb+	c #7A6957",
"Mb+	c #7D6D5B",
"Nb+	c #716150",
"Ob+	c #3F2F1A",
"Pb+	c #82755B",
"Qb+	c #85785E",
"Rb+	c #786C51",
"Sb+	c #7E7258",
"Tb+	c #3D2C16",
"Ub+	c #8B7455",
"Vb+	c #846D4D",
"Wb+	c #836B4C",
"Xb+	c #6C5539",
"Yb+	c #766041",
"Zb+	c #806B49",
"`b+	c #8A7353",
" c+	c #8C7455",
".c+	c #5D492F",
"+c+	c #3B2913",
"@c+	c #807659",
"#c+	c #7D7353",
"$c+	c #746A4A",
"%c+	c #786F4E",
"&c+	c #7C7351",
"*c+	c #776E4D",
"=c+	c #8E8464",
"-c+	c #4A341B",
";c+	c #746151",
">c+	c #5D4F3E",
",c+	c #7D6C59",
"'c+	c #7F6E5C",
")c+	c #7E6D5B",
"!c+	c #82715F",
"~c+	c #3D2E19",
"{c+	c #7E7257",
"]c+	c #655C42",
"^c+	c #514731",
"/c+	c #535038",
"(c+	c #7C7157",
"_c+	c #877C61",
":c+	c #8B7F64",
"<c+	c #402F19",
"[c+	c #8D7557",
"}c+	c #6D573C",
"|c+	c #70593B",
"1c+	c #826C4D",
"2c+	c #7E674A",
"3c+	c #766045",
"4c+	c #6B563B",
"5c+	c #856E4F",
"6c+	c #644E35",
"7c+	c #7D6746",
"8c+	c #846E4C",
"9c+	c #836C4C",
"0c+	c #8C7556",
"ac+	c #8A7254",
"bc+	c #48341E",
"cc+	c #7F7656",
"dc+	c #786F4C",
"ec+	c #756745",
"fc+	c #7C7252",
"gc+	c #7F7657",
"hc+	c #877E5F",
"ic+	c #7F7457",
"jc+	c #412C15",
"kc+	c #806D5C",
"lc+	c #867361",
"mc+	c #746150",
"nc+	c #5C4939",
"oc+	c #584939",
"pc+	c #645342",
"qc+	c #4B3F24",
"rc+	c #7E7358",
"sc+	c #81755A",
"tc+	c #64563D",
"uc+	c #645B40",
"vc+	c #7B6F53",
"wc+	c #70674B",
"xc+	c #474530",
"yc+	c #5B5D43",
"zc+	c #6A664D",
"Ac+	c #8B7F65",
"Bc+	c #3F2E1A",
"Cc+	c #8E785B",
"Dc+	c #897356",
"Ec+	c #7B654A",
"Fc+	c #70593E",
"Gc+	c #806A4C",
"Hc+	c #856E50",
"Ic+	c #685239",
"Jc+	c #6E583C",
"Kc+	c #7E6847",
"Lc+	c #836D4B",
"Mc+	c #856F4E",
"Nc+	c #877051",
"Oc+	c #8E7759",
"Pc+	c #897255",
"Qc+	c #8D7659",
"Rc+	c #847A5D",
"Sc+	c #7B7153",
"Tc+	c #65593C",
"Uc+	c #766D4C",
"Vc+	c #7F7556",
"Wc+	c #847B5C",
"Xc+	c #82795B",
"Yc+	c #513419",
"Zc+	c #847260",
"`c+	c #816E5D",
" d+	c #6F5B49",
".d+	c #776553",
"+d+	c #4E4233",
"@d+	c #74624E",
"#d+	c #7D6C5A",
"$d+	c #493D23",
"%d+	c #83785E",
"&d+	c #504B34",
"*d+	c #58573E",
"=d+	c #80765C",
"-d+	c #887D62",
";d+	c #3D2B1A",
">d+	c #826E54",
",d+	c #857055",
"'d+	c #836C50",
")d+	c #816A4D",
"!d+	c #816C4F",
"~d+	c #87704F",
"{d+	c #897253",
"]d+	c #8A7356",
"^d+	c #8A7457",
"/d+	c #7E674D",
"(d+	c #5E4B35",
"_d+	c #2D2110",
":d+	c #4B412B",
"<d+	c #81775A",
"[d+	c #83795C",
"}d+	c #756B4C",
"|d+	c #7E7557",
"1d+	c #7E7552",
"2d+	c #67593A",
"3d+	c #857C5F",
"4d+	c #8D8467",
"5d+	c #52351A",
"6d+	c #8B7967",
"7d+	c #82705F",
"8d+	c #7A6756",
"9d+	c #5C432D",
"0d+	c #594533",
"ad+	c #867564",
"bd+	c #83765C",
"cd+	c #7C7054",
"dd+	c #4F432E",
"ed+	c #6F6346",
"fd+	c #63593F",
"gd+	c #463824",
"hd+	c #493725",
"id+	c #7E6B50",
"jd+	c #988265",
"kd+	c #907B5E",
"ld+	c #806B4D",
"md+	c #776247",
"nd+	c #776246",
"od+	c #796348",
"pd+	c #7E6848",
"qd+	c #907A5C",
"rd+	c #8C7659",
"sd+	c #826C51",
"td+	c #6A583F",
"ud+	c #55422B",
"vd+	c #342914",
"wd+	c #898164",
"xd+	c #8B8365",
"yd+	c #82795C",
"zd+	c #7F7658",
"Ad+	c #71694C",
"Bd+	c #766E50",
"Cd+	c #70684C",
"Dd+	c #7C7356",
"Ed+	c #867C5F",
"Fd+	c #8E8568",
"Gd+	c #57391D",
"Hd+	c #513D28",
"Id+	c #8F7D6C",
"Jd+	c #887665",
"Kd+	c #786656",
"Ld+	c #645141",
"Md+	c #7F6C5A",
"Nd+	c #665741",
"Od+	c #867463",
"Pd+	c #887765",
"Qd+	c #847261",
"Rd+	c #877A60",
"Sd+	c #7D7156",
"Td+	c #8B8066",
"Ud+	c #52422D",
"Vd+	c #4B3927",
"Wd+	c #63523C",
"Xd+	c #826D54",
"Yd+	c #735D3F",
"Zd+	c #7B6649",
"`d+	c #877255",
" e+	c #7C674C",
".e+	c #867054",
"+e+	c #806B4F",
"@e+	c #7F694E",
"#e+	c #6F5A41",
"$e+	c #765E42",
"%e+	c #846E53",
"&e+	c #826D52",
"*e+	c #927C5F",
"=e+	c #57432D",
"-e+	c #3C2E1A",
";e+	c #81785B",
">e+	c #7B7155",
",e+	c #5A4E35",
"'e+	c #72694B",
")e+	c #696247",
"!e+	c #756D50",
"~e+	c #72694C",
"{e+	c #7A7254",
"]e+	c #837A5C",
"^e+	c #877E61",
"/e+	c #938A6D",
"(e+	c #56391E",
"_e+	c #5B4329",
":e+	c #8D7C6A",
"<e+	c #8C7A69",
"[e+	c #5C432B",
"}e+	c #645243",
"|e+	c #503A25",
"1e+	c #8B7A69",
"2e+	c #877564",
"3e+	c #4B3A25",
"4e+	c #8A7E63",
"5e+	c #83765D",
"6e+	c #5D5039",
"7e+	c #594E38",
"8e+	c #564B34",
"9e+	c #4E422E",
"0e+	c #81755C",
"ae+	c #968A6F",
"be+	c #433120",
"ce+	c #4B3928",
"de+	c #4E3D2A",
"ee+	c #8B7559",
"fe+	c #907B5F",
"ge+	c #8B7659",
"he+	c #806B4E",
"ie+	c #867153",
"je+	c #816B4F",
"ke+	c #725E45",
"le+	c #7F6A4E",
"me+	c #816C50",
"ne+	c #7B664B",
"oe+	c #7F694D",
"pe+	c #735D42",
"qe+	c #7B6547",
"re+	c #887255",
"se+	c #8D775B",
"te+	c #968064",
"ue+	c #6E5A41",
"ve+	c #4B3925",
"we+	c #3B2C1A",
"xe+	c #41331E",
"ye+	c #80775C",
"ze+	c #8A8165",
"Ae+	c #81785C",
"Be+	c #746C4F",
"Ce+	c #787054",
"De+	c #787053",
"Ee+	c #797050",
"Fe+	c #797152",
"Ge+	c #7A7255",
"He+	c #857D60",
"Ie+	c #887F62",
"Je+	c #867D61",
"Ke+	c #533C23",
"Le+	c #5B3E23",
"Me+	c #5E462D",
"Ne+	c #7E6C5B",
"Oe+	c #7F6D5A",
"Pe+	c #584C3B",
"Qe+	c #837362",
"Re+	c #897766",
"Se+	c #8B7968",
"Te+	c #7B6857",
"Ue+	c #887B61",
"Ve+	c #52462E",
"We+	c #696146",
"Xe+	c #7C7259",
"Ye+	c #52402F",
"Ze+	c #4D3C2B",
"`e+	c #413122",
" f+	c #958064",
".f+	c #685137",
"+f+	c #806949",
"@f+	c #846E52",
"#f+	c #7E6A4E",
"$f+	c #7C684D",
"%f+	c #725C42",
"&f+	c #735D41",
"*f+	c #8F795D",
"=f+	c #8F7B5F",
"-f+	c #55442E",
";f+	c #483722",
">f+	c #493924",
",f+	c #4C3D27",
"'f+	c #847B5F",
")f+	c #7E755B",
"!f+	c #777055",
"~f+	c #80775B",
"{f+	c #776E52",
"]f+	c #7C7558",
"^f+	c #7D7458",
"/f+	c #7C7353",
"(f+	c #837A5E",
"_f+	c #583C22",
":f+	c #563B21",
"<f+	c #634528",
"[f+	c #827060",
"}f+	c #816F5E",
"|f+	c #64503C",
"1f+	c #786755",
"2f+	c #796855",
"3f+	c #806E5B",
"4f+	c #8A7968",
"5f+	c #907F6E",
"6f+	c #938170",
"7f+	c #917F6E",
"8f+	c #564A31",
"9f+	c #84775E",
"0f+	c #463A24",
"af+	c #83775D",
"bf+	c #8F8368",
"cf+	c #4E3D2D",
"df+	c #524130",
"ef+	c #493828",
"ff+	c #5E492D",
"gf+	c #776147",
"hf+	c #6E583E",
"if+	c #806A4B",
"jf+	c #7E694D",
"kf+	c #634F37",
"lf+	c #756046",
"mf+	c #836E53",
"nf+	c #7E6849",
"of+	c #57462F",
"pf+	c #4D3D28",
"qf+	c #4D412B",
"rf+	c #564E34",
"sf+	c #7F775C",
"tf+	c #5F553B",
"uf+	c #6D6446",
"vf+	c #766D4F",
"wf+	c #776F52",
"xf+	c #786F53",
"yf+	c #60533A",
"zf+	c #898063",
"Af+	c #4A3B22",
"Bf+	c #68492C",
"Cf+	c #694B2E",
"Df+	c #64462B",
"Ef+	c #67513C",
"Ff+	c #887666",
"Gf+	c #897866",
"Hf+	c #554737",
"If+	c #8A7967",
"Jf+	c #887766",
"Kf+	c #928170",
"Lf+	c #938271",
"Mf+	c #8A7C62",
"Nf+	c #7D7257",
"Of+	c #7E7359",
"Pf+	c #81785F",
"Qf+	c #53422C",
"Rf+	c #4D3C2C",
"Sf+	c #463625",
"Tf+	c #655136",
"Uf+	c #89745A",
"Vf+	c #7F6A51",
"Wf+	c #8A7459",
"Xf+	c #7E694E",
"Yf+	c #7F6B4F",
"Zf+	c #7F6B50",
"`f+	c #7B674C",
" g+	c #776449",
".g+	c #715C43",
"+g+	c #856F53",
"@g+	c #644F35",
"#g+	c #836E50",
"$g+	c #897457",
"%g+	c #937E61",
"&g+	c #493520",
"*g+	c #54432D",
"=g+	c #5D4C35",
"-g+	c #493B27",
";g+	c #322B15",
">g+	c #80785C",
",g+	c #5D5337",
"'g+	c #716848",
")g+	c #706748",
"!g+	c #5F5A3D",
"~g+	c #685638",
"{g+	c #80785B",
"]g+	c #82795D",
"^g+	c #8F8669",
"/g+	c #736B4F",
"(g+	c #3D3519",
"_g+	c #5D4329",
":g+	c #66492E",
"<g+	c #61462D",
"[g+	c #684B2F",
"}g+	c #64492F",
"|g+	c #857463",
"1g+	c #655242",
"2g+	c #5B4632",
"3g+	c #786653",
"4g+	c #584B3C",
"5g+	c #7F6F5C",
"6g+	c #877665",
"7g+	c #918170",
"8g+	c #92806F",
"9g+	c #5C4937",
"0g+	c #574932",
"ag+	c #897B61",
"bg+	c #7A6E54",
"cg+	c #6F674D",
"dg+	c #5D513B",
"eg+	c #80755B",
"fg+	c #867A5F",
"gg+	c #8D8166",
"hg+	c #86795E",
"ig+	c #503F2D",
"jg+	c #4C3B2C",
"kg+	c #4D3C2D",
"lg+	c #503F2E",
"mg+	c #443420",
"ng+	c #463116",
"og+	c #7D684F",
"pg+	c #79644A",
"qg+	c #7F6A4D",
"rg+	c #766248",
"sg+	c #786449",
"tg+	c #78644A",
"ug+	c #64513A",
"vg+	c #725D44",
"wg+	c #6D583E",
"xg+	c #846E51",
"yg+	c #907A5E",
"zg+	c #917B5F",
"Ag+	c #8E7A5D",
"Bg+	c #574329",
"Cg+	c #52402B",
"Dg+	c #564631",
"Eg+	c #5A4934",
"Fg+	c #5D4C37",
"Gg+	c #5E4D37",
"Hg+	c #574631",
"Ig+	c #4B402B",
"Jg+	c #3D361D",
"Kg+	c #7D765B",
"Lg+	c #81785E",
"Mg+	c #615A3C",
"Ng+	c #6E6748",
"Og+	c #746D4D",
"Pg+	c #6F6648",
"Qg+	c #736B50",
"Rg+	c #7B7357",
"Sg+	c #7E765A",
"Tg+	c #6A6043",
"Ug+	c #696041",
"Vg+	c #61583B",
"Wg+	c #60593B",
"Xg+	c #3C3923",
"Yg+	c #565237",
"Zg+	c #60583B",
"`g+	c #797150",
" h+	c #6C6346",
".h+	c #807959",
"+h+	c #7F7759",
"@h+	c #7F7659",
"#h+	c #877E62",
"$h+	c #51391F",
"%h+	c #604328",
"&h+	c #715337",
"*h+	c #715438",
"=h+	c #64482E",
"-h+	c #65482D",
";h+	c #584A3B",
">h+	c #8C7B6A",
",h+	c #988777",
"'h+	c #544630",
")h+	c #45381F",
"!h+	c #7C6E56",
"~h+	c #4E3F2B",
"{h+	c #807459",
"]h+	c #887C61",
"^h+	c #8E8166",
"/h+	c #544232",
"(h+	c #645341",
"_h+	c #4A371D",
":h+	c #49351B",
"<h+	c #7C684F",
"[h+	c #7E6950",
"}h+	c #745E45",
"|h+	c #554027",
"1h+	c #7B6647",
"2h+	c #746044",
"3h+	c #6F5B40",
"4h+	c #665239",
"5h+	c #68543B",
"6h+	c #776348",
"7h+	c #766147",
"8h+	c #725E44",
"9h+	c #7C674D",
"0h+	c #6D573F",
"ah+	c #6F5A42",
"bh+	c #68533A",
"ch+	c #8A7558",
"dh+	c #988266",
"eh+	c #6D593C",
"fh+	c #48341A",
"gh+	c #5A4933",
"hh+	c #5B4A35",
"ih+	c #64533D",
"jh+	c #604F3A",
"kh+	c #65543D",
"lh+	c #5C4A34",
"mh+	c #483D28",
"nh+	c #706747",
"oh+	c #706949",
"ph+	c #71694B",
"qh+	c #726A4D",
"rh+	c #7A7256",
"sh+	c #70674A",
"th+	c #696042",
"uh+	c #635A3E",
"vh+	c #625D3F",
"wh+	c #615D40",
"xh+	c #554E34",
"yh+	c #686645",
"zh+	c #7C7454",
"Ah+	c #807759",
"Bh+	c #7F775B",
"Ch+	c #5F4227",
"Dh+	c #6F5033",
"Eh+	c #684C32",
"Fh+	c #60462E",
"Gh+	c #644930",
"Hh+	c #64492E",
"Ih+	c #543C25",
"Jh+	c #847362",
"Kh+	c #766454",
"Lh+	c #544839",
"Mh+	c #907F6F",
"Nh+	c #4F3E2B",
"Oh+	c #403423",
"Ph+	c #3E3118",
"Qh+	c #84775D",
"Rh+	c #5C4F3A",
"Sh+	c #85795E",
"Th+	c #8A7E64",
"Uh+	c #8E8267",
"Vh+	c #8E8167",
"Wh+	c #4D3D2C",
"Xh+	c #4C3D2F",
"Yh+	c #483A2B",
"Zh+	c #40301F",
"`h+	c #433017",
" i+	c #523D23",
".i+	c #685238",
"+i+	c #816C4C",
"@i+	c #836D4E",
"#i+	c #6B573D",
"$i+	c #746045",
"%i+	c #7D684D",
"&i+	c #79654A",
"*i+	c #69553D",
"=i+	c #6A5439",
"-i+	c #4F3C24",
";i+	c #836C4B",
">i+	c #8A7456",
",i+	c #897456",
"'i+	c #907C5F",
")i+	c #917C5F",
"!i+	c #917D62",
"~i+	c #5E4D39",
"{i+	c #61503B",
"]i+	c #584834",
"^i+	c #5E4C35",
"/i+	c #38311A",
"(i+	c #776E4F",
"_i+	c #736B4A",
":i+	c #776E50",
"<i+	c #736B4E",
"[i+	c #7C7457",
"}i+	c #7B7256",
"|i+	c #605338",
"1i+	c #726B4D",
"2i+	c #6C6446",
"3i+	c #635B3F",
"4i+	c #5E583C",
"5i+	c #464029",
"6i+	c #5B563B",
"7i+	c #5C583E",
"8i+	c #777052",
"9i+	c #847C60",
"0i+	c #5E4F35",
"ai+	c #5B4830",
"bi+	c #62452C",
"ci+	c #6E5034",
"di+	c #61472E",
"ei+	c #654B31",
"fi+	c #60472E",
"gi+	c #695034",
"hi+	c #694F32",
"ii+	c #4C3A27",
"ji+	c #8F7E6C",
"ki+	c #837161",
"li+	c #664C33",
"mi+	c #7A6B5A",
"ni+	c #6D5E49",
"oi+	c #8E7D6C",
"pi+	c #928271",
"qi+	c #8F7F6E",
"ri+	c #6F634A",
"si+	c #4E422C",
"ti+	c #40331B",
"ui+	c #84765C",
"vi+	c #7A6F55",
"wi+	c #80745A",
"xi+	c #83775C",
"yi+	c #897D63",
"zi+	c #8A7D63",
"Ai+	c #8C8066",
"Bi+	c #3E321B",
"Ci+	c #433221",
"Di+	c #3C2A14",
"Ei+	c #5A462C",
"Fi+	c #7E684F",
"Gi+	c #7F694F",
"Hi+	c #6C563D",
"Ii+	c #6A543A",
"Ji+	c #7C6749",
"Ki+	c #796549",
"Li+	c #79664A",
"Mi+	c #7A664B",
"Ni+	c #816D52",
"Oi+	c #4C3A25",
"Pi+	c #655038",
"Qi+	c #59442B",
"Ri+	c #856F50",
"Si+	c #8D7759",
"Ti+	c #867155",
"Ui+	c #877358",
"Vi+	c #968265",
"Wi+	c #938063",
"Xi+	c #503D21",
"Yi+	c #3E2C18",
"Zi+	c #5C4B37",
"`i+	c #64533E",
" j+	c #685741",
".j+	c #6E5D46",
"+j+	c #6C5A44",
"@j+	c #62513B",
"#j+	c #413F26",
"$j+	c #736A4B",
"%j+	c #776F4E",
"&j+	c #726A4C",
"*j+	c #6C6447",
"=j+	c #5C563B",
"-j+	c #646043",
";j+	c #615A3F",
">j+	c #47462E",
",j+	c #546141",
"'j+	c #585238",
")j+	c #867D60",
"!j+	c #8E866A",
"~j+	c #3A3216",
"{j+	c #58442A",
"]j+	c #5D4229",
"^j+	c #694C31",
"/j+	c #6A4E33",
"(j+	c #634A31",
"_j+	c #755B3E",
":j+	c #6D5236",
"<j+	c #664A2F",
"[j+	c #4D3B2A",
"}j+	c #796757",
"|j+	c #80705F",
"1j+	c #6E5C4C",
"2j+	c #8A7969",
"3j+	c #51452C",
"4j+	c #4C4028",
"5j+	c #564A33",
"6j+	c #786C50",
"7j+	c #84795F",
"8j+	c #867A60",
"9j+	c #52462B",
"0j+	c #43351B",
"aj+	c #4B3B2B",
"bj+	c #59493A",
"cj+	c #504031",
"dj+	c #4F402F",
"ej+	c #443119",
"fj+	c #665136",
"gj+	c #8A755B",
"hj+	c #7C674E",
"ij+	c #69553E",
"jj+	c #7D674B",
"kj+	c #816B4D",
"lj+	c #7C684C",
"mj+	c #4F3C26",
"nj+	c #806C50",
"oj+	c #806C51",
"pj+	c #806B51",
"qj+	c #877257",
"rj+	c #816D53",
"sj+	c #67533B",
"tj+	c #776144",
"uj+	c #89765B",
"vj+	c #8B785C",
"wj+	c #544328",
"xj+	c #412F15",
"yj+	c #564531",
"zj+	c #564633",
"Aj+	c #65543F",
"Bj+	c #695843",
"Cj+	c #675641",
"Dj+	c #64523C",
"Ej+	c #423F2B",
"Fj+	c #716F55",
"Gj+	c #7C7358",
"Hj+	c #706A4B",
"Ij+	c #696144",
"Jj+	c #736A4A",
"Kj+	c #706749",
"Lj+	c #787052",
"Mj+	c #766E51",
"Nj+	c #82795E",
"Oj+	c #6A6147",
"Pj+	c #604E32",
"Qj+	c #716A4F",
"Rj+	c #635C42",
"Sj+	c #585237",
"Tj+	c #585439",
"Uj+	c #5B5C41",
"Vj+	c #4B5036",
"Wj+	c #454B32",
"Xj+	c #5F583B",
"Yj+	c #6F694B",
"Zj+	c #43371E",
"`j+	c #47341D",
" k+	c #5E4229",
".k+	c #6C4F32",
"+k+	c #735539",
"@k+	c #6E5236",
"#k+	c #6A5136",
"$k+	c #71583C",
"%k+	c #70563B",
"&k+	c #65492E",
"*k+	c #463524",
"=k+	c #7B6959",
"-k+	c #6B594A",
";k+	c #77634E",
">k+	c #7B6C5B",
",k+	c #786855",
"'k+	c #877766",
")k+	c #5D4C3B",
"!k+	c #5D5139",
"~k+	c #3B2F19",
"{k+	c #3F331F",
"]k+	c #897B62",
"^k+	c #7C7057",
"/k+	c #897C63",
"(k+	c #91856A",
"_k+	c #40331A",
":k+	c #564738",
"<k+	c #463724",
"[k+	c #3F2B12",
"}k+	c #57432C",
"|k+	c #816C52",
"1k+	c #836D52",
"2k+	c #786248",
"3k+	c #846F51",
"4k+	c #7B674D",
"5k+	c #7B674E",
"6k+	c #7B664D",
"7k+	c #756148",
"8k+	c #6B563E",
"9k+	c #6F5A40",
"0k+	c #6A553B",
"ak+	c #8D785B",
"bk+	c #957F62",
"ck+	c #604D30",
"dk+	c #483419",
"ek+	c #4D3D2A",
"fk+	c #5A4B36",
"gk+	c #61503D",
"hk+	c #73614B",
"ik+	c #5E4E3A",
"jk+	c #5F4F3A",
"kk+	c #604E39",
"lk+	c #53422E",
"mk+	c #363720",
"nk+	c #3F3B24",
"ok+	c #7C7354",
"pk+	c #6E6749",
"qk+	c #564F36",
"rk+	c #746E4E",
"sk+	c #7D755A",
"tk+	c #6B6348",
"uk+	c #655D42",
"vk+	c #6B6445",
"wk+	c #6A6546",
"xk+	c #505034",
"yk+	c #5E5E41",
"zk+	c #686244",
"Ak+	c #767051",
"Bk+	c #7C7459",
"Ck+	c #4E3F27",
"Dk+	c #5C3F25",
"Ek+	c #63462B",
"Fk+	c #694D31",
"Gk+	c #6E5237",
"Hk+	c #71573A",
"Ik+	c #785E42",
"Jk+	c #6D5338",
"Kk+	c #694F35",
"Lk+	c #6D5034",
"Mk+	c #5F4D3C",
"Nk+	c #816F5F",
"Ok+	c #66523C",
"Pk+	c #665642",
"Qk+	c #817160",
"Rk+	c #8A7A69",
"Sk+	c #897867",
"Tk+	c #655443",
"Uk+	c #574B35",
"Vk+	c #3B2E17",
"Wk+	c #7D7358",
"Xk+	c #8F846A",
"Yk+	c #94886E",
"Zk+	c #453323",
"`k+	c #5C4E3F",
" l+	c #504133",
".l+	c #4D3D2F",
"+l+	c #483620",
"@l+	c #5C472D",
"#l+	c #816C53",
"$l+	c #836E54",
"%l+	c #635038",
"&l+	c #826D51",
"*l+	c #7C694E",
"=l+	c #736046",
"-l+	c #7B684D",
";l+	c #7E6A51",
">l+	c #806C52",
",l+	c #725F46",
"'l+	c #7E6A50",
")l+	c #6D5941",
"!l+	c #6C583F",
"~l+	c #715C42",
"{l+	c #715B3E",
"]l+	c #55432D",
"^l+	c #927E62",
"/l+	c #483318",
"(l+	c #443321",
"_l+	c #473927",
":l+	c #5F503C",
"<l+	c #73624C",
"[l+	c #71604A",
"}l+	c #6D5C46",
"|l+	c #665540",
"1l+	c #54442F",
"2l+	c #2A2412",
"3l+	c #7D7558",
"4l+	c #80795A",
"5l+	c #6B6547",
"6l+	c #6C6648",
"7l+	c #5D573C",
"8l+	c #736B4D",
"9l+	c #776F51",
"0l+	c #5D5137",
"al+	c #7E755A",
"bl+	c #686547",
"cl+	c #5B5E42",
"dl+	c #6A6649",
"el+	c #605A3E",
"fl+	c #7B7657",
"gl+	c #736C51",
"hl+	c #7D765A",
"il+	c #5C4025",
"jl+	c #63452A",
"kl+	c #6A4C30",
"ll+	c #745639",
"ml+	c #75573B",
"nl+	c #795E42",
"ol+	c #6C5339",
"pl+	c #71593E",
"ql+	c #7D6144",
"rl+	c #6C5136",
"sl+	c #5B4B3B",
"tl+	c #8D7B6B",
"ul+	c #7C6958",
"vl+	c #624F3A",
"wl+	c #857564",
"xl+	c #5B4E36",
"yl+	c #403322",
"zl+	c #766A51",
"Al+	c #81775D",
"Bl+	c #877B61",
"Cl+	c #8A7F64",
"Dl+	c #8D8268",
"El+	c #46381F",
"Fl+	c #524030",
"Gl+	c #604E3B",
"Hl+	c #52402D",
"Il+	c #453219",
"Jl+	c #5F4C36",
"Kl+	c #947D5E",
"Ll+	c #7F684C",
"Ml+	c #6D5A41",
"Nl+	c #7A664D",
"Ol+	c #7B684E",
"Pl+	c #7D6A50",
"Ql+	c #79654C",
"Rl+	c #6D5A42",
"Sl+	c #67543B",
"Tl+	c #76624A",
"Ul+	c #68543D",
"Vl+	c #655037",
"Wl+	c #54422B",
"Xl+	c #432F17",
"Yl+	c #594935",
"Zl+	c #5E4F3A",
"`l+	c #695943",
" m+	c #73624D",
".m+	c #544532",
"+m+	c #544430",
"@m+	c #32311D",
"#m+	c #44402C",
"$m+	c #58543D",
"%m+	c #635D43",
"&m+	c #646648",
"*m+	c #6B684A",
"=m+	c #6B6447",
"-m+	c #51442B",
";m+	c #787055",
">m+	c #645D41",
",m+	c #635B40",
"'m+	c #655F44",
")m+	c #797458",
"!m+	c #797257",
"~m+	c #5B5439",
"{m+	c #342B14",
"]m+	c #573C24",
"^m+	c #6B4E32",
"/m+	c #75583C",
"(m+	c #775E42",
"_m+	c #685037",
":m+	c #725539",
"<m+	c #5F462E",
"[m+	c #5A493A",
"}m+	c #5E4933",
"|m+	c #594C3C",
"1m+	c #544533",
"2m+	c #847361",
"3m+	c #8D7C6B",
"4m+	c #574B34",
"5m+	c #352915",
"6m+	c #86795F",
"7m+	c #7A6E55",
"8m+	c #7D7158",
"9m+	c #82785E",
"0m+	c #8B8065",
"am+	c #90846A",
"bm+	c #8F8369",
"cm+	c #45371D",
"dm+	c #5B4937",
"em+	c #574535",
"fm+	c #48351F",
"gm+	c #432F16",
"hm+	c #5C472E",
"im+	c #54412D",
"jm+	c #503E2B",
"km+	c #5C4832",
"lm+	c #7A654B",
"mm+	c #65523A",
"nm+	c #857156",
"om+	c #7E6A4F",
"pm+	c #746046",
"qm+	c #78654B",
"rm+	c #7C694F",
"sm+	c #76634A",
"tm+	c #78644B",
"um+	c #77634A",
"vm+	c #67543D",
"wm+	c #715E46",
"xm+	c #6F5A43",
"ym+	c #66523A",
"zm+	c #735E44",
"Am+	c #947E60",
"Bm+	c #897559",
"Cm+	c #5E4B2F",
"Dm+	c #49361C",
"Em+	c #5F4E39",
"Fm+	c #6C5E4A",
"Gm+	c #645442",
"Hm+	c #5C4B36",
"Im+	c #433D29",
"Jm+	c #50583D",
"Km+	c #5A6247",
"Lm+	c #4D4D37",
"Mm+	c #4E5238",
"Nm+	c #4A5338",
"Om+	c #70684E",
"Pm+	c #726D51",
"Qm+	c #554E36",
"Rm+	c #706C4D",
"Sm+	c #797656",
"Tm+	c #555038",
"Um+	c #6C694C",
"Vm+	c #38331B",
"Wm+	c #5D4125",
"Xm+	c #694A2D",
"Ym+	c #6B4D30",
"Zm+	c #77593C",
"`m+	c #7C5E41",
" n+	c #745A3F",
".n+	c #71553B",
"+n+	c #6D5136",
"@n+	c #644A30",
"#n+	c #644B32",
"$n+	c #7B6654",
"%n+	c #867462",
"&n+	c #81705E",
"*n+	c #7C6D5D",
"=n+	c #564834",
"-n+	c #584D36",
";n+	c #493C28",
">n+	c #7F7359",
",n+	c #8E8369",
"'n+	c #8D8168",
")n+	c #493823",
"!n+	c #574534",
"~n+	c #5F4D3D",
"{n+	c #483725",
"]n+	c #392711",
"^n+	c #32210D",
"/n+	c #483521",
"(n+	c #473624",
"_n+	c #937D5F",
":n+	c #927C5E",
"<n+	c #887357",
"[n+	c #8C775A",
"}n+	c #7F6C51",
"|n+	c #77644B",
"1n+	c #7F6C52",
"2n+	c #816E54",
"3n+	c #625037",
"4n+	c #857056",
"5n+	c #7E684D",
"6n+	c #937D60",
"7n+	c #5F4A2D",
"8n+	c #47331D",
"9n+	c #574735",
"0n+	c #62523E",
"an+	c #5B4E3A",
"bn+	c #665641",
"cn+	c #62523D",
"dn+	c #66553F",
"en+	c #61503A",
"fn+	c #496346",
"gn+	c #4B744F",
"hn+	c #466E49",
"in+	c #486E4D",
"jn+	c #505136",
"kn+	c #534D34",
"ln+	c #7B7658",
"mn+	c #666145",
"nn+	c #605A41",
"on+	c #6B664B",
"pn+	c #6F684F",
"qn+	c #756E53",
"rn+	c #81795E",
"sn+	c #7B7359",
"tn+	c #797157",
"un+	c #7A7358",
"vn+	c #666045",
"wn+	c #757051",
"xn+	c #68674B",
"yn+	c #586146",
"zn+	c #5E4226",
"An+	c #6A4B2E",
"Bn+	c #705235",
"Cn+	c #75563A",
"Dn+	c #795B3F",
"En+	c #795B40",
"Fn+	c #6B523A",
"Gn+	c #7F664A",
"Hn+	c #705339",
"In+	c #684E34",
"Jn+	c #76593C",
"Kn+	c #664D33",
"Ln+	c #544130",
"Mn+	c #7E6C5C",
"Nn+	c #857262",
"On+	c #837260",
"Pn+	c #857563",
"Qn+	c #7D6E5E",
"Rn+	c #827363",
"Sn+	c #867565",
"Tn+	c #564A36",
"Un+	c #8E7C6B",
"Vn+	c #4C3D2B",
"Wn+	c #4D442E",
"Xn+	c #594F3A",
"Yn+	c #7B7058",
"Zn+	c #443825",
"`n+	c #52452E",
" o+	c #7F745A",
".o+	c #80745B",
"+o+	c #82775E",
"@o+	c #5A503B",
"#o+	c #7E775D",
"$o+	c #827B61",
"%o+	c #554A31",
"&o+	c #4A3924",
"*o+	c #534637",
"=o+	c #604F40",
"-o+	c #4A3928",
";o+	c #3A2813",
">o+	c #4C3928",
",o+	c #4D3B2B",
"'o+	c #927D61",
")o+	c #8C775C",
"!o+	c #523F2A",
"~o+	c #836F54",
"{o+	c #857257",
"]o+	c #836F55",
"^o+	c #7F6C53",
"/o+	c #867359",
"(o+	c #837056",
"_o+	c #7B674F",
":o+	c #79664D",
"<o+	c #857157",
"[o+	c #7C6850",
"}o+	c #66533B",
"|o+	c #6C5842",
"1o+	c #76634B",
"2o+	c #725E46",
"3o+	c #735E46",
"4o+	c #917B5E",
"5o+	c #4A3620",
"6o+	c #615039",
"7o+	c #675640",
"8o+	c #5B4F3C",
"9o+	c #4A412F",
"0o+	c #574C3A",
"ao+	c #786752",
"bo+	c #796953",
"co+	c #6F5E48",
"do+	c #705F49",
"eo+	c #675642",
"fo+	c #154119",
"go+	c #0F4418",
"ho+	c #3B603C",
"io+	c #4D6C4A",
"jo+	c #5D6248",
"ko+	c #67694E",
"lo+	c #646045",
"mo+	c #777255",
"no+	c #787257",
"oo+	c #7F785D",
"po+	c #80785D",
"qo+	c #7C745A",
"ro+	c #7D755B",
"so+	c #7E765C",
"to+	c #7E765B",
"uo+	c #6B664D",
"vo+	c #6A6349",
"wo+	c #797256",
"xo+	c #6A6348",
"yo+	c #6B684C",
"zo+	c #6A684B",
"Ao+	c #626247",
"Bo+	c #41311B",
"Co+	c #543920",
"Do+	c #5D4127",
"Eo+	c #694C30",
"Fo+	c #6D5035",
"Go+	c #7A5C41",
"Ho+	c #886A4E",
"Io+	c #886B4E",
"Jo+	c #694E34",
"Ko+	c #654C33",
"Lo+	c #877664",
"Mo+	c #857462",
"No+	c #847363",
"Oo+	c #746351",
"Po+	c #887868",
"Qo+	c #4B3E2C",
"Ro+	c #4B3F2C",
"So+	c #64523E",
"To+	c #524834",
"Uo+	c #574A33",
"Vo+	c #83785F",
"Wo+	c #83775F",
"Xo+	c #7E725A",
"Yo+	c #84785F",
"Zo+	c #847860",
"`o+	c #65624A",
" p+	c #594D39",
".p+	c #50412E",
"+p+	c #504730",
"@p+	c #584736",
"#p+	c #604F3F",
"$p+	c #5D4D3F",
"%p+	c #56493A",
"&p+	c #4D3D2D",
"*p+	c #543F23",
"=p+	c #8D785C",
"-p+	c #907C61",
";p+	c #947F64",
">p+	c #8A765B",
",p+	c #584631",
"'p+	c #88745A",
")p+	c #816F56",
"!p+	c #857158",
"~p+	c #86745A",
"{p+	c #826E56",
"]p+	c #87745B",
"^p+	c #816E55",
"/p+	c #847057",
"(p+	c #836F56",
"_p+	c #7A664E",
":p+	c #7A654D",
"<p+	c #826D53",
"[p+	c #957F63",
"}p+	c #65543E",
"|p+	c #5E4F3C",
"1p+	c #433C2A",
"2p+	c #7A6955",
"3p+	c #72614B",
"4p+	c #2E3D20",
"5p+	c #273F1D",
"6p+	c #3E5337",
"7p+	c #49543A",
"8p+	c #585A42",
"9p+	c #635F46",
"0p+	c #5A563E",
"ap+	c #5B5741",
"bp+	c #666249",
"cp+	c #787258",
"dp+	c #81795F",
"ep+	c #857E64",
"fp+	c #80785E",
"gp+	c #847D60",
"hp+	c #6E694D",
"ip+	c #4F422B",
"jp+	c #53391F",
"kp+	c #5A3C20",
"lp+	c #654629",
"mp+	c #66492F",
"np+	c #71553A",
"op+	c #785C3F",
"pp+	c #674D32",
"qp+	c #523C28",
"rp+	c #8F7E6D",
"sp+	c #827161",
"tp+	c #867665",
"up+	c #624A33",
"vp+	c #837363",
"wp+	c #827362",
"xp+	c #665342",
"yp+	c #514733",
"zp+	c #524835",
"Ap+	c #463A26",
"Bp+	c #81755B",
"Cp+	c #81765C",
"Dp+	c #877C63",
"Ep+	c #877B62",
"Fp+	c #82765E",
"Gp+	c #81765E",
"Hp+	c #867A62",
"Ip+	c #625A44",
"Jp+	c #68644C",
"Kp+	c #64614B",
"Lp+	c #746D54",
"Mp+	c #483C2A",
"Np+	c #372C17",
"Op+	c #453621",
"Pp+	c #554432",
"Qp+	c #6D5D4C",
"Rp+	c #695948",
"Sp+	c #594838",
"Tp+	c #4C3B27",
"Up+	c #422E13",
"Vp+	c #463115",
"Wp+	c #5C472A",
"Xp+	c #766246",
"Yp+	c #816D54",
"Zp+	c #937F64",
"`p+	c #978368",
" q+	c #8F7C62",
".q+	c #7B6850",
"+q+	c #826E55",
"@q+	c #87755C",
"#q+	c #8A775E",
"$q+	c #89765D",
"%q+	c #8A785F",
"&q+	c #8C7A60",
"*q+	c #8C7860",
"=q+	c #847159",
"-q+	c #836F57",
";q+	c #826F57",
">q+	c #7E6951",
",q+	c #877259",
"'q+	c #8D785D",
")q+	c #705C42",
"!q+	c #5A4833",
"~q+	c #55553D",
"{q+	c #4E4935",
"]q+	c #605240",
"^q+	c #5B4A36",
"/q+	c #3E462E",
"(q+	c #4B5F43",
"_q+	c #627859",
":q+	c #4B5139",
"<q+	c #4D674B",
"[q+	c #556048",
"}q+	c #545942",
"|q+	c #6A664E",
"1q+	c #7D755C",
"2q+	c #847D62",
"3q+	c #857D63",
"4q+	c #847C62",
"5q+	c #867E64",
"6q+	c #827960",
"7q+	c #80785F",
"8q+	c #877F66",
"9q+	c #827A60",
"0q+	c #573E24",
"aq+	c #614328",
"bq+	c #65472A",
"cq+	c #6D4F32",
"dq+	c #6E5033",
"eq+	c #74563A",
"fq+	c #7B5D41",
"gq+	c #86684C",
"hq+	c #6C5036",
"iq+	c #6E5136",
"jq+	c #664C32",
"kq+	c #907E6D",
"lq+	c #948371",
"mq+	c #8B7B6A",
"nq+	c #897A6A",
"oq+	c #887767",
"pq+	c #7B6A57",
"qq+	c #867666",
"rq+	c #8D7E6E",
"sq+	c #8C7D6D",
"tq+	c #8A7C6B",
"uq+	c #857565",
"vq+	c #665742",
"wq+	c #7C7158",
"xq+	c #847A60",
"yq+	c #897E64",
"zq+	c #877D63",
"Aq+	c #867B63",
"Bq+	c #8A7F66",
"Cq+	c #8D8269",
"Dq+	c #897E65",
"Eq+	c #857961",
"Fq+	c #6B654F",
"Gq+	c #6E6D56",
"Hq+	c #626048",
"Iq+	c #4C4A33",
"Jq+	c #322E1A",
"Kq+	c #3B3820",
"Lq+	c #4A3C2C",
"Mq+	c #5A4B3B",
"Nq+	c #3B2917",
"Oq+	c #3E2C16",
"Pq+	c #422E15",
"Qq+	c #503D23",
"Rq+	c #5E4A2F",
"Sq+	c #675339",
"Tq+	c #6A573F",
"Uq+	c #8C7A61",
"Vq+	c #928067",
"Wq+	c #8F7C63",
"Xq+	c #8D7B62",
"Yq+	c #8B7860",
"Zq+	c #86735C",
"`q+	c #938066",
" r+	c #8E7B62",
".r+	c #5D4B37",
"+r+	c #8A775D",
"@r+	c #867258",
"#r+	c #756149",
"$r+	c #5F4B34",
"%r+	c #59462D",
"&r+	c #4D3C28",
"*r+	c #6C5B44",
"=r+	c #4F4231",
"-r+	c #443B29",
";r+	c #4E4D37",
">r+	c #4C4C34",
",r+	c #736551",
"'r+	c #7D6C57",
")r+	c #4D402B",
"!r+	c #393521",
"~r+	c #415D3E",
"{r+	c #355B38",
"]r+	c #4B6044",
"^r+	c #607257",
"/r+	c #6A6850",
"(r+	c #877F65",
"_r+	c #8C846A",
":r+	c #887F65",
"<r+	c #888167",
"[r+	c #8E866C",
"}r+	c #888066",
"|r+	c #8F876E",
"1r+	c #898068",
"2r+	c #7F775F",
"3r+	c #5F462B",
"4r+	c #524229",
"5r+	c #573E25",
"6r+	c #5A3D23",
"7r+	c #614429",
"8r+	c #6A4C31",
"9r+	c #735538",
"0r+	c #76583B",
"ar+	c #816348",
"br+	c #896B50",
"cr+	c #8C6F52",
"dr+	c #755A40",
"er+	c #785C40",
"fr+	c #775B3E",
"gr+	c #4F3E26",
"hr+	c #978675",
"ir+	c #948473",
"jr+	c #938373",
"kr+	c #948474",
"lr+	c #8A7A6B",
"mr+	c #918272",
"nr+	c #8E7F6F",
"or+	c #847465",
"pr+	c #594836",
"qr+	c #5E5843",
"rr+	c #4B4533",
"sr+	c #554A38",
"tr+	c #635740",
"ur+	c #867C63",
"vr+	c #8A7F67",
"wr+	c #8D8169",
"xr+	c #8B7F67",
"yr+	c #877C64",
"zr+	c #837860",
"Ar+	c #7E735B",
"Br+	c #4F4A35",
"Cr+	c #423C2A",
"Dr+	c #4D523C",
"Er+	c #45442D",
"Fr+	c #312A17",
"Gr+	c #38311F",
"Hr+	c #382D1D",
"Ir+	c #473B2C",
"Jr+	c #655446",
"Kr+	c #42311E",
"Lr+	c #3D2B15",
"Mr+	c #402D14",
"Nr+	c #412E15",
"Or+	c #422F17",
"Pr+	c #483724",
"Qr+	c #48361E",
"Rr+	c #4E3B23",
"Sr+	c #4E3C24",
"Tr+	c #5F4C33",
"Ur+	c #604D34",
"Vr+	c #5F4C34",
"Wr+	c #4F3D28",
"Xr+	c #4E3C25",
"Yr+	c #43321D",
"Zr+	c #3F2E18",
"`r+	c #433018",
" s+	c #402D15",
".s+	c #473420",
"+s+	c #52412D",
"@s+	c #594834",
"#s+	c #665640",
"$s+	c #695A46",
"%s+	c #5F6447",
"&s+	c #55593C",
"*s+	c #53523C",
"=s+	c #5A533F",
"-s+	c #584A39",
";s+	c #5B4B39",
">s+	c #685642",
",s+	c #53442F",
"'s+	c #42462C",
")s+	c #313922",
"!s+	c #52523C",
"~s+	c #444229",
"{s+	c #3A341E",
"]s+	c #4B442A",
"^s+	c #50492F",
"/s+	c #595137",
"(s+	c #4B432D",
"_s+	c #4F4830",
":s+	c #423A25",
"<s+	c #433C27",
"[s+	c #4A371C",
"}s+	c #2E2713",
"|s+	c #342C14",
"1s+	c #3A2F19",
"2s+	c #47351E",
"3s+	c #5D4227",
"4s+	c #67492D",
"5s+	c #64472D",
"6s+	c #6B4D31",
"7s+	c #6F5134",
"8s+	c #7B5C40",
"9s+	c #7C5F42",
"0s+	c #6A5037",
"as+	c #634A32",
"bs+	c #6A5036",
"cs+	c #6D5339",
"ds+	c #5B452C",
"es+	c #5C492D",
"fs+	c #513F26",
"gs+	c #503F2C",
"hs+	c #897868",
"is+	c #918171",
"js+	c #8F8070",
"ks+	c #877768",
"ls+	c #504132",
"ms+	c #504430",
"ns+	c #47382A",
"os+	c #413224",
"ps+	c #463828",
"qs+	c #3D2F21",
"rs+	c #453627",
"ss+	c #554E3B",
"ts+	c #574D3A",
"us+	c #4F442E",
"vs+	c #4A3E29",
"ws+	c #443824",
"xs+	c #493C26",
"ys+	c #453A22",
"zs+	c #483D25",
"As+	c #4A3F27",
"Bs+	c #473C23",
"Cs+	c #483C23",
"Ds+	c #453A21",
"Es+	c #3E331C",
"Fs+	c #3E331B",
"Gs+	c #372E18",
"Hs+	c #2E2814",
"Is+	c #241E0E",
"Js+	c #292916",
"Ks+	c #363922",
"Ls+	c #3D4128",
"Ms+	c #32281A",
"Ns+	c #302C1D",
"Os+	c #3D3727",
"Ps+	c #3C3325",
"Qs+	c #4C3F30",
"Rs+	c #4D4032",
"Ss+	c #5B4A3B",
"Ts+	c #554535",
"Us+	c #514030",
"Vs+	c #402E1A",
"Ws+	c #443118",
"Xs+	c #433118",
"Ys+	c #473625",
"Zs+	c #46341D",
"`s+	c #433119",
" t+	c #44311A",
".t+	c #423018",
"+t+	c #3F2C16",
"@t+	c #3C2C1B",
"#t+	c #3F2F1F",
"$t+	c #534531",
"%t+	c #63523E",
"&t+	c #594B39",
"*t+	c #4F5137",
"=t+	c #5D6345",
"-t+	c #68704E",
";t+	c #5A5541",
">t+	c #7E6F5A",
",t+	c #74634D",
"'t+	c #584733",
")t+	c #55442F",
"!t+	c #463723",
"~t+	c #3C321D",
"{t+	c #362D18",
"]t+	c #3F371D",
"^t+	c #3D351B",
"/t+	c #3D351C",
"(t+	c #383019",
"_t+	c #373019",
":t+	c #41361D",
"<t+	c #533F24",
"[t+	c #563B22",
"}t+	c #5E4B30",
"|t+	c #362C17",
"1t+	c #2A2613",
"2t+	c #2B2512",
"3t+	c #322B17",
"4t+	c #46311C",
"5t+	c #49351F",
"6t+	c #503820",
"7t+	c #62452B",
"8t+	c #694D32",
"9t+	c #61452D",
"0t+	c #6F5135",
"at+	c #705337",
"bt+	c #7D5F42",
"ct+	c #8B6D51",
"dt+	c #614830",
"et+	c #6C5336",
"ft+	c #554629",
"gt+	c #654E31",
"ht+	c #5D442A",
"it+	c #5C442D",
"jt+	c #3D2E1E",
"kt+	c #493C29",
"lt+	c #473C2A",
"mt+	c #51422F",
"nt+	c #4E412D",
"ot+	c #524735",
"pt+	c #493F2D",
"qt+	c #5B5038",
"rt+	c #473D29",
"st+	c #453725",
"tt+	c #362817",
"ut+	c #463827",
"vt+	c #362A1C",
"wt+	c #35291C",
"xt+	c #413424",
"yt+	c #3D3022",
"zt+	c #594A3B",
"At+	c #4B3F30",
"Bt+	c #494131",
"Ct+	c #3F3D2B",
"Dt+	c #4C4535",
"Et+	c #554B3B",
"Ft+	c #4C4435",
"Gt+	c #4B3F32",
"Ht+	c #544739",
"It+	c #5D4D3E",
"Jt+	c #584838",
"Kt+	c #473726",
"Lt+	c #3B2B1C",
"Mt+	c #413123",
"Nt+	c #433115",
"Ot+	c #513F2A",
"Pt+	c #4E3D2B",
"Qt+	c #534331",
"Rt+	c #50402E",
"St+	c #493A28",
"Tt+	c #4E412E",
"Ut+	c #4F412F",
"Vt+	c #60503C",
"Wt+	c #63523F",
"Xt+	c #796852",
"Yt+	c #74644E",
"Zt+	c #786953",
"`t+	c #6C5D49",
" u+	c #544736",
".u+	c #4F533A",
"+u+	c #4F5039",
"@u+	c #474430",
"#u+	c #615340",
"$u+	c #786954",
"%u+	c #655440",
"&u+	c #5D4C39",
"*u+	c #5E4E38",
"=u+	c #5A4A34",
"-u+	c #554632",
";u+	c #443624",
">u+	c #463620",
",u+	c #4F402C",
"'u+	c #3C2C1A",
")u+	c #392508",
"!u+	c #674B30",
"~u+	c #57422B",
"{u+	c #42321E",
"]u+	c #4B3823",
"^u+	c #5C442C",
"/u+	c #63482E",
"(u+	c #6E5135",
"_u+	c #5E432A",
":u+	c #63462C",
"<u+	c #664A30",
"[u+	c #60452D",
"}u+	c #61462E",
"|u+	c #7E6043",
"1u+	c #7B5D40",
"2u+	c #70543A",
"3u+	c #7F6245",
"4u+	c #684E37",
"5u+	c #72553A",
"6u+	c #73563B",
"7u+	c #72583B",
"8u+	c #634B31",
"9u+	c #6B5135",
"0u+	c #6F5337",
"au+	c #664C31",
"bu+	c #6E5337",
"cu+	c #674D33",
"du+	c #5F472E",
"eu+	c #55402B",
"fu+	c #483523",
"gu+	c #3C2C1C",
"hu+	c #3C2C1D",
"   .  +  @  #  $  %  &  *  =  -  ;  >  ,  '  %  $  )  !  ~  {  ]  ^  /  (  _  :  <  [  }  |  1  2  3  4  5  6  7  8  9  *  0  a  b  c  d  e  f  g  !  h  i  j  j  @  j  k  l  m  n  o  p  q  r  s  t  u  v  w  x  y  z  A  B  C  D  E  F  G  H  I  J  K  L  M  r  N  O  P  Q  R  S  T  U  V  W  X  Y  Z  `   . ..  . +. @. #. #. $. %. &. *. =. -. ;. >. ,. '. ). !. ~. {. ]. ^. /. (. _. :. <. [. }. |. 1. 2. 3. 4. 5. 6. 7. 7. 8. 9. 0. a. b. c. d. e. f. g. h. i. j. k. l. m. n. o. p. q. r. s. t. u. v. w. x. y. z. A. B. C. D. E. F. G. H. I. J. K. L. 9. M. L. N. O. P. Q. R. S. T. U. V. W. X. Y. Z. `.  + .+ ++ @+ @+ #+ $+ %+ &+ *+ =+ -+ ;+ >+ ,+ '+ )+ !+ ~+ {+ ]+ ^+ /+ (+ _+ :+ <+ [+ }+ |+ 1+ 2+ 3+ 4+ 5+ 6+ 7+ 8+ 9+ 0+ W. a+ b+ c+ d+ e+ f+ g+ h+ i+ j+ k+ l+ m+ g+ n+ o+ p+ q+ ",
"l  r+ s+ t+ u+ v+ w+ x+ !  y+ z+ !  A+ B+ $  A+ C+ D+ E+ F+ /  G+ H+ I+ J+ K+ L+ M+ N+ O+ P+ Q+ R+ 2  S+ T+ U+ V+ W+ 0  X+ y+ Y+ Z+ `+ !   @ .@ h  +@ @@ #@ $@ %@ &@ *@ =@ -@ ;@ >@ ,@ '@ )@ !@ ~@ {@ ]@ ^@ /@ (@ _@ :@ <@ [@ }@ |@ 1@ 2@ 3@ 4@ 5@ 5@ 6@ 7@ 8@ 9@ 0@ a@ b@ c@ U  d@ e@ f@ g@ h@ i@ j@ k@ l@ m@ n@ o@ p@ q@ r@ s@ r@ t@ u@ @. -. :@ v@ w@ x@ ;. y@ y@ z@ A@ B@ %. C@ D@ E@ F@ G@ H@ I@ J@ K@ L@ M@ B. |. N@ O@ P@ Q@ R@ S@ T@ T@ U@ V@ C. W@ X@ Y@ Z@ `@  # .# +# @# j. ## $# %# &# *# v. =# -# ;# ># H@ ,# '# )# !# ~# }. Q@ b. {# ]# ^# M. /# (# _# 0. a. :# L@ <# [# }# |# 1# 2# |+ 3# 4# 5# 6# X. 7# 5# 8# 9# 6# 0# a# b# c# d# e# f# g# h# i# j# k# 6+ l# m# n# ]+ o# p# q# r# 5+ s# t# u# v# w# x# y# z# t# A# B# C# D# E# F# G# H# I# J# K# L# M# N# O# P# Q# R# S# T# U# ",
"T+ V# W# X# Y# =@ Z# `#  $ .$ v+ +$ @$ #$ )  $@ $$ %$ &$ *$ =$ -$ ;$ >$ ,$ '$ )$ !$ ~$ {$ ]$ ^$ /$ ($ _$ |  2  :$ 3  x+ W+ <$ Z+ [$ $$ *  }$ |$ 1$ 1$ 2$ $$ 1$ E+ 3$ 4$ 5$ 6$ 7$ 8$ 9$ 0$ a$ b$ c$ d$ e$ ~@ f$ g$ g$ s@ h$ v  i$ j$ k$ l$ m$ n$ o$ p$ q$ b$ r$ s$ t$ u$ v$ w$ x$ y$ z$ A$ B$ C$ c$ D$ E$ F$ n@ G$ H$ I$ c$ J$ f$ !@ K$ #. L$ M$ N$ O$ #. #. P$ Q$ R$ #. S$ T$ K$ f$ U$ V$ W$ X$ Y$ Z$ H@ d. J@ `$  % .% +% @% #% $% '# M@ %% &% *% =% -% ;% >% ,% '% )% !% ~% {% ]% ^% @# /% (% _% :% <% [% }% |% 1% w. 2% 3% 2% 4% 5% 6% F. 7% U@ 8% U@ 9% 0% %% a% b% A. *% c. c% A. d% e% f% g% h% i% j% =+ k% l% m% n% o% 9# p% q% p% M# -+ r% s% t% }+ n# !+ u% v% !+ _+ w% /+ x% y% z% A% 2+ z# B% C% D% ~+ E% F% E% (+ G% H% I% J% K% L% M% N% O% P% Q% R% j% )+ S% T% U% V% W% X% Y% Z% ",
"J+ `%  & .& `# =@ 0  +& @& @$ #& $& -@ %& && b  *& 1$ E+ =& -& ,@ ;& >& ,& '& )& !& ~& {& ]& ^& /& (& _& :& <& [& 3  }& |& W+ 1& 2& 3& D+ }$ &$ }$ )  8  E+ 4& 3$ [& 5& 6& W+ V+ 7& 8& 9& 0& b$ a& b& c& W  g$ 8@ d& e& o@ f& [@ g& h& i& j& k& l& m& n& o& p& q& r& s& t& u& h@ v& w& G$ x& y& z& f@ E$ A& B& e$ C& D& b$ 8@ #. R$ E& F& G& G& H& P$ I& J& P$ J$ K& s@ L& M& N& O& +. P& Q& R& S& T& U& V& W& X& Y& R& Z& I@ `&  * C. .* +* .* 0% @* #* $* %* &* ** =* -* ;* >* ,* '* )* !* ~* {* ]* }% ^* /* (* _* $* :* <* A. [* U@ V@ }* F. |* ]# @* .* c. a% b% g. 1* 2* 1* N@ 3* 4* 5* 6* 7* 8* 9* 0* a* b* c* d* e* f* =+ g* h* i* j* k* l* j% /+ 7* m* n* o* !+ p* A% q* r* s* (+ t* 6* E% t* t# A% u* j# v* w* x* y* z* A* B* C* D* E* F* G* H* )+ I* J* c* {+ K* L* M* N* O* P* Q* R* ",
"Q+ S* 6$ T* 9$ U* V* ,@ W* X* Y* <$ +& -@ A+ %@ .@ }$ F+ Z* `*  = .= += @= #= $= %= &= @= *= {& == -= ;= >= R* ,= ,= 4  Q+ 1& 8  <$ z+ '= Y+ @@ )= [$ `* 3$ != ~= {=  = ]= [& ^= /= (= _= := g@ f@ <= [= }= |= 1= 2= V  e& 3= v  4= 5= 6= 7= 8= 9= 0= a= b= c= d= e= B$ z$ f= g= h= f@ F$ 2= i= j= k= |= |= 1= 8@ l= m= n= o= p= q= J$ $. r= J& s= I& J& t= u= v= @. w= O& K& N& .. N& x= y= z= A= B= C= D= E= F= G= X& H= 6  I= J= W@ A. A. 5% K= %% #* G@ L= M= N= O= P= Q= R= S= T= U= V= W= X= Y= Z= Z= 1% `= _*  - .- +- 3% @- #* #- $- +* %- &- 7% z. A. *- z. ^* $* =- $* $* ^* -- ;- n# /+ >- ,- w% '- )- E% i% !- ~- {- c* -+ ]- 4# b# )+ ^- A% /- (- O# 5+ _- n# _+ :- <- w* G% s* [- 4+ t* }+ 6+ A% }- |- j# 1- 2- 1- 2- 3- -+ 4- 5- 6- 7- 8- P# 9- 0- :- a- b- c- d- e- f- 8- g- h- ",
"i- i- @= W* j- k- 3  l- k- m- =& +& <$ t+ $$ &$ n- n- 1$ E+ o- p- q- {= '& 7& o- r- R+ s- /& t- u- v- w- x- y- @= ^= z- U+ A- 1& 7  .$ B- %@ 9  @& v+ 9  C- D- E- ,= 7& F- G- H- I- J- K- L- M- <= A& N- O-  . x& P- Q- R- S- T- U- V- W- X- Y- Z- `-  ; .; +; t  @; #; t& A$ F$ $; F$ %; &; z$ z$ *; =; `  j= -; y$ ;; =; C& _@ @. >; R$ K$ ,; '; ); !; ~; O& {; #. ]; A& N& w& f@ g@ ^; /; (; _; :; <; _; [; z= }; |; N= ]& 1; 2; 3; 4; <# *- 7% 5; 6; 7; 1* v. _% 8; 9; [; 0; a; b; c; d; e; f; g; /* S& S& `$ U& w. h;  % %% b% i; 2% j; k; 3% %% A. *- Q@ 2* l; m; n; o; m; o; [% p; q; r; s; t# u* 3+ [- w% 2+ A% t; -+ 3- u; r% v; ]- w; x; y; S% z; A; c# 6* m# B; y% 6+ G% 6+ C; 5+ r# D; >- v# k% s* >- G% E; F; G; D% H; I; 3# l* n% J; K; h# H; L; M; N; O; O; L* P; Q; R; S; Y% T; ",
"~% '& S* U; N+ 9$ U+ V; x+ @& w+ +& <$ D+ +& W; 9  +& 9  W; C- Q+ X; ,& o- Y; Z; ;& `; '&  > y- .> +> ~% R* ,& 2  u- #= @> #> 3$ V# +& B- +& $& y+ $> %> 3$ ,= 3$ ,& ^= @= &> *> *> => -> ;> >> c$ ,> |= l= N& `  '> )> !> ~> P  {> ]> ^> /> (> _> :> <> p& [> }> |> y$ E$ 1> 2> 3> [= 4> 5> 6> 7> 8> 9> 0> a> b> ,> c> '> d> e> q= r= $. G& f> g> h> P$ B& i> q= A& j> k> z$ i= 7> l> m> n> o> .* p> (; f; q> r> >* s> t> u> v> w> ,* x> T@ y> @* 0% G@ m; ;# z> A> B> C> D> r> E> z= F> 9; G> d; M= {* 1% x. H> S& I> M= J> A. A. K> N@ V& !# j; L> F. %* 3% ># W@ M> <% N> o; O> T& P> Q> R> O; }+ B; (+ S> w* 6+ w* T> u% U> 3# c# V> W> )+ !+ W> X> Y> /- 2- l# Z> (+ [- 3+ ^+ [- n# s* :- u# :- `> w% :-  , ~+ 5+ o* G% v* t# ., F; j% +, c# E; k% @, #, N; c- $, %, &, *, =, -, ;, >, ,, ",
"', ), 6  `% N+ U+ W* !, l- =@ 9$ w+ %> 8  [$ n- n- }$ ~, {, ], X; Q+ s- ^, /, '& x- (, h- r-  > _, :, .> .> <, '& R+ @= ,@ 1  9$ V# v+ <$ <$  @ y+ |& D- [, W+ }, R+ /= ]= o- |, 1, 2, 3, 4, 5, j= 6, z$ |= y$ c& #; z$ r$ 7, 8, 9, 0, a, b, c, d, e, f, g, h, i, i= n@ '> j, k, 3> l, m, n, y$ o, p, 6, 3> 3> %; i= q, 1= d> O& g$ g$ j> O& {; u= E& !@ 8@ j> B& 1= |= n@ h@ f= 1= r, s, t, u, v, w, x, y, z, A, B, C, D, E, F, G, H@ H, I, J, K, $* L, %* M, N, O, P, Q, R, S, D> f; y, x. T, D> A= U, M, X& I> S, V, M= M= W, X, d. ,# g. f. 2% V@ %* %* 2* 4% Y, *# Z, B= (; `,  ' .' +' @' s; s* w% y% r# x* #' $' 1- k% %' =+ j% |+ A# {- k# D% &' *' =' j% )+ 2+ x% -' ;' z% >' x# ,' w# F% 7* B; '' [- 5+ ^+ r# 1- G% G; )' 2- !' A# '+ ~' {' )+ ]' l# L* &' ^' /' (' _' :' <' [' }' |' ",
"1' 2' 3' Q+ V+ 4' 5' $= V* `# )& 5' |& 6' W; 9  9  != 7' +& 9$ V+  =  > 8'  > x- U+ &= 9' #= R+ 0' |, a' b' c' d' i-  > e' f' g' h' U* [$ <$ i' 1$ 7  7  o- j' {, 2  k' 3' s- l' m' n' o' p' r, 1. q' r' r' j= =; s' `  T  t' u' v' w' x' y' z' d= A' B' C' n= l> %; %; 3> D' y$ E' #; s' =; i= k= F' p, 3> G' H' I' 2= +. J' K' V  L' M' m@ .. '; N' P$ O' N& B$ j> P' G$ 3> z$ &; k; Q' R' S' T' :% <; q> U' V' W' X' Y' Z' `' G> M= +- I@ a% *- 1* I>  ) .) A> +) @) #) $) b; %) &) *) =) -) ;) `, &) d; W& >) =) 1% J> Z$ _* ,) 5; 1* ') V& Z$ V@ 1* H, :* )) M= =) !) ~) ~) {) ]) ^) /) () _) [- z% :) x* z# z# <) %' {- {- -+ e# [) v% 4# }) u% H; J* |) j# c* w* _) x# ,' 1) r* 2) _) 1) >- (+ 6* '' (+ _+ B; 3) w% 4) k# u% 2- i% 2- j% -+ 5) C* z# ^+ s* :- y; w* 6) 7) 8) 9) 0) a) b) ",
"c) d) e) f) @= 4  W# ,@ )& 5$ h' 7& U* `# 1$ 5& W; D- W+ 7  E-  = 1  4  R+ g) &= &= h) i) s- .> <, |, j) k) d) a' l) x- )$ W* 5' V* 1& 9  m) n) Y+ ], 5& 5& [, 7$ R+ o) f'  > j) p) q) r) s) t) u) v) w) 8> r, x) y) 4> z) d@ A) B) C) D) E) F) G) H) Y  I) J) y$ G' G$ a> f@ K) L) M) p, K) i= r, b> N) E' O) r, r, !> T  P) L& W  K& Q) h> q= {; m@ ); t= n@ Q) E$ R) |> S) T) y) U) V) W) {) X) Y) A, >* W= Z) `)  ! .! +! @! V, #! $! *- Q@ I@ W& %! $! v. d; @) Y@ &! *! z, A= d; y, x, =! >* @! d; -! |; !) ># (; ;! M> >! 2* A. H@ ,! N@ l; G@ l; .) _* G@ %* S, '! )! Z) !! ~! ~# {! ]! ^! /! (! _! p# y% :- ,- :! k# 3- 2- <! +, n% '+ !+ |) j% {+ _+ n# ^+ [! p# y% }! _) |! x% 1! q# -' 2! /+ 3! B; 4! w# 5! y* 2+ C; s# t; u# }+ v# W> |) u* o* 6! 1) 7! m* 8! 9! 8) 0! a! b! c! d! ",
"e! t- f! |, H- @= 8' Z; Z; ;& ;& N+ g! g' h! i! 8  {, j! 7& 9$ C- R+ k! l! M+ m! n! .> <, +> o! <, p! q! r! q! s! )$ t! 2  5' -= u! %> g' 7  v! %> |& [& w! [, r- y- x! |, y! z! A! B! C! D! .* E! F! G! H! H! I! j= )> J! K! 8, L! M! N! O! P! e$ Q! R- R! i, #; E' 5> y$ S! 7> M) 7> O) T! U! -; N) k, V! r' K' W! c$ |= M) G$ M' K& X! :@ R$ @. Y! m@ t= m@ f= P' n@ |= Z! K) `! b> N'  ~ .~ +~ @~ z, #~ $~ %~ &~ &~ *~ C> U= d; S& /* b% 4% 4% b% =~  ) *# `$ T= -~ ,* M, ,% X& D> $~ -) N, ;~ >~ ,~ '~ V= G> G> =) >! e; )~ H@ y> 2% !~ )) z. $* >% m; *# =- /* ~~ -! {~ ]~ W' ^~ `= /~ (~ _~ /! () :~ <~ w* o# [~ }~ D% 3- A# v; |~ 1~ ~' j% z# ^- 3+ n# s* 3+ }+ :- _) >' w* x# w* 3+ `> 6+ A% 3+ 2~ p# <- 3~ 4~ t* |+ 6+ 5~ 2# |) :- q# 6~ v# c- (- 7~ 8~ O; :- 9~ 0~ a~ @' @' D; Q* b~ ",
"+> c~ 1, <, o! R* f! x- d~ U; e~ 2  ,& h- 7&  = q- ~, 9$ l! [& o- 8& y- l!  > f~ |, w- c~ ** g~ t- h~ i~ :, j~ &~ u- f) @= 8' }, @& U* W* k~ 1& %> [& 3$ R+ *> l~ y- m~ n~ 1, o~ p~ q~ r~ s~ t~ u~ s' v) v~ w~ x~ y~ z~ A~ B~ C~ i$ D~ E~ F~ G~ H~ Q! I~ w' g@ G$ F' J~ h= K~ G' z$ O) r' u~ L~ 6, s' J~ a> y$ 6> E! 7> M~ N~ A& 2= T$ O~ P~ m@ B& t= .. f= j> 8@ G$ w& O) J~ K) Q~ G' R~ S~ x, x, T~ @~ x, U~ V~ W~ X~ Y~ Z~ }; `~  { W& %* !~ G@ g. .{ *# o; =) M, r> r> {* d; +{ M, @{ #{ ${ N, +) %{ ;) =) (; !) +{ X= >! %) V& &{ ,# $* .) f. =# _* X= N> z= f; *{ ={ -{ +! ;{ >{ G> ,{ '{ 1! ){ !{ ~{ {{ <~ '' 5~ ]{ f* D% k# ^{ ]' c* e# '+ l# 2+ }+ 8* /{ 7* _) `> 1) p# 1) 1) _! _! ({ S> s# _{ $' :{ (+ q# <{ [{ H; u; i% A% C; }{ C% |{ P# 1{ {+ 2{ ^' &' O; 9~ 3{ 4{ 5{ 1! |- 6{ n' ",
"7{ q! 8{ ** 2, :, n~ 9{ R+ }, U; l! V+ 2  @= }, 5& W+ [& X; [& 8& ,& .> @= '& m! n~ |, 0{ <, == a{ b{ c{ X' d{ e{ J= x- u- 8' N+ &> V+ !, f{ g{ T* 3  [& h{ i{ y- .> j{ q! k{ l{ m{ n{ Z~ o{ T) r' J~ F! p{ q{ r{ s{ t{ u{ v{ <> w{ x{ 3= y{ z{ A{ B{ C{ c@ y$ O) 3> k= w) S! O) a> D{ E{ F{ F! a> a> G{ F' F' n, y$ 3> E! j, 1= 1= e& O~ W  q= Q) B& h@ f@ d> A& k= k= i= r, x) K~ H{ I{ J{ K{ L{ M{ .~ N{ O{ ^~ q> P{ Q{ U~ M, v. .{ /* w. ># =- 2* G@ S& R{ D> D> R, z, S{ #~ >* {* T{ U{ Y) V{ s> %{ >* W{ [; y, X{ +{ Y{ Z{ `{ &{ 1* <% %* 2* h; h; =) Y= R, %{ K  W'  ] .] +] @] %! #] $] 3! %] &] *] |! =] y% >- G% j# |+ k# ^{ ~+ E; -] !' p* E% :- [- p# F% $' $' x# ;] {{ >] ,] '] )] x# 6+ s# /+ :- x% 4~ [~ u# G% H; 2+ !] s# =' ~] O# H* {] ]] ^] 6) /] 3{ M; (] _] :] <] q# [] }] ",
"7{ :, r! |] v- k{ d' )$ l) t! ~% x- 1  ,& j- 6$ [& 1] 9$ @= ,& f! k) 2, h) |, w- 2] 3] <, 4] 5] 6] m! 7] 8] == 9] m! 9] _, 0] Z; a] <& 6  7  V# $= [& [& l! f) R+ 1, n! n' k) b] c] d] e] f] g] h] i] j] i] t) I! k] I~ l] B) m] n] o] i, p] q] r] 8, s] |> k= P' t] w) u] S! x) `! i] b> v] w] F! E! O) g] O) z$ r, `  x] K& A& y] O~ J& J& #. K& j> V  A& t= L) k= y$ 7> w) r' g] y) s@ z] A] u, M{ N{ N{ B] T~ #~ *{ Z) A= R, .{ C] D] #! E] W& 2* *# e; A= }; M, F] N= G] #~ H] =! I] T{ R{ &) O$ J] :% y, z, ;~ W= =# ;! K] _* K, L= C] M& Z$ l; .) *# t. W{ T{ $) ]~ L] M] N] O] z@ P] Q] R] S] T] () U] _! o# F% ,- V]  , W] D% i% ^{ c# X] 2+ A% !' !] '' (+ w* [- 3! B; >' ({ ,] Y] @' Z] 2! s# l# ,' `] r# y* !' z# E% C; #' ~+ (+ 7~ k% E#  ^ T% .^ +^ @^ #^ $^ %^ &^ *^ ^! `] =^ -^ ",
":, ;^ b' <, t- o! >^ s- 2  )$ ;& ,^ 3' R* `% 8' [, i! 7  [& '^ /= ** d' c' k{ c' j) )^ !^ ~^ {^ ]^ 4] ^^ 8] /^ (^ d) 9] t> ^&  > `% _^ j- 1& 4' C- Q+ l! :^ (= s- |, j{ <^ [^ }^ d] d] |^ 1^ x) 2^ x) 3^ w] E{ 4^ 5^ 6^ }> 7^ 8^ A~ G~ J! C' S- ~> 9^ t) 3> h= y) `! l> S! J~ u] 0^ N) g] j= O) g] t) g] F' M) T! u~ M) u~ a^ b$ +. g$ b^ g$ Q) F$ Q) E$ w& P' 5> p, 3> 3> P' r' r' h] c^ z] d^ e^ f^ g^ h^ i^ j^ k^ Y) y, l^ z= x. >! h; b% G@ w. W, /* C= F] R, q> N, %~ m^ Z) n^ %~ R{ m^ J] o^ -! O$ %~ =! W= -) G> S& l^ %) )~ W& `$ .) _* %* <% ;# p^ z= !) R{ U' ,~ ={ %~ J] V{ q^ r^ Y] s^ t^ ({ @' 2~ ,] 3~ u^ x* v^ t; w^ z# T> j% |) u* C; l# 4) u# x^ 6* $' <- @' 4! y^ p# z^ A^ Q] 2~ x% :- |! <~ S> 4~ [+ B^ $' C^ D^ E^ F; _{ l% |+ |~ ~] 8! F^ G^ H^ I^ J^ K^ L^ M^ N^ q# O^ P^ ",
"Q^ 0{ 0{ b' v> 7] ** += u- l) >= (& R^ ^$ `% R+ r- #= [& /, m! 9' |, w- k{ S^ 5] T^ Q^ U^ V^ W^ X^ Y^ Z^ Q^ v> d{ `^  / 5] 8' R* R* ./ V+ W* j! 7$ 8' ,& m' f) n! .> c' k{ +/ c] @/ #/ $/ %/ &/ */ =/ S! -/ ;/ v) >/ ,/ '/ )/ !/ ~/ {/ C$ ]/ ^/ C' // 7> 6, z$ M~ x) (/ *; J~ g] _/ _/ F' G{ :/ i] 2^ </ [/ M) b& b> F' j, 8> j, )> )> g$ F$ t= d> N& z$ n@ i= -; i= a> O) r' w) _/ r' O- }/ ]; u, d^ K{ |/ 1/ A, A, I] z, 5, !) C] J> x. $* w. W, _* M= %) B= 2/ C] N, R{ R{ q> J] %~ G] 3/ 4/ n^ 5/ 6/ x, 7/ 9; y, R= 8/ G> )~ )~ x. _* %* `= %* e; !) T& Y= |% ${ `, 9/ 0/ a/ 3/ b/ c/ r^ () '] K^ I^ Y] U] :~ d/ $' e/ f/ y* k# 1- W> 3- W>  ^ g/ z# z# {+ A^ o# E% _) <] q# '' 1) '] _! R> 1! h/ O; i/ C% f/ y; s# !- [~ 2+ 1- ~+ A# k# k% k% 6* 6! j/ k/ l/ m/ _] n/ o/ p/ q/ r/ s/ t/ u/ ",
"U^ v/ v/ ]^ /& /^ j{ q! /& R* t! 1; x- 3' :^ ,&  > w/ x/ &= y/ m' 1, j) 0{ z/ 0{ ]^ A/ B/ C/ D/ 6] E/ E/ Y^ F/ 4] G/ H/ I/ 5] i~ 8' K+ N+ }& C- l! 9$ Q+  > f! .> 2, b] J/ K/ L/ M/ N/ O/ P/ R& 3^ Q/ R/ 3^ S/ T/ !/ g] U/ &/ V/ W/ X/ j, =; <= 2> v& i, Y/ J~ `! r' u] w) i] Z/ `/ ;/  ( v) T! .( i] g] +( v) @( F' b> b> @( ,> )> H$ d> E$ N& n@ 1= t& y$ l> 8@ j= g] r' J~ 3^ 3^ Q~ P~ #( $( %( &( b/ *( =( G] -( ;( +{ b; A, -) D] M= D] W, >( V& /* Y= y, ,* M, 9; A, 3/ Z) x, ,( '( #~ 4/ N{ n^ V~ !! #~ U~ )( C] -) !( (* A= x. U& ># G@ W@ A= o; X= >* ~( @{ {( ]( j$ ^( /( f& (( _( :( <( [( }( z^ 4! Z> |( 1( _{ w* <) s# {- W> {- v% c* )+ v# E% E% :{ N; /+ ,' 6* _) [- A^ 2( :{ <] 3( f/ <) t* !' `> x% -' 4(  ^ x# 5( l% 6( 2- X] u# ]] L; L; P; 7( J^ 1! :~ z^ 8( 9( Y] 0( a( b( ",
"0{ c( d( 7] e( }] +> v> ), 0] f( 3' Z; 4  5] *= /, x- d) _& f! S^ f) ** g( Z^ 0{ }] 8] h( i( j( X^ k( l( z/ d) ]^ 0{ m( ^% n( 5] o! @= #= ;& l! h- w/  > h- f) o( k{ k{ p( q( r( s( 8& t( %/ u( R/ v( i] w( w] */ 4^ x( v) 6> y( z( N- K' K' f@ E' 8> m= y$ _/ `  G{ Q~ _/ D{ i] x) G{ A( B( [/ y( C( D( x) C( V! F! E( V! C$ T  <= A& h@ z) V  h@ 7> h@ z$ 3> O) 2> Z/ h] F' B( F( :/ G( H( 1/ I( 3/ J( f^ 1/ B] m^ =! K( k^ L( A= %) 1% K] >( .{ .{ s. z= ,* J] )! G] i^ 4/ U{ *( V{ M( a/ ^~ N( O( 4/ e^ P( I] Y) Z) M$ q> :% H> X& Q( X& I> J> r> (; Y= v, T{ T~ R( S( T( U( V( W( W= X( Y( @' Z( ^! S% `(  _ (+ `] s* _) S> 4) C; %' |) 6+ k% j% A# }{ y; C; 7! p# 3! A^ ({ <~ _] ._ +_ :~ !] (+ (+ p# 4! (+ @_ <~ |( %' l# _{ t; c- t; F; #, ^' #_ 6! 7) $_ <] (] !] %_ &_ T] +_ *_ =_ -_ ",
";_ >_ ;^ ,_ ** Q^ ]^ )$ 5] '& '_ l) 8' f' e{ %=  > )$ !& Q^ )_ == t- 2] g( r! g( b( !_ ~_ {_ ]_ ^_ /_ E/ (_ E/ ;{ __ :_ ~^ ^^ '_ o! s! x- r- 8'  > <_ R* R* |, h) [_ }_ |_ M/ 1_ 2_ 3_ 4_ 5_ U/ 6_ 4^ 7_ 8_ 8_ 9_ B( 0_ !/ a_ 8> y& T  )> C$ a^ 6, 7, f@ D' j= v] :/ `/ */ b_ 8_ t) 6_ c_ d_  ( v) e_ `/ D(  ( f_ U/ w) T! y$ =; 8> `  v$  . w& n@ 5> h@ k= J~ g_ z$ 9_ a> i] u] S/ h_ T  i_ /( N] N] %( j_ k_ X  V{ l_ m_ O{ D> W{ !( G> %) #! .{ .{ `, !) 3/ m^ J] G] n_ Z) n_ o_ a/ m^ V{ p_ a/ U{ i^ O$ V{ m^ N{ q_ ;( {* y, D] B= =) S& W, S& z= =) v, !) r_ 3/ -! s_ t_ u_ v_ w_ U, x_ y_ z_ A_ B_ C_ D_ z^ x* $' _! 2~ E_ |! q# z# E% H; o* 2- A# A% 5+ u# r# 7! F_ =] G_ |! H_ ({ H_ 1! p# p# (+ '' ._ <- N; =] w# 8- I_ J_ K_ L_ K_ 8! M_ *' ^' K* N_ M; `> o# v# (+ ._ O_ P_ y* Q_ R_ ",
"S_ T_ U_ V_ W_ v/ /^ |] _, g) g) o! @= u- k' t> X_  > e! Y_ c' e! }_ m{ Z_ `_  : .: +: @: #: $: %: &: C/ *: =: -: ;: >: E/ +> o! ,: 3' &> o! _^ ;& 1  _  f~ j{ j) Z^ <^ ': 2] ): !: ~: {: ]: v. u) %( ^: 7_ /: p{ .( z~ 0_ U/ (: c> C$ x& d> y$ g@ i= v$ =; 6, j= g] G{ 9_ _: F( :: e_ w] C( B( e_ 7_ t) B( y( c_ h_ x( x( V! N- z$ z) 5> &; |= <: k= E$ h= 3> b> r, 3^ 3^ i] x) [: </ j, }: |: 1/ $( $( =( M( 1: 2: 3: N, #~ O{ $~ T, z= A= d; *# 4: z, ${ {* A, z, a/ i^ N{ o_ e^ G] O( {( n_ n^ @] g^ o_ =( m^ K( 5: Y) =! ${ X{ A= !) Y= x. U& W{ B= )! )! T{ 6: a/ 7: 8: 9: 0: 6. a: b: c: d: I^ e: f: 2~ [( 4! <- <~ y^ w# )] x* $' x* t* l# E% z# 4) G% :- `> :- )] p# x% N; `> H_ p# g: |! ,] '' 7! z^ h: O; i: <~ 8- j: l% k: l: m: F^ n: o: p: c- <] () |! S> :- |! I^ z^ 1! q: r: s: ",
"t: u: v:  : ;_ w: }] x: y: a' d' :, ,: z: 9] A: w- 2, T; j) n! w- W_ Z^ <^ B: c( C: D: E: F: (% =: __ G: H: I: J: K: L: M: ;^ 7] /& '& (^ f( 8' N+ h- M+ e! f~ S^ )^ N: O: s( P: H- Q: R: }: S: T: U: V: B$ V! L' +~ b_ x( b> 6, 6, x] O- g@ 5> z) j, <= #; R! &/ U/  ( y~ 7_ W: e_ _: y~ B( X: X: Y: A( B( B( F( C( x) u~ 1> y) 9> a^ H' `  9> A& a^ 6, b> w) S! J~ c_ v) A( T/ /: F( Z: `: u$ j@ 6/ M( q$ $(  < V{ .< Z) A, 8/ W= +< +{ -) W{ >* G> |; I] ${ -! 3/ /( -! M( @< g^ #< $( $( @] 4/ f& $< f& {( q$ Z) %< q_ =. W= B= &< G> x. *< B= v. 9; {* U~ m^ ,( =< -< i; ;< >< ,< U, '< ^! 0! )< !< r/ () r/ z^ *] =] w# <~ q# 2) B^ x* s# :- ,- :- E% A% 7~ F_ ,] $' 6! x% :- M; Y] ~< :~ Z> {< 2~ 4! y^ -' <] B^ ]< _{ ^< H; G% j/ /< (< _< :< << Y> M; 1! {] |! :- o# R> i: I^ [< }< d) ",
"x- %@ |< 1< 2< |_ .: ;^ 3< b( ** b' o! (^ 4< o( += &= j{ <^ w- Y^ 7{ }] c( ;_ 5< 6< 7< 8< L: 9< !_ 0< a< &: >: b< +: E/ D/ 7] c< y: u- ~% '& x- `% J= '& e! w- ;^ 7{ Z^ d< (= |_ 6< e< f< g< h< i< W: R/ 8_ W: j< k< C( C( h] u~ l< j= i= 5> S) k= l= a^ &/ F' u] /: 6_ c_ F( m< n< Y: 4^ o< p< q< n< r< s< Y: `/ ;/ s' 2^ U/ L~ t< 2= p, -; v& v& k= r' w) u< k= h] j] V: 8_ 6_ h] R/ v< w< x< y< e^ z< M( A< B< C< D< G] l_ E< =. C= 0; Z= W{ :% B= M, b; z, U{ *( U( ,( $( A< ,( I( j_ F< M( O( f^ N] N] o_ N( g^ K( G< Z) O{ L( =! W= :% x. <; e; !) `, A, n^ H< 7% @* #< I< J< K< L< M< [( N< N< O< 2( P< E_ 2~ Q< R< <- S< <- C^ |- v# t; p# 2+ |+ :- :- 3+ r# 2! r# x% !] :~ -' <~ '' ,] 2~ E_ z^ <] z^ 4! F_ i: y^ `] f/ x% /+ L; T< U< L_ V< p: 7! :{ h/ -' 7! :~ W< <( 2~ () 5! X< 5< ",
"r( Y< r( Z< `<  [ 0< W_ ;_ V_ ]^ F/ .[ b' += x- h- <^ :, *= S^ m! /_ /_ l( +[ @[ H: #[ k( E: 0< %: 0< $[ %[ &[ *[ 9< U_ =[ -[ ;[ G/ x- s- >[ o! R* 0] ** j{ 7{ ,[ 2] '[ )[ v: ![ ~[ {[ ][ ^[ /[ ([ _[ :[ /: <[ <[  ( b_ 4^ 4^ 0_ a> a^ F{ r, j= a> a> r, M) +( q< 3^ 3^ G{ e_ `/ [: e_ [[ y~ :: _: <[ }[ F( |[ |[ W: 1[ h] y( F' M) l< F' w) h= z$ S! F' 8> t) */ 7_ Z/ g] c_ [: e_ 2[ 3[ 4[ 5[ 6[ 7[ 8[ C< 9[ e$ 0[ a[ g^ k^ X{ @! +{ *) A= D> *) -) }; I] o_ #~ 7[ A< M( A< b[ @] y< c[ ^/ f^ $< D$ d[ m= k_ a[ {( 7/ V{ %~ %~ :% U~ G> A= B= `, <; !) ~~ {) J] G] e[ f[ g[ h[ I( d[ A@ i[ C_ j[ &_ k[ l[ o/ _~ H_ m[ >- B^ >- =] [~ G% |+ r# w* s# u# (+ x% (] (+ K* $' B^ $' 4! S> T> 7! F_ <] 1! !] I^ O< y^ n[ :{ n[ o[ 6+ p[ S< q[ r[ s[ &, t[ u[ (] :- }{ $' }! ._ I^ v[ :~ ,] h/ w[ 1< ",
"x[ y[ z[ A[ B[ ~[ -_ C[ u/ D[ ,_ m( E[ ~& ]$ ,: ~% == ** t- 0{ b~ E/ ## F[ G[ H[ k$ I[ J[ H: K[ D: L[ L[ {[ l( M[ {[ =: N[ /^ O[ b' '_ P[ a' (, R* )$ ]^ <^ }_ Q[ R[ D: r( ![ S[ {[ T[ U[ V[ W[ X[ Y[ Z[ _: Y: o< `[ Q/ 4^  } .( E! .} F' Z! _/ r' 8> F' K' s' +} Q/ @} 6_ #} #} X: $} %} }[ }[ &} *} j< :: =} 2[ B( -} T/ ;} >} ,} '} k= a> L) a^ y) r' a> _/ u] 6_ </ -} `/ _[ )} 7_ t< !} ~} J) b[ p_ {} e$ f& B< ]} W( ^} M$ R{ G> U, T, ${ T= /} (} (} a/ _} :} B< x< p_ $( d[ j_ n= <} p_ b[ x< [} }} 4/ a[ |} ]} n^ g^ !@ L( =. @~ [; ~( [; (; (; 1} @{ &( N{ J< N{ 2} 3} 4} J) 5} 6} d: 7} e: &_ P_ ~{ Y] u^ 8} S> 9} $' (+ S> 0} !- a} B^ 2+ 3+ _) _) `> 6* x% 6* p# p# H_ e/ 2+ x* 7! Y] z^ w# 2~ b} c} 8~ Z] f/ 8- 4! x% 0~ d} e} t[ f} g} h} 8! 8- m* -' x% I^ i} O_ &_ <( j} k} A[ ",
"l} m} n} o} p} w: q} r} U^ F/ q! s} == ~% A/ (^ == m! r! 4] =[ t} u} v} a< w} x} y} z} A} J[ B} C} D} F: E} C} F} L: G} H} T^ &[ 6] b' f~ @= )$ ^& j{ ;^ u/ ;_ g( %: 6< I} {[ J} y[ K} L} M} 2[ N} n< O} P} $} Q} d_ R} W[ S} z~ E( t< z~ T} v] 3[ s' 7, U/ Y: U} V} )} A( W} X} k< W[ Y} Z} `}  | Z} X[ .| +| 2[ @| c_ B( +( #|  } 8> E{ J~ r, n, b> r, x) h] V: =/ 9> X:  | |[ $| %| j, &| *| =| -| =| ;| m=  < >| 3= 1/ q$ ,| &) )( U' {* f; G> }; .< -! N( '| )| O( F< d[ 6[ $< x< !| ~| {| !| t' 7[ S  ]| o^ M( V{ p_ ^| O' #{ U{ @~ <; p> ~) y, G] M( J] e^ A< /( $< /| (| {| ]/ !@ _| :| d: C_ l[ H_ () @' 9+ F_ <| u^ 1) ]< :{ 4! 9} t# }{ E% 6* y^ :~ `> (] $' 7! 7! H_ ]< x* 2+ i: |! O_ [( 1! ,] 1! ~< [| }| <] || 9) 1| 2| 3| e} 4| 5| 6| 7| 8| L; L* 9| 9! 0| O_ a! a| $^ b| c| d| ",
"e| f| p} 5@ g| f| {[ h| `' X^ -[ X' y: i| j| k| == z/ l| S^ __ ^_ m| n| o| C} B} p| q| $: r| 5< s| K[ K[ B[ B} 6< +: )[ t| /_ u| v| {^ ** i~ w| o! f~ e! v: 7{ 8'  : o| T_ P: A[ |< x|  ] y| /[ z| Y} X: i< @| Q} :: }[ A| 2^ B| `[ y( F{ 1> b> N- j= F! /: `/ V} X: #} C| S: |[ X[ @} D| z| +| E| 2[ z| z| }[ }[ X: Z} W: S} U/  } x( L~ l< b> b> _/ S! 3^ Z/ V: 8_ Y: #} #} F| G| G| H| I| J| K| *| ~| L| O( M| !| m= 9: Z{ 4/ N| R{ {* R{ +{ $~ m^ i^ n_ !! 6/ O| P| Q| [} d[ >| R| 2} S| ;| >| R| 8[ 9[ f& /( f& f& k_ V{ k_ O$ k^ +~ ${ 1} ${ T~ T| N{ :% D= f& s_ >| n; U| n= V| w@ 6} W| X| Y| Z| S% #, Q< 2( N_ `|  1 .1 +1 @1 <- (+ ,- 2# v# /+ x% 4! `> _) s# p# x% z^ Z> <~ 7! S> F_ 2~ #1 n[ 8~ d/ 8~ S< 8~ $1 G_ (] $_ %1 &_ &1 *1 M; $' /+ _) 7~ =1 ._ 0| -1 -1 8( $^ ;1 >1 ,1 s| ",
"z} '1 )1 !1 ~1 {1 0< ]1 O[ G} x: =[ a' A/ A/ ^1 4< {^ %: ;^ Q^ ## /1 8< 5< F: (1 _1 :1 J[ _1 <1 [1 }1 |1 J} 11 p| 21 31 t} L: (% x: == v- 7] ** '_ Q^ S^ =[ u/ Q+ B: 0< F: I} 41 51 m} 61 71 W} X[ /[ D| /[ 81 91 A| _: @|  ( B| 01 s' (: N- 1> Z! k, Y: U} Y: c_ X[ a1 /[ |[ b1 D| F| c1 W} ([ ([ O} d1 W[ e1 2[ j< f1 g1 C( .( F! a> g] E{ y) r, r' U/ B( Q/ c_ X} h1 #} i1 $| j1 k1 l1 m1 L| n1 b@ b@ ]| I) P| ]| o1 B< p1 e^ =( q1 W= C= q> n^ ^~ m^ n_ |} O( =< r1 Q| s1 9[ L| b@ n= b@ ~| t1 @; {} P| b@ 0[ f& u1 v1 o_ q$ '( =! +~ @! &) b/ w1 :% V~ N{ F< x< F< F< x1 y1 {| 2} z1 A1 B1 $1 C1 D1 E# 0! S< Z> ]< S< E1 a} y; }| O; x* F1 G% t* O; <~ F_ p# 3~ /+ p# <~ <] F_ (] u^ F_ 8( {< r/ G1 '' <] S< f/ H1 M; @' I1 S< J_ n/ :{ J1 _] <] 2+ <- (] 1| <( K1 L1 M1 N1 1| :( O1 P1 Q1 ",
"R1 S1 _1 J} D} u! T1 ]( {[ E: u/ 2< /^ U1 e( Q^ 6] 4] %: E/ W_ M[ V1 V1 W1 )[ s| X1 |1 Y1 Z1 `1 `1  2 .2  2 g| +2 F) B} B} +[ t} %: b~ )^ b' d' ]^ 3] 0{ <^ u/ ;_ @2 @2 L[ D} #2 $2 %2 &2 71 *2 =2 $| -2 +| d1 E| k< P} ;2 q< .| >2 N) v] ,} s' F' U/ c_ 8_ c_ ,2 X: '2 D| #} )2 !2 ~2 F| Y} p< +| {2 W[ ]2 ^2 e1 /2 r{ (2 5^ C( Q/ */ v] @( a^ G{ _2 _/ 2^ `/ :2 :2  | <2 L~ c1 ~2 [2 }2 |2 }} n1 [} s& S- >| {} 12 [} 5, 1/ X) Y  0; 5: Z) A, #{ !! =( o_ 22 32 42 r1 52 !| 9[ @; 62 [} 72 R| 9[ 22 82 ]| L| }} ~| x< Z  V{ ^} o_ 92 K( Y) %~ O( d^ J] e[ 02 a2 b@ Q| n= r1 b2 s& n= b^ c2 d2 O_ K^ }( C1 (- #1 r/ <- Z> `] S> |- 2+ `> )' W> !' u# u# :- r# 1! :{ &_ :~ :~ 4! 1! :{ Z> r/ Z( H_ e2 Z> w# n/ f2 8~ &1 I^ 0! I1 E1 7~ ,] Z> g2 h2 M; /+ $' O; i2 J^ j2 k2 l2 m2 n2 -1 Z] k} J} ",
"o2 p2 e| q2 {1 5< r2 F: s2 D: r} q} W_ ;[ Q^ z/ t2 8] a' .: ;^ u/ *[ !1 Y1 J} u2 A} `1 v2 w2 x2 y2 z2 _1 A2 s| [1 Y1 [1 x| ]( t| ,_ B2 S^ D[ d' z/ E/ ]^ `' c(  : u/ C2 A[ J} D2 E2 F2 ]~ G2 =2 H2 =2 I2 z| z| d1 J2 z| g1 K2 S} L2 0^ M2 V! s' v) t) F( 8_ 4^ 2[ D| Y[ c1 Y[ G| N2 /[ O2 b1 P2 Q2 *2 R2 S2 Y} <[ &} d_ /2 4^ t) 6_ x) T2  } r' U2 L~ F( i] 8_ c_ c_ X: !2 b> !2 V2 V2 i@ W2 X2 Y2 G~ R| s& 9[ k@ Q| {} x< ^/ g^ Z2 Y) E< Z) ${ k^ %~ `2 g^ !!  3 52 -< .3 {} !| C) +3 +3 @3 #3 S| 9[ ]| n= S- L| ~| [} k@ u1 R- Z) U{ n_ ${ %~ M] P  a/ f[ $( $< b@ $3 B< .3 %3 &3 {} ^} *3 =3 -3 o/ @' ;3 Z| >3 [| z^ ]< e/ q# >- `] C^ ,3 F; `> `> H; (+ i: :~ ,] F_ () &_ I^ H_ Y] (] ._ ]< e2 1! '3 9} h/ )3 !3 ~3 {3 ]3 G1 ^3 (+ h2 /3 (3 _3 :3 9| <3 [3 }3 J^ n2 |3 13 23 33 43 53 63 73 ",
"83 93 .2 51 03 p} a3 H: b3 y[ 9< .] L: %: 7{ a' z/ 0{ Y^ u/ %[ $[ 5< L[ c3 A} d3 e3 f3 g3 F2 03 h3 i3 Z1 '1 Y1 Y1 s| A} b3 J} ]1 j3 __ __ k3 ]^ d) }] S^  :  : @2 l3 p} 73 F2 e| F2 m3 n3 o3 p3 q3 =2 O2 r3 s3 $| 81 d1 P} %} t3 +( u~ (: t< v) Z! F( G{ 6_ 6_ /[ F| )} q3 u3 v3 w3 F| x3 [2 y3 d1 z3 I2 P2 Y} *} P} X[ P} A3 q< 2[  } .} j= E{ 6, U/ s' F( /: n< B3 -2 w3 Y[ G{ N2 u3 C3 D3 E3 F3 G3 H3 I3 n= 5[ J3 I) !| B< x< Y  2: K3 Z) I] _} X) ,~ 9: M] O( >| =< L3 M3 R| N3 z& 5[ 62 N3 s& .3 r1 S| 82 I3 12 ;| ]| O3 *( k> L' V{ U{ D< P3 -< Q3 $< ]| L| $< R3 S3 Q| G~ H~ T3 P( U3 V3 W3 n2 8( o/ X3 Y3 D_ Z3 `3 ._ u^ s; D; <) 6+ F% (]  4 $' F_ 4! R> H_ 1! $] H_ () H_ Z> )] Y] [( !] O; h/ J_ 9| i: a! }( .4 e2 `| <- 7! M; +4 @4 #4 H1 O* 9~ $4 %4 l2 8( &4 *4 =4 -4 ;4 <| >4 v2 ",
",4 '4 )4 '1 `1 !4 ~4 {4 V1 |< ]4 q} v: c( B2 b( b( d) `' ^4 C/ ^_ (1 *[ W1 s| e| /4 (4 .2 _4 '1 e3 :4 .2 <4 F2 [4 '1 }4 |4 14 24 t} E/ Q^ ;{ |] 4]  : c( 6< a< &: [1 .2 `1 D} X1 34 w2 44 54 64 O2 74 84 Y[ Y[ W} O} 94 e1 04 K2 T/ d_ (2 B( v) t) :: b_ Y: k< X: O2 <2 a4 !2 b4 Q2 Y[ )2 c4 d4 e4 d4 I2 f4 g4 P} Y} W[ X[ p< r{ h4 }[ i4 w] x)  } F! b_ V} |[ _: j1 $| *2 C( u3 g] V  j4 k4 l4 m4 n4 w' o4 p4 z& t1 ^} q4 m= '|  < a[ U{ -( X) |} !! V~ p1 S3 $< r4 U( L3 V| V| C) s4 t4 62 .3 u4 @; a@ 7^ v4 #3 w' n= w4 x4 y4 N( 3: L( R{ z4 A4 &[ B4 A{ C4 D4 E4 F4 @; G4 {| L3 H4 I4 J4 K4 :( C_ <( L4 M4 :( Q< g: E_ [| N4 I1 O4 5! _{ x% /+ ,'  4 (] R> r/ &_ 4! r/ I^ N< *] F_ 2~ r/ r/ H_ r/ .1 B^ P4 1! -3 Q4 R4 S4 _] Z( R> u^ i2 [| T4 U4 V4 W4 g2 X4 ;1 W< N1 Y4 J^ Z4 `4 5!  5 .5 ",
"+5 @5 <4 %2 '1 #5 $5 x| B} %5 &5 61 61 (% ;{ S^ P[ l| d) M[ u/ M[ (1 A} '1 *5 f3 u2 (4 =5 -5 ;5 >5 ,5 '5 >5 )5 F2 !5 !4 J[ @: {[ {[ D/ C[ V_ D/ Q^ C/ c( M[ )[ J} *[ ~5 *5 f3 {5 Z1 ]5 ^5 /5 (5 O2 H2 r3 q3 _5 :5 c4 *} p< e1 W[ A| <5 +( U, B( U/ c_ @} [: q3 [5 -2 $| O2 }5 '2 |5 |5 15 25 c4 35 45 s3 c4 f4 e4 55 J2 =} 65 A3 T/ p{ A3 :/ x( 4^ `/ ,2 X: c_ W} W} z| 75 u] 85 F| <2 95 05 T) =; a5 z& b5 5[ c5 L| =. L| A< Q! 0[  < O$ U{ g^ 4/ V{ 4/ a/ F4 5/ V| C) b@ d5 X2 G3 n4 a5 J| e5 I3 f5 g5 X/ h5 i5 Q  R3 D~ m= o1 7[ 3= K( j5 k5 l5 m5 n5 o5 x2 p5 r1 Q| N3 ~| q5 r5 s5 t5 u5 j2 v5 w5 T] x5 c} I^ c} y5 Y] T] P_ S< z5 1- l% h/ -' <] 1! <] ._ ,' ._ Y] 0| 8( A5 &_ Z> [( O_ M4 @4 N_ 2| w# h/ || 9) B5 C5 D5 M4 E_ H_ E5 h/ F5 Q# c- G5 H5 I5 J5 K5 K1 L5 M5 N5 O5 P5 Q5 R5 S5 ",
"T5 U5 o- V5 W5 X5 e| 03 Y5 5@ &[ s2 T^ B2 U1 }] Y^ %: %: =: +: #: W1 %2 s| <4 34 Z5 *5 `5  6 .6 +6 <1 o2 @6 #6 `5 $6 G[ %6 z} /1 ]( &6 E: W_ C[ E/ =[ L: *6 F:  2 A} s| `5  6 =6 -6 ;6 >6 ,6 '6 s3 )6 !6 ~6 z3 O2 {6 P2 ]6 ^6 /6 (6 y~ y( y( Y: 8_ 8_ 7_ X} n< 94 :5 Y[ N} r3 b4 45 _6 :6 I2 {2 <6 *2 |5 [6 H2 H2 J2 Q2 W[ .| Z} /2 T/ b_ p{ B( u] F! b_ <[ n< }6 |6 W} ,> 16 26 36 46 R} 56 b5 66 76 86 c5 a[ k_ 96 06 y{ !| I3 8[ p1 7[ a6 6: =( p1 e[ x< b6 n= @; T3 c6 d6 c6 e6 f6 g6 h6 d5 G~ i6 j6 k6 l6 m6 f5 y{ P| 9: D< ^6 r] n6 >6 ^5 o6 p6 q6 r6 s6 32 R  N3 5[ R3 t6 u6 v6 w6 x6 y6 $] X3 z6 Z> [( :( E_ 0! Q4 5) c} N_ f/ O; T> 6* :- :{ <] _] 5{ <( 5{ &_ &_ 5{ 0! H_ z^ y6 L4 [( z^ g: G_ || @_ A6 8~ c} B6 R4 C6 3| n[ D; C^ 6( E# V4 P; 1| D6 E6 F6 F6 G6 H6 I6 w5 w5 J6 K6 L6 ",
"M6 N6 O6 P6 Q6 d3 !4 )  o  )1 %5 R6 /_ (% ,_ d) G/ ^^ __ M[ l3 '1 J} `1 S6 T6 U6 V6 W6 (4 X6 Y6 X6 Z6 T6 +5 U6 o] ,4 S1 _1 ~4 F: p| 9< /_ G} ^_ u/ u| M[ M[ ~5 `6 e| d)  7 p2 +5 .7 +7 @7 #7 :6 $7 %7 c4 [6 S- &7 7^ *7 =7 -7 ;7 >7 Q/ W: $} K2 @} /:  | 2[ d1 Q2 ,7 |5 d4 Y[ 25 75 25 '7 )7 !7 ~7 d4 {7 ]7 [6 ^7 *2 d1 J2 *} X[ j< o< S}  ( b_ p{ c_ m< W} /7 c1 4^ $| w3 (7 N) 0^ 45 o< _7 :7 <7 [7 }7 i6 |7 H4 c5 D~ L( 17 <* f; J) 9[ o1 B< 4/ A< N] 8[ [} Q| n= 27 c6 J| p4 37 b5 h5 47 &3 p4 v6 L! 57 67 77 S3 87 24 R3 E4 O3 B< 97 07 a7 b7 c7 Q3 h3 }1 8: @; L3 T3 d7 b5 27 H4 e7 f7 g7 y6 y5 h7 <] H_ i7 P_ h7 G_ j7 '3 k7 |! h: !] (+ O; w# x% O_ $_ [( I^ <( i} 5{ :( 8( z^ -3 l7 m7 9) 0! -3 g: E5 &1 n7 R4 o7 p7 q7 r7 S4 d} &1 m* 8| O; s7 *1 t7 u7 v7 w7 x7 K4 M1 l2 y7 z7 A7 B7 ",
":4 C7 N6 D7  6 E7 i3 F7 J[ G7 H7 *6 B2 d) t} (% ^% ^_ ^_ @2 B} *[ '1 d3 (4 T6 ,5 I7 P6 +5 W6 J7 Y6 K7 m3 L7 '5 M7 d3  7 %6 N7 Y1 O7 $5 P7 Q7 M[ /_ 6< &: D: v2 (1 `6 e( ]5  6  6 R7 S7 T7 U7 V7 W7 X7 Y7 t' Z7 d4 Z7 `7 55 g4 *} ([ 2[ 65  ( F( B( z| X: D| N} :5  8 .8 75 +8 @8 #8 $8 %8 15 !6 &8 {7 d4 *8 =8 d4 &8 O2 X[ 81 04 K2 .| T/ K2 8_ 8_ F( /: 81 $| s' N} z| #8 -8 ~2 ;8 >8 ,8 '8 )8 R! !8 j6 ~8 {8 p4 27 H4 t' y{ P| J! y{ 9: O3 1/ -! O( p_ O( ]8 @; ^8 e5 /8 &3 e6 e6 !8 !8 &3 (8 e6 _8 :8 <8 [8 }8 :8 |8 18 I3 R3 '| U( 28 P  38 48 58 68 68 78 88 98 G~ H4 08 H4 s5 G~ P) a8 b8 X3 c8 *] z^ I1 d8 x5 [( i7 e8 H_ :{ _~ O1 A^ )] w# (+ F_ Y] O_ #1 o/ J^ -3 P_ f8 g: *] -3 a! :( O_ g8 h8 i8 j8 k8 l8 $4 m8 C6 g: @_ .1 O; n8 s[ o8 M* *, +4 p8 q8 r8 s8 H6 w5 M1 n2 =3 t8 u8 v8 ",
"I7 V6  6 w8 x8 y8 d3 {1 z8 A8 *6 $[ +[ E/ t} 6] t} @2 {[ B8 C} |1 73 A}  7 v8 Q1  6 +5 T6 C8 D8 E8 V6 V6 D7 )5  7 P6 Z5 F8 N7 |1 G8 H8 k$ #: I8 a< F: R6 !1 v2 f3 .2 b' E7 I7 J8 K8 W_ L8 M8 N8 O8 -8 V7 45 {7 P8 *8 Q8 R8 Q8 S8 +| e_ Q} S} q< 4^ c_ :: O2 85 I2 '2 T8 !6 U8 !6 $8 T8 V8 W8 U8 ~7 V7 Z7 *8 *8 &8 _6 I2 =2 81 X8 /[ Y8 2[ p{ Q/ b_ e_ _: z| '2 '2 :5 !6 ;8 Z8 P8 25 !6 u~ `8 J|  9 .9 +9 @9 p4 u6 .3 #9 )/ $9 %9 {} ]| 6@ T( A< M( |} f& ~| L3 C) N3 C) &9 b5 *9 =9 -9 d5 s5 ;9 t6 >9 ,9 '9 )9 !9 ~9 {9 ]9 S| G) f& 0[ A< z< ^9 /9 (9 _9 24 :9 <9 [9 s4 }9 |9 47 b5 @9 %9 19 @4 X| -3 29 E_ r/ P_ m7 $] N_ 39 z^ [( 49 @' x5 59 6! N; ~< Z( F_ 8( :( i} -3 &_ O_ C_ -3 O_ y6 w5 69 79 i8 89 99 09 g8 (3 a9 b9 h2 39 !] B5 <] V4 c9 d9 e9 G_ &4 f9 g9 h9 H6 i9 y6 x7 H6 j9 k9 +5 ",
"C7 l9 m9 n9 o9 p9 `5 _4 $6 q9 $: +! =: N[ b< =: X^ @2 K[ 5< s| r9 f3 T6 ]5 X6  6 s9 t9 +5 u9 K7 v9 E8 J7 I7 I7 Z6 I7 ,4 w9 %6 A} x9 y9 z9 A9 %[ j( v} B9 C9 D9 r9 `1 r9 E9 F9 G9 5] E: )9 H9 T8 15 I9 _6 J9 _6 !7 |5 K9 )6 R2 &} +| <[ L9 r< /: _: 4^ M9 :5 Y[ '2 N9 U8 )6 O9 V7 P9 Q9 T8 R9 S9 T8 15 ~6 T9 ~7 &8 ~6 !6 *7 U9 S8 &} e1 *} E| q< V9 W/ _: q< ^7  8 _6 &8 W9 (7 X9 !6 %7 Y9 Z9 `9  0 (8 .0 +0 08 G~ _8 &3 @0 i5 a@ #0 P  22 p] B< p_ ,( $0 b[ n= L3 ^8 G4 %0 &0 -9 +9 *0 (8 =0 d6 _8 _8 -0 ;0 s] >0 :8 ,0 '0 }9 d@ M3 L| {} )0 -< !0 ~0 {0 >5 s5 ]0 ^0 G4 37 *0 -0 T7 [9 F~ /0 (0 |3 _0 M4 y5 h2 .4 ~< Z( :0 h7 N_ d/ <0 =] R< $_ 1! S< (+ {< ._ a! <( y7 l2 l7 _0 x7 l7 y6 [0 }0 |0 h8 $4 10 20 m8 d8 M4 B5 @_ =] `| 30 <- S< 40 50 *, %_ =1 $] o/ 60 s8 70 80 j2 90 00 a0 b0 I7 ",
"t9 c0 d0 I7 B7 M7 ]5 e0 $6  2 31 f0 8< I: (% ## O[ ^_ B} )[ g0 Y1 d3 h0 i0 j0 Z6 W6 s9 k0 l9 l0 m0 n0 t9 C8 T6 o0 I7 p0 _4 (4 N7 {1 J  /1 7< x9 q0 r0 |4 =5 /4 h0 s0 t0 u0 v0 w0 x0 y0 C{ z0 A0 B0 C0 C0 V8 D0 E0 F0 _6 75 G0 *} 55 e1 W[ /7 H0 ([ q< a1 r3 c1 q3 _6 15 J9 O9 I0 U8 J0 K0 !7 L0 15 M0 !7 N0 [6 [6 25 Z7 O0 J2 U9 P0 Q0 R0 +| S0 T0 U0 /7 V0 q3 r3 V7 V7 W0 X0 !6 Y0 Z0 65 `0 =9  a .a +a @a -9 -0 _8 ~8 H~ #a $a I) 22 /( p_ D$ p_ c[ %a J3 L3 &a *a J| G4 &3 .9 -9 %0 =a -a -9 =0 ;a >a T0 ,a 'a s4 @0 @3 )a I! 9[ 9[ '| Q| !a ~a {a 8: ]a %3 ^* ^a s5 G4 /a +9 (a  9 _a :a <a [a [0 X3 i7 h7 E_ ]< 1! v[ '3 B6 w# :{ p# =] (] @_ [~ n/ F_ 0! }a W3 X| -1 n2 C_ |a w5 n2 1a r8 2a 3a 4a 5a 6a 7a 9) {< .4 S4 J_ +1 {] .1 8- }{ L; 8a i: || g: }( :( 9a [0 0a aa ba ca da ea t9 ",
"fa ga ha ia )5 k0 ja >5 `5 o] w+ |4 F: 11 0< %[ @2 B} l( l3 s| Z1 S6 .6 h0 ka .6 la ma na oa pa K7 qa .6 ia I7 J7 qa o] ra S6 }1 +2 F) 7< F: /1 x' sa C9 #[ ,4 ta ,4 ua va wa xa ya za Aa Ba Ca @8 Da R9 Ea T9 Fa P8 d4 !6 *8 f4 X[ 81 *} |[ Ga 94 :2 D| Q2 w3 q3 )6 $7 U8 V8 S9 @8 Ha Da Ha Ia W8 Ja Ka La C0 Ma 45 !6 J2 U9 =7 g4 Na q3 j, V0 Oa Pa ^7 c4 {2 +8 45 !6 -8 Qa Ra Qa V8 S8 Sa Ta -a  9 Ua =a h6 &9 !8 Ua G4 Va Wa ]| z< x< b@  < y< ;| // b@ 5[ 27 g6 u6 %0 s5 Xa  0 Ya ;a =0 +a 08 'a {/ -0 .0 +9 s] |7 @0 i5 Za i5 P| y4 D~ $0 {} I3 f5 S| t6 `a  b s5 37 =a .b *0 =0 '} +b @b #b $b _0 %b y5 $] &b O_ $] B5 9) H_ `| 4! .1 _{ f/ p# :{ 3| I^ 13 *b 90 W3 X| y6 [0 =b (0 }0 -b ;b >b ,b 'b j8 a~ Y| m7 )b N_ n[ !b &1 :3 || 7! i: -' _{ 30 9) T] ~b |a K4 w5 {b ]b ^b /b (b ja ",
"_b :b <b m9 [b ka p9 o0 +6 }b u! 21 :9 7< 9< *6 ~5 {[ *[ l3 |1 /4 o2 |b 1b 2b 3b 4b 5b m9 K7 6b 7b m9 8b k0 C8 9b ia D7 Y6 M7 0b +2 )1 ab i3 bb A8 r6 cb p2 S6 +6 db eb fb gb hb ib jb kb lb R9 R9 mb R9 nb ob R9 Ia S9 25 `7 [2 81 e1 @} :2 *} 81 81 b1 z| I2 ~6 pb 15 15 Da @8 qb rb Q9 sb W8 R9 R9 Ia Y0 tb ub V7 25 vb O0 w3 [2 G0 D| X[ .| wb Q2 ]2 z| =8 .8 [6 xb U8 ub %7 @8 W8 =} yb zb -a Ab @a Bb Cb Ya Db -9 >9 Eb p3 P| {} ~| 2} n= [} $< f5 +3 L3 G4 H4 Fb Gb (a Hb .b -a Ib  9 Jb wb R0 ~9 Ya O8 T0 ~9 Kb i5 t' Za w' q4 t_ z< 28 O3 '| S3 Lb 27 Mb 37 b5 -0 -a .b Nb  9 Ob Pb Qb Rb Sb Tb Ub m2 [0 A5 Vb Wb S4 g: x5 e2 9) || Z> (+ r/ R> @' <( o/ m2 Xb s8 Yb Zb -4 `b -4  c .c +c @c #c $c %c &c *c =c i7 -c ;c l8 >c ,c $1 }| i: 7! -' O; 0! 5{ 'c 80 )c 90 !c ~c {c a| ]c ^c ",
"/c (c _c :c <c [c ha Z6 }c W# |c 1c Y1 2c F) f| B} H: l3 s| =5 >5 W6 o0 3c 4c 5c 6c na m9 7c 8c _c la ga ha m9 9c t9 qa 0c }b ac e= '1 A8 bc cc dc q6 ec fc =5 2b gc hc h( ic jc kc lc mc nc oc sb R9 Ha qb rb 15 ob pc _5 [6 *8 J2 qc rc p< U9 81 /[ X[ '2 .8 !7 25 Da $8 T8 qb Q9 sc tc uc rb uc vc wc R9 xc Da 15 *8 N9 yc *2 -7 55 +| a1 ([ Q2 z| zc b4 (5 {7 15 vc K0 Ac Bc Cc Dc U! Ec p& Fc Gc Hc @a Ic ;a Gb Ua Jc Kc I$ !| ~| 9[ R| e5 76 R| {| J| Mb 72 *9 %0 -a .b .b Ya Lc Mc V9 Nc Oc Pc Ya Ic Pc Ic Qc Rc G~ |7 u4 a@ Q  F~ ~| 7[ ;| F4 @; d5 %0 >* H4 47 -a Sc Tc  0 .b }2 Uc Vc Wc Xc Yc Zc `b 9a `c /b  d .d E_ [( `| &_ H_ <| 7! )] 5{ ;3 y6 O_ *b K4 `4 K4 [a +d =b @d #d $d %d &d *d +c =d -d ;d >d ,d 'd E5 )d d} 8- T> $1 w# n/ <] r/ M4 M1 !d ~d {d ]d ^d /d (d _d :d <d ",
"[d }d la |d 1d 2d <c 3d T6 ,@ #5 4d |1 /9 Y1 B[ B} |1 s| =5 =5 ,5 |b ta [c 5d 6d |d 7d 8d 9d na ma 0d ma na 7d ad <b 0c bd  7 cd #5 1c dd o9 ed E7 fd =6 gd <1 hd id id jd kd ld md nd od pd qd uc R9 Q9 uc xc vc )7 sc [6 ~7 rd =2 *7 04 ^2 e1 z| H2 25 r3 sd ~6 sb xc $8 vc tc sb td ud uc oc W8 vd oc xc 15 xb Da ob !/ $8 wd xd '2 Y} W[ &} yd :5 :5 Q2 '6 ob T8 V7 S9 sb zd Ad La Bd Cd Dd Ed Fd Gd Hd M9 Id +9 ~9 Jd s< Eb i5 12 Q! b@ %9 t1 r4 L3 b5 -9 37 47 (8 ;a Kd -2 Ld Kd Md Nd Od Pd Pd {/ Qd x~ Ua Rd Sd ;0 h6 q{ S- F~ b6 F4 L| {| F4 p4 ^8 &a *9 d6 Td  9 Sc (a @a -a Ud Vd Wd Xd Yd Zd `d }a  e .e |a b} P# }( +e h7 *] <| u^ (] F_ O_ q/ i} m2 -3 K4 @e ^d Zd #e $e %e &e *e =e -e ;e ca $b _d ~d f8 =c >e a9 ,e +1 {] `] [~ (+ d8 @' +4 l7 }a M4 'e )e =b !e Xd ~e {e ]e ^e ",
"/e (e _e :e <e 5c 9c u9 [e }e o] |c |e 68 L[ 21 .2 g0 21 /4 !4 db 1e 4b <c ma 7c 9d 2e :c 7c y0 |d 3e 4e 5e 7c 6e 7e 8e M7 9e 0e i0 ae be R1 ce !4 E7 >5 (4 U6 o2 de ee fe ge he ie je ke le 18 sb me ne vc Q9 Q9 Da sc oe pe [6 '2 ^2 qe d1 ([ X[ '2 I2 &8 75 !7 sb W8 Ia oc re se Q9 te ue E| qb ve sb W8 xc T8 oc we La O0 xe yc S2 {6 /[ $| I2 r3 ye ze +8 P8 Ae Z0 ub Be Ce De V7 Ee Fe Ge He Ie Je Ke Le wb Ic Ic /6 Me O  Va f5 Za R| w' H3 @; C) ^8 d5 &3 Ne Oe Pe Ld Qe U0 Re Se Te Ue Ve Kd Ld 91 We  9 >a +a w~ ]9 Jd 7^ S3 w' b@ M3 2} ;| e6 H4 b5 (a @a Ic Ab Mc Xe Ye Ze `e  f .f +f @f #f $f ;1 %f &f *f L4 =f -f *] L4 ;f ._ S< D; 1! h7 [( 1a 5{ :( X3 n2 >f @d ,f 'f )f !f ~f {f ]f ^f /f (f _f :f <f [f ;c }f ;c |f 2| 3( _{ w# F_ -1 I^ [( ,d 1f @e _0 2f 3f 4f 5f 6f 7f B) ",
"8f 9f 6d 0f af bf 1e cf o( D7 ac }b df %2 f| ef Y1 e| [1 fc fc ff 4b 1d gf :c 7c 1e 3e y0 y0 oa y0 hf if jf kf lf mf nf of pf eb qf h0 ua v8 !1 <1 p2 r9 rf o2 <c <b sf tf uf vf wf xf yf zf Af ve sb ue tc Ce Da xb mb T8 Bf N9 N9 R2 S2 04 H2 b4 :5 &8 y{ L0 O9 ve $8 Cf sb Df tc Ef xb Ff Da sb Gf Ca Ia td De ub Hf If Jf Kf G0 :5 ^7 z| /[ r3 N} &8 }5 26 V8 Ia V8 L0 Lf Mf Nf ~6 Of Pf Qf Rf Fd Hd Sf Tf wb We Uf Vf Wf w~ Xf s& T3 ^8 }> I3 #3 %3 G~ Yf w~ 47 .9 Zf He Qe `f  g .g Dd +g wb @g Bb {/ M9 ;a ;a #g -0 $g %g 82 )a z& S- L3 s& N3 d5 5[ G4 Qd _} &g Tc Re *g Rf ;( =g -g ;g >g G6 ,g 'g )g !g ~g {g q/ =f ]g n[ x5 29 ^g +1 N; Z( H_ M1 y6 9( l7 n2 )e Sb /g $d (g _g :g <g [g Yc }g |g 1g 2g 3g 4g 5g 6g 7g e} j9 +1 :{ Z> r/ @' K1 l7 m2 o/ 8g n2 80 9g 0g ag bg cg :d dg ",
"eg (e fg 0f gg 6b hg 8b ia Y6 }8 e0 (4 A2 03  2  2 #5 0b v2 E7 3c 5d la ga ig 7c hf :c jg ig jg kg lg mg ng og pg qg ^c rg sg tg ug vg 9c %6 ]5 `1 48 =6 o2 W6 wg ka +[ xg ~4 yg zg !9 Ag Bg Cg S9 V7 Dg xc R9 td Eg Fg td Gg P8 _5 [2 s3 '2 81 *2 $| ~6 @8 Ha L0 Hg xc Ig ve xc Jg oc Ha xc L0 sb vc tc oc W8 Kg Da Q9 D0 $} Lg Kf =2 }5 r3 I2 $| *2 Ra ~2 V8 Dg Ia W8 Mg Ia Ng Og Pg .' Qg Rg Wf Sg V2 Tg Ug Vg Id Pc 91 ;a r5 R! j6 &3 f5 q] y{ S3 )a t6 p4 Wg Dd =a .9 Xg Yg Ib He Zg @a `g Yg Lc .b ;a R0 'a  h V9 Se R0 h5 .h j6 +h &0 ^8 2} T3 b5 s5 *9 @a z= Xe @h Fd #h $h %h &h *h =h -h ;h >h )g ~g ,h [g {f *f X3 'h )h  _ Q4 Y] G_ x% <] !h O_ $] }( ;d 1a )e 2f [g ~h @d {h (g ]h ^h [g <g Qb {h /h (h _h :h <h [h }h @_ |h 9) O_ *] }a 1h l2 80 y6 C_ 'e 2h 3h 4h 5h 6h 7h }' 8h ",
"9h 0h ah bh ch dh eh <e o( 3d I7 w8 e= i3 e= Y1 G[ ,4 _4 v8 |b j0 jg ma fh gh hh la :c hf 7d 7d ih fa jh kh lh kc ie {0 mh nh [c [c +5 .6 p2 oh p9 i0 =5 ka j0 K[ hf 6e ph qh  6 rh sh sh th uh vh -8 Dc L0 Da qb vc %8 wh F0 S9 P8 J2 [2 Q2 f4 H2 S2 @0 sd xb xb De L0 tc xh Ce oc yh uc V7 zh vc Ce Ca ve Dc Ah Ha Kg Bh sd {7 Ch [2 Y[ $| q3 /7 O2 I9 [6 Qa Qa J9 Ka Gf Dh Eh Fh Gh Hh Ih Jh Kh Lh `f Tg Mh Tg Nh  h ~9 Sd %0 r{ H! #3 Va C) c5 G~ Oh .0 @9 ,9 Ph Md Qh Zg &g Bb Td Id We Rh Tc (a g; Sh Sd ;a Sf V9 R0 T0 :8 Th +h Uh Vh .h 64 Fb 08 d6 .b Hd Wh Lh Xh Yh Zh `h  i .i +i @i #i $i %i &i )g %e ,h *i =i =f m2 -i ;i 29 D_ H_ 2( <] 9) .4 >i v5 X3 ,i !f :g _g 'i @d )i [g !i ~i {i ^h ]i ^i /i (i _i :i <i [i }i 2| e2 'c |i 0| Y4 Y4 s8 )c 1i w5 2i 5f 3i 5h 4i 5i 6i 7i a) ",
"8i 9i 0i n! ai bi ci ga .! bd }8 p0 }c U6 z2 ,4 A} (4 =6 =6 <c 9b bf 6b y0 di (c (c 9f 8d sg y0 <d ei fi gi hi ii ji ki $5 1e 5c li J7 I7 Z1 Z5 (4 h0 v8 mi 9b 9b y0 8c ni oi R7 pi qi ri si ti ui De vi Ac N0 V7 vc uc vc wi )7 F0 N9 d4 *2 c4 I2 xi ~6 Z7 sb W8 De oc oc yi Mg P9 Ha Da W8 Z0 sd zi Ea vc ub Ai mb Bi Ci W8 tb t3 Di ze ^7 '2 W} Q2 25 J9 J9 L0 K0 Mg Ei Fi r< Gi Hi Ii Ji Ih Ki Pa Li Mi Ni Oi Pi Ya M9 ,9 =a >a E~ ]9 Vh Qi N! #3 @9 X/ Ri Xg Dd Si Dd =a Zg `g .9 x~ Ti =a Pi wb Ne ;a ,9 #g Ne Qd Oc Ui Rc Vi s4 s4 s4 Wi Xi E) Yi Zi .b Xg `i  j Xh Rf .j a5 +j @j #j #j $j %j &j *j bg =j <g -j (f ;j *b ~d )< >j X3 z6 E_ 5{ r/ !h M4 [0 60 ,j 'j {f )j !j ~j {j ]j {h ~i ^j /j (j _j :j <j [j }j |j 1j C5 &1 !h v[ {< 2j 3j [a )c +d 4j 5j 6j 7j 5h 8j 9j 0j aj bj cj ",
"dj ej fj gj (e na hj |  5b qa dh M7 p9 I7 x8 d3 _1 |e >5 o2 [c ij jj 1d y0 la kj 6d nd 1e hf hf af lj mg mj nj oj pj w0 qj rj sj li  6 P6 tj  7 )5 ,5 W6 ha uj la 0f vj wj xj 1d yj zj Aj Bj qi Cj :6 Dj Og Ej La @8 xb Q9 Ha wi d4 K9 ~7 G0 Q2 P8 25 @8 @8 re Ia Fj Gj Hj Ce Da C0 sd Q9 xb @8 $7 T9 $8 Ca Ea Ij D0 *} Jj Ea Ai Kj y~ 75 z3 ;8 N} Z7 ~7 $8 Da Ce Lj Mj Nj Oj b_ Pj Qj Rj Sj Tj .' Uj Vj Wj Xj Lc y3 Zf Yj =a Oa Oc [@ ;a Zj x8 `j #3 Oe  k ja .k +k @k Re Ti #k Id $k Dd Ti =a Zf ,* :% R0 +a Id @a .9 Ld Yj ,9 ,0 %k 98 l6 p0 &k *k Ta Hd x~ Sf =k Sg -k ;k >k ,k 'k )k !k ~k {k ]k %j ^k /k (k )i ~g Qb _k :k .e <k [k Q# <| 8( :( 9( 5{ 1a {d }k |k 1k 2k 2k 3k !j 4k 5k 6k ~j 7k ~j 8k 9k 0k ak bk ck dk ek !3 fk 0! -3 }a }a (0 gk hk /d /d ik jk kk $i $i lk mk nk ok pk ",
"qk rk sk tk uk vk qa wk xk la yk li B7  7 %6 0b |e v2 1b zk 3b 4c <d ig 7d zg += Ak de Bk 7d Bk Ck Dk Ek Fk Gk qf Hk Ck ph Ik Jk Kk e0 ja }c Z5 !, +5 Lk Mk t9 9b Nk Ok Pk Qk Rk Sk Tk Uk Vk Wk Xk Yk Bc Zk `k T9  l sb mb vc Ma .l Hf +l Bf b4 @l P8 25 B0 Ff rb %8 #l $l Ne E| K0 M0 sb uc V8 xc ~7 pc I9 I9 Hf td *} %l Ca &l T9 25 {7 /2 d4 |5 {7 @8 $8 xc Mf re Ef Lf Bc *l =l =l -l )8 ;l >l ,l 'l )l !l Lc ~l Jb {l Jb Sd ]l ^l {/ 8^ X/ t6 &3 .3 >0 qa /l (l (l _l Dd ~9 ;a _l Vg Td Y) V~ ;9 @a  0 Ya Ic =a Jb Ld Qc Pc :l Ph Xg <l [l }l y8 ad Dd Ya Vg |l &( 1l 2l 3l 4l 5l 6l 7l 8l 9l 0l al bl *j cl 'i Qb dl el .e fl gl hl il 5{ Y| -3 X3 X| l7 @e 'j @d <g @d jl Vc kl ll ml nl 3k ol pl ql rl sl tl ul vl wl xl yl _3 3| m2 1a zl ^d 90 4j Al Bl Cl Dl El Fl Gl 8i Hl Il Jl Kl ",
"Ll Ml Nl Ol Pl Ql Rl Sl na 9d 8b Tl =6 }c p9 |c d3 =6 hc j0 hc 3b jg Ul hf Vl y0 6] Wl nd Xl Yl 7d Zl `l  m .m Vl Ak +m 1e @m 31 #m $m Y6 fh 0< Lk sj ha ha na 7c %m &m *m ra =m -m ;m R' >m ,m Vk 'm )m !m O9 N0 ~m N0 xc {m %l T9 .l )7 _5 O  _5 C0 ]m mb ^m /m ue ne Ne {/ xc K0 Ia $8 Hg  l ob sd Kj Ea (m T8 td Bf Ca sc nb $8 &8 Bf W9 _m !6 q3 Ia !7 Ce L0 re :m <m Ng [m }m -l |m 1m 2m -l 3m 4m 5m 6m 7m 8m :l =8 Ib S2 >a Rh 9m F8 ,a h6 u6 u4 >0 Pc Qd  g `g Ph Kd #k Qd Rh ,0 0m Td am  j Lc V9 *) bm yd Sf ;a cm dm em dm >0 fa fm gm hm im jm km lm </ mm |/ nm om pm qm qm rm sm tm um vm bl wm xm nl cl ym zm ,j Am Bm Cm <| Dm O_ 8( M1 Em q/ Fm $b }g Gm Hm Im Jm Km Lm Mm Nm Om Pm Qm Rm tl Sm Tm Um Vm Wm Xm Z( m8 1| Y4 *b I6 l2 60 h9 #b Ym Zm `m  n .n +n Il @n #n $n %n ",
"&n *n *n =n Rl -n ;n x: pa >n ,n 'n )n !n ~n >5 1b =6 ia |d 4c y0 y0 2e Xl ih jg :& {n ig jj af oj ie  m ]n ^n :e Ck Yl /n &5 N[ $: (n sj ta k0 _n gf 4c Lk 9d :n <n Pk zg [n }n |n 1n 2n 3n 4n 5n 6n 7n 8n &8 9n Cc 0n P9 Ea Kg Bf an [6 pc %9 Z7 15 Da A0 bn cn dn /m Ya Hg Ka L0 Hg I9 sd C0 Ia !7 pe ob Ma ~7 F0 en T8 fn gn wh hn wh 75 &8 Z2 }5 U8 Lj in jn Ei kn ln mn R@ nn on pn qn rn sn sn tn qn un vn wn  k xn Oa _l Sd Si Q  yn F8 {9 zn 98 Aa Ri `f An Ti Td Zg .9 m6 q5 He Zf Bn Bb Zf Ab Yj ,9 Md Sf Ta Cn Od Dn En Fn rg Gn rg Hn In Jn .[ ]~ Kn Ln Mn Nn On Pn Qn Rn Sn Tn Un Vn Wn M< Xn Yn El Zn )i `n  o .o +o +o c8 l7 m2 @o O_ 0| #o |k $o %o /f !j &o Jm *o =o -o ;o /k >o ,o 'o )o 3k Om !o ~o {o ]o g7 59 f2 -3 3a ^o I6 `4 [a `b /o (o %i _o :o <o [o }o |o 1o 2o 3o ",
"4o |o 5o 6o ja 7o 8o 9o 0o na @g ao Uj bo M7 co R1 |b o2 hd ga 3e lc (c 2e %m y0 J= :n jg 4e :c Ck Ul ei do ]n ei 14 xk eo fo 1e /n ja [b J7 Lk ga ig li 3e (c go ho *m io jo Wk ko lo mo no oo po po qo ro so O9 )6 to Ma Hf uo vo xb N0 e] oe W8 d4 L0 re ne wo Mg xo in ub oc Z0 J9 $8 S9 W8 V7 15 T8 V8 pe (m %l @8 '7 wi td yo (m zo wi O9 V7 f4 z| Ao Bo Co Do Nf Eo Fo Go ,l Ho Io Jo Ko Lo Lo Mo No Oo Po Qo Ro ,0 Rd x~ Md So To mf sj Uo Qi Vo Ph _l Tg `g .g Zg Wo Me Zf `f #k Md Xo Ld Ln  0 x~ Hc Yo Ya Zo `o em  p .p +p @p #p $p %p &p *p eo =p -p Lh ;p >p ,p 'p )p !p ~p {p tm tm ]p ^p /p (p _p al :p /k <p [p |k L4 $] l2 C_ ]] }p X| [0 )e $o ~f |p |p 1p 2p 3p 4p 5p 6p 7p )o 3k 3k 8p 4p 9p (j 0p 9p ap el bp b} 59 L4 }( <a !c cp dp ep fp gp hp ip jp |o kp lp mp np op ",
"pp qp rp sp tp up vp bh wp ci xp fo )n sj bd yp vg t0 ja ga  m hh go 3e sg {n kg sg >[ ih (c <b jg Ul J  *: G[ nd ga zp pj Ap 0d fo <b 5c 3c Bp Cp Dp qf bf Ep Fp Gp Hp Ip Tk qo po Jp Kp Lp Mp Np Op Pp Qp Rp Sp J9 !6 La .l nb De P9 I9 _5 !7 L0 Tp vd tc se Up 3, Vp %7 sb Mf -8 -8 Ja S9 @8 @8 P9 V7 Lg Wp vc z3 D0 zo gn Xp %8 qb Fa Kj Yp pc $8 T8 oe Zp Zp Ad Ie Sj P> `p on 5% [7 [7  q .q +q @q #q $q %q +m &q Od Qd O} *q Tg Jb =q -q ja yn (l Ti ;q >q Sf t@ h5 U0 ;9 He He Ti He Md Qd Pc wb Qd Id yd Ui P0 Sd `g ,q 'q )n 2d zp )q !q ~q 'l {q Ni ]q ^q /q (q Vn _q :q <q [q }q |q 1q Qn 2q ~k 3q 4q 5q 6q Nm 7q &f 8q *b *b X3 m2 (0 9q 80 r8 ba *e 0q aq bq &o {j ;o !j cq dq eq fq gq Pm hq iq 9p 8p jq $o kq lq mq nq m7 -3 1a oq pq qq rq sq tq uq vq wq Jl xq yq zq Aq Bq Cq ",
"Dq Eq Fq Gq Hq Iq hj Jq Kq Lq _c {q {q 3d Mq Nq Oq ia Pq 8d {n Ul Qq Rq Sq (c 2e (c Tq 8d Uq q0 h3 3e .m jj 2e Vq 5e Wq 'l Ak Xq eo Yq Bp Hk gf Zq `q  r ih .r xj 0c +r @r Tk lo #r $r %r &r *r =r -r ;r >r ,r 'r )r Va to vb L0 !r #g i6 (m V8 S9 C0 W8 /m ~r {r V7 Dc vc Z0 Lf -8 Mg N0 ]r Ia K0 sd N0 Fa pe vc .| z3 T8 ^r /r Ha mb (r ob C0 K0 J9 in C0 38 _r :r <r [r }r |r E] 1r 2r 3r 4r 5r 6r 7r 8r 9r 0r ar br qj cr dr er fr gr B' hr zp ir ;q fr Jb ^} .3 am Ib Vg bm jr kr Zf Sf wb Id Zf Ld V9 ;9 x~ Oa C] Se Qd E| lr mr +) V' 6e nr 7e or pr qr rr sr tr ur vr wr xr yr zr Ar Br Cr Dr Er Fr Gr Hr Ir Jr Kr bg [g Lr Mr Nr Or Pr Qr Rr Sr Tr 50 Ur Vr Wr Xr Yr Zr `r cq  s .s +s @s .s &o #s $s cq pl 7k 3k %s ^i &s *s >f ,j =s -s ;s >s ,s 's )s !s 0j ~s $n {s ]s ^s /s (s _s ",
":s <s [s }s nk |s 1s 2s 3s 4s 5s qa ij {q bo hc ia ga 5c hf 6s y0 Xl ih /c ma 7s Yl Wl di nd 7c lg Wl +m (c Ck 8s +m 9s ei lg 0d ci {q 0s ei }l Xq as je bs cs m9 ds zj ,m es Mp Lp fs gs hs is js ks ls ms ns os ps qs #~ V} X0 o^ 9& Oa L0 Dc V7 xb Ce rs ;a Ya Mg Ae B0 Ia Dg -8 Ja E0 P9 vc td N0 nb !7 P9 W8 ss (m Gg .l Jj sc Ha sd Gg (m sb !7 oc ts Mg us vs ws xs ys Y{ zs As Bs H| <* Cs Ds Es Fs 9r Gs Hs Is Js Ks Ls Ek Ms `l Ns Os Ps Qs X/ Rs Jb  j am Ti Ib Ti Ti Dd Kd Tg x~ (l Tg Bb He Yj Zg Bb Qd wb Qc Pd Dd Ss Ts Li Qe Pc Jk eh Us Vs Ws Zf Xs Ys !p xr Zs `s  t .t +t @t #t $t %t &t om #j *t =t -t ;t 8p |f >t ,t h/ ,j 9a )e 2f |g *e Im 't )t !t ~t {t ]t ^t /t (t _t :t <t [t }t |t cq :t ol 'o 1t 2t /j 2f 3t 4t 5t K4 4j )i 6t 7t 8t 9t Fq 1o {s 0t mp at bt ct dt ",
"et ft gt ht it jt kt lt Ue ci xp mt |d Ap la 6c <c <c ig 8d 2e ig nt [d Xl hf di ot 2e jj Xl <d 7e uf hf  m 8s pt Ap qt <d lc ci Ap _c rt |d hf ig (c Ok xj st tt =m >m lo ut vt wt xt wt yt zt is At ks Bt Ct Dt lo Et Ft U} =9 25 Gg Gt Ht It t_ Jt Id Id S( Lf Kt Lt Ja K0 oc K0 ve U8 ]m sb %l '7 xb pe Y0 Gg p< Y0 O0 d4 %l sc td W8 Ia Ea Dc in Mt Nt i@ Ot H= Pt X, 17 Qt g;  { Rt '* &# St Tt Ut Vt Wt Xt #s Yt Zt `t  u .u +u @u #u $u hr %u Si &u *u =u =u Xe =u Ib Vg Vg Sf `f Sf -u U0 `f bm Re Ld Zf wb Ya ;u `f >u ,u ]n yk 'u oj vf ya pj )u !u ~u {u ]u .t <q <q ^u /u (u _u :u Cr <u [u sm }u |u 1u 2u 3u 4u 5u C6 ^h (h 6u _0 Em 7u 1g $d 8u Im 9u 0u au bu cu du eu dq fu gu hu iu ju H< ku lu ,o mu nu ]i jl ou pu qu ru Z4 ik su fp )s tu uu Ml [o vu 0t wu xu yu zu Au Bu ",
"Cu Du Eu Fu Gu Hu Iu pk vu Ju Ku oa Lu :c hj hj t9 Mk ma go 8c zg Xl 7c Xl Sq 2e ih qf Xl af Mu Nu qt Ak Ou qt 9s 7e Pu Qu Ru kf Vl Su 5  .m rg rj Tu Uu Vu Wu Bj Xu Yu Lp xt *r Zu `u yt  v bk .v +v @v #v $v %v =r &v *v =v La -v La ;v >v Lt L0 ve Ei ,v .9 'v Mf Ja Ja Ja Ac !7 Mg Q9 xc R9 pc nb qb vc Ia ]r 7, S9 !7 T9 T9 uo Hf td zh P9 Kt )v !v ~v {v ]v ^v B, 2r /v (v _v :v <v [v 8/ }v  q |v 1v 2v 3v 4v No 5v 6v 7v 8v 9v 0v av bv E) cv dv im `l vn ev fv Ke gv Re x~ _l Kd Tf `f Re Ib wb hv Qd #k #k Sf {l +- iv jv kv lv Qu mv Fn lj nv ov pv |q qv rv /u sv tv sv uv vv wv {p xv yv zv &t Av Bv &t Cv Dv Ev Fv Gv ~i !f .e )e _f Hv ]j Iv Jv Kv Lv Mv Nv Ov Pv bu Qv Rv gu eu Sv Tv Uv Vv ]t Wv Xv Yv Zv `v  w 6g !g )f Yc .w +w Xd 4i @w rk #w nk xq $w %w yu &w *w =w =w -w ",
";w Du >w ,w 'w #n $n $w )w !w ~w {w bh Lq <c fg l0 0f je 7s [d di lc 3e di ]w hh Nu +m ^w 2e lc Wl Ul Ul ie /w zg Mu (w _w :w %m /e lg <w 9s [w 8e }w |w 1w 2w 3w Kp Mp 4w wt fs wt wt 5w 5w 6w yt 7w 8w 9w $v 0w aw bw cw dw ew I9 P9 fw gw hw Nf iw ,v ,v jw Lc kw in Mj Zp hw U8 !7 Ca Ea vd T8 vc L0 V8 W8 Ma lw !7 [6 Gg vb Bf Ca Ea oc Qa mw d4 nw ow pw qw rw T,  q M- ,. >! sw -* ;) $) tw Qt uw vw ww xw yw Wt rn zw Aw Bw Cw Dw Ew Fw Gw Hw Iw Jw Kw Lw =k Mw Ze =u Mc Vg Id Vg Kd We Xo Nw Ld '6 Nw `f Md Ab +~ Vf -u Ow Pw Qw Rw mv ph Sw Tw &t tm {u Cr Cr Uw Vw Ww (u Xw Vw `s `s Yw Zw `w  x .x +x @x #x Gr $x %x &x bg (g *x [g $e $e )s =x )i ]j -x Yn ;x >x ,x ~t ]t 'x )x !x ]t ~x {x ]x ^x ]x /x (x _x :x Gm ;t 4f <x [x }x 'i 7j |x 1x 2x nk 3x 4x Il xu 5x 6x 7x ;w 8x 9x ",
"0x ax bx cx dx Il ex fx gx hx 0j ix j3 jx kx i) fg jx [d je Rq lx 7s go _& 8] ih lc ^w Tu mx lc Xl nd  m 9s ^e nx cr ox px qx rx sx tx ux {w Ck vx wx Xu xx es yx Yu gs zx Ax %r Bx  v Cx Dx hs Ex Fx Gx Hx 7o Ix Jx Kx Lx Mx Nx Ox [@ Px Qx jw in Rx Sx Tx Lj Dh xc Ux Ib Mj O9 vi -8 Ma Ha Hg S9 Ka $7 $8 O9 Y0 @( ~6 Vx )6 *8 Ma mb Ea K0 _6 >> Wx Xx Yx Zx `x  y Z2 U& .y +y @y #y B> $y a7 w@ Q( %y &y %y '. !. *y =y -y ;y >y ,y 'y )y !y ~y {y ]y ^y /y Ow (y Xj Xj _y Xo Le Yg Ln Xo Zf Xe :y Xo Re <y =p Pw Yg '( wb [y Pa }y T0 Oi bm |y 1y 2y 3y _q ~p uv (u :q 4y 5y 6y 7y Cr <u 8y 9y 0y `w ay by cy dy ey fy gy hy iy jy ky ly $e my Jv ny 3i 4h bl oy py qy ry sy ty uy vy ry wy xy xy yy zy E. Ay }n By eu Cy ]t cu Dy 6q 0g ly Ey Fy Gy Hy $w Il Iy Jy Ky bx Ly My Ny ax *w Oy ",
"Py Qy Ry Sy Ty %w Uy Vy Wy Xy Yy Zy 4x o3 P7 `y l{ (e  z  z .z +z zg @z m| Ul Sq Ep je 7c lg %m Vl ei %m tx #z $z %z &z Iw *z =z -z ;z >z ,z 'z )z !z es qo ~z 2n {z ]z ^z gs /z Cx  v (z _z Bx :z <z [z }z |z 1z 2z 3z 4z 5z 6z 7z 8z 9z 0z az bz cz mw Z0 dz Qa ub ez fz j1 mw Eh gz  l ve Z0 Dc Nf gz Eh hz F| N0 T9 45 P9 T9  l Tp I0 >} iz w6 jz kz Qt lz mz u@ nz oz pz qz W~ rz sz tz uz vz q$ :v wz xz yz Cs =y uw ,. ). ;y zz Az Bz Cz Dz Ez Fz Gz Hz Iz Jz 3s Kz Hc &g Bn =u Xe Ln Lz gv Lc Ke <6 Qd 3s *q Mz x~ Na Nz Vg #k Lc Oz Pz Qz Rz |u 8l Sz Sn Tz 4y Uz vv _u Vz Wz Xz xr Yz Zz `z ay  A {u .A dy +A @A #A 2y &h $A %A &A 4i *A @f ~t 8t =A -A ;A >A ,A 'A )A !A ~A {A ]A ^A /A (A _A :A <A [A }A |A 1A 2A `r 3A 4A 5A 6A 7A #n Il Hy 8A 9A 0A aA gx Oy bA cA dA bx eA My fA ",
"5x gA 5x =w bx hA Wy xu iA jA %w kA gx 1o mk lA mA l{ bs nA oA pA qA E[ Vq rA sA rA wj ho gg %m Ck 2e ]w tA uA vA wA xA yA zA AA BA CA DA ~z EA FA GA HA IA JA KA LA MA NA gs Zu OA PA _z 0w QA RA Hx SA TA UA VA WA XA YA ZA `A  B .B +B @B #B Zo hz hz ln $B Ac <m ln %B Nb &B hw Nt Ra Zp J9 jw Nt *B =B !7 4^ ;8 E0 ye ye 36 *} -B ;B Yt >B 2m ,B 1m 'B )B K] W= -( !B ~B 0s ;) 5, {B ]B -: ^B b{ /B 4= E< c/ 4r (B _B T, :B zs <B !B rz [B }B |B 1B 2B 3B 4B 5B Mh 6B 7B 8B 9B 0B Ln aB bB cB Yg &g er dB eB J. fB gB 8B Ke Va hB iB jB ]p kB 5l lB mB nB oB pB wv Cr Sn Uw qB Xz vr rB 9y xv [q sB tB ~p uB tB Ys vB wB sm xB {k !k yB zB AB $i %j BB CB DB EB FB GB HB IB JB KB )x Rv LB MB NB OB PB <j QB RB SB SB TB UB VB WB XB YB ZB 5o Hy ex |o `B  C .C +C @C #C $C %C &C *C =C -w ",
"-C ;C >C ,C 'C )C Ny !C ~C {C ]C ^C Ty /C (C Hu _C :C <C zp [C }C ^^ 5B |C 1C 2C Pk 3C gg 4C 5C 6C 7C Mu 8C 9C jf 0C aC bC cC dC eC fC gC hC iC ut jC kC #r %r zt lC `u mC nC oC pC qC rC sC tC uC vC wC xC yC }z zC AC BC CC DC EC FC GC HC IC JC KC LC ~w @0 MC NC OC *B %B Ye PC QC %7 *B hw RC _r SC Dj TC c& Ma V8 '2 UC VC WC XC YC ZC `C qn `C  D .D Ut uw 86 L( m_ Y) q^ x, 4/ W= 2: +D i| &) R: @D #D :% $D %D &D ]~ *D =D &D /% -D ;D >D ,D 'D )D !D ~D {D ]D ^D /D (D _D 8B :D <D [D }D Qe hv -% |D 1D .] 2D Qd U! 3D `c Bv 4D 5D @x tr 5l 6D cy <u uB 7D 7D 8D <u vv  t rB 9D 0D 4y Zz 7D aD [q rB bD cD dD Cr eD rB fD gD hD jB @j iD jD kD lD mD nD oD pD qD rD sD IB tD uD vD wD xD yD zD AD @q BD Lo TB tn CD DD ED FD Jl GD !w gx HD ID /C JD KD LD MD ND OD PD QD RD RD bx xu ",
"SD TD SD UD VD WD zu XD Sy Sy hA YD Ny 5x ZD `D ht  E .E +E @E #E Oo Jk $E %E &E *E gg oA vf 6e =E -E ;E >E ,E 'E )E !E Uk ~E {E ]E ^E /E dg (E 4w _E :E wt yt hs 0w pC <E <E [E PC }E |E 1E 2E 3E 4E 5E 6E 7E 8E 9E 0E aE bE cE dE eE fE gE hE iE jE kE gC lE mE nE oE [y pE qE rE sE L! tE uE pE vE wE xE yE >> zE AE }m 9r Ds Ds BE CE DE Ko EE FE GE Ut HE IE JE KE [; LE G< ,8 F& /. !^ ME m5 !^ B] NE +~ L$ OE {. PE Z= 0/ QE vz RE SE TE UE VE WE !B XE YE ZE 'u `E  F sx .F +F pf @F #F $F %F &F k5 *F =F -F ;F >F ,F @x 'F )F !F sm Ys ~F }u wB 8D {F [q qB qB Cr 7D :q Ww ]F ^F {p aD uv /F 5y 9y 0D (F _F <q Vz uB :F 'F Rn <F [F }F tr |F 1F om 2F 3F 4F 5F ;t 6F nu 7F 2t 8F 9F 0F aF bF cF dF eF fF gF hF mA iF  E 3x 8A jF Il kF ex Ny lF mF &C nF oF pF qF rF sF tF uF vF wF xF ",
"yF zF AF %C BF CF hA DF EF Ty ZD FF GF HF WD Fu Zy IF JF KF LF MF NF OF PF QF RF SF TF UF VF WF XF YF ZF `F Ip Cj  G  G JC .G +G @G #G $G iE %G kC lC &G mC *G mC =G zx -G ;G >G >G ,G 'G )G !G ~G {G ]G ^G /G (G _G :G <G [G }G |G 1G 2G 3G 4G 5G 6G 7G 8G 9G 0G aG bG cG dG eG fG gG hG iG jG kG lG 9r mG DE ww nG oG pG Fs Fs qG 6r Fs oG rG Ut sG tG uG vG .y wG xG )( yG ,~ ,| 7/ B] >| LE s$ xi zG t@ x@ @. AG BG CG ,. )( F] &# g; Z= +- &7 y> DG EG FG P> GG HG IG }r JG KG LG MG NG sm OG PG QG RG SG sm TG UG %t |u wB VG WG XG >p Yw YG ZG 7D rB `G 8D wr rB  H `s uv .H <u +H wr /F @H #H vv {F sB uv #H $H @t %H &H YG ~p WG 2q 'p |u 5D *H =H -H ;H >H ,H 'H )H !H ~H {H ]H ^H /H (H _H :H <H [H }H |H 1H Gy 2H 5o 3H 4H 5H gx 6H ]C et 7H 7H 8H cA yu 9H 0H aH vF bH cH dH eH fH ",
"gH hH iH SD SD jH kH lH mH ]C nH Ly oH iA pH qH rH 1o 9A 1o sH 4x tH *n }s uH vH uH wH xH yH {: dG  G  G Cj  G 1n zH AH BH AH CH DH EH *G fs vt %r FH 4w hs gs 6w $v GH bk HH IH JH KH LH MH !: NH aE OH Ix PH QH RH SH TH UH VH WH XH YH ZH `H  I .I +I gE #B @I #I $I -r %I &I *I =I -I ;I !. >I ,I 'I pG 7r )I !I ~I !I {I ]I pG HE ^I ^I /I 2v ww 6r (I vw _I (v '( T~ :I F& <I [I }I M' F& |I 5} 1I a6 2I Q$ 3I 4I 5I ;. KE JE ~. X& 6I C= J> FE Lo 7I Tt 8I DG yw ,I 2r }2 Bs 9I 0I aI bI WG Ys vB by !F cI {u dI {p )p Uw rB ^F VG 6D @x 6D lB eI 7y {F @H fI xr ~p :q Cr sB YG aD #H gI <q hI Xw iI 5y Vw jI ]F :F kI lI dD XG WG Rn [q mI nI oI pI oI qI `y rI sI tI uI vI wI xI yI zI AI BI CI DI EI FI GI HI II JI Ty ^C /C KI )C /C LI MI NI OI 7H PI *w QI RI SI TI UI VI WI cH XI ",
"YI ZI `I  J SD 'C Wy Du wH xu .J +J ^C *w Oy @J Wy Au Wy bx ^C Hy HI gx #J rH $J %J -w &J *J {z JC no =J ~E -J Yk ;J >J ,J aw 'J )J !J ~J {J %r ]J ^J *r *G 4w <E wt /J (J _J :J <J [J }J |J 1J 2J 3J Fx 4J RA 5J 6J 7J 8J 9J 0J aJ bJ cJ +I ;G dJ 0E >G eJ fJ gJ hJ iJ jJ gs @v kJ lJ mJ nJ !I ;. }v }2 ). oJ pJ ~I !I qJ rJ Cs sJ tJ uJ +q !I on Ds Es vJ uw wJ B@ X) xJ m@ yJ zJ T) AJ BJ R$ CJ +y DJ BJ D< EJ FJ GJ 3I HJ IJ JJ KJ LJ *{ ;!  q 2v Ut !I yz MJ NJ Ds )B OJ s$ PJ QJ RJ SJ TJ UJ VJ WJ XJ }u Cr Xz YJ `s xv .H ZJ yv  t `J qv wr yr aD `J  K hI `s uB .K Sn Zz <u XG +K @K #K $K /u %K &K *K fI =K -K {F /u ;K >K Uz [q |q ,K |q 'K )K !K ~K {K ]K ^K /K (K _K :K <K [K }K |K 1K 2K 3K 4K 5K 6K 7K 8K 9K 0K aK >w kH bK cK lH dK eK fK *C VD gK hK iK jK kK lK mK nK oK pK qK ",
"8H rK sK `I tK uK Ny *w vK wK YD ~C iH 6x xK MD yK iA kH zK 7H #J AK Oy .J BK bA CK DK EK FK ut is GK ks HK -J ks iJ hJ Lp IK JK KK 3G LK Lp NA -r wt wt wt iJ @v iJ %v MK NK OK PK QK <J RK SK PK TK UK VK PH WK XK Gx YK ZK `K  L .L +L @L CC #L YH &B $L %L &L *L =L %L $v 9w -L (z LK ;L >L H& >. ,L ,. 'L )L !L >L ~L {L ]L HE HE ^I St ww Es Ds uw HE 5I 5I ^L k^ zJ /L xJ [I 5} Z2 2: t@ EJ X  k> (L 3= j> _L :L 3I CG IJ y@ <L [L u@ {. uw }L  q |L oJ 1L 2L 4r 3L 4L 5L 6L 7L 8L 9L 0L aL 7y bL 7D Yz 9y @t :F cL >K dL eL fL &H gL 7y aD Uw hL <u {F iL $H eD tB Cr }q Cr {p jL kL lL mL nL oL pL qL :F rL sL tL uL vL wL cL xL Xz !p 8D yL zL yL uB AL BL CL DL EL FL GL HL IL JL KL LL ML NL OL PL QL RL SL 7K TL UL et VL WL @J YD XL YL ZL `L  M .M +M @M #M $M %M &M *M =M -M ;M ",
"eA 7x Cu AF >M ,M hA Du 'M )M Ly !M lH Ny ,M ~M {M Sy 7H fA bA YD YD Ly !M ]M ^M /M (M _M :M =L -G pC @v -r DH <E ZH ^z <M NA [M :J [E !J }M |M ]z mC *G gs lJ 1M 2M 2M 3M 4M NK 5M 6M 7M 8M Hx 9M ej 0M aM bM cM Ix dM eM fM gM hM iM jM PK kM NH lM mM nM oM pM qM rM =L sM HH tM uM vM wM H& H& xM ,L 1L y@ 1L yM zM AM BM CM DM EM FM Es GM HM vG vJ tJ wJ IM ~L JM !; [I JE ~; O' ~v 4/ ,8 7@ %< KM ,| @. 5} f$ |I ~L LM j4 MM *~ NM X~ OM >! PM NJ 2L H& EM L$ MM e7 #D QM RM SM TM UM VM WM XM .H YM _u ZM `M  N `M .N +N sv @N YG Zz Br /F 7D 8D <u ]u zr @H  t Cr #N $N .H %N &N *N =N -N ;N _u fL >N .H ,N 'N $K )N !N ~N {N ]N ^N .H uB /N /N (N _N :N <N [N }N |N 1N 2N 3N 4N 5N 6N 7N 8N 9N 0N aN bN cN dN eN fN gN hN zu iN jN kN Bu lN mN nN oN pN qN rN sN tN uN vN wN xN yN zN ",
"AN BN CN DN EN ]C ;w FN ^s GN -w 9x HN IN IN dK JN Ly ^s dt Bu Eu YD KN ZD LN hA AF MN NN q  ON ON PA PA GH PN ^J QN RN -r [E SN TN [n UN =r %r xt zx Bx zx VN #v WN XN YN YN ZN `N  O .O TH +O @O #O 8E $O %O &O *O .O =O -O ;O >O ,O 'O KH )O !O (J kJ %v lM <z |J PH ~O -L {O -L ]O ^O /O ;. xJ $. (O ~L _O :O 3L x@ _L qJ <O FJ [O 7r >I +q )B }O |O |O 1O 3I 2O 1O 3O u= !; 4O 5O '} 0[ Y  L& R- q@ 3= X  JM xJ G& P$ s= 6O 7O 8O 9O b{ 0O aO bO cO &< q^ ,. q' %. zG dO j| 1@ eO fO gO hO iO jO kO lO `M YM dL ]F mO :u wv zr bD wr `s nO `M 5y 5y <u eI uv $H zr dI 1q #N rm oO 0y %N pO qO  K rO sO Uw tO uO 0L vO wO xO yO zO ]N AO BO .K CO vO DO EO FO GO HO IO JO KO LO MO NO OO PO QO RO SO TO UO VO WO XO YO ZO `O  P .P +P iH @P .M #P $P %P &P *P =P -P ;P >P ,P 'P @P gK )P !P ",
"AN ~P SD oH &C 5x {P gK ]P ^s Du rI ^P Xy AK dA Py MI %J KN =w /P iH `I dA 7H (P %C _P NN q  :P <P [P }P |P 1P *G kC 2P 2P 3P PC %L <G 4P $I At =G 5P Cx RA 8w ~O uC XN 6P 7P 8P 9P 0P aP bP vC #O cP dP AC >  eP fP Fx 9h gP hP iP jP kP MK lP 9w :J mP nP oP pP oP nP nP qP rP sP tP uP vP wP O& h> xP y@ G& yP H& DM zP Cs AM }O AP }v =y oJ HM 'L _I 5I _I 1O BP zJ wG 3O s@ CP k_ v$ P$ DP }} k_ =( @. K$ T$ 5} EP [I FP L$ MM Z) GP HP IP JP KP LP bO y, y@ :% NE MP NP OP PP QP &! RP SP TP UP VP WP XP YP ZP /u .H sB `s vv #H `P  Q .Q @t 8y +Q +Q YM Yz @t WG 7D Xz 1q [q @Q #Q $Q `s dL %Q >K rL `P >K &Q *Q uO N5 =Q -Q ;Q 'A 0L &K >Q ,Q 'Q )Q !Q ~Q ]N {Q ]Q ^Q /Q (Q _Q :Q <Q [Q }Q |Q 1Q 2Q 3Q cN 8K iK 4Q 5Q 6Q 7Q 8Q 9Q 0Q aQ bQ cQ dQ eQ fQ gQ hQ iQ jQ kQ lQ PL mQ nQ rK YI ",
"oQ OD pQ YD qQ rQ 6x RD sQ ,M ^M 6H EN tQ uQ -w vQ .J &C ax 7x &w ax (P VL Eu YD tF wQ xQ yQ [P zQ [P sP zQ AQ BQ )J <E 1M GK )J iJ CQ Hx VK DQ qP ~O EQ FQ Bx sM :G 6P )t GQ 5J HQ IQ i  JQ /G KQ dM LQ QH UK rP MQ NQ OQ <z PQ QQ RQ SQ TQ uC UQ PH VQ  O 7P WQ XQ YQ ZQ `Q  R .R +R @R #R +. j> J& Oz [r ;. 5} $R %R !L yP AG ~L |L HM vG &R GM pJ qJ |O |O *R Q$ zJ u= O& =R -R u1 k> q= xP p@ J$ ;R ); $R _O x@ _O >R ,R ^. 'R +~ )R `- !R ~R {R ]R ^R U' P$ q' `2 /R (R _R :R <R [R }R |R 1R 2R 3R 4R 5R 6R `P Tz .Q qL 7R 8R xv hI tv 9R iI +Q ZM /u #H `P Yz (F $H oO 0R aR bR cR dR <q  K eR fR XP gR hR iR jR kR lR mR nR oR pR qR >Q {F gI cL (F ;K rR oL sR tR uR vR wR xR hk yR zR AR BR CR DR ER FR iK GR HR IR JR KR LR Bq MR NR OR PR QR RR SR TR UR KR VR WR XR YR ZR `R PI  S ",
".S +S sQ zu Du @S dA #S DN $S %S &S *S =S Ty bx 6x *C GF -S $C /P tF 8x iH tF VD ;S >S ,S yQ 'S )S !S ~S {S ]S ^S bk =L /S (S _S :S <S [S }S PK |S 1S 2S mP VN DQ 3S 7P 4S 6J 5S 6S GQ 7S 8S vC 9M 9S 3E 0S aS bS cS :G dS eS fS gS hS TA iS 0M jS lM kS lS mS rP nS oS pS %O qS rS sS tS uS y. vS wS E& P$ [I s= (O ;. <O |I xS ~L AM [O {L <O HE yS 'L s= zS AS EP i> i> B& BS @. CS O& '> h@ .. i> j> DS $. G& Q$ ES _O w@ D@ 6O 0O FS GS HS IS JS KS s_ &< }I ,R LS MS NS OS k$ PS QS RS SS TS US VS WS XS YS &K /u YP WP ZS sv .Q ,N `S _F 7R  T .T  K <q aD `P +T @T ur @Q #T $T CO %T &T *T =T -T ;T >T ,T 'T )T !T ~T {T ]T ^T sy bD aD `s 0D <q @H rB vv (F %H hR /T (T _T :T <T [T }T |T 1T 2T 3T 4T aN 5T 6T ;M 7T 8T 9T 0T aT bT cT dT =M eT fT gT hT iT jT 3Q kT lT mT nT oT $C pT ",
"vK qT rQ LI ;w UD DN rT HN sT tT 9A dx uT xu Ny EN Ly /P tK vT DN wT 6x RD ,C xT yT zT AT q  cM BT CT DT )S ET }P FT FT GT HT IT JT KT LT MT KT gM NT OT `N PT PA QT 6S 7P RT zQ ST TT UT VT TK 0S WT XT YT QH ZT `T  U .U ZN PK +U @U #U $U %U &U *U =U xD -U ;U >U GQ 7P ,U 7P <P 'U )U !U Qt ~U W  {U q= >; $. ]U I& GJ GJ DM pJ EM zP 7r )B ^U rJ vG P$ x@ u= yJ /U CP :@ n6 x4  . ,; Q) B& {; m@ J$ ~; _O B@ $. r= L$ ]U %D (U _U :U <U [U }U $y |U ,R l_ 1U 2U 6@ 3U PS c, 4U 5U 6U 7U 8U 9U 0U aU bU cU dU eU fU gU hU $H iU uL sv jU <q Ww Yz kU Tz Vw +T lI jL 0R lU ay mU nU  A oU hR pU qU 3j rU sU tU uU vU =Q wU xU yU zU Ar Zz wv [q Vw AU ZM {F 4y Xw )N AO BU CU DU EU FU GU HU IU JU KU LU MU NU OU PU QU RU SU TU UU qN VU WU XU YU ZU `U  V .V ND nN  V +V @V et #V $V %V &V ",
"Ny iN GN @J bH ~P FF pH lH `D IN *V =V -V %C qT ;V yu ;w >V ,V bH GF 0x %C zK 'V )V !V ~V {V XK ]V zQ ^V SH qC RA FT /V HT Hx (V _V :V <V [V }V |V 1V 2V TK 3V RA )t >U 6S 6S rS RH 4V 5V 6V 0P 8J 7V 8V 9V 0V aV bV Fx cV 5S WK dV 9M eV fV zC R_ uM YN gV hV iV 6S RH ]O jV kV qC }P lV mV O& o@ g$ X! T$ nV ,; nV j> ;. 5} AG %R oV <O yS pV 'L FJ qV :L rV i> i> yJ sV q= p] d$ '> W  k@ K& CS nV ]U g> T$ tV (O ;. uV #. vV wV *: xV yV zV AV BV CV '( PE JM =( 5O DV EV NP FV GV HV IV JV KV LV MV NV OV PV QV RV ^N /u $H fU bI sv SV 7y _u bI Yz uU wv TV -H UV VV WV WV >K (F rB _F >K wL XV YV ZV sU gR `V  W .W [e +W @W #W 0D aD pB qv `P Vw .H $W aD %W &W oR *W =W eR -W ;W >W ,W XR 'W )W !W ~W {W ]W ^W /W PL (W _W :W <W [W }W |W 1W 2W 3W 4W 5W 6W 7W 8W 9W Aq Aq sK Py rQ ^C ",
"mF &C 9x Cu 9x &w 0W jH %C aW bW DD kA KI Ly {C Wy ax tF %V vK cW GF 0W Cu bH dW eW fW BL gW 7P hW ut 1P *G iW Dx )S jW kW 6M lW mW nW oW pW qW rW sW lM &U nP qP 1J zQ tW uW GQ RH f  vW C+ g  aM wW xW yW %O aM 6S zW WK AW WK BW CW OQ =U DW bM EW QT 6J FW 6J FW GW GW HW 8w rS +R IW JW KW j> V  d$ j> J$ ]; ~U c> g$ LW j4 x@ MW oJ AG sJ s, Cs zJ JE [I JE i> xJ w= A& u= #. NW O' (@ j@ u  ~U J$ h> f$ j4 u= K$ Q$ xP T$ OW t$ PW +! QW <R K3 RW SW J$ TW O& )0 {_ UW VW WW {0 XW YW ZW `W  X .X +X @X #X fR 'N uL ,N $K $X #T %X &X jU Vz uB ^N `S .H _u kL &X _F @K %H nL *X pR oL =X -X ;X >X !N ,X (N 'X rL )X !X ~X {X ]X ^X %H /X (X rB {F <q @H <q _X :X <X eR  W [X }X |X 1X 2X 3X 4X 5X 6X 7X 8X 9X 0X aX 8T bX cX dX eX fX gX hX iX jX kX lX (s mX nX 8W Aq 9H Aq XR qH iN oX ",
"iH 0W cW pX ,C ;w qX rI rX cx )C ^C %J >w LN hA sX bx DN ;w zu *C tX uX 9x wT sF vX wX xX yX 7S oS zX jV oS AX jV RT XK    BX CX DX EX FX GX HX MH MH IX JX (J -L FT iV RT GQ iV )t _G KX LX 0S MX NX OX PX QX zQ RX _G mP uM dS SX TX UX SH -L iV qC Vr sP FW ~S rS VX WX XX YX +R ZX `X  Y 9> V  M' k> 1= W  B& .. J& M' s@ D@ $R zP Cs >L .Y rJ +Y AG LM AG P$ ); J$ M' J$ E& p@ 8@ q] @Y C' i, R) 7@ nV s@ r= #Y R~ f$ ]U ^| $Y b{ %Y F[ &Y KJ B] f> 5} f@ /L CP 32 G7 *Y =Y -Y ;Y $# >Y ,Y 'Y )Y !Y ~Y {Y ]Y ^Y jO /Y (Y ;N >N *N _Y _Y wv 0y >Q %N :Y <Y 'X [Y }Y nL zr $H tO |Y 1Y 2Y 3Y zO 4Y 5Y  W 6Y gU tO *X 7Y 8Y 4t 9Y 0Y aY Vz aD 9y aD @t Vw *K oL _X bY cY dY eY !N fY gY hY iY TL jY kY lY mY nY oY pY qY rY sY tY uY vY wY xY yY zY AY BY CY DY EY FY bQ 4W GY HY IY +C ]M LN ",
"My >V qX uX ~P fA JY KY jA EN Sy VL jH LY %V Ny GF pQ *C %C Cu tF xT qX MY GF GF NY OY PY QY hW RY SY SX 7P gs RT hV TY UY -O VY WY XY YY ZY `Y *U PT uM (J RA PA 5S uM  Z 7P 6S !S .Z +Z j  @Z SH #Z eS $Z jS %Z $Z UX HT fP WK yh EQ wW NK RA PA RA &Z zQ YX sP BT *Z ~S =Z <P -Z ;Z >Z ,Z xG d> en w= v= ,; A& 2= 16 s@ r= HJ _O MW H& St FJ <O FJ 'Z ~L Q$ I& i> i> g$ _@ O& N& v$ )Z !Z ~Z j6 {Z i= +. m@ @. >; S$ JE ]Z ^Z i$ &! K: LE X) /Z KM $. (Z Xf _Z l@ :Z l6 G8 <Z [Z }Z |Z 1Z 2Z 3Z 4Z 5Z +W 6Z 7Z 8Z 9Z (Y $H 0Z &T aZ bZ cZ FO !K dZ eZ @Q fZ gZ hZ iO iZ jZ kZ lZ mZ lZ XV nZ oZ pZ qZ rZ sZ >T `V tZ uZ vZ wZ xZ *T yZ [q xv Tz (u ZM /F dD %W $H zZ AZ BZ tU CZ DZ RV EZ JU FZ GZ @P HZ IZ JZ KZ LZ MZ NZ OZ PZ QZ RZ SZ TZ UZ VZ WZ XZ YZ ZZ 2W `Z  ` .` ;M 9H +` *w ^s {P ",
"7x dW @` #` $` ax CF EN GN KN %` Ly VL &` zu *` 9x ax .J Eu `I =` CK 0W /M oQ >C -` ;` PY >` zQ ,` GQ AX 7P '` )r 5V VT )` !` yC ~` {` ]` ^` /` cV (` uM )t _` Vr mP =L WQ :` ,` 7P HQ wW 0S <` RX ZN 5S iV HT 5S OK BW [` (V }` |` OK xD 1` qP /V XN 6P BT 2` 6S rS *Z 3` WX 4` 5` ST uP 54 $9 s{ x& Q- z) s@ n@ DS Q) E& >; ]Z L$ _O y@ !L L$ JE AG G& $R ,; Q) ;R B& g@ NW V  6` 7` lw #3 v4 8` 9` J! e> 0` ~@ S$ ,; v@ a` S$ ^} !@ X{ q' +Y AG 3L }I J$ b` .. v= |= y{ c` C{ d` e` Ee f` g` h` i` j` k` l` m` n` o` aY p` qZ q` r` s` t` u` v` w` UV eZ x` y` z` A` sR &W vO B` C` D` E` qU F` G` H` I` J` K` L` (N M` XV mR *T @K N` ]u aD pL YM 6R Tz {F .t AU ,Q WP O` nL P` Q` R` S` T` U` V` hT W` X` Y` Z` ``   .. .+ .@ .# .$ .% .& .* .= .- .; .> ., .' .) .! .~ .{ .UI 8W ] .^ .iH ",
"/ .( .nQ _ .wF dW : .HF iA ,C DN HF < .Uy bA oH zK ,V 0x `I bH OD [ .Qy BF } .| .vX 1 .2 .3 .wW !S {S 4 .5 .6 .$  6V 7 .8 .9 .0 .a .b .c .d .9E VA e .UQ GQ f .Tm 3G !O WQ zQ ST g .ST GQ h .aM i .fP uC OK HT j .k .BW l .*O (S QA m .OK _z XN tW &Z )t ]S cM 7P WX +R n .o .p .q .*Z r .s .j, h@ x& k> +. d> d> J$ nV 16 s@ _O [I r= m> _L JE zJ JM xS @. L& B& Q- 7@ lw y$ 7, E~ i, t .S  t .u .O8 o= 7@ w4 d$ 6` f$ D@ HJ _O tV G& x@ AM MW AM 'L h> ); d$ O& |= y$ v .w .x{ 6, L~ x .jY y .z .A .B .C .D .E .F .G .%X H .I .J .K .L .M .N .O .P .^X Q .R .S .T .wO *W U .V .W .X .Y .Z .` .)Q  .....+..:Q UP 0L ;N nL jO @..#..$..0y yv %..<q jU 4y pL vv ,N lO CZ 6R iZ uZ &..*..=..-..;..>..,..'..)..!..~..{..]..^../..(.._..:..<..[..}..|..1..2..3..4..5..6..7..8..9..2W 0..a..b..c..d..",
"e..f..@` sF g..f../M h..Oy !C rX bH rT %C hA hA qQ Oy QD My )C /M `I tX BN qX i..j..k..PY l..ZN _G m..7P jV n..o..mS p..q..r..s..t..u..v..w..x..y..z..)t Vr YN _z 3S RT Vr 4V ST kV A..B..:G ZN _G SX RH RH C..D..jW k .#Z 2E cM h .k .8w }P tW FT iV cM E..RH sP F..G..H..I..ST J..K..L..M..d> |= +. y$ V  M' G$ V  _@ s@ h> I& R~ xM uV G& (O ~; $R !; TW m@ O' N..b$ O..N- _a 0> m= 9` G) P..<l Q..UC v$ o= v1 6` R$ #Y #. EJ tV x@ wG (O EP zJ R..S..v= g> m@ 6[ v$ P( ~> @0 +} 8@ T..U..V..W..X..Y..Z..`.. +..+.++.@+.#+.$+.%+.&+.*+.=+.-+.;+.>+.,+.'+.)+.{X !+.~+.{+.AZ AZ ]+.>K ^+./+.(+._+.:+.<+.[+.}+.N5 BO jO eY |+.'A ~N 0L 1+.{F /u fU iZ Yz Yz hI <q /Y 2+.oL gI kO 3+....4+.5+.6+.7+.eH 8+.9+.0+.a+.b+.c+.d+.e+.f+.g+.h+.i+.j+.k+.l+.m+.n+.o+.p+.q+.r+.s+.t+.u+.2W v+.#M w+.x+.y+.",
"9H z+.dW MN A+.B+.AF C+.< .>w UD HF =C rQ Du wK D+.dA *w %V E+.*w UD MY zF qX MN vT MN F+.G+.hW _G 5 .H+.p .I+.SX 5 .RX J+.K+.L+.M+.N+.O+.P+.Q+.&O i .%O )t Vr PH 3S GQ 7P 4` 4 .;U HT HT m .OK 7S 5 .RY R+.S+.7J TX !O %O SY XK h .ON uM :G QA _` ]O CT %Z .R rS !S +R n .+R 4` T+.U+.`X V+.y$ 2= 1= n, x] +. N& G$ e& A& ~; W+.P$ X+.Y+.xS xS ]U ]U =R ); k@ u$ d& `  R) U  Z+.67 A~ E) w9 u4 Wi _a Va ]6 i, 12 z$ nV S$ R~ G& CJ (O +Y uV >; %R JE J& B$ `+.{@ E' g@ n= @3 +h o= R) bw  @..@.+@.@@.#@.$@.%@.&@.*@.=@.-@.;@.>@.,@.'@.)@.!@.~@.{@.]@.^@.]X /@.(@._@.:@.3j <@.[@.}@.|@.1@.2@.3@.4@.5@.6@.r` 7@.,T tv 8@.CZ 9@.XM ^T (Y Vz .H {F aD YM `s iL _F 5y $H Tz lO qL 0@.a@.b@.c@.d@.e@.f@.g@.h@.i@.j@.k@.l@.m@.n@.k@.o@.p@.q@.r@.s@.t@.u@.v@.w@.x@.y@.z@.A@.B@.C@.D@.E@.F@.G@.`U c..H@.",
"rF eA I@.J@.AF %` 5x fA (P 8x KY jH oH &V iA D+.Cu 5x 5x -w bx *` 7x BN 0W eA sF zT yF NN K@.L@.M@..Z RY ,` N@.O@.P@.Q@.wW R@.S@.T@.U@.V@.W@.X@.Y@.IH zQ %O uC gV -L bS L@.,` jV GQ GQ hV Z@.rP 5 .`@.R+.RX aV $Z %O TX kV  #.QX .#.Gx TX =L RA WQ iV Vr cM sP rS -Z +#.@#.##.$#.jV %#.&#.*#.4> H' L) 5> 5> S) A& t= x& g$ }= H$ 16 P$ %R _O ); (O KM j> $. ~U Q- f@ k, R! |> =#.Q  -#.;#.{> B{ O  s& M  1> t' F! E$ q, E& I& EJ :@ >#.S$ ,#._O s= yJ q= v= O& 8@ )> P) 12 {Z 8, ,9 @3 '#.)#.!#.~#.{#.]#.^#./#.(#._#.:#.<#.[#.}#.J` |#.1#.2#.3#.4#.5#.6#.7#.8#.9#.0#.a#.b#.c#.d#.e#.f#.g#.h#.i#.j#.k#.l#.jO P` BO %Q m#.n#.n#.o#.p#.Uw .H bD bI #H Tz hI sB iZ @t VV iZ q#.WM r#.s#.t#.u#.v#.w#.x#.y#.z#.A#.B#.C#.D#.E#.F#.G#.H#.I#.J#.K#.L#.M#.N#.O#.P#.Q#.R#.S#.T#.U#.V#.W#.X#.Y#.Z#.`#. $..$.",
"y+._ .!C +P zK pT >V +$.(P >M @$.oX zu bH -w `I -w tX MY xF GF BF xF qX TD [ .#$.$$.%$.&$.*$.7S RY =$.-$.;$.sC >$.hV ,$.'$.MX )$.!$.~$.R@.j  hV D..8w WQ uC (` {$.]$.I..ST XK _G `@.^$.4 .zQ -Z L@./$.-Z ($.#@ B+ _G _$.jS :$.<$.aS 1J aM :G XN uM iV Vr rS *Z *Z rS [$.}$.|$.1$.N@.bS 2$.w< H' H' a> R) -; H' V  z) wP wP _@ O& >; ); _O R~ wG zJ 3$.J$ 4$.J& +. CS M  #0 _a v  Kb A~ c= ~Z O  5$.N) Z! U/ 3> J~ 6$.7$.}= O& :@ DS $R xS L$ FJ zJ I& i> j> u1 m@ 8[ 8$.1> D~ ;0 [/ 2> S$ 9$.0$.a$.b$.c$.d$.e$._..f$.g$.>@.h$.i$.j$.k$.l$.m$.n$.o$.p$.q$.r$.s$.t$.oZ u$.v$.w$.x$.y$.z$.A$.B$.C$.D$.E$.F$.]+.G$.H$.%K I$.J$.K$.L$.Vz xv _F M$.YG :q sv hI Tz vv )N Xz %W tv A` L` N$.O$.C` P$.1Q Q$.{ .R$.S$.IZ oY RO T$.U$.V$.W$.X$.Y$.Z$.`$. %..%.+%.gX @%.#%.$%.%%.&%.*%.=%.-%.;%.>%.,%.'%.)%.",
"!%.+` eK hA VL ;w AF +$.~%.{%.kH 5x jH zK ,V zK /P 8x cW z+.>V wT ]%.wT tX dW MY #` ^%./%.(%.TT g .H..%#.{J _%.:%.pS g .0S IQ 1J MX <%.[%.8J NX bM }%.YN 4V iV {$.RH ST jV RT bS |%.1%.2%.g ..Z 3%.5V 4%.5%.6%.RX 7%.h .>$.k  0P 8%.9%.0%.%O FW Vr )t 6S ^$.n .a%.1%.,U ,U n .H..|%./$.b%.c%.&/ G' `! a^ p, g@ <: <: N..A& G$ +. R~ h> !; P$ !; ~; P$ N' t= g$ 8@ 7> b5 Jd /9 d%.,9 e%.f%.Oe t) F! E{ z$ `  M) `  O- N& A& M' V  g$ $. u= Q$ i> EP |I [I CS i= v$ g@ o4 .h 98 S0 e` g%.h%.i%.j%.k%.l%.m%.n%.o%.p%.q%.r%.s%.t%.u%.v%.w%.x%.O .y%.z%.A%.B%.C%.D%.E%.F%.G%.H%.I%.J%.K%.L%.M%.N%.O%.US P%.4Y Q%.R%.eY R%.m#.S%.T%.U%.V%.W%.X%. H Y%.gL oL AU Tz )N  K Tz 9y @t %W gY tO Z%.`%. &..&.+&.UI @&.#&.$&.%&.&&.*&.=&.-&.;&.>&.,&.4..'&.)&.!&.~&.{&.]&.^&./&.(&._&.:&.<&.[&.}&.FY |&.8K 1&.",
"2&.UL $V KY Eu MY < .3&.&` 4&.lF 5&.wK bx ,C &` rT GF bH LY 5x KY ND `I 6&.JY sF $$.BN /%.7&.RY RY 5 .1J cS 5V OK A..3%.'` 1` Y@.8&.1E eV 9&.0&.UY 8o a&.UX RT ;U ,` b&.oS c&.,` J..d&.e&.RY A.. #.pS b&.b&..Z P@.f&.g&.h&.+  i&.j&.k&.l&. #.{$.cM Vr 5S HQ N@.qS N@.A..-Z .Z m&.n&.o&.DT p&.h] =/ Q~ 9_ S! S) T  v$ `  z) F$ q&.q= j> r&.{U yJ ~; s&.!; q= h@ G$ S! k= u  A) =q v~ t&.57 Vi Z! s' <= v) a^ u&.b> )> '> <= q&.X! #Y J& $. [I u= !; yJ t= b$ To v&.&/ .h :8 w&.w' Gb ,2 x&.y&.z&.A&.B&.C&.D&.E&.F&.G&.H&.I&.J&.K&.L&.M&.N&.lR O&.P&.Q&.R&.S&.T&.U&.V&.W&.X&.Y&.Z&.`&.>@. *..*..W +*.@*.]+.)X #*.fR $*.%*.&*.<3 **.=*.$K (F dI Ys Cr _F $K +N W%.Tz 0D yv xv 'X _X -*.;*.>*.,*.'*.)*.!*.~*.{*.]*.^*./*.(*._*.k+.:*.<*.[*.PR }*.|*.1*.2*.3*.#V 4*.5*.6*.7*.8*.9*.0*.a*.b*.LD 1&.oH ",
"c*.d*.*w Ly ;w fA RD %V pQ e*.%V (P oX CF f*.g*.^M Du Du hA Ly mF Du RD &w #C #$.MN h*./%.(%.N@.i*.j*.[` UT G..k*.l*.i  R+.kV C..IX m*.$L n*.1S lP dS 5J ]$.%O aV o*.b&.RH zQ c&.zX i*.h .p*.{$.b&.pS |%.UT q*.e&.C+ o..LX r*.s*.t*.u*.v*.w*.x*.7P tW QA 5J I..5 .=Z jV 5%.-Z 2%.-Z y*.z*.A*.g] Z/ j= y, B*.y) [= 6, |= z$ 1= C*.D*.B& r&.{; E*.EJ ,; !; h@ E*.g@ p, 1> Kc 5$.F*.G! Yf G*.Eb p{ e` u] M) r, 8> '} 6, =; O- V  d> H*.V) h> J& ); I*.q= J$ N& !| U  |> w' >9 ~~ F! +} [/ J*.K*.L*.M*.N*.O*.P*.Q*.R*.S*.T*.U*.V*.W*.X*.Y*.Z*.l$.'@.`*. =..=.+=.@=.{X #=.P%.$=.%=.&=.*=.==.-=.;=.#X 3j >=.}X ,=.'=.8Y )=.!=.~=.{=. W ]=.mL xv ZJ ^=. H Uw [q uB 9y zr vv Vw $Q  K /=.,X (=._=.:=.<=.[=.}=.|=.1=.2=.JZ 3=.4=.5=.6=.7=.8=.9=.0=.a=.b=.c=.d=.e=.x+.f=.g=.h=.i=.j=.k=.%P eK l=.^ .PD m=.",
"n=.l=.7x vQ dW pT zK OD o=.yK p=.q=.Uy >w g*.r=.ft Uy KI ^C wH >w VL Uy *w Oy /M -` s=.t=.u=.v=.Z@._S o ..Z HQ w=.B+ g  SY x=.y=.'  z=.6 .A=.5S B=.RA :` :` %O QX aM 1` G..J..kV  #.hV 5 .Z@.cS zX b&.d&.C=.D=.e&.)  E=.F=.G=.H=.I=.J=.K=.aM L=.rS GQ -L 7P UT ;$.|%.`@.`@.G..|%.%#.M=.2$.N=.Y: 3^ '( ^L w) r' t< z$ [= k= 1= }= N& n@ t= E*._@ T$ I& @. c$  . i= K) l> U/ .( x) Z! >} Qc 1> s' t) z~ b& Z! n, F' 6, O=.UC 7@ c& s&.~; #. !; wG B& I*.E& V  v$ 1> E' |> B*.U/ m_ Jc P=.Q=.R=.S=.T=.U=.V=.W=.+*.X=.Y=.Z=.`=. -..-.+-.@-.#-.$-.%-.<#.&-.T .*-.=-.--.;-.>-.zO ,-.'-.)-.!-.'-.~-.{-.eY ]-.^-./-.(-._-.:-.<-.zZ [-.;N *K sv @t yv :F }-.>Q Cr :q vv |-.1-.2-.3-.`P >K %W #*.4-.5-.J@.vQ 6-.7-.8-.9-.0-.a-.b-.c-.d-.e-.f-.)%.g-.,w :s h-.i-.j-.k-.l-.m-. $.n-.o-./ ./M 7H 7H )C l=.p-.",
"q-.r-.s-.dW 'V Qy : .t-.4&.rK u-.v-.*C WD &` ^C Wy dt ft ZD D+.mF 7H `I *C My `I ;` w-.x-.y-.y=._G z-.cS m&.A-.B-.6%.C-.HQ 4` [$.hW QX 3S 5J iV cM RH hW )t bS rP hV bS _G D-.4 .2%.[$.5%.Z@.b&.E-.F-.G-.H-.I-.$@ J-.#  K-.L-.M-.N-.O-.P-.sP rS <P =Z RH ,` I..-$.T+.n&.Q-.C=.R-.zX S-.T-.U-.V-.W-.X-.U/ `! j= y) K' j= j= <: q, h@ }= v= P~ v= J& I& DS V  z$ z) N) |> Y-.#9 0_ w~ K2 K2 ~8 F! M) 1> M) 8> (: l< T2 C$ j, M' h@ +. #Y s&.I& Z-.'; A& k> O- #; s& `-.U! e` %g 0^ x4  ;..;.+;.@;.#;.$;.%;.&;.4Y *;.=;.-;.;;.>;.,;.';.);.!;.~;.{;.];.^;.{Q /;.(;._;.:;.F$.<;.[;.};.|;.1;.2;.3;.{-.dL fR 4;.5;.6;.~=.5R 7;.WM T%.YP 8;.9;.^N xv &H ]u Cr Vw .H #H 9y 5y oL $T zZ 2+.O` ,N 9;.0;.a;.qF b;.lX DY 6X c;.d;.e;.f;.PR g;.XI h;.i;.,w kp j;.k;.l;.m;.n;.o;.p;.QU (s .M fA &C *C Sy q;.r;.",
"s;.Eu uF CK e..t;.JY [ .u;.>M pH 7H 0W Qy jH &C bx YD Uy KI %J mF wF qX dW tX 0W AN v;.w;.x;.%O y;.;$.5 .z;.D-.A;.e&.2%.Z@.`@.$#.4 .B;.fP :G Vr zQ SH RT ;U hV bS 4 . #.o*.zX 5 .g .pS cS pS C;.H7 G-.E-.D;.R-.E;.4%.F;.M-.G;.H;.)r ($.o .{$.AX oS RH 4 .I..bS b&.I;.J;.K;.L;.E;.M;.F-.N;.54 O@ $9 q_ `/ w] T/ 0^ K' J~ E{ -; j, 2= K& o@ J$ `+.X! P$  . N& G$ `  y) 8> T! t) Y: O;.m< +( `} L9 u~ a^ 8> M)  } ,} k, =; O=.P;.H$ W  N& V  Y! '; +. p@ p] <= R! 7, q< (: -u Q;.Uh R;.B+ S;.T;.U;.V;.W;.X;.Y;.Z;.`;. >..>.+>.@>.#>.$>.%>.&>.*>.=>.->.;>.>>.'=.#X ,>.'>.{N Y;.;=.)>.!>.~>.~+.{>.]>.n#.BZ {>.^>.}X />.(>._>.q#.:>.<>.m#.[>.}>.bL Xz [q [q $H $N Wz aD .H BO |>.`P %W q#.CZ mO 1>..V 2>.@` 3>.QI 4>.6T 5>.6>.7>. J ]%.pQ g*.8>.9A 9>.2o 0>.a>.b>.c>.d>.e>.f>.LR H@.9H *C 7x iA l=.PI ",
"^M *w zK g>.`L tK ]%.OD h>.pQ i>.-w QD 'V j>.;w %` GF Oy mF mF `I #$.BN eA CK zF pX ;` {K k>.6 .jW l>.[$.m>.J..$#.}$.cS n>.o>.p>.2%.M@.RH oS q>.cM 6S GQ hV ;$.-$.5 .L@.zX R-.G..2$ j*.E-.o..&& m  r>.'= s>.5V t>.,$.u>.p>.HQ UT SY 4 .;U hV [P RH GQ 1%.p .o>.v>.+  W; c  %> w>.x>.A;.y>.z>.Q! A>.x) Z/ w] U/ w] u] b> 8> O) x] <: A& +. m@ x&  . Y! +. x] y$ z$ E{ E! F{ y~ C( +( u] t) i] [/ p{ x( F! s' Q..Q..1> 6> 6, [= C& Xf C& M' E& B>.P~ l= y{ D~ G*.C>.>7 u] ja eb F8 D>.|8 b& E>.F>.G>.H>.I>.J>.K>.L>.M>.N>.O>.0+.P>.Q>.R>.S>.T>.U>.V>.J&.aZ XV P` W>.eY A` X>.Y>.Z>.`>. ,..,.YS +,.@,.#,.$,.$,.%,.&,.@,.G$._>._>.*,.=,.-,.;,.Uw aD 7D $t Uw ]u 7D  K zr %W iL >,.dL H$.,,.',.),.!,.pK ~,.{,.iK ],.^,./,.pK (,.CN _,.:,.&S <,.[,.Bu @C LD },.|,.|,.1,.8K 7K o-.nN pT bA bH iA ^s @C ",
"Qy Oy 2,.3,.qF fH 4,.4&.%` DN fA C+.tF ,C f*.&C Oy 5x ft -w Eu } .1 .yF OD BN qX vT NY ,S u=.5,.($.pS N@.C=.j*.[$.6,.pS 7,..#.RX 8,.ST jV Y@.zQ zQ =Z =Z RH 4 .p*.pS ($.9,.,$.0,.a,.)  8,.b,.c,.PX d,.e  e,.f&.f,.b,.g,.$#.4` R+.h,.UT R+.M@.XK jV ^$.L@.,` Y< i,.j,.`* k,.0  l,.mo C=.m,.n,.o,.p,.c_ )} A( /: x( .(  } j= b> p, O~ z) x& P;.'> E$ |= A& z$ I' 9> @( Q..7, Kc Z! V/ 8_ 4^  ( r{  ( y( B( ,} 0^ .( x( l< )> ,> }= a& UC r$ h@ M' w& 7> H) x{ q,.mc Oe r,.77 Cn s,.t,.Ta 7^ u,.v,.w,.x,.y,.z,.A,.B,.C,.D,.E,.d+.F,.G,.H,.I,.J,.K,.L,.M,.'=.'+.,N R%.A` CZ N,.O,.P,.Q,.R,.{>.S,.T,.sL />.YS U,.$,.V,.W,.X,.Y,.Z,._=.9R `,.yv $N nU Xz Xz VV xv Vw zr %W WP O` aR 4;.CZ ]>._=. '..'.+'.@'.#'.$'.%'.&'.*'.='.-'.AF ;'.)M >'.@J Ly wK 9K ,'.''.n;.)'.!'.~'.lT @P bH *C *C bH GF BF 7x ",
"fA rF 4,.6X {'._ .qT sK @` B+.cW ]'.6x HF sQ cx >w Sy ^s fA tF sF ^'.j..pX /'.('.BN _'.t=.:'.BW ,$.<'.%#.M=.,$.($.,$.`T .Z ['.T-.5V c&.2%.^V }'.iV oS oS jV |%.-$.|'.5 .}$.j*.'= 1'.-@ 2$ 2'.#$ -   @ u+ 3'.-  C+ 4'.5'.6'.7'.8'.5V cS h,.)t UT ,` p*.G..9,.9'.0'.a'.b'.g{ c,.c'.d'.}$.e'.f'.g'.Gc %| h'.i'.1[ [: T/ */ 2^ O) y& j'.N& K& d> O& v$  . =; 8> i= L) a> Z! k'.u] F! Y: k'..( Eb t3  ( /2 y( U! F{ B( k, l'.s' r, =; H*.g$ W  b$ '> 7@ |= lw 98 C{ #m m'.m] n'.o'.p'.rg q'.r'.s'.t'.u'.v'.w'.x'.y'.z'.A'.B'.C'.D'.E'.F'.G'.H'.I'.J'.D$.K'.L'.M'.dL H$.,,.N'.N'.BZ O'.P'.Q'.4;.T,.uU 8@.+,.*,.@,.R'.S'.T'.7;.U'.V'./Y kU `,.{p }-._F sB `s xv Tz %W gI  K dL ,N 0( W'.O'.X'.Y'.Z'.TI `'. )..).kX +).@).#).$).Qy %).@$.s;.iN Bu ft BK &).@J ZL *).iQ |&.j-.=).-).#C bH >V fA pT bH #C ",
"rK PI s-.;).QI fA (P fA tK C+.DN LY CF AF ]'.LY oH hA ;w bA vQ 8x Qy 'V CK pX >).s=.,).2 .').)).l>.4'.!).m>.L;.j*.1$.RY i*.~).{).%L c&.4 .Y@.]).rS T+.]).J..A;.4'.z;.z;.-Z H-.E;.)  ^)./). @ <$ ().U* B- _).:).<).+$ M=.H-.j*.<'.b&.[).b,.RX {$.;U oS C+ }).|).i,.1).V; o) -& {= 2).3).4).5).2$.W[ 2[ T/ P} $} Q/  ( u] :/ j= O=.=; z) |= N& A& V  T  f@ |= k, g] 0_ t) U} F( [: C( .( +( 0^ b_ :: }[ q{ y( T/ T/  } @( j= b> 3[ 6).o@ O- d> #. C& F~ +h 5$.Ne Ne ^l $m 7).8).9).0).a).b).c).d).e).Q,.f).g).h).i).j).k).l).m).n).o).p).q).r).s).t).0@.n#.G$.O'.u).v).@,.U,.w).]+.x)./>.n#.n#.,,.*,.@,.G$._>.y).z).#,.A).4-.BO B).C).tL fL `J nU xv Uw iZ `M rO ,N H$.eY 8@.aR n#.}X D).(=.E).F).G).H).I).J).K).L).M).N).O).P).oX oX .J 5x ~C oX Q).R).S).f>.0*.T).k=.kY .` lX zK /M bH sF >V zN ",
"fA U).IY V).wF AF >M pQ W).%` /M hH CF :,..J zK *w LN bA tF iH FN sF tX X).('.pX Y).Z).`). !..!.+!.,$.j*.%#.}$.m>.6,.l>.N@.:%._$.4 .p*.h,.Z@.B..5%.g .;$.H..jV |'.1).@!.M=.}$.5'.n- #!.=@ Z+ +& 8  &$ V* t+ $!.%!.&!.*  +!.1$.*!.B..,$.5V 7S jV 7S _G C+ /).&& &$ K;.Y* =!.-!.-& l! ;!.n) >!.,!.'!.Md /[ 8_ @} )} o< `/ [/ )!.!!.W! a^ K' -; K& wP c$ z) p, f@ 8> v] Kc 4^ 4^ Q/ Q/ K2 /2 }[ q< }[ y( f_ B( C( t3 0^ .} L~ @( 3[ =; H$ )> `  c& ~!.j@ O8 z& z& Ge X/ eh {!.]!.^!./!.(!._!.:!.<!.[!.}!.|!.1!.2!.3!.4!.5!.6!.7!.8!.9!.0!.a!.b!.c!.d!.'+.w).>=./>.e!.f!.N'.n#.]+.g!.h!.G$.]>.i!.j!.XP k!.9@.'N l!.#,.|+.k!.O` (>.|+.2+.2+.iU m!.gI oL _F qL dL qL CZ I$.N'.,,.O'.n!.o!.p!.q!.r!.s!.t!.u!.v!.w!.x!.y!.wN wN z!.3&.%C pQ zu zu nH A!.B!.C!.D!.[*.E!.F!.G!.H!.8H 8H sF sK ER pX pX dW ",
"f*.wK ~M I!.J!.&V bA ,M %).*C [ .K!.%` iN VL vK RD sF RD cW dW AN /M 4,.(,.^'.L!.M!.wX N!.O!.P!.Q!.R!.S!.T!.m>.M=.,$.U!.1$.h,.R+.m..V!.Z@.R+.:` XK %O J..jV J..%#.R!.W!.P!.G..}$.X!.+& !, +& *& Y!.S!.Z!.Y* <).`!. ~..~.4%.m>.!).+~.C=.3%.ST p .5V o*.=$.t>.2$ @~.I-.#~.$~.%~.&~./= *~.r*.=~.-~.;~.{Z :r d1 _: `} .| [/ >2 Q..F{ =; [= g@ y] en e& c$ `  i= b> &/ Z! k, /2  ( e1 r{ W: 2[ F*.B( A| S} $} y~ s< 0^ 2[ >~.[/ !/ j, )> )> (: o@ g$ g@ f@ L~ E! &/ e` Nd ,~.'~.)~.mh !~.~~.{~.]~.RS ^~./~.(~._~.:~.<~.[~.}~.|~.1~.2~.3~.4~.5~.6~.7~.8~.9~.iR 0L S%.S%.N'.g!.N'.N'.0~.y).k!.sL G$.)=.T,.'N a~.sL +,.R'.U'.)=.[-._=.b~.c: 8R `P iU YM =K qL M'.sL c~.d~.n#.$,.]>.e~.f~.g~.h~.i~.j~.k~.l~.m~.n~.o~.p~.`L iY p=.bH DK tK oH CN pQ *w 9K kY q~.r~.s~.t~.u~.v~.w~.rF GZ b;.#C x~.y~.^'.^'.",
">V +P z~.2,.U).Bu A~.B~.^M iA C~.D~.E~.U).!M ^s Py #C HY tX fH 6&.pX F~.vX JY BN G~.!*.H~.I~.P!.J~.K~.K~.S!.L~.3%.9,.T!.M~.e&.A;.SX kV N~.SX hW dS {$.g .4'.@!.@!.C=.G-.E-.C+ +!.O~.F-.P~.Q~.p>.Y!.2$ R~.u! S~. ~.T~.U~.9  V~.*!.k*.,$. #.;$.@!.h,.hV W~..Z +@ X~.Y~.Z~.`~. {..{.+{.@{.#{.${.%{.&{.sx C0 O} $| d_ B( Di T/ g] t< K' E! y& c> V  <: c$ k@ &/ b> U/ v) k'.:: c_ B( B( s< =} r{ 94 _: `} _: j< Z} .| B( +( .( .} 6, 3[ 3[ k, c& N& l= 8@ y$ r' b> (8 *{.={.-{.;{./n >{.~n ,{.'{.){.!{.~{.{{.]{.^{./{.({._{.}W :{.<{.[{.}{.|{.1{.F%.2{.a#.>K ^N _>.3{.4{.@,.5{.N'.@,.S'./Y zZ n#.]>.9@.n#.zZ q#.6{.<3 _=.U%.8R eU *K 7{.iU  K 8{.lO YS @,.<>.uU dL 9@.c~.[X N,.O,.9{.0{.a{.b{.c{.d{.e{.f{.g{.h{.U` KU i{.vQ eA j{.KY ~P k{.f*.eK l{.4*.m{.n{.o{.p{.q{.r{.s{.t{.u{.v{.6-.w{.e*.#$./M ",
"fA 4,.FN ^M 3,.VL zq sT wK ~C !%.uF x{.u-.Bu YD RD 6-.b;.y{.eA eA z{.A{.B{.M!.C{.[=.JU D{.E{.F{..!.G{.H{.I{.J{.1$.M=.H-.|$.K{.7'.9I hW !O ;$.Z@.HT {$.cS N@.($.C=.C=.W!.5'.4'.D;.X!.*& L{.w>.&& Q~.m>.#& M{.N{.O{.P{.Q{.u+ R{.e&.$#.m>.RY 2%..Z c&.p*.pS b,.S{.F+ l,.T{.3).U{.V{.W{.X{.Y{.O/ Z{.jf `{.=2 |6 F*.r< .| Q} $} z~ F{ u~ ;} c> 8@ 8@ C$ v$ R) u] v) k, [: [: F*.F*.y~ Y} +| d1 81 z| W} <[ d1 04 2[ Q} W: 0^ f_ +(  } b& 8> m= `  g@ '> r, F' L~ F! `} r,. ].t&.Ms Ms .].+].@].'{.#].$].%].&].*].=].-].;].>].,].D,.'].)].!].~].{].H` 9~.M5 fU `M zZ ]>.g!.v).]].^].g!.y).u).U,.c~.T,./>.@,.c~._=.zZ U'.m#./].Y,.WP V'.7R (].2+.n#.VP $*._].@,.:].eY c~.CZ %*.<].[].}].|].1].[{.2].3].4].5].6].4Q 7].8].(,.L!.CK BL QD rF _ .9].s-.0].a].b].c].d].e].f].g].h].i].aN j].v{.7x #C z+.%V ",
"k].AF  M PI !%.l].4&.m].n].PI o].2X p].at kH Eu *C `I y{.q].tX #$.F~.-` r].s].t].u].v].w].x].y].z].Z!.A].L{.B].N;.1$.9,.G-.<'.B..B..;$.A..v=.fP :G SH Z@.1`  #.&$ J~.C=.X~.C=.M=.F-.+@ Q!.C].m>.D].'= C+ E].F].G].H].I].J].C+ +!.K].j*.[$.A;.pS e&.{$.o>.|'.E;.@@ 7  W+ L].{  M].N].O].P].Q].R].S].T].U].)2 b1 `} 65 @| Q} 0^ v) y( V].=; E! 3[ 8> F' 8> 8> u] 9_ Z} 2[ @} q< /[ V0 W} 81 q< P8 $| /7 +| /[ [[ `} k<  (  ( d_ b_ C( l'.K' T  l= S) j= u&.M) e_ q< Nz VT W].X].ir Y].Z].`]. ^..^.+^.@^.#^.$^.%^.&^.*^.=^.-^.;^.>^.,^._+.t$.:Q '^.)^.hO cL BO 9@.%,.!^.g!.~^.{^.]^.^^.j!.G$.$,.]>./>./^.(^._=.H$.|+.#,._>.U'.[-._^.ZS ^N b~.n#.S'.<3 _>.:^.sL lO BZ u).N,.<^.[^.}^.|^.1^.2^.3^.4^.5^.6^.IU 7^.8^.9^.MN M!.#` j{.pX 0^.p].a^.b^.c^.KD d^.e^._&.f^.g^.h^.i^.j^.k^.CR 7>.l^./M /M m^.",
"n^.FR oN  ` PI pQ Eu sK o^.p^.3*.J!.q^.~M r^.Uy sK PD #).M!.s^.zF t^.B{.A{.u^.v%.C{.v^.w^.x^.+!.*& y^.z^.+!.C].!).>$.R-.A^.PJ 7'.B^.5V RY h,.A-.GQ _S XK _G 4'.%#.M=.C^.F-.W!.j,.F-.D^.Q!.`+ E;.C].Y~.`+ E^.F^.G^.H^.I^.J^.Z* 0'.P~.,$.A..A;.D-..Z j*.,$.%#.m>.Z* f{ p- K^.L^.M^.N^.O^.P^.Q^.R^.S^.T^.U^.H2 f1 F*.p< .|  ( Eb k, V^.O=.T} ,> C$ b& t< 6, [: D( b_ [: Nz _: *} H2 w3 $| ([ y3 =2 W^.$| e_ ([ p< +| r< j< A3 [/ Z! :/ V! =; y& E! E' u&.U/ j= B3 ,2 +| Tl X^.%5 er Y^.ph Z^.`^. /../.+/.@/.#/.$/.%/.&/.*/.=/.[+.-/.|@.;/.>/.,/.u#.'/.)/.!/. K ~/.:^.w).{/.{/.B&.!=.i!.S%.R%.B&.]/.$,.h!.7;.b~.XP WM S'.7;.T'.U'.*K iU /u /Y XM 8R H$.,,.k!.uU n#.3;.^/.N,.//.(/./~._/.:/.</.[/.}/.|/.1/.2/.3/.4/.5/.6/.j{.TD 7/.]K 8/.ft J!.mp 9/.0/.a/.b/.c/.d/.e/.f/.g/.h/.i/.j/.k/.l/.IR pT } .",
"m/.n/.o/.p/.q/.r/.d*.s/.t/.u/.b..$P v/.`R z~.7K w/.x/.y/.CK #).M!.CK t;.z/.z/.s=.A/.;` B/.C/.Y!.Q!.F-.D/.E/.G{.S!.u>.C].P~.3%.F/.M@.HQ ~).p*.kV G/.hV {$.G..X~.zX C].D/.H/.X!.I/.J/.z^.X!.F-.Z!.+@ D].z+ u! Y+ +& Y+ %> J;.&$ 4%.E-.9,.G-.M=.O@.RY .Z zX 0'.+@ r>.W;  $ <& K/.L/.M/.N/.O/.P/.Q/.R/.S/.T/.zo U/.X[ W[ D< 04 ;2 y( B( l< V! f@ 3[ k@ @( F{ C( F! B( @}  | d1 X[ O2 Y} H2 =7 /[ H2 &8 q3 X[ 81 d1 ([ 81 ;2 @| f_ /:  } x( !!.C$ F' 6, t) V/ U/ 4^ Q/ '2 *2 Ug V/.W/.X/.Y/.Qc a( Z/.`/. (..(.+(.@(.#(.$(.%(.&(.*(.=(.-(.;(.>(.,(.'(.cf )(.iO 1+.P` ]+.[X h!.g!.]/.S,.i!.G$.@,.i!.X,.!(.^^.XP U'.m#.(Y [>.Y,.:>._=._=.~(.tL ]F WP 6R I$.k!.%*.~-. W {(.Z;.](.^(./(.((._(.:(.<(.[(.}(.|(.1(.2(.3(.4(.)W 5(.'V ~P )W 6(.7(.&V 8(.mT 9(.0(.a(.t{.b(.c(.d(.e(.f(.g(.h(.i(.j(.k(.l(.m(.n(.",
"o(.p(./W q(.p/.r(.@V s(.='.t(.aK u(.kH iA ~C v(.MU w(.x(..V zF u{.8].AN z/.C{.y(.Y).z(.A(.B(.C(.z^.D(.E(.K~.J/.F(.y].w>.N;.9,.i*.'$.y=.UT kV {$.5%.4 .RY zX +!.4'.B-.*& E(.@~.G(.S!.Z!.D/.Y!.H(.@@ `+ Y~.I(.J(.K(.+@ +@ m>.U!.g,..#.5 .8'.L(.H-.5 .l>.($.cS M(.8  +& C- ,@ N(.L^.O(.P(.Q(.R(.S(.T(.U(.V(.W(.X(.+l 81 }} /@ 2[ Q/ 0^ Y(.O=.K' l'.K' N)  (  } S0 F*.z| e_ Y} Z7 a1 /[ z| Q2 =2 ^7 _6 ^7 {6 d1 J2 ^2 81 F*.W: d_ C( z~ >} F{ r, t) 6, F! g] G{ h] u] W} H2 zc _5 Z(.p5 *8 h4 `(. _.._.+_.@_.#_.$_.%_.&_.GB *_.S%.=_.-_.;_.>_.,_.'_.)_.:-. W wL EU Z%.O,.%*.G$.XP !_.~_.{_.!=.]_.^_.]/.6;.~=.9@.j!.{_./_./Y XM BO (_.4-.iL tL `M {=.[>.$K  W !N N$.__.:_.<_.Z;.[_.}_.|_.1_.2_.3_.4_.5_.6_.7_.8_.A{.M!.9_.'V A+.vQ ]'.AF ~C q-.0_.B!.OR a_.b_.c_.d_.e_.f_.g_.h_.i_.j_.k_.l_.m_.1W 2Q ",
"n_.o_.p_.q_.r_.s_.4,.@V t_.%` %V fA 3&.*C p=.LD u_.v_.5W PD s/.t;.sF ^'.w_.x_.y_.z_.A_.AT B_.C_.D_.E_.F_.G_.H_.D^.J{.4%.I_.8'.J_.R+.4 .o .A-.,` hV g .SY pS }$.j,..!.F-.C].J(.K_.z^.H_.c'.F_.n- D/.Q~.D^.c'.L{.6' D/.[$ y].L_.q*.8'.8'.cS ($.4'.L(.%#.j*.E;.D/.M_.|' (& N_.yV O_.P_.Q_.R_.S_.T_.U_.V_.W_.X_.Y_.(5 =2 S2 A{ P( }[ 65 0^ 9_ M) W! L~ y] v) e` F*.j< z| :5 $| =8 g4 '2 !6 r3 H2 _6 s3 84 '2 f4 p< qe z| *} P} P} o< [/ f_ F' L~ v) 0^ Q..v] 2[ 6_ !| )} .a Z_.Ie *8 `_.97 $}  :..:.+:.@:.#:.$:.%/.%:.&:.>*.w).*:.=:.-:.;:.>:.,:.':.):.o!..,.'=.wO rU ]_.j!.4;.BZ 0~.)=.f!.)=.]_.:] !:.X,.]/.S'.&,.S%.~:.&K 'A 7R {:.[>.2+.YP *K /].-K %W zZ =T kZ ]:.^:./:.(:._:.::.<:.[:.}:.|:.1:.2:.3:.4:.5:.%$.6:.g..7:.QD =C 8:.k{.9:.rX IY 0:.a:.b:.c:.d:.e:.f:.g:.h:.hQ i:.j:.k:.l:.m:.n:.o:.",
"p:.Q).0A Cq q:.LD fK Bq r:.%V Ry DN oH V).TL s_.s:.uF *w Ly k{.Qy sF q].t:.7].u:.v:.s=.w:.x:.VK y^.-> y:.G{.A].Y!.z:.M=.A:.5'.K{.['.5V 5%.BW mP A..cS cS J~.W!.W!.K_.I/.V~.G_.B:.G(.J(.C:.[$ 8  D:.D/.D/.E/.E:.R~.X!.F:.R{.9,.U!.!).G:.1$.H:.e&.b&.cS I:.%#.V* J:.K:.E].L:.M:.N:.O:.P:.Q:.R:.S:.T:.U:.ir ar #z V:.e4 =7 ([ ([ r{ W:.C( t3 QJ u~ 6, T} _: c_ X: 2[ z| ([ X[ '2 I2 P8 ^7 O2 &8 ~6 z3 Z7 74 !6 G0 {2 *2 X:.a1 p< S0 h4 `} .( z~ x( Z! s' t) e1 94 `} M9 Q2 $| :5 Z7 =8 Y:.Z:.`:. <..<.+<.@<.#<.@/.$<.l%.fY &,.%<.&<.*<.~=.U%.;N 5Y =<.O,.4;.N,.O'.BO K$.j!.N'./>.V,.-<.=:.;<.><.,<.:] '<.&<.X,.%,.^-.)<.o#.|>.7{.XM [>.oL fR `V U'.1+.!<.BO ~<.P` P` =(.{<.]<.^<./<.(<._<.:<.<<.[<.}<.|<.1<.2<.F~.MN ~%.f*.DN 3&.%` yK f*.rX 5W 3<.4<.5<.6<.k^.7<.8<.9<.0<.a<.j=.b<.c<.d<.e<.f<.g<.",
"h<.Q).3H i<.3,.vK h>.q=.a^.]'.D~.9:.oH >M bt bt j<.WL mH Bu ;w s-.#).tK M!.9^.BN k<.l<.D{.m<.p>.n<.o<.q- D_.E_.p<.z].P~.D=.+!.1$.E-.M=.D..e&.[$.*O b&.5'.C=.Z!.+@ J{.I/.q<.L{.D^.h! r<.H_.J(.6' J(.z].s<.C(.E:.B:.D^.3).w>.Y!.J{.L;.t<.E-..Z o ..Z zX j,.E+ V# u<.v<.w<.x<.y<.y<.z<.A<.B<.C<.D<.E<.F<.G<.H<.I<.J<.7m *2 *} ([ }[ S} K<. } Z! &/ h_ T} T/ U/ `} 81 F*.=8 W^.45 q3 ~6 25 d4 s3 *8 Z7 _6 75 {7 g4 y3 L<. 8 *} Y8 p< .| T/ [/ F! E( L~ 4^ e` 2[ k< W} $| M<.N} }5 .8 O9 &9 N<.O<.6a P<.Q<.R<.S<.T<.U<.V<.<-.W<.[-.T'.h!.X<.Y<.WP R%.sL ,,.[X )=.U'.iZ tO ]_.)=.]/.-:.,<.:] Z<.:] `<. [..[.+[.@[.Z<.#[.$[.8R `V %[.5R &[.BZ 6;.{=.b~.,T _X %W WP eY *[.O,.=[.-[.;[.>[.,[.'[.)[.![.~[.{[.][.^[./[.M!.([.r].([.f*.cW h>.V).t-.c*.r:._[.:[.<[.[[.}[.|[.1[.2[.x+.9W w(.3[.4[.UI 5[.6[.UU ",
"7[.8K 5&.Ly Ly QD ,V @S ^M QD 9:.qQ %` ;w Oy 8[.MD 7H ^s 2,.PI n].9[.bH fH Y).C{.0[.a[.b[.c[.d[.UK e[.f  f[.F_.g[.6' A:.K(.!).4%.m..L;.Jt G..cS -Z ;$.G-.7S V~.2$ D].q<.I/.X!.h! c'.n) 2).r<.h[.y^.i[.j[.q<.k[.l[.m[.z+ n[.o[.p[.N;.u>.($.M=.j*.SY b&.&$ <$ q[.r[.s[.t[.u[.v[.w[.x[.y[.z[.A[.B[.C[.D[.E[.T:.F[.G[.H[.=8 Na S8 I[.w&.C( b_ +( 9_ [: h_ 4^ k< F*.X[ '2 d4 _6 P8 N} -8 $7 Z7 ob [6 Gg T8 S9 z3 45 z3 $8 ~6 W[ =} F*.X:.F! W: h_ T} i4 u] Y: b_ `} Nz O2 )2 N} qc vi J9 Dg J[.K[.z'.L[.M[.N[.O[.P[.Q[.=:.%<.h!.R[.{/.]/.^^.Q%./].S[.sL k!.WM hU uU `V cL gY W=.T[.U[.V[.W[.X[.Y[.Z[.`[. }..}.+}.@}.'<.W<.zZ BZ #}.[X !=.YP Y,.YP 6R 'N 0L U,.sL `M fR 4;.//.$}.%}.&}.*}.=}.-}.;}.>}.,}.'}.)}.u^.!}.L!.6:.~}.Qy `y QD =C {}.c*.5W ]}.o-.^}./}.(}.E!.w~.qK _}.0/.:}.<}.g;.&'.j(.[}.}}.",
"+` GZ oH Du zF +S ]%.vQ ~P =C h>.rQ oH 9x f*.7x fA 5x `I s-.XL 8K PI tK |}.w_.5/.1}.2}.3}.4}.5}.6}.7}.8}.9}.C_.E-.z:.0}.a}.&& O~.+!.N;.v=.+!.@!.+~.m>.J~.K~.@~.BW y^.D_.J/.C(.3).H_.G_.G_.3$ 2).5& i[.b}.c}.v! h. J(.F_.J{.R~.u>.u>.k*.4'.$#.C=.5%.b&.E;.s+ d}.[  e}.f}.g}.N^.h}.i}.j}.k}.'z l}.m}.n}.o}.p}.q}.r}.qs s}.ob X[ W[ ]} <[ o< .( [: Q/ B( q] q< yd W} 84 I2 d4 d4 ~7 C0 td Tp !7 Lg (m Da T8 {7 {7 _6 {7 *2 =2 P} q<  ( ;2 [/ C( c_ F( .( Q/ k< k< I2 25 N2 x3 ~2 O9 !6 t}.P( u}.v}.w}.x}.y}.z}.A}.B}.C}.D}.E}.~=.]^.F}.GB &[.%T m#.9@./].tv q#.'N BO `M [X G}.H}.I}.H}.J}.J}.K}.L}.M}.N}.L% O}.:] P}.-:.X<.[X ~=.Q}.j!.|h 4;.XM w).zZ q#.~/.S%.CZ R%.4;.R}.S}.T}.U}.V}.W}.X}.Y}.Z}.`}. |..|.7^.+|.;` !}.@|.k{.@|.GZ 'M ~P 6&.h;.#|.$|.%|.x+.6W r;.hK x/.x(.]&.&|.*|.=|.fH -|.Bq /s ",
"f*.f*.+P 6&.;|.JY L!.L!.>|.7:.sF 9:.QD dW I@.fK YI CK PD ;w ;w d*.GZ 8H q].>).,|.'|.)|.!|.~|.c,.{|.]|.7}.i[.i[.^|./|.(|.F:._|.R!.g,.C].N;.b&.5'.7'.4'.J~.K_.Z!.&$ %> c'.Q~.q<.J(.:|.3$ k[.:|.6' b}.y^.<|.l[.[|.3).z:.K^.}|.9& o[.,$.u>.}$.U!.M=.C].C=.p>.$$ ||.T* )R 1|.2|.3|.4|.5|.6|.iP 7|.8|.9|.0|.a|.b|.c|.pc ]m d|.@8 e|.P2 f|.X:.B(  ( b_ C( K2 e$ F*.z| Q2 25 84 ~6 @8 15 !7 U8 Lg Fa vc we C0 )7 T8 V8 {7 rd .h g|.qe g1 W[ Y8 j< Y: :} i] c_ k< |[ W( Q2 q3 I2 w3 25 %7 Ej Eh ~).u}.h|.i|.j|.k|.l|.m|.n|.o|.~b p|.+,.N'.!=.q|.xO r|.'A eU +N WM uL fU tO {=.]_.s|. [.t|.J}.u|.v|.w|.x|.y|.z|.A|.I}.u|.B|.C|.D|.{-.>:.E|.6;.K$.F|.%K O` c~.jO X>.o!.eY @*.o!.%^.G|.H|.I|.J|.K|.L|.M|.N|.O|.P|.Q|.R|.S|.T|.U|.V|.tK JY W|.9H xN X|.x/.0:.lT >%.Y|.nX b/.Z|.b;.WR `|. 1..1.+1.@1.#1.$1.%1.",
"J@.t^.[=.-'.='.&1.g..hH ~P *1.'V #` [ .@` =1.[ ./M CN fA 9H RD 6-.sF wF ('.-1.;1.>1.,1.'1.)1.!1.~1.{1.]1.8}.^|.^1.r<.[|.J{./1.R~.B].<'.4'.K{.+~.M=.G..G-.y].@@ Y~.8  2).D(.5& o>.h! D(.(1.g[.B:.D_.(1.J(.i[.E_.g[.@$ _1.Ux B:.A:.!).3%.C].M=.:1.O~.Q~.*& }$ j! <1.[1.}1.|1.11.21.31.41.51.61.71.81.91.01.a1.b1.U8 tb pe c1.:5 +| d1.81 }[ 65  ( Z} 4^ }[ q4 =8 d4 !6 e1.V7 U8 ]r W8 !7 xc C0 Ae L0 S9 La xc Fa zo qs Kj xe O0 p< =} [[ k< A3 e` 4^ K2 e_ q< f1.O2 !6 ~2 (7 O9 vi -8 $7 g1.N<.xx h1.i1.j1.k1.l1.y|.m1.n1.o1.*_.p1.q1.r1.p1.s1.$H eL >K ^N  T `V *K BO X<.4{ t1.u1.v1.B}.w1.j%.x1.y1.z1.A1.B1.C1.D1.E1.F1.G1.]-.H1.E|.&[.Y<.YP 'N [X X>.VM I1.BZ e~.@/.;-.J1.K1.L1.M1.N1.O1.P1.Q1.R1.S1.T1.U1.V1.W1.A/.X1.Qy hH Y1.Z1.`1. 2..2.+2.@2.#2.$2.%2.&2.iK *2.=2.[*.-2.6W 6T ;2.>2.g>.+1.",
"7/.,2.'2.JY #).)2.,2.g>.Ry ]'.JY t/.f..zF 7/.tK CK OD 3,.rF sF eA @` A{.!2.~2.{2.]2.^2./2.(2._2.:2.<2.[2.}2.E_.8}.|2.12.22.0}.D^.Q!.32.42.W!.+!.+!.O~.X!.y:.'= Q~.G(.2).52.2).y^.p- D(.f[.q<.F_.D- ^|.G_./|._= 22.62.B].J{.J[.B].w>.F/.V~.32.2S N;.,$.W; I/.B:.j! :^ )$ 72.82.92.02.a2.b2.A[.c2.d2.e2.f2.g2.bn M0 K0 B^.w3 z3 h2.e4 X[ K2 W: T/ +| K2 91 28 Q2 d4 _6 @8 Ra Lt Z0 L0 $8 K0 V8 L0 Dc 15 we ob tb T8 Bf ]m i2.j2.z< +D 94 :: W: W: K2  ( Y} 91 H2 |^ V8 ye ~m t}.$7 Dj X[ k2.l2.m2.n2.o2.p2.q2.r2.s2.Z[.t2.u2.Y'.v2.[X |h U'.U'.eU .H `M tv iZ 2+.0L fR +,.D&.w2.t|.C1.K}.s2.x2.M[.y2.B1.z2.A2.B2.C2.D2.E2.B|.F2.>< [X G2.hU =X w).eY H2.O,.<].:_.I2./o J2.K2.L2.M2.N2.O2.P2.Q2.R2.S2.T2.U2.V2.W2.X2.Y2.Z2.[ .`2.AF  3.sI .3.+3.@3.#3.$3.%3.&3.*3.%'.w/.=3.SR -3.QL ;3.>3.DR gj z!.",
",3.'3.)3.!3.~3.{3.]3.W).Du } .^3.B+./3.z!.I@.I@.'V 9x ;w s/.(3.u:.M!.r]._3.:3.<3.[3.}3.|3.13.23.33.43.53.^|.8}.63.n<.73.g[.E_.J/.0}.N;.!).+!.O~.4%.&& Q!.B:.y:.D].D^.D- b}.G_.3$ :|.D(.c'.D_.0,.PJ n<.G_.83.c}.93.[|.03.4M +$ S!.F:.A:.+!.G-.<w m>.m>.0  H/.}& X; s- a3.{$ @{.b3.c3.L8 d3.e3.7n f3.g3.h3.i3.j3.vi lw oe *8 k3.q{  8 S2 Y8 _: d_ /2 ^7 ^7 q4 :5 P8 P8 V8 L0 ub Y0 !7 Ia $8 R9 Ea Da D0 Gg Q9 wh S9 !7 yc N9 Bi H2 l3.P} R} C( B( y( q< 81 a1 :5 )6 +8 )6 !7 Y0 hw m3.n3.o3.p3.q3.r3.s3.t3.u3.v3.w3.x3.y3.z3.A3.B3.Y<.XP V'._=.qR `M ;N 'N BO U,.!_.+,.:] O}.C3.D3.y|.z1.A1.w3.x3.E3.A1.y|.F3.G3.H3.I3.J3.#@.K3.Q'.~=.L3.M3.N3.O3.P3.#X Q3.R3.Y;.S3.T3.U3.V3.W3.X3.Y3.Z3.`3. 4..4.+4.@4.#4.$4.,1.%4.&4.*4.=4.KY 3&.-4.;4.>4.,4.kY '4.)4.#|.!4.w(.y/.ND 5W j(.~4.{4.)*.]4.^4./4.(4.",
"5:._4.:4.<4.[4.}4.Z2.#` iY |4.14.]'.hH 24.s/.UD cW 34.dW >V t;.z/.s=.44.54.64.74.84.94.04.a4.b4.c4.d4.e4.]1.{1.]1.&> f4.g4.c}.v! H_.R~.j,.K{.M=.T!.5'.&$ d  D].J(.B:.h4.2).@~.|& k[.J(.i4.j4.k4.c'.3$ l4.)& }& R[ o' -> J[.z:.D/.R~.g,.9,.*!.m4.*!.I(.X!.U* p- n4.H- 8] 4< o4.p4.q4.r4.mE s4.qo t4.Gw u4.v4.rs C0 Z0 D0 wc _5 y{ O2 U9 X[ }[ [[ Nz k<  h Z7 I) )6 U8 $7 Z0 Mf U8 Dc U8 xc Ca Ha we C0 C0 Ia La V8 T9 w4.Bf [6 32 c4 w3 a1 &} /2 65 Z} S2 zc d4 }5 ye x4.%7 y4.Nt 85 V/.z4.A4.B4.C4.D4.r[ E4.F4.G4.H4.I4.J4.~b &<.+,._^.=,.7R ^N WP uL BO uU S%.K4.@}.I}.`[.L4.B1.M}.O[.M4.n2.N4.O4.P4.G* Q4.R4.S4.6n T4.U4.V4.W4.X4.Y4.Z4.uZ -N B` ]:.X'.`4. 5.]K .5.+5.@5.#5.$5.%5.&5.*5.=5.-5.;5.>5.,5.'5.)5.!5.~5.{5.]5.^5./5.(5.v~._5.:5.<5.[5.}5.|5.|5.15.25.v{.PD }=.35.$|.45.55.65.75.85.",
"95.-=.05.[=.a5.b5.c5.[=.v^.d5.pQ 9].f*.f*.8x 6&.eA #$.r].#$.e5.f5.g5.T1.h5.i5.j5.wM k5.Qx l5.m5.n5.o5.@$ => p5.q5.i. QE r5.i- w! s5.L{.O~.P!.O~.&$ H/.X!.q<.Z!.y^.G(.3  5& t5.c'.G_.B:.2).^|.q<.2).~: :& @= u5.&  v5.03.n<.E:.t5.w5.0}.E-.w>.x5.0'.F-.+@ D- y5.F- (1.z5.Q^ A5.B5.C5.jE D5.E5.F5.~E G5.H5.I5.Sd Ya ub V7 E0 Kc J5.qe P2 +| `} K5.L5.X[ '2 *2 |7 V8 U8 ub Z0 oc V7 Z0 Da ]r vc 15 xb xc xc T8 Ea Ca mb M5.Ij &8 ]7 55 I2 *} A3 <[ `} Y} 35 I9 @8 N5.vi *9 Eh =B %B ;D O5.P5.$5.Q5.R5.S5.T5.U5.V5.W5.X5.Y5.Z5.`5. 6.**.c: /u O` uL WM [>.'X .6.//.^(.#<.+6.O[.@6.y|.Z[.#6.O4.x3.r2.$6.%6.&6.*6.=6.-6.;6.>6.,6.'6.O5 [X [-.)6.(N !6.0L ~6.{6.]6.^6./6.(6._6.:6.<6.[6.}6.HZ |6.16.26.36.46.56..M 66.76.,1.86.96.06.9K XR !%.a6.b6.c6.d6.%'.r;.yK /3.8H v{.GZ +1.<=.e6.f6.95.g6.h6.i6.",
"j6.k6.l6.m6.sk n6.o6.,3.p6.W).cW QF Uy 9x ,V dW AN B{.(,.A{.M!.q6.r6.s6.t6.u6.v6.w6.x6.y6.z6.A6.B6.C6.D6.E6.F6.G6.i~ 5] H6.3' d~ ^1.R~.J{.w>.E(.J~.H/.J(.E(.p- D_.i! ]=  = q- y^.i! D- ^|.^|.:|.g4.o' A- Z; j- _^ :|.xo g,.:|.22.I6.J6.Q!.Y!.Lx O~.&& W; J(.h! K6.L6.z5.M6.N6.O6.{: {: cw P6.Q6.bw R6.S6.'0 Qi T6.Ib rz sE $g 7^ +l P2 *} Y} z| z| /[ '2 :y m6 S9 sb K0 Lt Qa xb Ha Ha uc W8 R9 xb Ia (m Ha L0 Fa Kg I9 T9 u{ F0 U6.X/.V6.W6.Na  h 35 zc X6.)7 to Ia -8 $& Y6.N2 Z6.`6. 7..7.+7.@7.#7.$7.t1.%7.&7.*7.=7.-7.;7.@6.W,.>7.'N R'.T,.tv ^N iZ [X O}.,7.J}.L5 x|.'7.)7.F3.!7.n2.~7.{7.]7.^7./7.(7._7.:7.<7.u1.[7.}7.F1.|7.17.'X 27.>K ;T 3R Y;.37.47.57.67.77.87.97.07.a7.b7.c7.d7.e7.f7.g7.h7.i7.j7.k7.l7.m7.]3.],.VL p=.n7.o7.E#.p7.q7.r7.bH ND `I PD 74.s7.t7.85.~3.n^.u7.v7.w7.1/.",
"'-.x7.y7.z7.u7.A7.m6.B7.C7.D7.(3.j>.E7.h>.< .tK } .^'.t;.('.Z).F7.{2.G7.{M H7.I7.A6.J7.K7.L7.M7.N7.O7.P7.`x n! ./ Q7.o! R7.f( S7.w/ C:.Y!.J{.2$ L;.D/.C:.h! t5.k[.8}.k[.t5.2).8}.^|.:|.<|.5& :|.T7.7$ l) I= E- h4.U7.D:.B+ @l t5.J[.J[.d  C:.V7.L;.+@ H_.c'.q- Y; W7.X7.z5.Y7.Z7.RN `7.6G %v ^J `7.hJ  8.A4 .8.+8.Vu wi $7 pe @8.55 G0 P} &} /[ #8.S2 S2 ~7 |5 T0 Ae L0 L0 W8 W8 vc re K0 W8 L0 La J0 La Q9 zh D0 zo wh we g5 oe $8.Pa J<.%8.&8.@k cm *8.pb wc zh Ja ~m hw Z* os `6.=8.-8.;8.>8.,8.'8.)8.!8.N}.~8.{8.]8.4| ^8./8.K4.+}._^.Q%.WM /Y A` -K Q%.^_.(8.v|._8.:8.z2.V4.y|.~7.<8.[8.}8.]7.|8.18.28.38.48.28.58.68.78.88.98.,=.pZ 08.a8.b8.;_.R3.c8.d8.e8.f8.g8.h8.i8.j8.k8.l8.m8.n8. ;.c7.D>.o8.p8.q8.R2.-=.r8.KU .P z!.+` s8.uN t8.u8.v8.y/.lX hK iY 'V t^.'3.5/..P w8.X2.x8.y8.z8.A8.",
"B8.C8.D8.E8.F8.G8.5_.H8.e6.)2.I8.y_.j{.pT pT CK q].)V /'.f5.J8.K8.L8.55.M8.N8.hg O8.P8.Q8.R8.S8.T8.U8.V8.W8.X8.Y8.S^ )_ <$.m5.9' w! Z8.H(.:|.Y!.D^.+!.X!.3).b}.1] 5& D_.D(.^1.o' :|.b}.G_.5& c}.`8.wk e~ z: w/ V# G_.h4.:|.E_. 9..9.0}.+9.L;.Q6.I(.D].G(. = @9.#9.$9.L6.a,.|w %9.&9.k .*9.WQ |P (z <h }M Pp {J W8 t}. l %7 La _5 {Z {6 ([ &} S8 ([ e4 )7 d4 zc d%.Da Q9 re L0 Ae Hg Ea xb ve Mf J9 Dc we W8 T8 S9 wh Gg Ma 82 =9.oe C0 Od -9.ar  p ;9.>9.A0 ,9.]m '9.Lj )9.J_.!9.~9.{9.]9.^9./9.(9._9.:9.<9.[9.}9.|9.19.qq 29.39.49.59.G$.[X R'.w).XP tv E|.w2.B}.C1.J5 ~7.69.79.89.r2.29.;7.50 99.09.a9.b9.F3.!7.c9.d9.B4.t, e9.f9.vZ M3.g9.h9.i9.j9.k9.l9.m9.n9.o9.p9.q9.r9.g7.s9.t9.u9.v9.w9.x9.y9.z9.A9.B9.C9.D9.t(.;..E9.F9.G9.j/.H9.I9.J9.K9.L9.j=.Z|.e..'W M9.g5.[4.N9.O9.P9.Q9.R9.S9.T9.",
"U9.V9.Z*.W9.X9.Y9.;@.)}.Z9.r8.M9.`9. 0..0.KY +0.5(.34.@0.8_.#0.$0.W2.%0.i|.&0.*0.n*.|S =0.-0.Sl ;0.>0.,0.'0.)0.!0.~0.{0.]0.^0./0.(0._0.J[.c'.D^.J{.G(.y^.d  3  h! ], ^|.i[.:0.y^.h! <0.8}.b}.1] i! w/ 5' `% 4  D:.b}.f,.[|.[0.}0.|0.10.y].g,.m4.X!.d  C(.i4.20.30.40.G_.50.60.PC :z ZH qP RT cM 70.80.^z lJ 90.00.P9 Eh 0n N9 *8 <L S8 V6.P2 qe '2 *} )7 ~6 V8 Oe ue W8 a0.sb vc ue xb Da Ia Gf L0 Lf vc ob Dc Kt N0 we tb pe oe b0.@F T/.c0.d0.e0.Ff f0.,9.g0.h0.i0.j0.k0.l0.m0.n0.]9.o0.p0.q0.r0.s0.t0.u0.v0.w0.3w x0.y0.z0.*, A0.K4.s|.)=.WM <-._=.[X ]_.#<.C1.B0.C0.D0./7.F3.E0.M[.F0.N4.G0.^7.H0.I0.Q<.J0./7.89.K0.L0.M0.E1.N0.sZ O0.P0.Q0.R0.3+.S0.T0.U0.V0.W0.X0.Y0.Z0.`0. a..a.+a.@a.#a.$a.i$.<N S2.%a.&a.*a.=a.-a.;a.>a.bF ,a.'a.)a.!a.~a.{a.'P 0..#).e5.]a.^a.95./a.(a._a..*.)}.:a.<a.",
"[a.}a.6Z |a.1a.2a.3a.4a.=..5a.S|./+.'2.6a.7a.8a.34.z/.9a.0a.aa.ba.u6.ca.da.*0.ea.fa.ga.ha.cV ia.<w ja.ka.la.ma.na.oa.pa.qa.^0.ra.sa.#= k- 2  h' N(.z:.)& i! ]=  = D- 1] t5.<|.b}.E- G- Y; ta.3  &> )& i[.|^ (= i[.h4.52.ua.R~.d[.va.J[.5V `+ wa.*& h! i4.xa.ya.za.q5.Aa.AH Ba._S |` !: jS kV G..Ca.Da./S GK [E ZE pE =B 15 hz Ea.gG {7 g4 R2 74 X[ '2 [6 sd Ea uc ^R xc re oc W8 Da Ia ue xc W8 E0 Z0 W8 Fa Qa E0 C0 fn 9, Ai Ea Fa.Ga.Ha.Ff Ha.Ia.Ja.Ka.La.Ma.Na.Oa.Ja.Pa.=8.~9.Qa.Ra.r0.Sa.Ta.p0.~9.<6.Ua.a4.Va.m2.Wa.Xa.Ya.Za.L_ `a. b.+}.Y'.7;.S%..b.'<.u|.C3.x|.Z5.'7.]7.x3.M[.50 A1.89.28.+b.N4.@b.#b.$b.%b.&b.*b.=b.-b.;b.>b.,b.l9.'b.)b.!b.Y1.V..~b.{b.]b.^b./b.(b.x7._b.Y*.,^.:b.<b.[b.}b.|b.1b.2b.3b.4b.5b.6b.7b.Y=.8b.9b.0b.ab.bb.cb.db.eb.fb.25.#).gb.X2.hb.X2.ib.Q9.jb.kb.lb.mb.nb.",
"ob.pb.pb.qb.rb.sb.tb.@_.V5 ub.vb./+.wb.>).y_.q6.xb.yb.zb.Ab.jb.Bb.Cb.so o0.Bt SK Sl Db.Eb.0%.PT Fb.Gb.Hb.Ib.Jb.Kb.Lb.Mb.Nb.Ob.Pb.Qb.5}.Rb.R* }& N+ j! N+ U+ i4.D(.^1.h- ^|.]= Y; 8}.Y; Sb.Tb.3  ]= E- c}.7$ c}.]= k[.p[.8$.J[.Z8.`& G_.F:.Ub.SK z^.Vb.Wb.Xb.$9.Yb.Zb.`b. c..c.+c.@c.3E ZN {$.{).kV ]S WQ tP #c.^S $c.Ma `k La wi >9 @3 c4 s3 I2 ~7 25 b4 sd vc W8 %c.vd rb Z0 ub sb M5.Q9 ub ve xc Dc Da K0 P9 $7 E0 T9 u4 (m (m Kg Ia.qs qs ]m &c.*c.=c.-c.;c.>c.,c.'c.)c.X3.X3.!c.n0.~c.p0.{c.]c.^c./c.(c.Q5._c.:c.S; <c.=, [c.s3.}c.|c.!:./^.B&.^_.G}.u|.1c.2c.3c.4c.5c.6c.7c./7.^7.8c.N4.9c.+b.0c.ac.bc.cc.dc.ec.E3.fc.gc.5n hc.ic.jc.kc.lc.mc.I0.nc.oc.pc.qc.y= n8.rc.sc.>(.tc.uc.vc.wc.xc.yc.zc.Ac.)#.Bc.Cc.Dc.Ec.Fc.Gc.Hc.Ic.Jc.Kc.Lc.Mc.Nc.Oc.Pc.Q$.Qc.Rc.Sc.Tc.Uc.R|.kb.Vc.9#. ..Wc.Xc.",
"Yc.Zc.`c. d..d.+d.@d.#d.$d.%d.uR &d.85.*d.}4.=d.t: -d.;d.D9.>d.,d.'d.)d.S8.!d.MH ~d.ha.0E ~d.0M dV {d.]d.^d./d.(d._d.:d.<d.[d.}d.|d.1d.2d.@= i- Q+ [, 6& G- 1] D(.]= f' 7$ G-  = w/ 3d.r) 4d.r) n<.n<.1] Z; t5.w! |^ 5d.83.r<.X+ }0.o'  $ [|.D;.6d.7d.#9.8d.Yb.9d.0d.ad.0E .c.9%.0S bd.%  7%.xD rS RY [P XK cd.~J dd.ed.Bf ]r P9 )6 7L r3 z3 Q2 }5 Q2 P8 B0 uc T8 +h uc ve ue Dc L0 vc vc sb R9 L0 $8 W8 fd.fd.Ac xb we Jd oe Bi vc Q9 gd.hd.id.jd.e0.kd.Ka.ld.md.nd.`6.od.pd..7.qd.rd.sd.^c.{c.Q8..7.od.td.,8.ud.vd.wd.E0.xd.yd.zd.S; Ad.Bd.Cd.Dd.Ed.#<.Fd.Gd.x|.y|.Hd.Id.^7.]7.]7.Jd.N4.+b.89.Kd.Ld.Md.Nd.Od.Pd.[8._< Qd.%b.Rd.Sd.Td.Ud.Vd.Wd.F>.Xd.Yd.Zd.`d. e.3T .e.+e..a.(Q @e.#e.$e.%e.zc.Zc.&e.*e.Ac.=e.)#.-e.;e.>e.,e.'e.j_.)e.!e.~e.{e.]e.^e./e.(e._e.:e.w8.<e.[e.}e.Q9.|e.1e.kb.2e.S}.",
"*/.3e.4e.5e.6e.7e.8e.9e.P&.0e./@.-=.ae.be.8_.ce.de.>(.06.ee.fe.ge.he.lM ie.MK MK +U 1S VQ 0M Hx ea.je.ke.le.me.ne.x6.oe.pe.qe.re.se.hg te.x6.wk A- i4.^= Yb.;!.(1.`8.1] q- 1] 1]  = H6.1] H- p5.w/ Z; 73.ue.ve.we.4%.l[.xe.D:.ye.H_.h.  $ G_.y^.ze.Ae.Be.Ce.De.Ee.Fe.Ge.2E He.0%.{4 0$ Ie.Je.F;.G..A..2` q>.Ke.Le.{J Me.Ne.S9 26 _6 Oe.25 +l V8 }5 P8 @8 W8 Hg B0 De >~ Da Gf ve K0 Hg vc Eg r}.L0 Kg xc Da Y0 15 C0 F0 Xp qb C0 Pe.sc B0 _5 '7 vd Qe.Re.Se.Te.a4.Ue.Ve.{c.We.^c.Xe.Ye.Ze.Ze.he.`e. f..f.~c.od.{9.C<.+f.@f.t7 -b [c.#f.$f.50 B0.%f.&f.*f.=f.-f.;f.Z5.'7.!7.N4.d9 >f.ou Kd.E0.,f.'f.)f.)f.!f.>f.~f.{f.]f.^f.G* /f.(f._f.:f.<f.[f.}f.|f.1f.2f.3f.4f.5f.6f.7f.8f.9f.[!.m9.0f.af.bf.cf.&e.df.u#.Ac.Ac.ef.ff.gf.hf.if.jf.kf.lf.mf.nf.of.pf.Qc.9^.2<.X2.jb._a.qf.rf.sf./~.tf.uf.~T vf.",
"wf.xf.yf.zf.Af.Bf.Cf.Zc.Df.Ef.n%.Ff.Gf.!5.Hf.If.Hf.Jf.Kf.Lf.Mf.Nf.Of.z..je.Pf.0M Qf.Pf.VQ z..KH lP Rf.(V 0&.Sf.'G Tf.Ye.Uf.Vf.Wf.Xf.Yf.Zf.`f. g..g.9' +g.]1.^|.|2.E- l' l' w! <0.]= H- 3d.&> |2.3d.RE @g.n<.ve.:0.a  g4.~: (|.#g.o' X+ $g.b}.6d.%g.&g.Ce.*g.=g.-g.;g.>g.@Z 9'.zX )r ,g.'g.!  ,  P@.1%.h,.o .zQ )g.!g.ps ~g.{g.15 ]g.{} ^g.{7 Ra J9 E0 W8 xc Da vc rb /g.sb Cf W8 Hg De Z0 vc oc B0 Gf Lj  l xc @8 Gg Ta sc Ca Jj (g.rb fn ~7 ob ^r _g.:g.,z =8.r0.<g.Sa.[g.}g.|g.Ze.1g.2g.3g.Tf.Ct 4g.5g.Ye.[g.^c.w6.6g.7g.8g.9g.0g.ag.bg.cg.x1.dg.eg.fg.<8.{7.{7.~7.gg.hg.}8.ig.jg.Id.kg.kg.Kd.>f.lg.mg.E4.ng.og.pg.qg.rg.sg.tg.ug.vg.`m wg.xg.yg.zg.Ag.Bg.Cg.Dg..a.Eg.1!.Fg.Gg.Hg.Ig.Jg.Kg.m9.Lg.}!.Mg.`;.7f.Ng.X9.K*.Og.Pg.Qg.Rg.Sg.Tg.Ug.Vg.Wg.Xg.Yg.Zg.`g. h..h.1e.+h.Tc.@h.#h.$h.S}.%h.&h.",
"*h.=h.-h.;h.>h.,h.'h.)h.!h.~h.h).*a.{h./~.{h.]h.^h./h.(h.y6._h.Ye.*L PK Eb.:h.@c.<h.:h.[h.[S ~d.<h.}h.|h.1h.2h.1h.SK 3h.4h.R8.5h.6h.7h.8h.9h.0h.ZA i~ 2, W7.7d.^, l~ 8& y- ah.K6.bh.l' |2.r) a3.ch.(= |2.ue.|2.c}. U f4.)* _= F(.F(._0.78 k[.dh.eh.9& fh.gh.hh.ih.jh.9P p*.%O 9,.P@..  kh.;@ lh.mh.,  3%._G T-.nh._S ZH DH RN oh.,!.Y0 r1 )6 hw Ra vi Lf J9 ph.Mg Gf C> Sf De R9 Ce xc W8 ue Gf P9 ub fd.Ma Ma R9 xb >^ D0 w4.qh.rh.sh.qh.Ra ob th.Qc uh.vh.Ve.wh.xh.yh.qd.zh.Ze.ia.ie.Ah.Bh.]c.Ch.3g.Dh.Eh.Fh.Ye.Gh.Hh.Ih.Jh.Kh.Lh.Mh.<8.Nh.Oh.{8.&, r2.]8.Ph.Qh.<8.Rh.Sh.Th.Uh.&7.Vh.Wh.t3.Kd.&7.Xh.Yh.Zh.Xh.`h. i..i.+i.@i.#i.Vh.$i.%i.&i.*i.=i.-i.;i.5f.>i.Eg.[e ,i.&e.'i.'i.)i.!i.~i.)i.{i.]i.^i.Fg./i.df.cf (i._i.>Y :i.<i.[i.}i.|i.1i.,}.2i.3i....4i.5i.6i.7i.D8.8i.9i.I>.0i.ai.&h.bi.ci.",
"di.ei.)i.fi.gi.hi.ii.ji.ki.li.mi.ni.oi.pi.qi.ri.9L si.ti.oe.ui.vi.ga.&U &U 5M ha.nS wi.Rf.RK ZT xi.M-.yi.Y5 +  zi.Ai.KQ Bi.Ci.+U Di.Ei.Fi.Gi.Hi.Ii.`f.d' $9.Ji.$9.=> Ki.Li.z5.Sb.ah.i{ H6.Tb.^= Mi.p5.^= Ni.Oi.ve.IT '% Pi.r~ 73.4_ T7.8}.7d.Qi.Ri.c2.Si.Ti.jh.0J Ui.Vi.Wi.f&.xW Xi.m  Yi.Zi.`i.$& *!. j.bV .j.p*.xD +j.Ri.@j.E5.{J '/ 0$ Dc y4.$7 Lt ~m Ja Mf Lj in Ac #j.ve Gf Mf Mg re Mf ub ub Lf xb Q9 K0 K0 sb P{ Ai Hg gd.$j.Df Ia Ce %j.&j.nd.P5.Ra.*j.}g.|g.=j.-j.Bh.4P ;j.3g.Ah.ga.>j.3g.,j.'j.)j.'j.!j.P8.~j.)d.{j.7g.]j.^j./j.(j._j.:j.29.-f.<j.[j.}j.&7.|j.1j.I5 2j.3j.4j.5j.6j.4j.7j.4j.8j.9j.0j.aj.bj.cj.dj.ej.fj.3j.gj.+i.hj.ij.jj.e7.kj.x7.y8.lj.1!.mj.Mg.af.Kg.nj.oj.[!.pj.qj.{i.rj.sj.tj.uj.vj.wj.I&.xj.yj.zj.Aj.Bj.Cj.Dj.Ej.Fj.Gj.Hj.Ij.Jj.Kj.Lj.Mj.Nj.Oj.Pj.+/.Qj.Rj.Sj.Tj.",
"Uj.Vj.Wj.Xj.Yj.Zj.`j. k..k.C~.]3.+k.R1.@k.#k.$k.%k.ja.Ct Db.-0.0M cV Eb.&k.mS *k.W~.=k.OX -k.K=.f0 kS ;k.>k.,k.'k.)k.<V !k.~k.{k.]k.VA ^k./k.Px (k._k.:k.i4.Be.<k.[k.}k.|k.1k.2k.3k.bh.4k.3k.5k.4d.H6.3k.6k.7k._= F> Sb.4d.8k.9k.Y@ 0k.ak.M~.lE bk.ck.dk.z..ek.fk.gk.k~ Ob.hk.ik.YT .  jk.kk.lk.mk.<).Ob.nk.ok.e[.N~.pk.qk.<z VK rk.Kx sk.@0 Zk tk.Og Oj OC Nj uk.NC Ng vk.Lj wk.Mg K0 uc Mg sb Lf Ac ub xk.ub La Dg Oe tc N0 F0 gd.Lj Qa KJ Qx =8.~1 yk.*j.wh.Ze.zk.Ak.Bk.Ah.Ze.Ak.1g.Ak.Ck.3g.4P Dk.Ek.Fk.Ch.Gk.'j.Hk.Qa.ti.B6.,8.Ik.Jk.Kk.Lk.Mk.Nk.Ok.x0.Pk.Qk.Pk.Yh.2j.Rk.Sk.Tk.Uk.Vk.Wk.Xk.Yk.Zk.Yk.`k. l. l..l.+l.@l.#l.$l.%l.%l.&l.*l.ZR =l.-l.;l.>l.,l.'l.)l.!l.~l.9f.{l.]l.^l./l.{i.(l._l.:l.Gg.<l.>(.[l.}l.|l.1l.2l.3l.4l.3b.5l.6l.7l.n=.8l.45.9l.0l.al.bl.cl.dl.el.fl.gl.hl.il.jl.kl.",
"ll.ml.<Q nl.ol.pl.ql.rl.sl.tl.ul.vl.Lf.wl.uh.z6.Eh.xl.yl.Qf.PT Pf.Rf.<h.AC ZT t>.zl.Al.Bl.Cl.Dl.=k.PX El.Fl.Gl.Hl.Il.Jl.Kl.Ll.Ml.Nl.+{.UY Ol.#L Pl.Ql.Rl.Sl.=n Tl.Ul.Vl.Wl.Xl.Yl.Zl.1k.Yl.`l. m.Yl..m.`l.+m.6k.P~.@m.#m.$m.%m.Y7 &m.*m.mE {E 60.-r Ht 3P =m.SX jS e[.o  -m.;m.>m.o  a,.,m.'m.)m.%!.U{.!m.~m.v>.,  C;.Gt {m.TK ]m.dV ^m.~G /m.(m.W:._m.:m.<m.RC Nj [m.ln ]8 Zf Do mw Fi Zp jw mw Nj Be Nt [m.I0 (m #3 }m.|m.Ca ub ^2 1m.A6.+7.<6.2m.3m.*j.4m.Sa.5m.6m.7m.;j.8m.3g.9m.0m.am.bm.4P Ak.Tf.P8.cm.Ye.dm.am.4P 9G .7.Nf.]9.;8.em.fm.gm.Pb.hm.im.im.jm.km.lm.mm.Wk.nm.om.pm.qm.rm.sm.tm.um.vm.wm.xm.ym.zm.Am.Bm.Cm.Dm.qg.Em.Fm.Gm.Hm.S1.l8.Ng.Im.Jm.Km.Lm.Mm.Nm.)l.Om.@e.Pm.Qm.Pm.Rm.hi.hi.Sm.Tm.Um.Vm.Im.tj.cf Wm.i%.Xm.n8.n8.Ym.d7.Zm.g7.T;.`m. n.bN .n.n^.yj.+n.@n.#n.$n.%n.di.&n.*n.",
"=n.-n.nl.;n.>n.,n.ms 'n.5-.)n.!n.~n.{n.]n.^n./n.lM ~d.IX bM (n.*U AC VQ _n.*k.g  :n.<n.o..[n.}n.@  |n.El.1n.2n.3n.4n.5n.9%.6n.Ui.7n.8n.9n.>g.]0.0n.^n.an.Ql.bn.cn.dn.3  en.fn.gn.hn.in..m.jn.kn.ln.mn.nn.F6.H6.on.83.pn.qn.rn.sn.c2.tn.ks DH un.^J ;G cd.:` ;$.GQ e[.%@ r>.vn.xo Q~.8  J6.l  wn.xn.y+ yn.zn.t+ o..NX An.fe Bn.t4.Cn.,G  B Dn.Pl.En.Fn.Gn.Y8 Fi Ng )v Lf U0 n>.Hn.Hn.mw !v ln In.Fi Jn.Og vi m3.E0 W+  h Zp Di l*.>8.X3.Qa.Kn.Ln.p0. f.Mn.Nn.Bh.2g.On.1g.Pn.Qn.Rn.Sn.3g.Tn.bm.Un.0m.Vn.Wn.3g.3g.Xn.`e.Yn.Zn.ja.Xe.Mn.kE `n.Z(. o.Z6..o.+o.@o.#o.$o.%o.&o.*o.=o.-o.;o.=o.>o.,o.'o.)o.!o.]f.~o.{o.]o.^o./o.(o._o.:o.f` <o.[o.Z0.=e.|b.*e.}o.|o.1o.2o.3o.4o.5o.6o.7o./l.8o.]l./l.m9.!i.9o.0o.+5.(l.'i.ao.Dg.*e.Ac.bo.co.do.eo.co.i$.`0.fo.go.9$.ho.io.jo.ko.lo.mo.no.t#.oo.po.qo.ro.",
"so.1>.to.uo.*J m5.vo.z6.Lx Lx &L wo.xo. g.yo.zo.MH Ao.Bo.AC :h.VQ (n.Al.Co.:n.Do.Eo.2'.3& ,g.Fo.Go.kk.Ho.Io.Jo.Ko.Lo.Mo.No.Oo.Po.Qo.Ll.Ro.1h.So.YA yl.To.Uo.Vo.Wo.ke.Xo.Yo.Zo.ek.`o.r>.k-  p.X* .p.+p.@p.#p.$p.=v %p.&p.*p.=p.BH -p./J (z ;p.*9.GK eS gV >p.;$.g .b&.,  Y5 ,p.3& '= J~.H:.%!.'p.H].,p.Z# [).C+ B^.h&.)p.f  !p.~p.{p.]p.^p./p.(p.JT ^k.G=._p.:p.<p.[p.}p.|p.1p.2p.3p.ed.4p.5p.6p.7p.8p.9p.uE 0p.ap.0z Qa.bp.2d.cp.dp.)d.Hh.ep.fp.gp.~c.hp.rd.ip.Ah.jp.ip.kp.lp.mp.np.op.y..Bo.Bo.Sn.=0.ip.pp.4P qp.rp.sp.&L Ch.Nn.rd.)d.Hh.]9.nd.tp.,8.up.vp.wp.'m xp.yp.zp.Ap.Bp.Cp.Dp.Ep.Fp.Gp.Hp.Ip.Jp.Kp.Lp.Mp.Np.Op.Pp.Qp.g7.4l._!.Rp.Sp.co.|l.Tp.Im.0f.Up.Vp.Wp.Xp.Yp.Zp.cf. /.`p. q..q.)i.+q.pj.Ig.@q.m9.m9.#q.$q.%q.(i.&q.&q.|l.*q._b.do.=q.-q.=q.Sp.;q.=l.>q.,q.'q.)q.!q.~q.{q.]q.^q.so.",
"Jp./q.(q._q.x6.;0.:q.Z% sp.<q.]0.|S [q.}q..O KH Of.0E bM `Q |q.1q.2q._n.=k.#@ 3q.4q.5q.6q.4q.7q.8q.9q.0q.aq.bq.cq.dq.eq.4q.fq.gq.hq.iq.jq.kq.lq.@O mq.VA =O 7M !j.!j.nq.oq.cC pq.qq.rq.sq.tq.uq.vq.wq.ov E5.^J xq.xq.D..@j.RN yq.yq./S zq.ET QA zq.:` RH hW 5 .HQ  #.Aq.Ob.Bq.Cq.D].H_.[$ f{ G].2& ||.B- `+ ,$.E;.G..h,.;$.TY KX 0P Bl.Dq.wW 8P JQ ha.XK D..D..sM Ri.+G Eq.Fq.Gq.Hq.Iq.Jq.)J Kq.Lq.Mq.Nq.Ik oe.9G ne.:S sp.5g.{c.Oq.Sa.{c.Pq.Qq.Rq.-j.zh.Sq.2g.Tq.Uq.Vq.Wq.Xq.Yq.Zq.z=.zo.`q. r.So..r.Un.Rf.Sn.zo.`q.Tq.ie.,j.9m.+r.qd.@r.^c.N7.)c.-8.{9.#r.$r.%r.&r.*r.=r.-r.;r.>r.,r.'r.)r.!r.~r.{r.]r.^r./r.(r._r.:r.<r.ml.[r.:r.y9.}r.co.}l.|r.1r. /.2r.3r.4r.Up.5r. q.6r.o9.Up.04.7r.8r.9r.0r.ar.)i.br.Xp.^i.{i.cr.dr.:b.er.fr.gr.af.hr.&q.Tp.mj.do.Mg.ir.7f.)#.jr.>q.g7.kr.lr.>n.mr.nr.or.",
"pr./E Z% nq.oM Zn.Uf.ze.qr.TH +U OQ TK wi.rr.VQ Bo.IQ 0M -k.ZT sr.:n.tr.:n.1'.{4 ur.vr.wr.S~.Mo.xr.yr.zr.Ar.Br.Cr.Dr.%@ Er.Fr.Gr.O].Hr.Ir.!G lS TH Jr.Kr.Lr.[q.Mr.YA Uf.<J fa.Uf.nq.@L x6.T8.nq.Nr.Or.f .m..Ke.XK Pr.D..Qr.jW Rr.EQ Sr.Qr.AX oS )t E..WK :` 5 .2%..Z o..D+ Tr.Ur..!.Vr.B:.J~.D/.L;.@@ &j.s+ I:.j*.D-.4 .g .k*..#.7S i&.K=.8%.2h.8M C..:G [` dS :` jW ^J Wr.7o He.9h >  1E vC ^J Xr.Yr.Gk.Eh.ga.Zr.0n.Eh.sp.`r.4P  s.We. s..s.Sa.Hh.Ch.Ze.Ah.Sq.+s.Qn.Bo.Un.@s.#s.$s.@Z %s..r.qM &s.#s.(n.VQ *s.RK mp.`q.=s. r.Z% -s.Db.We.*j.p0.;s.>s.,s.'s.)s.!s.~s.{s.]s.^s./s.(s._s.:s.<s.[s.}s.|s.1s.2s.3s.4s.5s.6s.7s.k2.8s.9s.>i.0s.cf `;.'i.pj.cf.Sm.as.bs.cs.[f.R(.ds.es.fs.gs.hs.is.js.ks.5o.5o.ls.|o.)i.ms.{l.ns.os.$}./i.+..ps.qs.{l.rs.gr.er.gr.!l.:b.Eg.|b.<r.)#.ss.:r.m8.=e.Xm.=e.",
"ts.nq.us.vs.JQ `N Eb.[h.ws.f0 wi.xs.TK rr.nS 9'.IQ LQ NK 1q.ys.zs.As.Bs.%@ Cs.Ds.]p.Es.Fs.().Gs.%!.zn.Hs.<).Is.x+ Js.Y* Ks.)k.Ls.Ms.Ns.'m.Os.[n.wr.Ps.Qs.Rs.9h iS 1h.Sf.us.8M +U 0&.9h !G TQ Ss.Ts..#.R+.R+.pS 7'.Jt XK RY ~)._$.Us.zQ Vs.:` [P Ws.zQ q>.GQ =Z 9,.t<./).&& D- Xs.L;.P~.Q~.n) R!.L;.q*.Ys.%& V; *& $#.m&.A;.Zs.C;.h .`s.7q. t.i  :` Vr F..hW p*..#.D..dS hW `T .t.+t.@t.#t.$t.%t.&t.*t.yl.pp.=t.YH SK Eh.vi.0&.-t.:S Wn.Xn.;t.>t.Mn.Nn.=0.,t.mp.qp.Eb.ip.Vn.'t.y..Do.)t.!t.9&.kM rp.lS |h.~t.VQ np.Eb.0E {t.]t.xl.^t.vi.Ye.Ak.cp.)d./t.(t._t.:t.<t.[t.cE }t.|t.DX 1t.2t.3t.4t.5t.6t.7t.8t.9t.0t.at.bt.ct.dt.xf.et.ft.}o.,^.xc.Mg.gt.ht.it.hi.jt.kt.lt.t0.mt.nt.ot.pt.qt.rt.st.tt.ut.vt.wt.xt.[!.yt.'i.zt.At.d8.ls.:b.cr.)i.Bt.Ct.Dt.<l.Et.Ft.Vd.Gt.Ht.It.Dg.Fc.Jt.u#.}o.cr.u#.`;.",
"Kt.9h Lt.xi.QH Mt.H7 Nt./G /G Ot.3J Pt.-k.:h.Pf.TQ AC 1q.UX Qt.Rt.St.+& #@ Tt.Ut.Vt.Wt.Xt.Yt.Ks.Zt.$~.`t. u.i' .u.)= Y# Fr.+u.@u.#u.$u.%u.&u.*u.=u.-u.$O Nt.+O ;u.>u.,u.kq.'u.9M .O )u.$  6V $@ !u.E-.~u.2%.5%.~u.h,.{u.8'.M~.kV 2$.]u.AX >p.x=.^V RH GQ x=.4 .c&.f&.z+ &$ ^u./u.P!.A:.s>..~. p.0}.%& <$ #j.#& F+ J~.|$.(u.6,.Q@.7J .  F=.l&.i&.gV ,` hW bS H..hV =Z N@.cS &j._u.>m.:u.M{.Ob.m>.<u.[u.}u.|u.@s.$s.0E Fb.1u.Yn.Uf.'j.cp.Nn.7m.Bh.Sq.,t.3g.Ak.8m.Tq.2u.3u.3u.qp.DW OH 4u.(G Ci.5u.6u.7u.8u.Yq.Y< OH 't.9u.)t.9u.0u.au.]d.bu.cu.Ek.bp.du.eu.fu.gu.hu.iu.#U ju.ku.lu.mu.nu.ou.pu.qu.ru.su.tu.uu.A'.vu.wu.ql.xu.yu.zu.Zc.}!.Au.:b.Ft.Bu.vh.Cu.Up.Du.Eu.6r.Fu.Gu.Hu.Iu.Ju.Ku.Lu.Mu.Nu.Ou.)l.,l.Pu.Qu.Ru.Su.Tu.Uu.^i.Vu.dr.af.Wu.}o.Bt.uc.ao.<l.Im.It.Fg.er.Xu.fr.:b.wj.zc.{l.Vd.Lg.]l.",
"Yu.9h nS Zu.`u. v. v.w=.wi.lS Dq.{4 9P Cl..v.[h.1S +v.ZT @v.#v.$& <$ o} i' Er.$v.d,.wr.Ko.%v.&v.*v.4q.&@ =v.yn.F;.l  -v.;v.>v.,v.'v.)v.&v.N-.Fo.~p.!v.~v.Tt.{v.Wt.]v.kq..O ^v.+  /v.g&.$@ (v.S{._v.+!.K{.:v.T!.L(.7'.A;.5%.L(.B;.^V x=.c&.[$.>p.o .2%.<v.GQ H..[v.A..J~..!.}v.A:.F_.@& |v.j! =!.Z# J(.V~.4%.I-.R~.L{.:v.D-.1v.:%. #.2v.3v.zn.4v.6%.;$.RY -Z M=.8'.D;.RX YT `o.5v.6v.7v.8v.Tr.@@ _| Sk }).Eo.2q.9v.9P Of.rp.<q.2J vi.`e.vi.cp.Bk.jp.Ah.Ck.jp.np.Vq. r.xi.!G |q.0v.av.|q.lS bv.zC 9V cv.dv.rr.1h.TK ev.&k.!t.8V fv.gv.hv.fv.HC M7./t.iv.jv.kv.lv.mv.nv.ov.pv.qv.rv.sv.tv.uv.vv.wv.xv.yv.zv.Av.Bv.Cv.Dv.Ev.Fv.Gv.Hv.Iv.Jv.Kv.Bt.|].Pm.,h.Up.Eu.Lv.Mv.Nv.Ov.Pv.Qv.Rv.Sv.Tv. q.Uv. q..q.Xp.Vv.Xp.Wv.hi.Xv.Yv.Zv.`v.At.}o. w..w.m2.:c.}!.:b.&e.@e.Kv.yt.ps.pj.Fg.!l.@e.+w.^i.Xp.Ig.`v.",
"@w.>  g  #w.$w.g  S{.e[.fk.JQ ws.3q.6V  O JQ Eb.!G AC (n.%w.zs.vn.&w.@  *w.$  =w.-w.;w.&v.>w.&v.,w.'w.)w.X8.U# M_.#$ !w.~w.{w.]w.^w.El./w.:).Fo.(w.Je.[n.Nt.F=._w.ev.Tt.#v.:w.<w.(w.[w.Bs.`u.h  }w.Y!.|w.1w.2w.3w.:v.4w.5w.8'.6w.7w.A-.F..['.A-.]u.g .jV =Z 4` A..M=.8w.W!.9w.J~.x>.h' _= Z# 52.z:.0w.g' V# I_.L;.S!.6w.C].~u.I(.ux 2v.aw.bw.Fs.'g.cw.=  &$ 0,.3%.q*.dw.ew.fw.gw.hw.iw.r[.G^.jw.kw.lw.mw.nw.ow.'u.ws.rp.op.pw.=0.Yn.Wq.Ah.Ah.qw.Ah.4P Tq.]t.pw.:h.zo.y..pp.0v.zl.Cl.rw.[n.mw.rw.rw.}u.9v.1h.qM sw.tw.uw.sw.vw.Ai.#O ww.xw.!j.yw.Eh.kv.zw.Aw.Bw.Cw.Dw.jh.Ew.Fw.Gw.Hw.Ew.Iw.Jw.Kw.'q.Lw.Mw.Nw.Ow.Pw.Qw.W3.Rw.Sw.Tw.Uw.+o.Vw..q.Lm.Ww.Lm.Ww.W3.Xw.Yw.Zw.`w. x..x.+x.>h.@x.#x.cs.Eu.$x.%x.Tu.)i. /.&x.*x.=x.-x.;x.>x.%q.,x.'x.(i.1!.uc.It.xt.Xp.Pm.]i.yt.bs.2r.)x.`v.Xv.it.!x.~x.{x.",
"]x.2h.^x.|$ /x.=k.!  :n.6%.QH ws.(x._x.:x.8V AC AC rr.#v._n.w*.<x.|$ [x.}x.Gs.Ob.|x.1x.2x.3x.Aq.4x.5x.K-.6x.Fs. t.7x.4q.G^.8x.2n.9x.0x.ax.bx.cx.xi.k  Cl.ev.rw.cx.;@ dx.k  ex.fx.D+ `u.1$ !  Bs.gx.F_.hx..!.ix.K{.)).|w.jx.+~.kx.h,.f .M@.Us.zW o .RY {u.2%.lx.|$.9w.W!.mx.X~.h[.s<.T* n) z^.nx.7  U* g{ Q!.4%.m>.!).N;.m>.M~.ox.7%.!v.mk.px.qx.rx.sx.tx.ux.[).0,.J;.A+ ]p.vx.wx.xx.yx.zx.Ax.g}.Bx.Cx.St.Dx.Ex.w*.Mt.8u.VQ )t.Yn.Fx.]t.On.Ah.ip.Ah.1g.3g.Rn.1u.`q. r.)t.'t.|q.9v.9v.Gx.Nt.cx.[n.DW (G rw.Hx.bP QK Ix.)$.Jx.Qs.Kx.Lx.2G Zn.Ek.Bk.zk.^t.Mx.Nx.Ox.Px.%U zi.Qx.Rx.Sx.Tx.Ux.Vx.Wx.Xx.Yx.Zx.`x. y..y.+y.@y.#y.3o.$y.%y.&y.*y.8r.=y.-y.;y.>y.,y.'y.)y.!y.~y.{y.]y.^y./y.(y.;y.=x.Nm._y.:y.<y.{i.rj.[y.}y..q.|].br.Au.|y.Tp.Im.1y.Vm.Ft.2y.3y.$q.Wu.4y.0o.{i.Wu.Dt.5y.!i.bs.%x.6y.Sm.7y.",
"}w.2'.8y.$w.h  h  J;.2'./x.KX 9y.^v.k  kS Ix.y...O }x.PX 0y.QH vW (w.rw.ay.vn.0y.by.cy.U# 'p.dy.ey.-v.vr.ux.S5 }).vn.vn.wn.fy.gy.hy.iy.jy.J=.ky.}).Dq.ly.Wt.:x.Ex.&@ <x.my.d,.G;.S{.`u.ny.%@ =& oy.u>.#v Sr.|w.V~.K].)).py.G:.6w.qy.Ke.)S :%.RY H..x=.RY `@.m&.ry.K].L;.P!.F-.L{.D^.Z# 2).E/.F:.], D/.9w.C:.mx.M=.G-.U!.G:.p[.I(.e  $$ xn.sy.ty.uy.vy.wy.cw.*w.4'.5V xy.yy.Gl.zy.Ay.P{.By.Cy.Dy.Ey.Fy.Gy.Hy.Iy.Jy..O Ky.Ly.*k.0E bm.My.mp.Fx.pw.Fb.]t. r.Tn.Wq.YH *s.4u.7u.Ny.cx.9v.Oy.Py.Qy.Ry.'u.9V zC bP Sy.^v.Ty.Uy.Vy.Wy.Xy.Yy.Zy.Yn.Ck.Ah.Ah.Zr..r.`y. z.Pt.[n.X@.3h..z.+z.@z.>m.#z.)j.$z.%z.&z.*z.=z.-z.tp.Q5.;z.>z.,8.rt.Ow.,z.P5.'z.)z.!z.Gu.~z.)y.{z.]z.^z.Uv./z.(z._z.:z.<z.cs.[z.hi.5y.%x.}z.0o.Wp.|z.1z.-x.Vu.2z.Vm.tj.3z.}o.Lg.4z.af.dr.!l.Fg.Pm.^l.4e.Kv.Pu.5y.5z.Ru.Dt.6z.7y.7z.",
"8z.1'.8y.9z.Z* $@ H;.{4 dx.f0 9y.2v.0z.az.9E bz.cz.:u.8%..  PX vW 6V ~v.fx.H7 Je.<x.vn.s+ dz.ez.2x.dy.fz.U{.!w.gz.hz.F;.i' iz.jz._> kz.lz.mz.7 .8%.(p.nz.oz.Qy.Qy.pz.F;.Ys.=v.Cq.`u.qz.b  Ur.7o rz.IT z].|w.J/.L{.sz.Y!.w>.F/.'` H:.o .7w.AX a%.2%.K..tz.@!.uz.@!.M=.J~.<'.+$ D^.vz.D/.y:.c'.n4.z].R!.wz.xz.sz.42.F/.L~.m>.+!.R{.5d.M{.H=.yz.zz.Az.Bz.,v.Cz.Dz.6w.3%.yi. {.Ez.Fz.Gz.Hz.Iz. L Jz.Kz.Lz.Mz.tx.m4.Mo.:w.g  nS K=.rr.np.OH Eb.op.KH mq.Fx.pw..r.Wq.Nz.$s.8u.Oz.Pz.(v.9V Yt.Qz.Qy.cx.}x.Rz.Sz.Tz.Uz.Vz.cv.Wz.Xz.Yz.Zz.`z. A.=t.Ak.ip.Vq.Tq.3g. r..A.3u.Pt.cv.9V +A.!` @A.#A.$A.6q.%A.&A.*A.Ra.#r.=A.$r.Zx.-A.;A.B6.>A.>A.,A.Lu.'A.)A.!A.~A.{A.]A.^A./A.(A._A.:A.<A.[A./l.Ik.}A.2r.|A.Om.1A.7y.Su.2A.3A.Tu.]l.9o 4A.It.Uu.<l./l.Wu.$q.$}.&e.ps.Fg.Pm.5A.hi.hi.Qu.J|.as.J|.2r.[y.{x.6A.",
"7A.ay.Ur.Z* z+ v>.8A.8A.Er.#v.9A.0A.aA.bA.Ll.Hr.cA.dA.eA.fA.}x.ha.8A.)u.A+ yW ay.*$ 7x.s+ ^).gA.ez.hA.iA.jA.I].kA.lA.ux.r>.Hs.vr.mA.nA.oA.pA.`K J=.qA.Uz./G 2v.rA.*w.$> sA.$& o} tA.Br.`Q uA.nS vA.wA.A].F_.G{.y:.Y!.I{.42.xA.i*.[$.N@.oS N@.d&.<v.8'.F/.m>.:v.:v.V~.O~.!).R{.M{.yA.2).S!.S!.zA.J{.z].J/.mx.C:.V~.}v.I_.R!.AA.*!.BA.CA.DA.EA.FA.~k.>k.GA.D^.Ux E-.Ob.HA.Lo.IA.JA.KA.LA.MA.NA.OA.PA.QA.RA.SA.TA.Fo.UA.cv.Vz.VA.8V  O +U Z% MH vi.'j.]t.YH WA.Ly..A.9v.XA.Oz.YA.:w.S~.ZA.`A.*@ S~. B.Qz..B.+B.,u.J=.Dl.3h.@B.#B.$B.%B.gP  r.MH 5m.Bo.VQ {t.`q.&B.Cl.2u.*B.=B.Tt.dP v*.6q. t.-B.;B.>B.,B.'B.X3.)B.!B.~B.{B.]B.^B./B.(B._B.:B.<B.[B.}B.|B.1B.2B.3B.4B.5B.}A.6B.gm.7B.*A.ks.}A.ht.1A.Nl 8B.9B.0B.aB.bB.cB.`v.Tu.`v.zt.zt.<l.$q.<l.It.Wu.ns.Ou.Uu.4r.dB.eB.%x.<y.it.fB.gB.7z.7y.5A.hB.",
"iB.)  Z* A+ $& Ex.`u.%@ {4 J^.Zt.jB.a= Oo.kB.lB.mB.mB.nB.7q.oB..O 'u.@   v.`u.h  pB.qB.rB.sB.tB.uB.*v.xr.0A.vB._).!w.v>.l  <w.Gs.0V wB.xB.mB.Ui.yB.}).:w.ev.0y.(w.h  g  /x.k  Gs.QH IQ zB.AB.Z+ )@ R~./|.BB.n[.0}.A:.0}.CB.7'.l>.J..A^.DB.J..EB.d&.FB.GB.G..K{.W!.C^.C=.W!.n) Y+ j- :|.s<._= D^.F:.:|.z^.E(.)).K~.sz.HB.IB.A^.Nq.JB.KB.LB.MB.NB.OB.PB.S-.j,.+!.0'.Bs.jw.QB.RB.SB.TB.UB.JA.VB.WB.XB.@u.|1.YB.;k.ZB.Yt.UA.Ot.#v.!G `B.|S  C.YA .C..C.am.)t.cv.'t.%U }u.Hx.xi.+C.@C.$A.<w.vn.3& Fo.>u.#C.$C.d,.Iy.%C.kq.'u.O-.'m.&C.*C.9E y..{t.je.am.My.ip.Vn.=C.`B.Pt.-C.;C.k  Ry.   >C.,C.'C.)C.!C. 7.~C. 7.R:.{C.]C.^C./C.(C._C.:C.<C.[C.}C.|C.1C.2C.3C.4C.5C.!9.6C.-y.up.=y.}A.7C.`p.Zv.Tu.1z.+q.+w.8C.9B.9C.0C.`v.aC.bC.Vd.ao.2z.!l.ms.Fg.It.Uu.Uu.{l.cC.'i.Xp.Wv.dC.Qu.2A.eC.eB.fC.Wp.gC.5z.",
"7A.+G {).dS %@ )r $& H7 S5 fw.hC.iC.jC.kC.lC.mC.nC.oC.pC.S~.!  %  9v.}).qC.h  fx.&w.W# rC.sC.tC.*v.n  I^.uC.vC.yn.-@ WT wC.l  dx.Ie.   `s.O-.xC.yC.}x.}).#  Vz.xi.Dl.qC.dx.*w.~  Ur.zC.AC.=@ ], BC.CC.G(.E(.s<.J[.D].[$ N;.L;.)).DC.U!.K{.7. kx.4'.|$.J_.J~.6'.L;.AA.P!.E(.A].y:.q<.i[.H(.nx../ ow D- z^.EC.FC.-> L{.L{.P~.+!.z+ @t.%!.G^.aw.GC.HC./).+!.y].=  F-.B:.K/.IC.JC.SB.KC.LC.H+ MC.NC.OC.Il.PC.QC.RC.Yt.:x.SC.Jy.vW lq.9V /G Jx.&s..C.Nz.)t. r.2u.VA.|q.,u.TC.ev.:w.UC.d,.Ar.S~.VC.7 .]p.Oy.J=.UA.~$.&u.WC.xi.iS XC.YC.ZC.^k.7M QK =t.je.`C.kM  A. D.`B..D.+D.@D.#D.+B.0y.$D.%D.&D.*D.=D.-D.;D.>D.,D.'D.)D.!D.~D.{D.]D.^D./D.(D._D.:D.<D.[D.}D.|D.1D.b4.,y.Uv.2D.ar.3D.4D.5D.)l.-x.4y.Su.Qu.Wp.6y.6D.dB.%x.`v.1z.af.cr.zt.At.=/.fr.uc.At.Uu.Wu.8B.Pm.]i.7D.8D.5A.9D.6y.0D.aD.'B.bD.cD.",
"dD.0V &w.-@ }$ h   @ %  eD.LB.fD.gD.hD.iD.jD.lC.kD.UA.M-.d,.+C.:w.[x.[x..@ ().Gs.lD.m  d}.'p.U# w[.mD.PB.1x.qB.*w.<).l&.ky.Dl.XT k  +  v*.}x.Cl.nD.Pt.us.Cl.Ot.<w.<w.7V `u.[w.Br.zC.W; oD.sA.Y+ f] pD.q<.6d.qD.A].E(.J{.g,.2$ o[.U!.$#.D-.rD.A;.d&.*!.+~.V~.V~.$#.O~.y].h[.Q!.c'.^1.b}.}& sD.Q+ Z# }& 62.7}.tD.DC.W!.42.CC.p[.uD.vD.wD.xD.yD.zD.vr.B-.4'.5d.@@ P!.AD.$= BD.CD.DD.ED.FD.GD.HD.ID.JD.KD.LD.MD.ND.~p.ly.Ut.:w.kq.OD./G zC Di.Rs. A.PD.Wq.|h.XA.Ot.QD.ly.RD.SD.Ut.vC.@C.Ks.TD.d,.gA.Mz.:u.7q.Hs.UD.:x.0y.Ds.3J `K VD.WD.XD.YD.So.Ak.Ak.Yn.]t.ia.'t.9u.!t.RD.$v.yW UA.@  yn.pz._).sA.ZD.`D. E..E.+E.@E.#E.$E.%E.&E.*E.=E.-E.;E.>E.,E.'E.)E.!E.~E.t0.:9.{E.fs.]E.-x.)l.ks.Uw.8B.+w.Nm.jt.^E.5z.7y.~x.Xv./E.(E.At.)i.{i.Tu.<l.|o.}o.Jv._E.Ou.af.Zv.:E.fB.fC.fB.5B.<E.[E.}E.|E.5z.1E.2E.",
"iB.7x.g{ ~  .#.<).ex.I^.LB.3E.4E.5E.6E.Y- _> 7E.$D.Fo.(v.*w.mw.(v.*w.<x.h  8E.~  [w.M_.O{.ux.Fs.Gy.3'.*@ 9E.f{ &@ kw rB.4q.Y5 Dl.uw..t.0E.,C.7V K=.AC Do.=k.7V Ot.(v.Gs.*w.~  1$ ~  zC.sA.~  )r S` aE.8}.F{.bE.K_.hx.cE.<'.DC.L~.V~.3w.U!.8'.d&.U!.[$.m>.8'.<'.J~.|$.j*.Y!.F:.t5.j[._= yA.dE.eE.k' ./ }& K^..9.E(.F{.2w.4).E-.e,.fE.G^.No.n  F;.f[.j*.4%.%#.s>.X!.6' i! gE.hE.iE.jE.kE.lE._, mE.nE.oE.pE.qE.hw.0A..{.Oy.Vz.Ot.>  9V 8%.rE.hM VA Jr.dP 9S cv.%U WC.sE.tE.WC.uE.uE.vE.mA.E^.cw.9A.Lo.Hy.wE.jz.Lo.!w.ay.wC.0y.xE.Iy.dP yE.us.YA 1u.Ss.,j.pp.)t.YH Pt.[n.Ky.@C.ay.zr.zE.Tr.xy.-& AE.BE.CE.DE.EE.FE.GE.HE.IE.JE.KE.LE.ME.NE.OE.PE.;E.QE.RE.SE.{y.TE.UE.VE.{E.up.+o.WE. q.XE.8o.Hg.:E.YE.Hg.jt.5z.ZE.bs.Vv.'i.^i.)i.`E.Xv.+q.rj.Vv.^i.'i.[!.It.{l.Xp. F.Su..F.}y._y.%x.as.+F.@F.fC.#F.",
"$F.*@ F+ 1$ y+ %F.Hy.4v.&F.*F.=F.P_.-F.;F.>F.,F.Yt.<x.'F.E+ )F.().<w.<x.().~  F+ =& !v.u! !F.3'.~F.||.=& sA.[w.i' =& vn.l  F;.@  QH (w.l&.cv.{F.Do.xi.Zu.|).:n.h  h  %@ [w.Cq.Cq.g{ {, )= #~.3%.ho.]F.j4.^F.F{./F.F{.F_.N;.4).L(.J_.K{.42.5%.m>.xo 5'.V~.K{.C].M=.D].y^.D^.z].T7.:|.x- 3).(F._F.:F.<F.D- 3).7  [F.c'.L{.sz.L_.C].n) n) w+ C].5%.R+.B..cS C].C^.V~.@~.3$ _^ }F.V{.|F.0] 3  ^|.K^.1F.2F.3F.4F.5F.6F.se.7F.kA.0E.fA.}z 8F.Wz.9F.0F.aF.bF.cF.dF.Yt.eF._w.fF.gF.+B.,g.hF.O{.zn.iF.mA.jF.kF.kF.bw.>m.]v.uE.lF.7x.+  mF.ev.av.lS `q.5m. r.Sn.2u.)t.DW dv.~v.QD.mw.`A.nF.;@ -w.oF.J^.Fs.pF.l0.qF.rF.sF.tF.uF.vF.wF.xF.yF.zF.AF.BF.OE.CF.DF.EF.FF.GF.HF.IF.1C.JF.rt.7r.KF.LF.vp.MF.Hg.!i.!x.NF.OF.[z.bs.PF.QF.`v.{i.^i.m9.RF.At.+q.Vu.zt.8f.{i.zt.Fg.bf.:E.ht.kt.Up.Up.9B.%x.SF.TF.eB.UF.",
"VF.YT {, GA.o>.I].bw.WF.XF.YF.ZF.`F. G..G.Y- >m.kF.~F.(v.<x.$> b  fx.fx.~  Br.Br.m) )= F;.<).Ys.{, U# s+ qB.4$ o} Ar.N-.Hy.m  #& vn.7x.0y.Ot.w*.QH Zu.+G.zs.[x.<x.<w.Cq.Cq.Z* !  G;.AC.oD.C- 6$ @G.KC C_.3).n4.#G.$G.r<.%G.Q!.A:.M=.K].DC.|$.8'.@!.8'.T!.I(..u.Q~.G(.52.K^.t5.83.0w.4  y: (0.&G.;$ J+ _= :|.<|.c}.l[.Q=.C:.u( <'.6'.P~.M=.F/.6,.A..4 .pS 2$ J{.D].7$ K- ow ;$ *G.K- n<.i4.8}.=G.-G.;G.b, >G.,G.'G.)G.U{.!G.7 .]p.bA.El.~G.{G.]G.^G.u*.SD.lF.TC.4n.Zt.my.-B./G.cy.(G._G.:G.bw.<G._x.[G.}G.|G.1G..B.vC.+B.0y.X@.!G.Iy.cv.Os.'t.2u.qp.RK 2u.OH dv.%U {F.cF.@C.tE.=v.Hs.2G.tz ez.dJ 3G.4G.5G.6G.7G.8G.9G.0G.aG.bG.cG.dG.eG.fG.gG.hG.iG.jG.kG.lG.mG.nG.oG.pG.qG.rG.sG.tG.uG.=y.vG.wG.yk.xG.kt.kt.yG.zG.fB.AG.m9.`v.~x.9o.3z.It.<l.ns.Fg.Lg.xt.8B.Pm.:E.Pm.YE.J|.Su._y.1A.'B.BG.CG.DG.",
"EG.JQ %> g{ k~ FG.GG.=n  # HG.IG.JG.0q.KG.LG.MG.NG.,g.OG.b  ny.OG.)= eq.oD.m) Br.AC.m) <$ 4$ *$ GG.`* i' pB.<).Tr.by.#$ G].l  ny.S5 4q.<w.Gs.$@ PG.:w..@ .@ 8E.8E.AC.eq.AE.Br.m) ~, AC..= i! QG.RG.C../F.j[.F_.z].j[.E/.w5.E/.;v K{.V~.T!.K{.ry.K].G:.F-.O~.Y!.S!.@@ T* 1  7  w/ SG.&> ]$ ]$ S+ TG.R[ UG.62.l- c}..u.A:.N;.!).O~.M=.J_.K{.8,.i*.1$.M@.5V [).Z!.B:.%$ _0.<& '_ k' E- n4.n<.|2.#= VG.,w.WG.XG.YG.ZG.`G. H.7q..H.+H.@H.#H.$H.QC.%H.Tx.&H.*H.&u.=H.-H.;H.>H.,H.qB.qB.=v.'H.X8.)H.tz jA.!H.~H.oz.>m.uE.yW S~.Tt.}x.H;.YA.X@.Cl.2u..A.$s.#s.{H.%w.Yq.4u.[n.%U cx.]H.^H./H.DD.(H._H.%y.:H.<H.[H.}H.|H.1H.2H.|C.3H.4H.5H.6H.7H.8H.9H.0H.aH.bH.bH.cH.dH.eH.fH.rG.gH.hH.iH.%y.jH.kH.lH.mH.nH.$5.}z.1A.kt.1E.AG.5z.9r.Ig.`E.oH.pH.Uu.]l.%q.bf.Vv.}!.$q./l.8o.YE.+w.+F.qH.hB.[z.,B.rH.sH.tH.",
"uH.r+ %$ != vH.f{ G].Y# lC.wH.xH.yH.zH.AH.BH.CH.vr.*w.eq.F;.<x.^H.oD.oD.eq.m) QG.~, h! j! j' sA.4& DH.j! lD.EH.=& kw `t.`* s+ pB.t+ dx.Y5 Ex.FH.`u.(v.ny.Gs.fx.=& =& sA.g{ 4$ GH.%$ ~= HH.,= IH.JH.k[.KH.LH.j4./F.Qi.MH.E/.0}.A^.S!.:v.u( M=.3w.NH.G:.,$.C].U* l[.d  z:.5' )& _^ J= ]& OH.PH.)_ QH._^ /& O= }& V* J(.RH.J{.4).I_.SH.J_.D=.`T :1.RX A-.R-.Z* o<. p.W+ T7.u- 1  e~ e' h4._0.2; ./ TH.UH.VH.WH.XH.YH.ZH.`H.yx.MB. I.eA..I.+I.@I.#I.$I.%I.2G.qx._H.nB.fw.k&.2x.&I.J:.*I.=I.-I.DD.;I.hw.>I.ax.,I.tC.lh.'I.lF.WC.}).+C.Er.7 .Eo.|q.)I.<n.mw.}u.4u.QD.#v.Hx.Hx.ev.hz.X# !I.~I.{I.]I.^I./I.(I._I.:I.<I.[I.}I.|I.1I.2I.3I.4I.5I.6I.7I.8I.9I.0I.aI.bI.cI.dI.eI.fI.gI.hI.iI.jI.kI.lI.)B.mI.nI.oI.#F.5z.bs.oH.Dt.pI.:y.oH.Xv.Om.Om.+q.pH.qI.<l.Uu.Pu.Fg.)i.cB.rI.Nm.sI.&x.6y.+F.tI.TF.uI.BG.",
"vI.N(.wI.g{ 0  :$ :$ k~ xI.Yi.yI.zI.AI.BI.CI.aw.Gs.ny.sA.`t.DI.zC.wI.{, ~, EI.FI.j! U* 6$ g{ .& G].lh.W# .~.*I.lh.9E.=& *$ sA.o  v>.)  Y5 Cq.(w.Ex.Bs.#w.8E.b  `* wI.!= Br..= U* GI.HI.II.II.6& JI.h4.z> S, /F.j4.KI.22.g[.z].2w.E/.NH.mx./u.A^.U!.I{.V~.P!.W!.z^.B:.:|.i[.R+ LI./& !% MI.NI.6  (^ 4  OI.2; }, S* j[.C:.E/.4%.A^.P!.M~.N@.'` p*.5%.8'.,$.O~.+$ 7  U7.SG.S* PI.QI.RI.S* SI.~: ^1.TI.mk.UI.VI.WI.;F.XI.YI.ZI.`I. J.0n..J.+J.@J.#J.$J.%J.&J.)m.{v *J.(G.2v.WF.=J.-J.;J.!m.5q.W{.>J.,J.'J.)J.$~.Ks.<).F;.Je.@  @C.}).rw.DW {F.|q.Eo.zl.#v.Ky.!J.Jy.~v.Oz.~J.$v.{J.]J.-v.WG.>I.^J./J.(J.0h._J.:J.<J.[J.}J.|J.1J.6H.2J.3J.4J.5J.6J.7J.8J.9J.0J.aJ.bJ.cJ.dJ.eJ.fJ.gJ.hJ.iJ.jJ.kJ.lJ.mJ.nJ.$5.oJ.rH.|A.pJ.pI.4r.4r.qJ.QF.rj.rJ.sJ.tJ.u#.2y.-^./l.)i.Ig.$q.Xp.[z.eB.fB.uJ.fC._y.eB.#F.oI.",
"vJ.r+ != m) wJ.-!.FG.9E.]J.I].No.X8. {.jA.xJ.Qy.Gs.fx.8E.yJ.zJ.Br.zJ.m) .= m) ~, 6$ j' f{ K+ AJ.f{ j! U; 8$ BJ.CJ.U# DJ.||.F9 n  EJ.9E.`t.ay.Ex.FH.|$ ~  Dr.FJ.^H.AC.~, m) 4& QG.[, [, 2  I- o- GJ.v! e4.HJ.s5.IJ.IJ.JJ.KJ.LJ.78 P~.Vr.wA.42.G-.@!.L;.G-.E(.d[.g[.:|.=!.PI.}, A- MJ.!% <1.NJ.OJ.c' %# f' Tb.k4.b}.j4.F{.F:.sz.O~.o[.PJ.P@.'$.f&.5V E-.P!.j[.03.+@ n) N{.T* 0w..! 3' ]= K- s<.k4.QJ.RJ.w[.Iq.SJ.TJ.UJ.VJ.WJ.XJ.GD.YJ.Vt.q..ZJ.`J. K..K.+K.@K.xD.#K.H].$K.%K.&K.*K.=K.-K.;K.>K.j& ,K.'K.J:.GA.Ut.d,.d,.gk.0y.Er.Ot.cx.cv.{F.Zu.Pt.cv.cv.UC.Dx.<w.Jy.cx.&w.lF./G.8v.)K.!K.~K.{K.au.]K.^K./K.td.(K._K.<J.:K.<K.[K.}K.|K.1K.bG.2K.3K.eI.4K.4K.5K.6K.}J.7K.<J.8K.:B.9K.0K.%A.aK.bK.;D.wG.tI.cK.dK.sI.~x.NF./l.Xv.+q.`E.;x.eK.Au.Vu.ao.,l.Ou.{l.Hg.Qu.+w.YE.+w.9B.2E.fK.gK.hK.<E.iK.jK.",
"vI.u! <  kK.*g.lK.'p. u.n  mK.&@ Fs.iw.'w.Bq.d,._).pB.Cz.=@ -& nK.Br.g{ oK.m) .= EI.Z# DJ.[& -& [, j' lD._  HA.E^.q[.>@ Tr.&I.pK.iw.tB..~.`t.D+ eq..@ !   u.eq.}$ 6$ g{ m) oK.9$ o- 9$ GI.oK.J[.qK.2S 8d.rK.sK./F.tK.4_ Oe..9.9& P~.y].AA.R!.9w.mx.Y!.S!.Y!.Q!.62.G_.w/ uK.AV vK.wK.xK.MC.e( O, ta.r~ yK.yK.n<.zK.F{.j[.F_.w5.4).AK.!).U!.~u.5V M@.o>.6' H/.x+ @@ o' r+ BK.CK.DK.e' ue.i[.22.r<.EK.}n FK.GK.HK.IK.JK.@{.KK.;K.LK.J7.&H.MK.NK.$u.OK.PK.QK.RK.SK.TK.UK.VK.WK.XK.YK.ZK.`K. L..L.+L.@L.:U #L.uK.cy.UA.-B.OG.(w.$L.Ex.Vz.}).PG.Eo.nD.#s.4u.9v.Ut.~J.~v.#v.ex.S~.%L.G;.Ys.&L.#L.sw.*L.=L.-L.;L.`n.>L.9z ,L.'L.)L.!L.~L.{L.]L.^L./L.(L._L.:L.<L.[L.}L.|L.1L.2L.3L.4L.5L.6L.7L.8L.~C.9L.#5.Ue.0L.6z.9B.TF.bD.7y.Yv.9o.sJ.aL.tJ.cf Jt.It.|o.Zv.@e./l.Xv.cB.d8..q.Wv.1E.bL.<6.qH.cL.dL.iK.",
"eL.X# e  $= k~ fL.lD.k~ J^.*$ X# s+ ez.gL.hL.EJ.iL.cw.U# %L.dq.GI.9$ zJ.6& k! ~= [& [, 4& o- '$ 4  <& K+ M_.jL.kL.u! x/ dz.lL.mD.mL.nL.oL. u.sA.<$ FJ.*w.{, `* pB.f{ pL.b'.IH.o- oK.o- &~.qL.rL.N8.2S 7k.yK.e4.sL.tL.$! uL.n[.vL.32.!).3w.|w.K~.y:.|$.W!.O~.L;.B:.q<.c}.:F.]& wL.s! xL.yL.,: ue.Pi.8}.Y@ 8}.k4.6}.^1.C! zL.AL.F:.g,.3w.IB.,$.D-.N@.5'.@~.6' nx.4  v5.|' B> BL.a3.o( ]= ta.Tb.CL.DL.>J EL.FL.GL.M:.Jw.HL.IL.)J.JL.KL.LL.ML.NL.Zi.OL.PL.`F.|1.QL.3E.RL.LK.SL.TL.UL.VL.WL.XL.YL.ZL.`L. M..M.+M.Bq.rC.@M.^H.gk.&D.U~.7x.lF.}).kq.Jy.%w.Jy.xi.#M.bx.:w.X@.ev.$M.%D.3'.4q.P+ %M.&M.!% *M.=M./K.-M.;M.>M.,M.'M.1I.)M.!D.uG.!M.~M.{M.]M.^M.:B./M.(M._M.LF.:M.<M.~M.[M.}M.|M.1M.2M.3M.oJ.4M.<6.5M.6M.dB.7M.!i.~x.Yv.8M.`p.ms.}!.Vv.{l.Zc.)i.)i.'i.Tu.d8.^i.]l.Up.sI.!i.6z.qH.}z.iK.9M.0M.",
"aM.bM.k .M_.C- jL.cM.uB.lA.o} B- dM.ux.pB.bM.U~.pL.eq.Je.gz.3'.j' eM.oK.wI.fM..= o- 9$ o- GI.Q+ N+ j! #L.<_ q[._  gM.FG.zx.5x.hM._R m. LK.O{.iM.gz.<$ zC.oD.g{ dq.[w.Cz.jM.X; X; I- &= kM.0] :^ lM.R~.12.n) <2.mM.sL.xe.uL.z].C:.E/.3w.mx.H{.y:.n[.n[.)).S!.Q!.D^.K- c}.d' OJ.{0.nM.]$ &~ z/ 3d.h4.~: K6.LH.~: f' <|.;* s<.uL.uL.oM.q*.N;.Q!.E-.5'.J~.F:.[|.l-  $ D- 1& {  Y< OJ.e' )$ Y; <v.=s 5* pM.qM.rM.NX sM.tM.uM.vM.LK.wM.Rz.xM.yM.zM.OL.AM.Fz.BM.CM.DM.aw.>I.EM.FM.GM.HM.>G.IM.`@ JM.KM.J+ LM.MM.CJ.,p.NM.OM.PM.cw.&D.E^.Ut.d,.Gs.#v.{F.xi.Nt.}u.Jy.WC.lF.Tt.#D.my.AE.QM.RM.SM.E^.PM.TM.UM.Q0.VM.WM.XM.YM.9K.ZM.`M. N..N.+N.@N.4M.#N.=z.$N.|B.%N.&N.@x.tG.*N.=N.-N.;N.>N.,N.'N.)N.^9.!N.~N.{N.Up.5z.+F.}z.NF.nd.]N.qJ.Up.`v.QF.^N.;x.Ct.P0./l.rj.+w.Qm.Qm.{i./N.TF.+F._y.fC.5z.tI.#F.(N.",
"_N.:N.9$ C- U+ jw.`i.<N.||./). u.M_.DJ.Cz.U~.gk.S~.h  ().~  pL.gM.k! IH.C- 0' {= R+ GI.[& 8$ R[ V+ j! 4' ||.<& [N.T+ #> lk.}N.|N.1N.H]._).Fs.[w.~  ~  DJ.~, `* g{ GI.b'.'$ K+ o- jM.I- h- f~ U+ 2N.lE 1J 43.`l.3N.$) c}.yK.12.12.j[.E/.J/.4N.m[.cE.y].}v.d  A].D/.b}.F{.r. ;* h4.5N.e{ .! s! p5.ta.ue.:2.zK.-~ 73.K- h4.p<.uL.C:.C:.Vr.M=.T!.J_.J~.O~.A:.[$ Z# g' ], h[.R[ l[.1] d~ 6N.e' 7N.8N.9N.Cz.0N.x/ }F.aN.[%.o5.@O bN.HM.cN.dN.eN.fN.gN.iF.hN.&H.iN.jN.,p.kN.lN.#!.mN.]  nN.oN.pN.ZL.qN.rN.sN.e~ N{.)J.tN.mD.uN.gz.-!.Tr.vC.~v.+C.cv.X@.~v. O bx.X@.X@.ZA.lF.pz.TD.G;.TM.Cr. M.vN.wN.X_ ]F.od.xN.yN.zN.uF.kG.AN.BN.CN.DN.EN.FN.n0.GN.HN.Yp.IN.Vp.JN.KN.LN.MN. y..y.NN.SF.ON.PN.iK.QN.RN.SN.,B.sI.dK.6z..F.TN.UN./l.VN.kt.8M.WN.XN.uc.2y.}o.)l.YN.#x.Xv.-x.+q.ZN.`N.9B.[z.,B.tI. O..O.9M.",
"+O.@O.1  l! W# gM.{  #O.e~ m  3'.s+ fx.s+ i' [w.b  fx.A+ F;.4$ =@ gM.;& $O.I- ,= ,= [& N+ k! Q+ [  _  u! %O.)_ &O.k' (  *O.=O./H.)H.)v.qB.1$ ().AC.)= F+ C- EI.|& h{ 6$ N+ -& -O.;O.!$ tf >O..U ,O.'O.8N.)O.8N.8N.-~ !O.yK.Z8.(|.$! F{.z].J/.hx.Q!.S!.S!.n[.G(.J(.p- k[.h4.ve.OJ.,: 7] n~ ve.a3.9k.:2.Oi.ue.r) 83.k[.E_.i[.E_.-> ~O.AL.mx.wA.K{.C:.R~.B:.L{.C- Q+ `8.)& Q+ SI.OJ.F/  e.{O.U^ 4d.]O.[  kM.^O.&O.&I./O.(O._O.:O.<O.[O.}O.|O.Fw.1O.2O.3O.4O.5O.6O.J:.7O.SM.8O.K/.9O.@L.0O.aO.bO.&O.'$ _F.|  uK.cO.PM.lK.vN.pB.$M.Je.dO.().~v.Oz.PG.UC.PG.Hx.X@.cx.$M.eO.fO.gO.AE.hO._  iO.eM.TM.jO.%z.;D.kO.lO.Hh.GE.mO.nO.oO.pO.qO.=8.xG.pJ.2E.dB.1A.rO.sO.tO.qF.uO.vO.=z.wO.xO.yO.TF.iK.9M.'B.zO.TN.AO.GN. O.dK.5z.ZE.BO.Z(.CO.nd.9o.DO.vt.EO.%q.<l.8o.}o.Xu.ZN.cB.ks.FO._y.TN.sI.tI..F.fC.GO.'B.",
"HO.=n U+ N+ :$ l! {  $= wk DJ.AJ.Y* w+ 1$ Cq.`* $$ [).*w.fx.G;.-& jM.-& IO.JO.;O.I- $O.8$ x/ ,@ gh &= 4' KO.LO.J= jL.MO.NO.OO.KO.J].F^.*$ (w.Z* sA.~, 4& 4& GA.PO.QO.&G.RO.SO.TO.i) R* UO.VO.Q6.>4 WO.XO.YO.ZO.:2.`O.we..9..9.E:.s<.j4.~O.E/.-> bE.E(.c'.j[.s<.:|.ve.p<.^1.]= {0.OJ.bh.#= Mi.t! nM.Oi.p5.f4. P.$g.5' |2.$g.va.9& uL.z].mx.Y!.Y!.C:.G(.:|.E:.g' N(.u- <_ .P.OH.,, UN IT 3_ G6.+P.@P.LO.#P.TG.>[ $P.%P.&P.*P.=P.-P.;P.>P.,P.'P.,J.|G.@u.)P.)$.>w.BJ.zx.!P.7O.L^.~P.bv {P.]P.-O.^P./P.FL.MM.M^.!K.!K.-!.AJ.~F.=v.fx.fx.i' (v.().(P._P.PG.[x.@C.OG.&w.:P.b'.`~.<P.eM.[P./$ MM.}P.|P.1P.2P.kO.[g.3P.mJ.4P.5P.6P.$5.7P.hK.[z.YE.8P.+F.1A.Qw.LN.:M.>y.9P.:A.^z.bK.lO.0P.iK.9M.0M.aP.<g.TF.cD.sH. 7.bP.Wv.nd.Wv.Wv.Dt.nd.cP.Ct.9o Vd.It.Zv./l.+w.8B.]l.0r.YN.dB.`N.dP.GN.BG.'B.iK.eP.tI.",
"fP.l  /$ l! l! gM.<& EH.7,.u[.lK.kL. u.8  !  V; Je.Gs.F;.&@ AJ.eM.b'.$O.gP.R* f~ 3' ;O.o! hP.X_ iP.!% |P.Zx *= V+ z: HA.%O.||.pL.J^.gz.ny.4$ eq.(w.GA.4& GA.lh.|P.:  jP.%= kP.x/ &= v>.4$ T; H_.9L xo $m.`l.lP.3N.mP.+) nP.H(.z].E:.-> -> &* mx.y].J{.E_.C(.j4.k[.n<.G_._= e' ch.Oi.ah.oP.i{ pP.<0.Ni.F6.5k.6k.p5. * l[.c}.r<.p<.R~.[0.R~.oM.y:.n[.0  >@ SG.dn.qP.z- T* rP.sP.tP.uP.(% -^ Mi.vP.wP.xP.yP.zP.AP.v[.BP.CP.%P.DP.EP.FP.GP.HP.IP.JP.ur.H].2v.KP.zr.OM.LP.MP.-O.NP.e}.OP.PP.QP.IO.RP.8$ '$ LM.sN.kL.SP.8$ AJ.AE.lh.zJ.+& pB.().[x.@C.().<w.TP.UP.hz.+G.:P.VP.fM.AJ.WP.0N./P.XP._& d}.,1 YP.)j.ZP.ep..7.Ra.`P.tI.NF.~x. Q.BO.Yv.Du..Q.o9.+Q.Vp.@Q.@Q.+y.MF.#Q.$Q.%Q.&Q.jK.TF. 7.5C..F..F.iK.*Q.=Q.-Q.QN.9C.1A.Qx BO.tp.ms.Bt.1z.2z.3y.]l.`v.}z.kt.ht.^i.Zv.lt.;Q.[z.#F.aP.BG.sH.>Q.,Q.",
"'Q.Fs.o) s- Q+ 8' <_ jw.#> u! E^.4' lA.Tr.!  D+ fx.Cq.4$ %L.AJ.~F.;O.)Q.h) ,& {$ J+ !Q.)_ ~Q. / !Q.{Q.z: <F.o( T+ {  2  ,@ =!.Y* lD.`# `# 4& 4$ Z* {, m) g{ ]Q.kM.'^ gE.^Q./Q.(Q.<$ _Q.9' m! 8V :Q.l[. m.lP.<Q.[Q.Z~ B, @# _= F_.4_ r<.F:.#g.9& sz.S!.j[.c'.Tb.s<.k[.t5.:0.ch.7N.<0.oP.}Q.H6.|Q.6k.|Q.1Q.6k.|Q.ta.2Q.)* :0.3Q.l[.va.4Q.A:.B].J{.I(.], wk k' 5Q.6Q.tf )% 7Q.Z' 8Q.9Q.;[ ,_ 'v .: 0Q.aQ.bQ.2' pa.w[.cQ.dQ.eQ.fQ.gQ.hQ.iQ.jQ.XF.kQ.lQ.jz.6q.mQ.:P.OM.-B.nQ.oQ.SO.pQ.9O.qQ.rQ.sQ.2  _  FL.k! qN.[  LM.PO.E^.-& gO.GH.4$ s+ F;.7x.ex.tQ.uQ.vQ.eO.dq.dq.iO.wQ.jM.%U &O.'^ kM.^& iP.&G.xQ.yQ.GE.zQ.AQ.BQ.xN.oI.CQ.ps.DQ.EQ.FQ.+w.`p.YE.VN.Up.GQ.Zx.HQ.^z.IQ.JQ.vG.{N.9L.9L. F.eB.KQ.oI.oI.LQ.MQ. 7.Ra.KQ.NQ.`_.5M.5M.qj.eK.Tu.`v.cr.Ou.]l.+q.5y.Nm.8B./l.Hg.YE.-z.5z. F.0L.z[ 9L.OQ.PQ.",
"QQ.l  %= Q+ M+ $= 1  $= $= Cz.U; `# o} !  *w.4$ o} G;.s+ o} r+ gM.J= &= ,= :^ 3'  / F, AP.TO.4] RQ.^$ I= SQ.TQ.BL.'$ [  @g.-!.,$ .& xy.gz.*$ r+ )= `t.6& DH.-O.o) 2  UQ.VQ.}  (& *= ||.f{ F;.WQ.XQ.YQ.ZQ.+m.ZQ.(} `Q.Y@ |^  R.b}.H(.T7..9.uL.J{.F_.Q!.z].l[..R.ue.|2.w! H6.H6.)O.3k.$m.+R.Mi.p5.@R.nM.+R.r. Mi.#R.$R.$g.c}.p<.8$.[0.A:.J{.y].Y!.A:.6' h' MJ.CK.%R..P.&R.*R.UW JH.=R.Z' -R.H/  : ;R.>R.,R.'R.>$ Z' )R.!R.~R.{R.]R.@{.^R./R.(R._R.:R.3n.<R.$v./G.-B.Cr.LP.XP.ZL.ZL.[R.}R.^& -O.(, sN.|R.|R.qN.]Q.k! T+ lh.E^.DH.4& Tr.Ar.(w.rw.oB.uQ.(v.fx.eO.1R.TD.2R.3R.LM.QD.EL.y/ _& gE.MJ.A/ 4R.5R.6R.7R.8R.9R.0R.aR.z[ 6C.EQ.:y.PF.4D.Kk.bR.6z.cR.7B.dR.!z.Uv.eR.fR.gR.TF.AO.9M.;A.TF.MQ.9L.Ve.hR.3P.qO.iR.Ra.Ih.1E..q.nd.9r..q.ht.YE.QF.J|.:E.rj.5z.^E.Dt.Lm.Up.sI.jR. O..F.MQ.kR..F.lR.}E.",
"mR.+Z 0' k! @= 1  ,@ V+ <_ r+ lh.>$.x+ sA. u.<).pB.GA.sA.pB.kL.VP.-& f~ :^ += MJ.QH.nR.TO.>R.F, .! F, *G.oR.9O.y<.-O.:^ K+ k' wk k~ &L.uK.GG.b'.{, M_.{  MO.sN.rN.:^ 4< pR.qR.rR.sR.X^ %: tR.uR.vR.wR.ZQ.xR.yR.}Q.W' RE f4.|2.zK.!O.(|.R~.n[.S!.S!.j[.B:.2).Tb.i[.ta.ta.@R.}Q.zR.AR.BR.CR.%# 5k.DR.}Q.%# 3d.%# |2.ve.@) ER.FR.ye.}0.=  [$ L{.wA.B].V; CJ.1  9] tf pa.GR.HR.PK.IR.JR.KR.LR.MR.NR.OR.Y7.PR.RQ.{& QR.RR.SR.TR.UR.VR.WR.XR.YR.ZR.`R. S.gA.mK.my.:P..S.uN.MM.|R.LP.FL.+S.^P.-O.@S.!$ #S.qN.:^ TM.x/ [P.$S.k' GI.q[.,$ ux.iM. t.qC.OG.tA.rA.dq.%S.&S.zJ./P.;O./P.*S.=S._& !Q.kP.-S.9O.;S.>S.,S.'S.)S.lO.!S.~S.m0.GO.3A.tI.{S.ht.J|.]S.7g.<!._A.%N.gs.^S./S.(S.*L..y..F.qH.`N.)N.BG.uR.6M._S.xO.:S.<S.[S.}E.'B.7P.dK.]N.^E.:y.5B.}S.{x.^E.Qm.|S.!x.9B.+F.AO.;Q.cD.;Q.kR.;A.#F.#F.1S.9M.",
"2S.+c.3S.RO.(, V+ <_ /$ U+ `% =@ s+ V* &@ sA.8  &@ s+ &@ `* j! DH.gP.o) R* IO.x/ RI.4S.H/ 5S.W^ /Q.y/ E9 6S.7S.Z' B> y<.x/ <_ .& 4' GG.U; GA.||.&@ pL.x/ ,, {$ (F.8S.*G.BK.9S.0S.tP.W^ `^ aS.%: bS.|] zR.cS.dS.oP.Mi.}Q.r. |2.`O.4_ A> D:.y].j4.C_.s<.12.ue.tK.:0.i{ Tb.6k.7N.1Q.oP.eS.fS.;* 5k.gS.oP.4d.|Q.}Q.hS.we.RE A> (|.B].o[..$ L{.R~.@$ yA.w+ PM.7$  > iS.TG.jS.kS.lS.U- mS.XH nS.oS.pS.qS.rS.]& sS.tS.uS.vS.wS.xS.yS.zS.AS.BS.(R.CS.DS.ES.FS.tE.vC.DI.pL.GS.HS.|R.IS.JS.sN.=S.rN.KS.sN.jP.^$ RO.:^ ^& rN.k! K+ AJ.8$ j' f{ o} UA.'I.zE.`t.().:P.eM.LS.[P.MS.3R.3S.>O.8S.A: QH.*G.NS.OS.PS.QS.RS.SS.TS.US.Dt.^9.VS.eB.WS.|S.oH.|A.!x.dB.Cv.XS.YS.ZS.`S. T..T.+T.@T.@T.#T.2m.KQ.$T.9M.%T.~C.&T.aP.*T.*Q.oJ.TF.=T.-T.Pa.Up.}z.9B.hK.bD.[z.pI.+Q.+F.eB.#T.oJ.0B.cK.jK.,B.cK.9L.GN.;T.sH.uI.",
">T.>@ c' )$ &= s- '& ,@ @g.OI.-!.,@ P@.j! x+ V* k~ o} E^.`* {, AJ._  k! [  $S.$S.t2 {^ 6S.n( ,T.j) b~  / 'T.TG.)T.IP !T.+= ;& _^ W# r+ C- sA.`* M_.||.8$ 8$ qN.;= ^$ ~T.{T.]T.^T./T.LP (T._T.:T.<T.[T.`_ }T.|T.1T.oP.2T.3T.zK.!O.Y& v5.(|.n[.t5.<|.E:.<|.KJ.ue.i- 4d.r5.3d.AR.Ni.CR.1; 5N.oP.CR.4T.2T.AR.eS.>~ RE 6k.3T.ve.TE va.9& 52.(0.0}.J;.v+ Y+ j- <|.Z; n~ `^ 5T.%P.6T.7T.8T.9T.0T.Yi.aT.*3 bT.cT.[Z <R dT.eT.fT.gT.hT.iT.jT.kT.lT.mT.wM.nT.oT.U# /G.cy.-& MM.vN.pT.RP.SO.;= =S.)_ >O.qT.RP.RP.qN.#S.(& &O.^P.x/ 1  `; M_.X# !v.().*w.ny.lF.pz.zJ.`~.gM.eM.k! rN.@S.rT.zC sT.tT.uT.vT.PH.wT.xT.yT.zT.AT.o9.BT.CT.TN.DQ. O.`N.kR._y.dK.wG.DT.[B.ET.FT.GT.IQ.%A.HT.IT.JT.^c.KT.N7.LT.)N.KQ.aP.KQ.MT.NT.0M.OT.uI.PT.bB.Tm.6z.WS.oJ.~N.%x.Ig.9B.+F.5C.oJ.,B.MQ.iK.QT.9L..F.sH.sH.TN.6n jK.sH.",
"RT.T+ :^ += Y_ :^ ~% U+ Q+ k' GA. u.-!.Z# -!.GA.ny.%L.DJ.9$ 6& C- 8$ ]Q.)_ '^ '^ '^ EL.!& == !& b~ == j~ k( mi )T.ST.TT.kP.:& 2  j' j' C- $= -& j! r+ [  b'.;= RP.9] += UT.VT.rS.WT.XT.YT.ZT.`T. U.|z '_ .U.+U.gS.yR.pP.wR.F6.w> 73.j[.p<.E_.LH.T7.-> c}.KJ.l[.|^ c}.R[ {0.@U.#U.$U.oP.*~ CR.m{ -{ xR.%U.ME }Q.eS.%# $R.&U.8$.52.Z8.[0. $ d[.J[.J{.z:.@@ )& <|.OJ.!T.'J.*U.=U.-U.;U.>U.,U.'U.)U.!U.~U.{U.]U.^U./U.(U._U.:U.<U.[U.}U.)T.|U.1U.2U.bO.GS..S..S..S.8v.8v.HS.SP.jO.LO.rT.=S.rT.=S.3U./Q.&O.4U._& qT.IO.>[ (& gM.1  pL.'p.qB.G;.eO.~  5U.6U.eO.LS.hO.VP.LM.7U.&O.8U.qC.9U.0U.!T.aU.bU.cU.dU.vh.eU.fU.gU.hU.iU.jU.kU.bD.;Q.oJ.HN.,8.lU.mU.nU.oU.pU.qU.rU.sU._I.tU.AO.uU.CT.vU.wU.xU.KT.MT./c.Nf.yU.z[ $5.zU.m0.MQ.gK.;Q.zG.OF.[S._y.6D.[E.$5.jR.[z.`N.vU.'B.AU.BU.CU.zU.oI.<f.BG.LQ.DU.",
"EU.A: f~ d' &= ** n~  > SI.k' <& C- 4' PO.:$ GA.4$ g{ C- kL.C- 6& (, m' (, $S.LO.)_ FU.b~ == y/ f! ~% *G.@z GU.HU.IU.JU.%R.FU.g) 1  ,@ 7  j' C- j! AJ.'$ (& IO.KU.^& iP.LU.IP MU.NU.OU.PU.QU.RU.SU.TU.DJ UU.VU.|T.WU.R: W' XU.`Q.2; <|.3Q.83. 9.k4.2).h[.yK.ve.<|.nM.F6.YU.oP.YU.CR.wR.eS.%U.ZU.ZU.#U.`U.dS.gS.s! {0.+) @) nP.v! `8.|^ 52.z:.J[.h[.:|.-> H(.}& R* B2 -R. V..V.+V.@V.#V.$V.%V.&V.3}.Zi.*V.=V.-V.Hz.;V.>V.,V.'V.)V.!V. # ~V.W{.{V.:G.]V.8v.||.LP.^V.XP.qN.^P.SP./V.(V. / RI.RI.!& FU.>& _& >R.e) /Q.%= >O.`; /% GG.lK.~F.dq.pL.=& AE..S.GH.-& eM._V.:V.<V.[V.}V.ms y' |V.1V.2V.3V.4V.5V.6V.7V.8V.CT.yU.DG..O.OQ.ZE.!9.~N.tI.QN.AO.9V.0V.aV.bV.cV..N.dV.eV.fV.gV.VS.xN.xN.hV.xU.9C.9C.6M.2m.iV.KT.TN.uI.jV.9L.jU.~9.s0.IT.=A.6M.|S.sI.kV.9B.+F.~C.lV.oI.GN.%T.DG.zO.mV.wg.LQ.wU.nV.",
"oV.:& c' b~ &= f~ )$ 0] u- l) N+ >@ -!.dM.-!.g{ m) fM.`8.j' 8$ /$ ;= &= m! '^ $S.y/ j{ j{ *= w- S^ Q^  / P, e, wL.pV.qV.2' e( x- i- Q+ W+ T* =@ DH.j! ]Q.h{ o) ^& 4< sR.rV.sV.tV.uV.vV.wV.xV.yV.zV.AV.A} BV.CV.DV.R: ME 6k.|Q.Y7 EV.K- nP.r<.E_.t5. R.X+ |^ ve.5N.ch.ch.1Q.[^ FV.YU.v- r! GV.|T.DR.%U.@R.HV.IV.Q= }Q.JV.2; r5.KV.73.g! T7.62.52.-> 83.[|.5' 1] ]^ q! LV.MV.NV.OV.PV.QV.RV.SV.TV.UV.VV.WV.XV.YV.ZV.ms `V.^U. W..W.+W.@W.#W.$W.%W.&W.*W.MM.Cr.sN.FL.FL.KM.=W.-W.=W.&O.!& 3U.[_ h~ y/ y/ !& h~ e( += %= (, ;W.]Q.E^.eM.bM.s+ eO.eO.{, DJ.LS.nQ.LM.}P.>W.FU.,W.}  0U.'W.+].[Z )W.sP.!W.~W.=>.Xe.{W.]W.pd.bL.TF.MQ.|E.^W.]B.dP. 7./W.vG.(W.Mu.8J._W.:W.<W.[W.}W._C.|W.1W.2W.^c.'N.3W.9C.cK.Rq.*T.hU.4W.>Q.<g.Rq.MT.,0.>8.AO.[E.9B.TF.,B.5M.AO.5W.oI.*j.#F.sH.TF.&Q.)N.6W.7W.8W.9W.LQ.",
"0W.E[ y! y! <^ ** o! '_ R* ;& e~ f{ jw.GA.{, 7$ -& h{ [, eM.5$ $O.IO.0' ;= ^& hP.0{ o( m!  / y! 4] }] T^ aW.bW.cW.dW.eW.fW.>[ jP.a] 8' :$ <& 4$ Cz.RO.sQ.$O.J= == gW.hW.*G.iW.jW.kW.lW.mW.nW.oW.zV.pW.r& O| fz V( qW.rW.Mi.2T.&U.f4.#R.73.22.H(.b}.KJ.c}.K- Z; l' 1Q.DR.sW.|T.ZU.sW.-^ v/ HV.tW.uW.|T.vW.wW.(} 7N.R: fS.#R.f4.c; l[.(|.<|..9.o' X+ [|.x+ 5' nM.CR.>_ K: xW.yW.H} DV zW.RM ]( AW.BW.!g.}C CW.DW.mi 9S.EW..~.M{.9] FW.0U.GW.HW.+W.IW.JW.KW.XP.Cr.LW.KM.IO.^Q.4U.rT.h~ ,T.e) 4U.e) UO.,W.rT.h~ 3U. / MW.!Q.J= J+ DH.{  U# GG.'H.=@ M_.hO.LM.pL.rN.sR.NW.hW.rR.OW.AW.PW.QW.RW.SW.TW.UW.VW.WW.XW.Mn.YW.0M.ZW. 7.SN.^W.@T.bP.7V.RF.`W.qF. X.DT..X.+X.@X.#X.$X.%X.&X.*X.=X.-X.(t.;X.qd.0R.>X.,X.'X.*T.^9.cK.iV.Ve.)X.Fk.HN.!X.2m.kR.,B.~X.3o.mI.BG.#F.zU.iK.)N.9M.CT.vU.sH.{X.&Q.&Q.NT.",
"]X.l) m! S^ t- b' j{ z/ '_  > ;& 4' FG.j! C- g' 6$ $O./, h{ gM.X_ e! R* y/ += o( _& 4] S^ Q^ u| g( S^ W^ b7 C/ aQ.pR.vT.sR.)_ gP.2  Q+ [, $= 9$ GA.<_ /$ M+ += ^X./X.}] ## aU.)W.(X._X.:X.<X.[X.pd }X.;: |X.f| L} :|.o[.2T.1X.F6.F> RE l[.2X.n<.b}.|2.|2.l' n<.t! #U.YU.HV.GV.HV.%U.3X.'[ sW.4X.5X.6X.ZU.6X.sW.It .[ dS.7X.Mi.#) |^ 8X.KV.g! o<.H(.@& f' n<.f( :, oP.7] 9X.0X.X' ]( G7 aX.M: ]( bX.[M -: cX.dX.eX.fX.,W.gX.RI.n>.H7 ej #W.hX.iX.jX.[1.kX.%O.lX.2R.mX.X_ ~T.h~ y/ nX.e) p! N6.oX.pX.u| p! qX.AP.^% LO.RP.t2 |P.`; PO.3'.DJ.DH.^H.AE.eM.PO.rX.CK.6Q.NW.sX.,R.(% tX.uX.vX.wX.1U.xX.!C.yX.zX.AX.BX.CX.DX.9M.$5.LC HN.|A.EX.[E.6g.FX.jH.GX.HX.IX.JX.KX.LX.MX.NX.OX.PX.QX.RX.SX.o0.TX.UX.VX.7R.WX.ZP.xN.XX.YX.hR.,0.>s.`n.ZX.3B.]B.!9.`X.js.EN.,B.6M.-Q.-Q.,B.>Q. Y.$T.NT..Y.+Y.@Y.8W.",
"]X.l| }] 2] j) <, c~ fj YQ.5N.}, W# 1  8$ 8' .& $= x/ U+ x/ l! `% ^$  / J= sR.qX.Y^ qX.}] 2] }] Z^ Q^ p! D/ b~ #Y.', %= =S.i) !$  > 8& h- 4  <& C- k! /$ sN.EL.F, $Y.%Y.## >: -U.&Y.*Y.=Y.-Y.;Y.>Y.,Y.'Y.@[ )Y.!Y.~Y.3).+9.1Q.wR.XU.2; Y& h. l[.|2.K- b}.i- f4.nM.dS.-{ {Y.]Y.5X.^Y.5X.|] /Y.'[ uW.^Y.^Y.6X.dS.5X.|U *~ 7X.'% #) 8X.@$ c}.:0.l[.)& G_.(= 3d.|2.1Q.CR.8O v/ D[ (Y.d[.!Y._Y.:Y.2< ]O.{& <Y.[Y.}Y.|Y.1Y.!& ]^ iP._& A/ 2Y.1E 3Y.4Y.5Y.-W.SP.+S.6Y./Q.7Y.8Y.e) /X.rT.rR.9Y.tR.0Y.![ l( &: (_ E6.9Y.aQ. / EL./Q.J= t[.GG.AJ.e~ ||.Cz.iO.GG.%M.&M.aY.bY.71.6S.cY.NS dY.Cy.eY.fY.gY.hY.iY.bK.jY.kY.lY.Qq.yU.%T.Kn.`_.Jh.[f.Wv.(9.gR.mY.nY.oY.sO.|B.pY.qY.BN.rY.sY.tY.uY.vY.wY.xY.yY.zY.AY.BY.CY.DY.EY.FY.ti.Ra.;s.iV.jU.bL.bL.qH.$5.`X.{B.9V.GY.0L.HY.]B.oJ. O.@T.CT.IY.JY.KY.JY.LY.MY.",
"NY.6] <^ p! p! OY.k{ ;^ .> OJ.(^ h- <& j' <& W# j! l! $S.qN.^P.M+ ]Q./Q.;= e! ;^ qX.aQ.~Q.u| ,W.7{ PY.v: Z^ b( ^% b~ Y^ +> == G9 6L  > -= <& ,$ j! += gP.:^ += 2' QY.RY.XV.'W.=* SY.TY.UY.VY.WY.XY.YY.ZY.`Y.`Y.aX. Z..Z.xe.`+ pP.wR.&U.|^ :|.:0.|2.+9.Pi.ue.}Q.+Z.#U.%U.U[ `_ ': tW.@Z.@Z.v/ Q[ ^Y.4X.uW.U[ V_ #Z.3X.3< 3_ 1T.Mi. * &> c}.g4._= 5' K- w! r) <0.[$.DR.$Z.A8 D: q} %Z.zL.y[ &Z.`< *Z.=Z.-Z.V1 ;Z.>Z.,Z.'Z.5] sR.=S.4< |P.RI.7O.KX `N !K.^Q.[R.>W.^Q.^Q.5S.rR.)Z.!Z.~Z.N6.{Z.]Z.C2 o| B8 E6.E6./T.8] d) h~ Y^ .! P+ rX.GS.lK.U# U# _  {  SO.PP.PP.^Z./Z.aS.jW.(Z._Z.:Z.<Z.Hj.[Z.}Z.|Z.>0.1Z.2Z.3Z.4Z.jV.%T.Ln.5Z.nd.kV.[S.`n.2m.=z.6Z.7Z.8Z.9Z.0Z.aZ.0K.bZ.cZ.dZ.eZ.fZ.gZ.hZ.iZ.jZ.kZ.:t.lZ.mZ.nZ.oZ.Qq.pZ.<S.SN.oJ.Ih.^W.Kn.OT.qZ.rZ.dP.#y.)c.`6.dP.TF.CT.cK. Y..Y.sZ.tZ.uZ.vZ.wZ.",
"xZ.}  0Y.yZ.u/ g( E/ P^ <, d' ** 2  8' $= V+ 5V kL.gM.!$ $S.(, h) j{ y/ nX.Q^ e) ;^ aQ.aQ.zZ.0Y.,[ g( __ ^^ zZ.d) w- Q^ }] P= R* 8' 8' h- }, gM.kL.gM.:^ (, 71.AZ.BZ.CZ.DZ.EZ.FZ.GZ.HZ.IZ.JZ.KZ.LZ.MZ.NZ.i( i( -[ OZ.0: ,u %U.8{ Y~ Z~ ;) D;.n<.K- Pi.7k.i{ i{ oP.1T.3] -_ PZ.QZ.4X.Q[ 6X.b( :Y.RZ.SZ.r} &2 #Z.&2 $Z.TZ.0/ P= UZ.#) :0.:0.~: g4.G_.l' @R.bh.AR.+U.AR.g~ Q[ r( C[ !1 VZ.&* .] s| WZ.%~.XZ.V1 YZ.ZZ.YZ.+! D/ (Q.o( ]$ %= x/ |P.`Z.gE.w*.FL. `.g&.(& jP.sT.$& .`.rR.)[ +`.C2 }C @`.5< #`.$`.%`.l( 6S.n( ,W.@z == CK.8O.&`.HA.oQ.=$ Zx rC.aY.qN.*`.pT.=`.-`.;`.>`.,`.'`.)`.fJ.!`.~`.{`.Ch.,j.]`.KY.^`./`.@r.ZE._z.CO.9C.@T.bP._9.9P.(`._`.:`.<`.[`.}`.0K.|`.)S.1`.2`.3`.4`.5`.6`.7`.8`.}g.)d.9`./t.0`.[g.a`.CT.9W.Kn.eP.bL.b`.Ra.!9.{N.yG.Vw.yG.+Q.JT.-Q.CT.hV.sZ.c`.d`.e`.f`.g`.nC ",
"h`.>[ i`.;_ j`.<^ 0{ r! X^ y: )$ @= 8' 2  V+ k' `# _  2  o) EL.>& o( ~Q.S^ }] E6.;^ <^ 9Y.6< yZ.9Y. : ^^ nX.Z_ ;{ OY..: e( t> 2  (& [  _^ mE.V+ ;& ;& E[ %= cY..V.k`.l`.(R SV.m`.n`.o`.p`.q`.r`.s`.t`.t`.u`.v`.!4 w`.52 SZ.@D vW.(} LJ l' '% ue.F6.r) {0.@U.1T.YU.+Z.+U.-_ #Z.r} x`.O| 4X.U[ U_ d( 5X.y`.!Y.&2 $Z.K  r} 3< @D XU.z`.l' c; KV.:0.r) a3.3d.+Z.@R.q! AR.A`.B`.C`.y`.D`.q2 E`.F:.N( F`.PN G`.W1 x} H`.I`.## qX.[_ A/ (& |P.;W.=$ [P.bM MM.KM.;= hP.~Q.AP.~Z.~Z.&: n| J`.K`.B8 #: c3 L`.g0 _1 b7 B} m| >R.F, vT.NJ.M`.]$ !% w[.SM.|  U# GS. M.rN.^Q.N`.UT.O`.P`.Q`.R`.S`.T`.t%.U`.V`.W`.Fk.X`.Y`.Z`.``.  +. +ls OF.Wv.#F.2m./9.+ +'z.@ +# +^I.$ +% +& +* +yQ.= +- +; +> +zX., +' +) +! +=j.~ +Sa.$T.jV./`.0M.{ +4Z.] +ls 7P..F.mI.Ra.>z.VN.Up.dP.;A.~C.cK.n0.^ +9W.[g.Y`.]`./ +( +_ +",
": +< +}|.RE D/ Q^ 2] >_ G/ m' s- J[.3' _^ x- 4' gM.gM.'^ f~ (, == zZ.[ +nX.Q^ Z_ e) {Z.yZ.0Y.I} ![ W_ o| W_ u| %: D/ X^ ^^ e( 5] M`.J+ /% <& W# {  gM.$S.n( } +| +1 +aS.=* |Y.2 +3 +4 +5 +6 +7 +8 +9 +0 +a +b +h|  [ !Y./Y.3X.@D @$ 8{ ch.XU.3k.)O.Ni.Ni.6k.{0.8{ #U.-{ -_ #Z.D`.c +`' .] :Y.M: d +e +f +/Y.o5 >{ :Y.u: L} %U.IV.g +H- ve.a3.Tb.e' 6k.YQ.YU.zR.gS.GV.HV.B`.h +i +c +E2 5X.j +k +l +/J m +n + 2 c3 *6 =: o +|] o( == J= M+ ||.p +#L.KM.|R.^P.EL.|F.4U.e) q +r +s +ZZ.t +I[ (1 u +v2 `6 v +[1 #: w +Q7 TG.PH.cY.x +F^.]P.cy.rC.-w.M_.*I.NP.|R.^Q.4U.4U.,Z.+V.y +z +A +B +;: C +D +p2.(C.]t.E +F +IY.G +Kn.H +^W.TN.;Q.I +r0.]B.{E.J +K +L +>z.(S.-N.M +N +aK.O +P +zX.yw.nZ.Q +R +*L Ct }g.S +T +c`.]W.DU.U +G +IC fp.9M.iK.. +V +QN.8P.1A.jR.JT.SN.KT.@T.Rq. Y.XX.W +X +Y +Z +` +",
" .+vL.aX.i`.j`.g4.=[ S^ '#.g~ a' d' z: ^& 1  ,@ '^ gM.$S.FU.m! t- ~Q.D/ <^ %`.T_ I} O: N: ..+oX.N: @2 D: j3 d) &: D/ -: j~ s} l| R^ J+ u[.$= U+ x/ DH.|P.gE.2 ++.+t`.@.+dW.#.+$.+%.+&.+*.+=.+-.+`F ;.+>.+,.+'.+$2 }@ ).+0< !.+b( [$  m.wR.Sb.9k.6k.oP.@R.7N.[^ DR.'[ -_ #Z.c +OZ.D`.~.+{.+O| f +yG :Y.f +&2 !^ 07 11 6X.3X.L} ].+W' 6k.XU.H- %# f4.H- Q, 7N.5X.-^ sW.^.+h +A`.y`.D`./.+(.+HJ._.+:.+{r v8 <.+(1 [.+[.+C: }.+X^ }] *= t> c,.|.+]Q.<  %O.hP.=S.4U.,T.)Z.zZ.gX.1.+2.+3.+X1 4.+5.+c3 S6 <4 )Y.6.+I[ 14 V`.PR.7.+yL.y<.mX.GS.<  P+ EJ.gM.HS.8.+^Q.4U..`.sX.9.+'U.iZ.0.+a.+b.+c.+d.+e.+f.+g.+h.+ip.i.+j.+W +Qq.!N.2m.~X.HY.^9..7.k.++y.l.+m.+n.+o.+p.+q.+r.+s.+t.+u.+v.+w.+|g.BQ.jY.cu.i.+x.+nV.lY.W5 y.+/`.z.+;X.A.+bk.OQ.oJ.z[ te.5z.[E.jR.+F.jR.B.+qO.^9.uU.*T.DU.@Y.~ +JY.2g.C.+D.+",
"E.+F.+G.+w: r( oX.%[ .`.b' c1.+> P[ ), ;& x- !$ h- U+ m' )_ &O.p! j) ~Z.Z^ u/ C: v: I8 H.+I.+O: O: W_ D/ a< l( &: 9Y.M: =[ ,: t> MJ.mE.<& '^ ^& 2  x/ LO._& J.+6Q.K.+'U.L.+M.+N.+O.+P.+Q.+R.+S.+{`.#7.T.+{> cb U.+_9 @: D} #G j5 .c.3< Y~ wR.@U.@) 1Q.Q!.4T. m.sW.Q[ @Z.OZ.f +V.+OZ.QZ.e< :Y.:Y.]4 fz f +W.+X.+r} 61 U_ 07 C> 6X.7X.Y~ Y.+%# L{.p5.6k.<0.7N.}v.A`.|T.c +DJ Z.+`.+ ++w`. Z..+++++@++#++$++%++{5 &++*++q9 M[ j~ 7.+LU.[n =++P+ SP.||.SO.LW.KU.-++5S.;++>++n| ,++<.+3.+p2 X1 z} :1 u +'++%V.yW.q6 )++!++9X.^X.## Tq jP.^$ HS.lK.GS.SP.oQ.~++'T.4U.hW.{++=R.=u.]++^++/++(++_++0e :++<++[++}++S +e`.tZ.;X._h.~1 >Q.bL.iV.|++RN.1++5G.`W.2++:t.3++BY.hU.iR.Q +4++5++6++7++ f.8++9++0++nV.a++y.+I +W +b++YW.CX.c++jU.d++Kn.bL.e++b`.3B.5C.#T.oI.sH.;A.f++CT.q.+9M. Y.g++h++h++KY.i++j++",
"k++l++~[ }T.m++S_ t| p! v: n++e( c< t> @= '^ 0] &= $S.)_ m' nX.Z_ [_ .`.&: ch H.+o++T_ E6...+p++oX.&: .: d) aQ.O[ 9Y.yZ.x: %: s} R^ <  `; u- 0w.]Q.:^ ~Q.^% q++r++s++t++u++v++w++x++y++z++A++SL.-}.B++C++D++:4 E++j$ F++G++6X.d +].+{% @U.YU.[Q.Q, CR.r! c}.HV.+U.-_ Q[ QZ.D`.H++x`.I++OZ.y`.OZ.0: :Y.~.+e +k3 N[ .] y`.d( n5 8O W' v- 7X.#) {0.ve.~* dS.-{ sW.-{ tW.J++OZ./.+ Z.K++L++M++N++[# '< O++P++C7 <4 Q++51 {1 F: R++n( S++#  PP.|P.L^.F^.RP.-W._& -W./T.T++s +U++ZZ.V++=5 W++#= gd =5 X++!1 YZ.%V.Y++Z++|Y.`++ @+DW.=* QH.!& :& 8O.;= =W.8.+~++-++tR.Rb..@+aw.+@+@@+91.#@+$@+@@+%@+&@+*@+=@+-@+;@+>@+,@+'@+jV.@r.DX._S.&0.yQ.)@+!@+~@+{@+]@+^@+/@+(@+VM._@+:@+<@+[@+8++}@+|@+}M.{W.nV.^c.hR.T +xU.1@+[g.IY.2@+3@+4@+5@+V + 7.td.td.KT.kR.cK. 7.^9.(9.*T.~c.I +iR.6@+7@+8@+9@+0@+&b.~E ",
"a@+b@+SE r( |_ r( |< ,[ }_ `' /^ ,: f~ f! o( )$ ]$ [  t2 4] (_ [_ zZ.9Y..: 6< ![ c@+ : 0{ yZ.PY.v: N: ;_ __ a< E: )[ O[ h| =[ 4] (^ += ^& ^& `f.jP.(& += ^1 @z d@+e@+f@+g@+h@+i@+j@+k@+l@+m@+(h.nc.n@+o@+h3 p@+b2 q@+ck.~.+ 3 62.#Z.S( qW.^( 7X.<, q! ZU.j- r@+3] U_ e< {.+s@+QZ.W.+:Y.t@+u@+v@+e< ]4 w@+e< r} w_ n} _9 x@+K  v=.@D y@+C> &> p5.p5.DR.DR.%U.v/ z@+Z.+uW.y[ A@+B@+C@+D@+E@+F@+G@+k +H@+I@+J@+K@+L@+!4 J[ 5< B- M@+)p.k| t[.oQ.|R.KM.|R./Q.sR.[V./T.r +N@+c3 [Y.W++O@+P@+<1 )Y.b +q| v2 Q@+Y++`Y.R@+S@+T@+U@+V@+vT. / N`.k| @z jO.gh W@+X@+0U.MS Y@+Z@+QB.}Z.`@+ #+.#++#+@#+##+$#+e@.%#+&#+*#+=#+x.+-#+4m.;#+~1  7.BY.>#+xY.,#+'#++E.)#+rY.!#+~#+{#+]#+^#+/#+(#+)c.ne._#+;s.:#+yh.DX.bL.oJ.zO.4Z.Rq.-j.IK <#+pd.. +*Q.,0.e++IT.=Q.dK.9C.JT.zU.-Q.SN.X3.!c.3P.2g.E +E +>@+[#+ O.}#+",
"|#+1#+PG `_ M/ 1_ 2#+|_ 3#+M: G/ 0{ '_ (^ u- R^ :& &O.'^ e) E6.e) zZ.6S.q +C: N6.E6.7{ g( [ +E6. : p++=: X' =: +[ /_ B: z: `' U^ F/ 4< u- MJ.4h.&O.+= W^ hW.8] }V.4#+}V.5#+6#+7#+8#+9#+0#+a#+b#+c#+b#+d#+>$ m3 e#+f#+g#+~.+^5 _0.|X.P{ 8O @D Y~ h#+h#+3] g' DJ J++)^ E} i#+@7 B4 fz :Y.|< e< &Z.X.+OZ.fz B4 fz Q3 f +w_ j#+P{ LE ~B nM.h#+$U.r. 7N.gS.AR.+U.`_ tW._Y.k#+l#+`.+ ++m#+n#+N++6: o#+p#+q#+r#+s#+t#+w2 34 A} W+ u#+^_ {^ k| -O.{$ {$ gh jO.*`.*`.UT.]Z.v#+K`.`6 W1 :1 rf =5 w#+u +u +P@+v2 x#+C9 0e y#+z#+A#+B#+C#+P, @z D#+RQ.NP.NP.E#+0U.F#+G#+bW.dX.H#+I#+J#+K#+L#+M#+y9 N#+yD.O#+P#+Q#+,W R#+S#+T#+U#+y.+<g.bL.*T.V#+W#+X#+Y#+Z#+s.+s.+`#+ $+.$++$+@$+#$+$$+%$+jY.&$+a`.*$+=$+hU.YW.DG.I +DX.9L.jK.;X.YX.6W.c++MT.=Q.HN.td.b`.^W.[z.@T.~C.DG.]9.;Q.HY.-$+;$+tZ.>$+,$+'$+)$+!$+~$+",
"{$+]$+^$+H} q( /$+H.+P: |< N[ .: C[ m( c' g) )_ 0] &O.e! y/ 8] D/ E/ /T.q +G: N: Z^ (_ ($+_$+V_ 0{ Q^ :$+w +DW.*: X^ M[ ;{ V_ j~ /^ 5] y: '^ [S '^ e! y/ aQ.N: E6.o| <$+[$+}$+|$+1$+2$+3$+VV.4$+ri 5$+6$+u+ 7$+Tk x4.p5 8$+j#+62.4X.d +ZU.2T.vW.YQ.h#+3] Q[ Z; `_ QZ.:Y.e< 9$+V.+`< l} _Y.D`.B4 0$+V.+i#+j#+p5 I8 :Y.n} d7 u_ J_..[ <, dS.nM.CR.vW.#Z.-{ s( UU.tW.A@+sL.m#+a$+K++b$+c$+d$+e$+f$+g$+h$+i$+j$+k$+S* #6 l$+m$+x[ /_ `^ /Q.^1 MW.]$ pK.gE.RI.'T.0S..@+:1 P@+4.+n$+o$+o$+o$+)J p$+O@+x#+p2 0e h0 bc q$+r$+Hn s$+t$+u$+!_ E9 v$+7Y.;= vT.nR.SQ.w$+x$+!T.y$+t$+z$+A$+B$+C$+D$+E$+F$+G$+H$+b7.Q#+I$+c`.J$+K$+L$+;X.G +uR.M$+_#+N$+d .O$+OX.t.+P$+Q$+R$+iR.0`.S$+T$+0`.U$+XX.V$+W$+9`.xN.1@+aP.. +)N.0M.I +. +bp.ja.X$+z[ m0.~9.=8.6M.AO.kR.GN.DX.SN.{N.;Q.nJ.xN.XX.Y$+Z$+`$+ %+.%++%+@%+",
"#%+$%+%%+&%+j( *%+F) G7 +: I8 =%+}] G/ m! b~ g) *= RP.^1 _& ,W.Z_ {++-%+q +{++Z^ u/ OY.T_ c( E/ 8] >R.b7 ;%+>%+k. T^ C/ /_ __ x: >: 5] /& )_ 'G 0' nX.h~ /T.Z_ 0Y._1 s +,%+'%+)%+!%+~%+LK.{%+]%+^%+/%+R0.`H 5,.SI.a$+0$+h +e' 0$ w_ (%+8{ #U.HV.vW.g~ `_ N/ Z; !Y.D`.y`.|< E2 {.+~[ 2#+{.+s@+B4 D`.F++P: az e< OZ.i#+V.+&Z.9, O| _%+)^ v/ @D 1Q.AR.'[ |_ `< y[ i +H++zK. ++m#+.++:%+<%+[%+kD }%+|%+1%+2%+3%+4%+5%+6%+7%+w2 p} s2 ^_ ,W.RI.gh `; {$ 8%+9%+[V. @+U++K`.4.+0%+X++<1 u +)$ v2 gd rf z} E7 ec a%+cc b%+c%+d%+e%+f%+r0 H/ yL.%R.%R.!Q.|F.LI.g%+EW.K-.CI.h%+i%+j%+k%+l%+m%+Q1 H[ n%+o%+p%+q%+r%+s%+i$.t%+u%+V!.W +qw.9G q.+ja.X#+v%+w%+x%+y%+;$+*T.z%+A%+.Y.B%+C%+jK.7V.D%+sZ.E%+F%+[g.Sa.&Q.&Q.DG.0M.aP.uR.!N.Nf.TX.G%+/9.#r.LC  F.~X.JT.$5.HY.MQ.~C.KT.iR.tZ.kY.H%+I%+J%+K%+L%+M%+N%+",
"O%+P%+Q%+R%+CZ.:_ %6 S%+c( +[ &[ W_ U^ z/ a' 3' )_ f~ /Q.l| O[ yZ.6< ]Z.{Z.0Y.<^ ^4 u| (_ E6.%: %: mi T%+J: xg U%+C/ 9E.d{ (% L: m( __ a' m! V%+j) p! m! 9Y.6< O: o++W%++[ X%+Y%+Z%+`%+'d. &+.&++&+@&+@&+#&+$&+%&+*~ &&+*&+|2.KV.d +@D |T.$Z.#U.0/ -{ +U.!Y.Q, =&+-&+{.+;&+S[ 2#+>&+,&+{.+]0 i#+i#+V.+'&+i#+'&+{.+zb F++e< 2Q.&Z.o& x| P{ )&+W_ :Y.|< v: h +Q3 n} D`.A@+lV !&+:%+~&+{&+]&+ur |%+^&+aR /&+(&+_&+:&+<&+[&+d| 2c g0 l( S^ ,W.~Q.!Q.}&+jO.kP.|&+R++~5 Q@+1&+{5 2&+Z1 <1 ed {5 3&+W++h0 4&+4&+5&+6&+7&+8&+9&+D +0&+a&+b&+0S.vT.GU.LI.-++q++c&+d&+_R e&+f&+g&+h&+i&+j&+k&++6 l&+b..m&+n&+:r.o&+D>.CQ.p&+q&+r&+]`.Y +s&+~X.t&+u&+v&+YH.w&+x&+&Q.~ + Y.y&+]`.r&+z&+DU.-$+0L.yk.ne.A&+B&+ti.[g.^c.:S.*j.$T..7.Qa.0R.Mf.6g.-b.<6.<6.o9.oJ.hK.7V.#y.(9.DG.{W.j.+C&+D&+E&+F&+G&+H&+I&+J&+K&+",
"L&+M&+M&+N&+O&+P&+Q&+R&+S&+X1 3U {[ %: +> w- a' >& o! ^1 [V.q +a< 9Y.$`.C: oX.;_ Q^ 0Y.0Y.E6.(_ yZ.E/ b7 V`.TO.PR.,W.E/ PM.jA.zZ.(% <^ /^ f~ 7 .0{ ;^ ,[ nX.l( H.+I} /$+T&+z8 ce '++U&+z'.V&+Tk W&+X&+1S.*7.d#+Y&+Z&+5k.`&+I3 $Z j#+4X.+U.={ U[ |U -_ HV.Z.+v@+'_  *+;&+a$+ Z..*+s@+_Y.$2 g#+V.+-&+r@+g#+D4 +*+@7 @*+w@+I++#*+_9 F) &Z.+[ l$ R6 H: t} 5@ ]4 J} (.+A@+ *+$*+%*+&*+**+=*+-*+OG +T uZ `%.;*+>*+P++,*+'*+,5 f3 U6 !1 qA 8] E9 .! TG.8%+qQ.*`.LI.w +YZ.'++)*+2b !*+[` Q@+~*+{*+]*+=5 D9 ^*+/*+ec (*+v8 48 _*+:*+<*+[*+b7 B/ }*+7Q.rS.d! !0.aU.$#+|*+1*+2*+3*+4*+5*+6*+7*+X* 8*+9*+0*+l8.a*+b*+2b.c*+d*+jV.e*+f*+Db.Xn.Pa.*X.g*+h*+i*+j*+k*+_S.(t.y&+l*+Y`.tZ.m*+[z.j.+ Y.n*+vG.o*+p*+kO.Ch.a`.:S.R;.p0.N7.3P.ep.EX.tp.;8.q*+oJ.oJ. 7.1E.~C.-Q.lO.CT.~ +tZ.KY.r*+C.+s*+t*+u*+v*+#%+w*+",
"x*+Wm y*+|j z*+A*+B*+C*+D*+E*+F*+G*+M: D/ m! }] b~ t2 sR.u| %`.oX.-%+%`.0{ p! ;^ u| u| 9Y.W_ ^4 R++:$+1Y.F[ >R.^4 u/ b~ zZ.>: W_ H} }] G/ ]^ `N S^ Y^ __ 9Y.N6.ch ![ d< c@+H*+G: I*+J*+K*+Tk L*+{8.M*+X&+N*+)b.O*+P*+^5 Q*+f5 R*+g! SZ.j5 &2 sW.{% Z.+'[ !Y.!Y.#= S*+q@+T*+{.+ *+ *+E++l#+I++t@+v@+t@+r@+i#+D`.e< 0$+v@+w@+d7 U*+e< W_ h( mS.V*+dX.W*+X*+F} h| 58 |4 l} Y*+Z*+`*+j5  =++T ;N .=+[>.+=+@=+#=+$=+%=+&=+*=+==+d3 =5 !1 @: W^ *G.(V.'T.|&+q +]Z.U++u +5.+-=+;=+>=+P@+1&+3&+1&+3&+*5 ,=+'=+)=+0e )*+yp cb !=+~=+{=+*=+K: o$ ]=+^=+/=+(=++.+pC._=+@].:=+<=+[=+}=+|=+1=+x9 2=+3=+.'.p%+4=+;@.<r.5=+6=+I$+P=.7=+5z.;x.8=+9=+0=+9z a=+b=+c=+W#+d=+>X.[g.|g. Y.|g.d`..F.E +K$+]`.e=+f=+2g.^ +]c.:S.Bk.cp.g=+h=+yh.i=+j=+te.dK.OT.9L.$5.$5.bP.KT.2M.$T.]`.z&+k=+l=+m=+n=+G2 o=+p=+q=+r=+s=+",
"^) t=+u=+_h v=+w=+qP.x=+y=+z=+A=+.] c< %[ =: b~  / qX.^4 (_ a< =%+@`.$`.nX.Z_ E6.Y^ 8] zZ.8] c( M[ ## 8< vP.{++9Y.,_ ;W.j~ j~ +: B=+.& aQ.d{ Di.j~ S^ Z_ 0Y...+41 C=+/$+D=+oX.[n E=+F=+X&+G=+H=+I=+J=+U< J=+K=+L=+,m M=+N=+5[ O=+P=+Q=+RZ.-{ |T.vW.-_ 3X.B4 0$+Q, R=++*+q2 8$+$2 t@+c7 +*+i#+'&+i#+n} n} 8$+i#++*+i#+QZ.Oh d7 %5 b3 S=+A9 /=+cX.<Y.T=+b< @: U=+(*+V=+<c k0 W=+X=+Y=+^&+$H ~/.%K *W L$.Z=+`=+ -+.-++-+@-+<4 ;5 '1 h3 _=+8] @z sT.kP.F, fX.R++#-+X++$-+x- %-+<4 &-+*-++5 m +<1 rf o2 Nq GL.=-+--+;-+fd _*+i&+>-+yp B~ Y@+,-+'-+)-+!-+~-+!w.{-+]-+^-+8|./-+(-+_-+R1 :-+.'.<-+[-+ir.}-+|-+}l.[-+;@.Bc.s%+/ +1-+oM 2-+3-+4-+5-+6-+7-+[U 8-+9=+n.+~c.hp.vU.CT.Y`.cr.z&+g++9-+/9.0-+a-+b-+S$+dm.c-+yw.aK.d-+e-+0R.f-+Z(.lt.g-+h-+gw TN.^W.Ra.*T.b-+Y`.i-+>@+9@+(f.u}.j-+k-+!b l-+s=+m-+",
"n-+o-+p-+Wm q-+r-+Xm s-+t-+u-+v-+w-+0< >: y} k( E9 0{ O[ gX.gX.B} 6< E6.,W.aQ.8] h~ S^ ^_ aQ.9Y.]Z.E6.E/ ## o| }] X^ z/ g( D/ q} G} =[ >@ `^ !d.d) ,R.9Y.ch x-+): C=+y-+z-+A-+B-+@r C-+D-+E-+F-+G-+H-+I-+J-+K-+L-+|n #t.M-+f5 u@+rC fz az =< 5X.5X.Z.+PZ.y[ _Y.s@+uD.l#+ *+ *+;&+-&+0$+ef H++]0 v@++*+0$+t@+x`.V.+e< i#+Q, N-+p5 ~0 O-+H8 M[ P-+@[ Q-+R-+t++S-+T-+U-+ga D7 V-+W-+*T ;N 'N X-+4Y Y-+,=.qU tZ Z-+`-+ ;+.;+`Y.]5 34 !1 XZ.w} !_ |&+,W.gX.~0.r| o$+v2 +;+%++D8 0%+W++'4 1&+ 6 x#+p$+@;+<.+)++#;+$;+%;++; &;+*;+`].&k t$+=;+RM AW.(Z.-;+;;+>Z.>;+,;+';+);+!;+v0 ~;+{;+n8.];+X&.u#.^;+/;+(;+;l.^;+}l.co.6f._;+EW :;+<;+[;+};+|;+1;+2;+3;+4;+-X._S.0`.{W.I +CT.4m.|g.5;+2g.m*+6;+m0.7;+8;+]`.Ck.9;+XW.0;+a;+b;+Qa.0).c;+~N.<6.bP.d;+(9.zU.aP.iR.e;+f;+H%+g;+h;+i;+E).j;+k;+l;+m;+n;+o;+",
"p;+~o q;+r;+s;+t;+u;+v;+w;+6g x;+y;+z;+A;+B;+L: v} X*+C;+=%+ch R++TO.zZ.~Z.zZ.zZ.N: D/ u| D/ o| M[ ^_ u| Z_ s( c( L: lA.Z_ E/ B2 t} d( ;{ 1E VV.4] qX.>++G*+D;+E;+F;+G;+H;+I;+N*+G=+J;+F-+K;+L;+M;+N;+O;+#r P;+cG {%+Cj Q;+X.+R;+43.g! S;+/Y.Z.+/.+SZ./.++*+21 l} B+ T;+U;+-&+V;+-&+>&+H++v@++*+H++V.+W;+'&+X;+p5 v@+p5 Z8.Y;+Z;+`;+^9 P-+b< -[ ,%+U-+ >+.>++>+@>+#>+$>+ka %>+%T N3.;N ^T fY &>+3j f9.*>+*>+=>+->+$T ;>+>>+,>+df |c x[ 14 H: 5S.]Z.M[ u} ,++0&+'>+)>+)*+m +m +gd 3&+3&+!>+p2 rf ~>+ec {>+ec ]>+6&+^>+yp />+(>+_>+yp :>+1@ XW a&+<>+xP.[>+}>+^-+|>+ff 1>+@p 2>+3>+4>+6s.5>+6>+7>+df.8>+}l.;@.Fc.Eg.}r.n8.9>+KH cJ.0>+|K.a>+b>+c>+d>+e>+f>+= +g>+hV.CT.~ +h>+wh..s.Bh.tZ.6@+k=+i>+j>+w.+,t.k>+AX.l>+m>+5g.n>+o>+_z.6g.bL./9.9L.0M.KT.@Y.p>+0++q>+r>+s>+Q5.t>+u>+v>+h8 h8 wl w>+x>+",
"y>+z>+A>+Rm *e B>+C>+D>+,k Zb.E>+F>+G>+H>+&: V1 r0 I>+oX.6< s +..+0Y.l( tR.%`.Z_ E6.u/ W_ ]Z.Z_ c( ![ E6.oX.9< d) T^ :$ E6.s} k3 (% %: d) ', U# Z_ ..+J>+K>+L>+M>+N>+xo O>+X&+>m N% E-+MA #r P>+ut ]z Q>+R>+ut Np S>+F=+T>+U>+p5 V>+'!.d7 fz DJ QZ.w_ ~.+DJ R&+F++r5.W>+X>+Y>+Z>+s@+>&+]a -&+ *+0$+'&+H++`>+b2 v@+R  %5 F:.d7 o5  ,+B[ |4 #[ y} A9 .,+{=++,+@,+#,+$,+]5 %,+&,+*,+gL =,+>:.//.<3 ]+.-,+N$.;,+3Y >,+,,+mI ',+),+#5 L@+d3 ^9 B8 G: C;+=%+s +x#+|  p$+x#++;+!,+~,+D8 &-+>=+1&+Q1 {,+@;+=-+],+^,+/,+*;+Y++(,+_,+:,+<,+[,+f%+~;+},+|,+1,+2,+3,+4,+hs.5,+6,+k~ 7,+8,+9,+0,+a,+:~.ct.Zc.2y.b,+c,+y8.h#.qb.(@.O .Ym.d,+e,+f,+g,+h,+'M.i,+j,+F%+;$+kO.hp.^ +6W.nV.$a.nV.Y`.i.+k,+6;+l,+m,+n,+Mx Tq.}q.Ql.o,+p,+q,+VX.r,+'c.@T.yh.@r.$T.~ +s,+^ +t,+u,+v,+w,+:9.x,+y,+;c D5 z,+A,+B,+C,+D,+",
"E,+Vc |g ]f F,+/i ip G,+H,+I,+Zb.J,+hB K,+L,+M,+&Y ch N,+I} qA C: C=+(_ 6< u| )[ O,+o| M[ M[ zZ.N: d< ![ u/ E: @2 ]Q.r} E/ k3 b' N[ T^ =: X^ (_ QH o++F;+P,+Q,+R,+y=.S,+T,+U,+V,+Rp W,+MA X,+Y,+LA Z,+`,+ '+Kp GA .'+S>+{%++'+@'+#'+Jk.x`.$'+u@+r@+i#+i#++*+2#+8$+.*+H;.%'+ *+&'+ *+l} s@+*'+X>+%'+g#+H++X>+g#+='+p5 9$+e< U.+&6 io 5@ k3 d( t| f| q6 H8 -'+;'+>'+,'+''+$t )'+jU .N >K .6.*(.e~.4;.^>.T5.!'+!<.~'+{'+]'+dy ^'+/'+('+o] l3  2 5< }C L`.s- @= !,+_'+~,+m +_'+zk :'+0%+3&+m +9e D8 '4 <'+t&.['+#;+qh H[ 4&+}'+ua h& |'+J#+SV.1'+2'+3'+B~ (,+j0 4'+5'+$a.6'+^~.,@.7'+8'+9'+$e.@x.[A.Ou.9f.Vm.er.|o.u#.2@.`;.<r.Xm.BE.0'+a'+b'+4L.c'+d'+m>+A%+~ +$T.[g.-$+*T.e'+p>+i.+Ze.b-+f'+g'+Qf.CQ h'+;t.cJ i'+j'+k'+l'+m'+rF.;D.!9.ZP.~ +W +W5 |g.n'+o'+p'+q'+d$.xv.r'+D5 s'+a0 t;+t'+]f r;+u'+",
"v'+jq 9p w'+x'+y'+2t z'+C>+x*+A'+O&+B'+C'+D'+E'+F'+G'+H'+K>+I'+{Z.yZ.]Z.vP.]Z.{Z.)[ D/ E/ zZ.6< 9Y.C: 0< c( N[ 2< }& c( W_ C[ |] N[ j3 >: TO.%`.I.+h) G;+J'+K'+yh L'+9r.h-+M'+N'+O'+ I P'+Q'+vt Y,+]z I-+Op R'+O;+S'+T'+1w si U'+V'+W'+ah. ++t@+_Y.R*+D`.E2 ,&+V;+s@+dg T*+X'+ *+T*+{.+W;+`>+*'+Y'+]a Z'+Y'+*'+`'+'&+$!  ,+zb  )+.)+f| +)+n} y[ @)+-=+#)+i3 $)+%)+&)+ -+@T *)+`M ;N 'N fR =)+-,+-)+|D tO ;N (N tO -K ;)++x >)+2F ,)+{1 *5 ')+2.+L`.f) e! gd !,+]*+{5 ~*+!>+!,+D8 :'+))+W6 ;=+~>+!)+~)+{)+Y++])+db y#+0e #)+^)+/)+()+/++;-+z#+!++_)+:)+<)+[)+})+F[ |)+=>.1)+2)+3)+4)+5)+6)+fR.7)+Ww.+w.!l.:b.8)+9)+Uu.`;.0)+p%+Ym.p3./` fv.a)+$X.b)+c)+wZ.kY.XX.xN.xN.xN.d)+e)+f)+g)+2g.2g.*L Tn. z.h)+i)+j)+k)+l)+m)+n)+.C. f.. +9L.jV.|g.Db.9m.o)+&r p)+d`.q)+r)+s)+r7 f2 B,+A>+t)+u)+/j v)+w)+",
"%d ~A x)+6F 7k y)+x)+z)+A)+B)+^) C)+w>+D)+E)+F)+G)+be XZ.L>+): x[ C: }C {Z.N: Z_ )[ ^4 $`.I} N: Z_ C: d< ch M[  : 8M D`.j`.u: z/ u/ }@ G} l( c( 6< SG. : J'+8S H)+Yv.e++!N.i=+PT.I)+J)+K)+L)+M)+O;+GA N)+MA O)+P)+qo J=+!z Q)+*7.R)+S)+Wr.T)+-&+U)+w`.V)+W)+U)+T*+W)+<$ J++X)+ *+Y)+Z)+T*+t@+$2 Y'+Y'+ *+H++^0 s@+[9 `)+%3 +h b + !+N7 x2 l#+9$+.!+R=+M7 +!+@!++A #!+kL *,++T 'N zZ L` $!+%!+&!+>:.*!+L` Y,.%K YP Z4.$..>p #!+=!+Cv -!+&5 ;!+>!+,!+'!+>=+')+)!+]*+!>+>=+m +!!+)!+W++~!+ta gc j0 D8 ~>+!,+v8 5d {>+{!+{!+{>+Oq ]!+M7 dd ^!+/!+=;+(!+_!+:!+r+ <!+0*+M .[!+7'+}!+|!+1!+2!+3!+MF.4!+Pm.5!+@e.It.;l.6!+`;.`;.7!+Wm.Cg.Cg.8!+9!+0!+a!+/K.b!+c!+5;+>$+KY.E +d!+i.+e!+f!+g!+h!+f!+,t.WA.#s.i!+j!+k!+l!+m!+2u.Vq.5m.3@+n!+I +/`.xh.Wn.o!+p!+q!+r!+s!+t!+u!+v!+g7 w!+x!+&s y!+$o (j z!+A!+",
"A>+9p B!+%s C!+$o _j (j D!+(h E!+F!+23 y*+G!+H!+I!+J!+|_ J'+M>+L>+K!+D;+/$+I'+L!+|_ H.+I} I.+C: o| d< B: O: ![ :Y.uw./_ v: OZ._%+)^ b( r}  : O: 1'.M!+7] N!+O!+eK.P!+~1 Q!+kE #I gJ ;X.R!+S!+T!+LA P)+J-+lC vt %I U!+lo xx V!+S>+Aj W!+4@.ap.H++D@+X!+Y!+W)+Z!+`!+ ~+Y*+.~+X'+Y>+Z'+$2 Z>+Y'+X'+Y'+Z'+Z'+T*+Z)+X>+98 r~ zn )9 x2 4d @6 t@+|1 D8 fc 58 +~+@~+#~+$~+Z-+*W 0L 'N ]-.Q'.e9.%~+&~+*~+&*.RV ~-.<3 eY S'.Vz _X }>.=~+-~+;~+&)+>~+,~+^f.'~+)~+*-+))+!~+~~+{~+%++]~+^~+/~+(~+/~+_~+:~+<~+:'+<~+T6 ', ec ua [~+}~+X%+*;+D$+68 V=+db <*+|~+1~+@,+u}.go.2~+u9.;@.u#.3~+>h.4~+5~+6~+7~+8~+9~+)x.0~+Zv.fr.b,+a~+2@.df.wj.9s.b~+Ac.c~+d~+yu.e~+f~+g~+e7.6@+h~+e`./ + a.9-+i~+j~+k~+l~+Rn.g'+m~+n~+o~+p~+q~+r~+s~+t~+mp.)O u~+v~+m*+q>+w~+e`.x~+GH ZX.y~+z~+A~+B~+C~+D~+E~+{o %s |g ,f 2g /h F~+",
"G~+]f ^j 8p H~+$o 9p I~+G,+y!+J~+K~+L~+C~+g7 M~+N~+O~+P~+c] Q~+R~+S~+T~+U~+V~+P,+S_ D;+c@+c@+x-+J>+W~+V)+F;+e< 2  `< I.+N/ c( d +j`.u: -_ ^, !  @# g< X~+Y~+Z~+#r.o5./0.yh.o0.L7.IK ui.`~+ {+9w .{+vt +{+fJ L;+@{+K-+X,+#{+rM.ko ${+%{+&{+*{+={+c1.)| -{+.++Y*+;{+>{+,{+'{+>{+){+){+!{+X'+~{+{{+]{+!{+{{+^{+X>+X>+='+[0./{+]a Vh 1c X'+8: ;5 a%+7$+#~+({+_{+-!+:{+uL &>+3R ~-.<{+[{+vU f9.}{+|{+(=.%[.&>+&*.&>+<3 A` Y,..N `V 1{+kL >p oI 2{+3{+4{+5{+6{+7{+8{+9{+0{+a{+b{+})+0{+0{+$++^~+u9 ^~+J8 ^~+C7 !Q.9e Oq c{+gc k&+bo nh V6 ,4 wg d{+e{+f{+g{+f@.5f.h{+(@.9)+B4.i{+j{+k{+l{+m{+fR.sO.6g.kt.4D.qj.n{+It.Ou.dr.ls.|a.>l.[-+,i.L,.o{+6=+p{+q{+r{+s{+t{+u{+v{+w{+x{+7@+y{+z{+A{+B{+C{+D{+E{+F{+G{+H{+I{+J{+K{+L{+Sn.M{+PH Y$+N{+O{+f`.P{+Q{+R{+S{+T{+I_ v>+U{+E!+Nr mq 8k ^j 3p |g x)+_j V{+",
"~A ~A W{+/j v)+C!+/i o;+mq CD s;+{o (j X{+Y{+Z{+l*.`{+ ]+.]+o,.1< +]+@]+J'+W~+#]+o++V~+$]+M>+%]+T~+&]+%]+aX.y`.fk.*]+=]+h +A`.W.+c +m{ Nx -]+bT.Y&+;]+>]+9r.EQ.m0.,]+mZ.kE G +Gh.H +']+QM.)]+%v A.+hE UN +{+Y,+R'+#r !]+~]+X,+_j.Uk 4$+{]+]]+^]+/]+Ag (]+x@+){+_]+:]+.++9,.}T.<]+[]+}]+Y)+|]+>{+_]+}]+1]+2]+3]+s] Y8.4]+J8 5]+ *+u4 ^5 ~{+As 6]+7]+8]+9]+.A 0]+2Y ~-.3R 3R <@.p!.a]+=<.b]+c]+d]+e]+&;.f]+g]+Q'.<{+'N 5R O3.&!+h]+RV i]+`-+lI j]+dy Tw k]+*5 l]+m]+n]+o]+n]+p]+q]+9{+r]+a{+<~+l]+s]+r]+s9 |c ta V6 t]+.5 J7 t0 P6 }c T6 P6 @[ u]+q%+v]+w]+ *.|-+qb.;^.%e.x]+y]+z]+A]+B]+5K.pG.C]+Uv.D]+Zc.+w.^N.E]+<l.Dg.F]+EO.G]+[-+do.H]+Ym.Zm. 3.r%+I]+2b.w]+J]+K]+L]+M]+N]+O]+P]+P]+Q]+R]+S]+T]+C{+qd.U]+V]+W]+X]+Y]+Z]+`]+{9._h.z[  ^+.^++^+@^+!b q=+j9 (3 #^+$^+u)+W{+$o ^j G~+G~+s;+/f |g ",
"%^+3k x)+6F &^+^j _j ]f ]i *^+z'+=^+7k -^+;^+C)+>^+,^+'^+)^+!^+~^+{^+T^ o| L!+G;+]^+^^+%]+y-+/^+P,+^^+(^+Q: 0$+9M P,+|< |< L} 61 O@.%{+_^+F=+Bj :^+<^+C-+QT.D-+.O.i=+PT.@r.G +HC [^+W$+}^+Ek.iE |^+J)+J)+*I 1^+]z no (< 2^+LA 3n 3^+@&+|u.4^+5^+6^+7^+8^+9^+0^+MP wV W*+rt a^+[4 %'+}]+b^+c^+d^+N++<]+e^+f^+g^+h^+i^+~{+ ~+&9 j^+9@ ]U.k^+l^+m^+n^+o^+=*.3Y >-.#X f]+p^+a]+q^+r^+Q[.[^.[^.&(.>X A,.=<.s^+t^+-)+]_.>*.>X u^+2Y RV kU *X v^+V%.*,+w^+`w x^+y^+z^+A^+B^+TM 1b )!+C^+-6 D^+s]+s]+n]+s]+l]+E^+3'.N6 '!+Y6 |b }c l9 }1 61 F^+i%.x{+G^+-l.t9.H^+I^+J^+K^+Ev.L^+M^+N^+O^+P^+Q^+4~+R^+S^+T^+`p.U^+E]+8f.Pu.%q.af.dr.>i.*e.!l.(i.;q.m8.=l.kj.6f.b*+WI V^+yj.W^+*A.X^+Y^+Z^+P]+`^+ /+Zq.3u.RN../++/+@/+#/+$/+]$+%/+&/+*/+=/+-/+;/+>/+,/+'/+}h a| a9 )/+:k u)+!/+A>+&^+/h H~+0p $o ]f Mm W{+",
"~/+2p {/+^j s;+H~+]/+{o /j v)+G,+]f %s K~+^/+G,+//+(/+_/+vH.wl :/+</+[/+}/+|/+^w.1/+2/+NO.HP /Z.3/+P, 71.^*+|' sa.<1.4/+5/+6/+`F 7/+Bj =m 8/+9/+Lq Yv.P'+0/+Qp a/+4Z.b/+7m.Dt c/+6m.)]+d/+R8.uA.e/+f/+g/+e/+Y,+F5.Kp vt N;+no JC h/+V!+U!+i/+Cj j/+k/+l/+m/+/]+k/+n/+o/+p/+q/+Fn.r/+s/+t/+u/+F[ -[ F) N7 31 E} Y;+v/+w/+x/+y/+z/+e7.t-.A/+B/+C/+)/.D/+E/+D/+F/+XS G/+H/+T0.:f.I/+J/+<_.K/+L/+.b.[{+M/+7~.N/+O/+3R *(.>:.P/+L` h!.9@.(].+N $..Q/+W%.R/+S/+T/+3{+U/+$=+V/+W/+X/+Y/+Z/+Z/+`/+ (+.(++(+@(+#(+nL.$(+B~ %(+/>+)&+/2.&(+*(+g@.=q.X9.=(+do.5f.-(+;(+>(+,(+'(+)(+!(+~(+{(+](+^(+SE.zT./(+fs.]S.4y.+F. /.Tu.[!.It.tJ.Eg.((+((+8>+|a._(+:(+-l.u9.:r.q%+0*+w9.<(+[o.[(+}(+fs.4G.|(+1(+2(+3(+4(+5(+6(+7(+8(+1j E5 $%+9(+0(+t!+%%+a(+b(+f2 q=+a9 g7 D~+c(+'j ]/+lq _j u)+*e &s 2g /h x)+~A d(+",
"3k 1p {/+jl 'f ~j {j G~+x)+H~+e(+3k z)+(j $o G,+D,+f(+g(+h(+i(+v=+ ]+,k u;+j(+k(+l(+m(+n(+o(+p(+q(+r(+s(+Bj t(+u(+9^+%{+v(+:^+w(+7n ri J*+9/+ &+,m x(+y(+O*+z(+m0.!c.bG ka.A(+B(+P=+C(+D(+E(+iJ F(+G(+T!+H(+%G N;+`,+K-+lC vt I(+J(+;m K(+L(+wg.wg.|u.K*+ &+K*+Xu 6n I;+N/+XN.M(+N(+O(+|y.P(+Q(+R(+S(+T(+M} U(+V(+W(+X(+Y(+=].Z(+`(+yU ~X  _+Gf.._++_+=q.@_+O/+:_.#_+$_+%_+&_+*_+=_+'<.G}.g]+-)+(=.-_+,=.-_+;_+&*.{-..6.27.Z%.^(.>_+kU R%.xO (N %T :{+fU +T ,_+Zw Zw ,p '_+nI )_+W/+!_+~_+{_+]_+X5.^_+/_++f.d~+(_+__+:_+<_+L .[_+$+.}_+0e.|_+bo.Tp.,i.1_+tc.2_+3_+4_+_M.5_+6_+7_+8_+9_+0_+{E.a_+<!.b_+c_+Ig.Ww.Xp.[!.m9.}o.er.dr.tJ.((+er.d_+[-+O .<-+i%.e_+5>+-l.co.jr.f_+g_+h_+f` 3l.i_+j_+k_+l_+m_+n_+vm o_+p_+q_+r_+1j D5 D5 yl a9 s_+t_+6h u_+t'+v_+w_+y)+2t B>+_j %s /i ^i %d /j ~j 6F W{+",
"~j x_+1p 1p ,o z!+W{+y_+F,+6F 'f z_+J~+3g $s p-+A_+B_+C_+S+.D_+A'+E_+G,+y*+F_+G_+H_+I_+w>+J_+K_+L_+<^+M_+N_+'m ui O_+P_+EA 1S._f.Q_+T4.R_+S_+6n V!+O'+T_+WO.!c.U_+V_+<#+W_+$G o0.hE 3m.5G u~+X_+f/+Y_+A(+[^+*I Z_+P>+jJ lC M)+N)+Lp `_+ :+.:++:+@:+#{+#:+$:+lR.%:+&:+K(+Lk.*:+@&+L6 =:+|z.-:+;:+N3.8Z >:+,:+dR ':+j$.):+08.!:+~:+N<.{:+ct.]:+^:+/:+Y=.s#.(:+;/._:+#_+::+^]+<:+[:+}:+|:+<^.V,.=:.O5 c$.&;.O3.xO 1:+2:+D&..6.4;.^_.~=.Z%.1:+iR 3:+1{+*T _X uZ +T @K tO mL 4:+gL 2{+oO rm >)+5:+6:+7:+8:+9:+0:+0e.1_+a:+b:+c:+L .w]+d:+cf e:+*e.At.0)+N%.f:+g:+*..h:+i:+sG.j:+k:+~L.l:+m:+n:+o:+p:+Ww.Qm._y.|A.5y.pI.8B.ht.Vd.&e.cf ,i.2@.er.8>+.a.q:+$a.i$.<N i$.r:+s:+1a.1a.Y*.t:+Sp.u:+v:+w:+x:+y:+v)+J~+%s ^h z:+A:+g7 B:+h8 y:+C:+s_+Ir lq $^+D:+2g v)+E:+y!+u)+v_+lq G~+F:+%s s;+x)+*e Vc ,f ",
"W{+1p ;t )o Mm ]i jl iq 'f x)+z_+]i ]i G:+H:+$s I:+J:+K:+L:+M:+N:+C,+3k A!+$s Om O:+7k P:+Q:+R:+{X.&I &I lo 1w 1w hm.S:+*p.T:+U:+Bj V:+5n wg.W:+z.+X:+Y:+P'+*j.Z:+`:+ <+G +6G .<+2@+G(+V!.+<+T!+@<+#v 5G 2M #<+js vt Op Y,+%G vt P)+CH z.+{z $<+O;+`_+po 7W.+:+7W.>m >m N'+%<+7W.&<+*<+1w jE =<+O3.-<+c]+;<+><+H1.,<+=X '<+)<+6@.n@+o%.!<+~<+{<+]<+^<++*.@/.R}.{]+1l.-_+q^+/<+(<+U3._<+dp G}.&,.:<+<<+>X [<+zZ >X @}.]_.5;.}<+Q}.h!.}<+|<+H2.M5 sU (N 7Y P3.0L `M L` <T ,X fU !6.kU uZ #T ~'+1<+}!.z .Ft.2<+Jt.`;.0s.3<+4<+5<+}{.l2.}o.gr.|l.5>+>i.(Q 1r.6<+7<+7)+=y.8<+9<+0<+%E.$y.!y.a<+b<+c<+_9.4y.2r.4y.]N.+w.rJ.Au.d<+er.}o.7f.[l.Dg.:Q y8.Ng.e<+:r.-l.9,+(Q 6>+1r.f<+g<+h<+s:+f<+i<+j<+k<+l<+r;+m<+3p n<+|g o<+A>+/j A:+V{+lq $^+y)+{f (h L~+]/+v)+p<+s;+e(+y)+e(+/j 2p *e W{+^j Lm 6F 7k ",
")o 9p q<+,o )o Nm ,o Nm 1p r<+x)+/h s<+t<+u<+v<+w<+p..K. C)+J:+x<+x)+y<+z<+A<+B<+C<+D<+E<+F<+G<+F(+H<+I<+J<+K<+W:+K(+#{+hm.L<+!z G=+lR.K(+FA %:+G-+F-+M<+K;+7m.Bk.;0.*0.N<+o'+O<+r!+(m.Pq.7m.V!.T!+|E  c.iE @<+mC xt xt P<+xt fs tn.M<+I(+.:+Q<+Yu K<+X:+~]+R<+O;+Y,+S<+N)+c/+lC F5.T<+dw U<+V<+/^.W=.f]+5;.W<+:] )=.$(.X<+Y<+Z<+`<+Sg. [+{<+.[++[+yc.@[+[^.@[+%:.#[+O$.K>.$[+T[.W4.%[+K/+//.&[+/-.R3.<{+~=.BZ fR >X *[+G1.GB h!.@}.=[+I1.,<+xO -[+3:+ZV ~-.*X fR P3.*!+xO BZ kU XP Z4._{+;[+>[+c! .q.)l.6<+)l.d<+-^.,[+'[+)[++a.Sg.}!.![+~[+*e.Tp.b,+{[+E]+][+Hg.^[+!y./[+([+&N._[+:[+tO.TE.<[++y.pI.Hg.2r.(l.Ru.Tu.ar.=/.fr.Bt.[[+((+er.Tp.X&.u#.(@.^;+4=+tc.}[+Ou.9f.[!.Kv.Bu.Jv.7<+Qm.|[+1[+X4.2[+Wd 3[+,o ~A 4[+y_+H~+'f ~j 5[+2g Yc H~+AB $o zm A>+{o G~+%s !j E:+,f 2p {j 3k 4p F,+6F !j ",
"6[+CD x_+Mm Mm Cy z!+7F Lm @s /i VB n<+G~+7F 7[+8[+9[+kl $o 0[+ll d(+*o kl a[+b[+c[+d[+Wv eu e[+~O f[+RN c/+Lp rM.g[+T<+h[+;m hm.i[+>m j[+Q<+CU.N;+`,++:+k[+G(+4@+X +s&+q>+zx l[+Pq.m[+*0.n[+q>+'@+o[+JX nM q>+NA R!+p[+]J HK I+.q[+lo {z {z E-+U!+7W.T<+R<+ut O;+Y_+r[+s[+t[+wt N;+N;+u[+Np v[+-<.w[+x[+y[+:] A|.-)+z[+A[+B[+g#.C[+D[+E[+F[+G[+H[+I[+J[+K[+tf.ms.Zv.a]+L[+M[+=:.=:.M[+s|.@[.N[+a]+.b.!(.5R #}.K>.(=.O[+P[+N[+#}.D&.#}.Q}.fR BZ L` L` A` RV 0L eY h!.//.e~.Q[+S%.]_.+,.dU R[+S[+-D.1A.<y./l.3)+T[+Tv.U[+3)+;L.V[+W[+d<+,^.sc.qb.X[+1r.ar.Bu.Pm.Y[+Z[+`[+ }+9V.Qw..}+=z.+}+lU.@}+1D.YN.bf.Qm.ZN.rJ.'i.ao.,^.`;.8s.Ng.|l.=/.cf 8s.t9.#}+|_+|_+b,+i<+@e.uc.cf.rj.+w.$}+%}+sI.5B.&}+u'+6F *}+=}+%^+r<+,o -}+]f 3p ;}+/h z:+/i D!+w_+!f L~+s;+>}+ql Lm 'f ky /k 2p ,}+y_+nu ]k pl /t ",
"'}+,o Lm 1p Wd 7p '}+Lm nu !j hq 8p y_+Yc I~+.f v<+aq 'o Vc =o v'+$s dq lu  s )}+PJ.IW !}+YC ~}+Cx [E {}+FH &G R<+O;+vt LA u,+]z lo G=+J(+]}+E-+T<+-J ^}+j[+I)+Y,+i++/}+`~+@<+$v nC Y_+(}+Bh.4G $L _}+:}+gs &&+vZ.gs @v |M F5.S:+CU..:+IA <}+[}+G-+G-++:+R<+g;+L;+S!+}}+|}+1}+2}+3}+4}+p[+P)+dD.5}+6}+,<. [.7}+g]+&[+s|.W4.:<+_+.8}+9}+0}+a}+b}+c}+1_.d}+e}+2D.~i.f}+W4.J/+$;.g}+%;.h}+Q}.L[+i}+j}+k}+-,+{-.-,+=<.X;.-/.l}+l%.E|.**.;T ,<+%*.I1.R%.O,.Z%.!N =X T,.E|.m}+=:.GB -)+]/.]/.{_.4-.n}+ZN.@y.|S.ns.6z.}A.fs.o}++o.p}+q}+r}+s}+}{.|_+df.Km.f<+f<+Kv.Qm.FO.t}+es.u}+]E.t}+@y.]S._[+v}+1D.dC.dC.cB.@e..q.'i.Zv.Zc.wt.Y..w}+~[+X&.7f.|b.(@.x7.O .Fj.x}+xt.}!.8o.os.y}+0~+Sm.@F.0B.@F.Kn.z}+A}+^t %^+Dy B}+=}+)o y_+/f 8p z!+B!+y!+s;+]/+~f %s ]f 8k 8k 8k d(+w'+jl Dy m<+'f 1p 3k ]k ]i &x ",
"/t z!+Wd C}+;o D}+x)+x_+&x ,o m<+0p 2p ^h *^+!/+*e 7k C!+7k gq 1p Lm cq =o E}+F}+G}+32.H}+2m BC.F^+$v I}+g/+P<+J}+ut K}+ut Mp 2^+CH <}+L}+M}+W:+y(+@:+~]+N}+K(+LA R!+O}+P}+FH J}+X_+Q}+R}+_}+S}+o[+O{+T}+mM {}+=G U}+EH ]J =r GA h[+R<+r>+T<+z.++:+N;+P<+V}+M;+LA JK }}+W}+1}+4}+|}+1}+gs =G X}+Y}+Z}+`}+:] K4.w2. |+&[+/-.%/..|++|+@|+#|+$|+%|+&|+*|+=|+-|+;|+>|+,|+'|+i}+x[+K/+)|+R,.K/+K/+-<.!|+5;.]_.=_.N[+>:.W<+~|+{|+(=.]|+<3 XP fB [X 6;.U,.W=.6;.P` BZ %K BZ {-.X<.^|+&,.)=.V,.]_.&,./|+Nm.(|+sI.[y.+F..Q._|+:|+Dv.<|+[|+4_+}|+1!.tc.d<+i<+E]+x}+E]+||+qs.1|+b<+7B.Cu.!X.k.+Wv.2|++Q.Qm.pJ.|A.ZN.bR.ks.Up.Hg.P0.2y.d<+$a.X&.[l.X&.7f.F]+|l.s:+Mg.Pu.Fj.~l.i<+pj.3|+$}+5B.4|+5|+6|+7|+/o.Dy 8|+9|+0|+)x Wd a|+8p m<+Gv b|+dl /i ]f |g E:+&^+7k _j c|+bq y<+Uv )o /t Lm 1p ,o ]k p<+~o hq ",
"B!+3p @s @s Xv 1p m<+6[+m<+8p 4[+7k iq d|+,f H~+%s %s lq *e Mm Pm *o e|+f|+g|+h|+i|+H}+[. j|+k|+`F Zu <E I}+4w &&+l|+m|+NA Lp js n|+h[+!]+lo W,+H-++:+`,+y(+F-+P)+Op EH |}+l[+I}+2}+=G FH J}+vZ.o|+pC 5P p|+q|+JK kJ #v |M u,+IA LA Z_+P<+KA r|+g[+O;+P<+i++/z N;+Y_+o|+s|+t|+u|+v|+w|+|}+` +x|+u|.y|+t|.-:.A|.z|+:] '|+A|+B|+C|+D|+E|+F|+G|+H|+I|+J|+K|+L|+::+l9.M|+$[+=_+N|+i}+^_.K/+,<.w[+v1.O|+t1.%(.V<.D&.P|+<<+O5 5R >*.W<.fB Y'.w).U,.O,.%*.Z%.R%.U,.U,.O'.S%.m}+.b.S%.m}+f!.g}+)|+#[.Q|+J[+as.7D.5B.}z.Wv.T[+R|+S|+aH.T|++[+U|+6<+f<+Km.cC.Zv.Kv.bf.@e.Zp./y.V|+{E.o9.W|+xG.Qm.6B.MF.7C.YE.kt.Qm.^N.ar.Zv.Pu.bf.Ou.ar.1l.[l.u#.7f.|l.X|+;l.[l.c,+@e.!l.Zc.8f.cf.Y|+Z|+Z|+`|+qH.9M.aD. 1+.1+;o !x 8|+8|+;o 8t D}+]i z!+y'+'f %s ym 7k 6F 0p (h 8k kl 0[+~o z!+,o pl 1p m<+]k $s x'+B!+y_+",
"3p z!+]i Cy ^t C}+C}+Mm @s +1+y'+*^+7k B!+8p ^/+|g %s 9p 8k Lm =o Pv +s @1+#1+$1+TB TB %1+&1+*1+H)+V!.Y_+X_+U}+jJ LA FH FH ]z =r &G =1+S:+CU.<}+j[+-1+s[+R<+vt J(+u[+u[+5P mC I}+` +0w f[+hE W}+2}+;1+P}+*9.Zu X_+%r Mp Op 6G m|+js js %r &r 4w #r P<+lC >1+,1+!J {}+'1+)1+!1+~1+{1+]1+^1+DQ iB./1+y[+y|+W4.j}+L/+ |+(1+_1+~6.{8.li.:1+<1+[1+}1+|1+11+gt.cr.vU |@.=_.5;.i}+&f.21+&,.%;.P}.8g T[.31+.b.<{+h}+}<+~-.&>+Ur {=.%(.K$.>:.~=.Q}.&*.{-.Z%.~_.>:._-.I1.]_.~_.&;..b.y).S,.S=.=:.41+*!+51+@F.%}+GN.eB.dB.VN.up.61+EF.71+81+91+F]+$e.01+qb.d!+8f.)l.xt.a1+a1+b1+sG.c1+GQ.MF.Yp.tI.sI.Hg.d1+6z.d8.Tv.#x.e1++w.5!+Kv.qs.d8.Wu.d<+h<+af.Dg.1r.}[+((+Bu.ps.}o.Bu.9f.U^+sI._y.f1+uJ.7z.g1+5^+h1+.1+:p Vv eu Vv !x Vv i1+@s @s 3k W{+~i C!+/j H~+^j s;+$s j1+3p s;+$s Cy 2p 1p ]h Mm /k iq )o 6F ",
"pl m<+~t k1+Cy :p ~t l1+_t b|+^h x)+3p Lm jl 6F ]i y<+o-+Lm eq [t )o m1+eq Tv n1+o1+Mo )}+@@ p1+Dk.`q.VN Y,+mC LA s[+R}+2}+=r Y_+Mp n|+po CU.+:+N;+u[+r[+P>+LA 1^+s[+}}+` +P>+jJ kJ nC !J X_+I}+DQ mM 8w qP $v hE 4w UN ks LA N;+q1+P<+Mp `,+r1+2^+P<+vt P>+#r (}+P>+@<+s1+t1+u1+^1+v1+)1+w1+x1+y1+V[.%f.7}+#[.&;.i~.(8.N[+z1+A1+E1.f).B1+C1+D1+{h.E1+F1+%/.[@.G1+*_.(8.j}+|:+H1+^(.!_.!=.*(.I1+z[+^|+^|+P|+,<+<{+6;.J1+fR K1+O5 q|.;<+>X +,.s1.7{.)=.I1.eY ;T z|+//.g]+)=.{-.;<.D}.L1+]_./^.x1+'B.M1+!x.!x.5M./W.N1+~M.O1+]L.b1+Nu.P1+J^+7o.f<+d!+zu.Q1+L]+R1+S1+2D.T1+U1+V1+Qm.W1++Q.9B.5M.{N.em.bR.X1+;B.1o.-x.Nm.-x.-x.'i.Om.|o.It.xt.|o.Zc.oj.Lg.Bu.Wu.6<+Kv.Pu.2r.Y1+nI.Z1+`1+7|+ 2+jo .2++2+@2+^x #2+$2+Sv ;t k1+i1+6F 6F 2p ,}+B!+$o 'f e(+_j Vc 0[+,o ~j x)+a|+^t %2+/t hu )o nu 4p ,o ",
"7p a|+Sv Vv ^x Zr 0|+;t /t ,o o<+3p ,o {j z!+/h W{+/j 4p ;o 8|+&2+]t {t *2+=2+-2+;2+>2+,2+'2+)2+!2+~2+{2+5P Y_+FH r[+R}+pC 4w ;G 1P GA cG g[+G-+Np Y,+J}+]2+Mp '1+3}+r[+3}+kJ f[+LA wt js @<+p[+Cx ^z $v DQ p|+H<+%r no IA m|+f[+r1+MA vt js N)+N;+^2+R<+N)+R<+P>+Y_+4}+;1+/2+(2+_2+:2+7w <2+[2+}2+|2+V[.12+|:+(8.g]+@[.@[.22+rj.pj.%/.32+42+L|+52+62+|<+$:.X-+4Y &*.//.^(.^(.72+W=.A|.(8.V,.82+:] -,+#}.*(.fR -,+^>.E|.&!+92+02+<T fR q!.Y'.a2+`V V% U,.BZ )=.=:.W4.><+3R <{+b2+:^.$;.f!.m}+c2+bP.d2+}y.cs.dB.e2+`]+f2+g2+h2+js.Pu.Au.i;+Zv.d!+)^.)^.vt.|].Vw.CO./z.7B.Mv.gR.7C.2r.yG.5z.+w.Y1+d1+_9.]S.]E.7C.i2+YE.Dt.-x.8B.9o Pu.Bu.Pu.Xu.6<+|o.6o.Kv.i<+i<+8f.bR.Hg.2r.yk.DE.Ra.tH.j2+k2+l2+@2+m2+7p x_+Cy Vv Cy n2+a|+]k @s ,}+6F o2+n<+o2+;}+p2+ql Mm q2+,f Lm ]t r2++2+/t cq lu 8|+/t o2+",
"@s 7p Vv /x Cy s2+t2+3[+,}+'}+Nm /t 6F &x q<+W{+1p 3k ml ku A}+du zy u2+v2+]x TB w2+x2+Io y2+z2+A2+B2+C2+J}+hs /z |}+1P mC kC $I no T<+]z J(+g[+I(+Mp ]z #I MA q|+D2+J}+*9.U}+H<+vt H<+zx R}+5P 0w X_+=I =G PN p[+]J Op >1+Np js 4w %r M)+Y,+Y,+s[+r[+M;+s[+Y,+p[+5P q!+n=+B2+E2+F2+^1+^1+_2+G2+H2+C}./1+kc.I2+J2+K2+L2+q^+hc.M2+N2+O2+P2+Q2+R2+@[+/-.S2+Y-+T2+I1.j!.3R !_.^_.5;.$(.j}+!(.w[+=:.U2+^_.I1+V2+g]+><.G}.W% Q[+J1+RV .6.5R (Y [>.(].zZ WM XP E|.W=.-:.p^+&,.72+O3.>:.L[+U2+B&.><.W2+[y.SF.6D.+F.X2+=8.6~+V|+Y2+Z2+HX.Yp.WN.2_+`2+F]+:~.0:+ 3+>^.}!..3+pJ.7)+:|++3+@y.5y.|S.Cu.6D.5y.7V.@3+#3+:A.pJ.1A.hK.ht.8B.rJ.rj.{i.-x.YN.Zv.Kv.~l.t#.3y.8B.(l.4y.+w.J|.#3+J ++T.8L.$3+TF.%3+&3+C}+ s .1+*3+8|+Dy +2+3[+Xn 3k =3+x)+8p p<+G~+0p 2g {o ^j 6F -3+x_+Dy x_+eu uy ;3+~t ~t *3+=t &x ",
"hu r<+*3+gu hu Xv k1+,}+&x 6[+nu :t Xn ^t ]k 7F Uv )o Pm hu eq n1+>3+zy {x ,3+v<+'3+)3+!3+n1+~3+OA uM 5P yt nC nC <E FH zx 2P N;+=r fJ b/+&<++:+LA +:+G-+-1+s[+O}+{3+yt js X_+T!+I<+I}+<E =G W}+*9.iE @v X_+N<+EW <E Zu 1P =r Y,+PN %G `H *I P<+fs @<+3}+]3+3}+{}+{}+P}+~O _ +UQ tW ^3+/3+u1+(3+_3+`[.:3+<3+[3+U3.}3+|3+/%+13+23+N!+33+43+__.53+63+73+83+VM O3.&*.G1+{-.93+$(.W<+^-.G1+z|+=:.M[+w[+-:.#[.{-.I1+E}.^^.03+L$.>N =*.a3+Y'.9@.YP 'X /].U,.XP XP I1.]_.T[.%;.R,.!_.{-.s|.z|+82+%;.b3+uJ.7|+kR.6M.vd.Vw.WE.c3+9V.tG.d3+e3+B4.U[+Fc.0e.0:+f3+qb.Zv.Zc.]<.VN.1D.g3+T[+6M.;A.J|.4B.sI. F.CO./W.6M._A.pI.Kk.Wv.+w.Up.N2+8o.QF.^i.cf.pj.1o.ht.Ou.Bu.(l. /.|A.b`.h3+i3+j3+k3+l3+k*+UF.m3+n3+;t n2+!x 'x fu Tv o3+3[+a|+%^+d|+B!+y_+p3+q3+%s ~j |g *e Mm C}+Cy )x cq ]t Tv ~t r3+s3+ml C}+Uv ",
"l1+!x k1+!x tn Sv 0|+!x a|+Xv ,}+y_+y_+/t 'o +1+B!+t3+m1+u3+F}+v3+w3+x3+w3+y3+z3+A3+B3+C3+l1+D3+:` v|+Q}+yt (2+s1+J}+O}+DH 1^+DH 4w $I &I S<+S<+T<+IA 1^+P>+P<+js R}+/z wt m|+T!+E3+H<+vZ.q|+FQ 2S eJ 4G v~+T}+~O {3+<E 3G js 4w F3+@{+#r P)+]z Y_+/z @v mC _ +/z P}+s1+A2+Cx G3+H3+_2+H3+:2+_v.B1.|2+I3+J3+K3+L3+22+M3+B|+bf.N3+3y./:.=<.Z;.O3+hO P3+OV Q3+2Y Z%.5R ^>.I1.&[+R3+I1.-)+$(.]_.j}+U2+N[+S3+!_.!_.^-.T3+^>.U3+2Y a3+=X Q%.~-.~=.U%.kU [X S%.{-.fR ^>.J/+><.82+M[+%;.g]+x[+V3+%;.W3+DX.UF. O.4B.FO.1A.X3+dR.+T./N.3)+]<.P0.Y3+et.1_+Y*.ft.Ht.xt.Xu.D]+MF.+Q.Wv.Qw.kV.6M.XE.Z3+eB.kt.S1+{N.@T.FO.QF.Om.+w.+w.Ig.rI.P0.^N.Au.^N.0r.Pu.ao.uc.Pm.cf.pI.=x.Eu.`3+N1+dR.^z. 4+$3+AU.tH..4+i1+a|+)x +4+'x u2+@4+Vv .s ;t &x B!+x'+z_+#4+v)+3k ~/+'f %^+2p 7p +4+gu $4+'x %2+.s %4+.1+.1+.s ",
"&4+Uv k1+s3+*4+!x Xv #2+6[+nu 4p ,o &x r;+o<+=4+*e 9p m1+-4+%% ;4+>4+,4+'4+)4+!4+gu ~4+{4+z3+]4+]O ^4+^4+s1+w|+/4+1}+oC O}+At %r U}+Op u,+P'+K;+Np T<+N;+ut *G r[+Y_+H<+/z Y_+@<+mC mC fs .{+T!+(4+=G '@+N{+{2+1M kJ O}+=L *G gs %r ut vt 3n u[+T<+.{+js R}+W}+O}+o|+P}+_4+mM A2+:4+H3+uW <4+[4+}4+|4+14+O|+=:.4{ F/+24+34+44+54+64+74+;_.84+94+04+SP )/.a4+{-.H2..b.j!.+,.-,+]_.<{+^|+z|+]_.5;.82+^-.%[+K/+;<.&<.b4+*(.W<.Q%.&[.kU 0L ~:.P|+'A 0L {-.<3 h]+5R &>+&[+^(./^.,<.K4.c4+d4+:] e4+f4+zO. O.g4+@F.GN.@F.dB.3o./W.BO.ar.8o.EO.Y~+ 3+co.sc.ft.8)+Jt.e1+;|+h4+ks.W|+VN.pJ.cs.1A.#3++Q.eB.$5.b`.xG.P5.]N.01+.Q.QF.YE.9r.9o i4+Et.d8.8B.|o.tJ.6<+ps.8B.j4+Cu.gR.k4+l4+HX.fU.$3+m4+n4+o4+Np.l1+.1+fu .1+Vv ty p4+ry 0|+ml n2+hq 0p ]i J~+s;+Mm 9|+Lv Gm Mm 8|+%2+%^+*3+$4++2+gu Vv Sv l1+q4+",
".s .s ~4+'x ^x .s t2+)x @4+i1+C}+]k +1+/h p<+3k 'f 3p cq r4+s4+t4+u4+v4+w4+w2+x4+y4+z4+A4+B4+C4+/2+]1+D4+E4+5P (2+F4+s1+pC 9w vZ. c.SN >1+G4+(}+P<+N;+P)+I<+H<+{}+X_+FH /z DQ kJ iJ I<+f#+n!+UN T!+nC H4+T}+tM p|+o'+=L <E @v =G ]J 4w ut lC P<+P<+O;+l[+r[+JK _4+5P _ +A2+_2+I4+J4+FT (2+K4+L4+M4+N4+.[.O4+X[.P4+L3+*7.Q4+R4+S4+'b.L3+(=.M|+f9.33+O*.3R =*.O3.^-.w2.s|.g]+z|+%;.s|.{-.G}.s|.g]+'<.T4+U4+G}.Ed.^^.^>.-,+<-.V4+E|.**.[X Q}.+,.T,.0L .6.9@.`V I1.%;.m}+g]+^(.w[+~^.W4+'c `}+M[+c2+TF.X4+SF.(N.`N.,B.9C.sI.kt.Dt.]<./l.Y4+zc.Y.. 3+Km.8)+*e.yc.Z4+`4+Y[+]S.ks.Up.ks.+Q.1D. 5+sI.cs.;8.=8..5+]N./l.YN.#x./l.Du./l.+5+Zv.g<+<l.-x. w.w}+&e.xt.Xp.2r.@5+FO./W.#5+@}+#T.5W.cD.9W.$5+Np.%5+Tv ,3+&5+)3+*5+z3+=5+q4+l1+-5+6F ]i &^+7k q2+2p Vv n2+a|+/t ~t ~t Uv 'x fu {4+)3+w2+Jr ;5+>5+",
"Sv wy x4+fu m2+Uv @4+zy $2+,5+a|+Vv Xv Om ;o )o Lm Pm ku '5+0% )5+!5+Rv !3+]x p4+~5+BD {5+]5+y~+^5+:P 7w Bx q|+{3+5S -L #c.*9.}M uA.he.|^+T!+i++}}+vt Np /5+T!+zx =G I}+/z o|+mC *I ,1+*I gJ (5+_5+$v nC kJ =L q|+v~+O{+VN ^z wt %r xt Y,+r[+}}+}}+3}+3}+:5+{3+_ +Q}+` +Ex ^4+6J 6S 5S <5+[5+}5+y|.Bd.}4+#<.O|+z[+O5 E1.|<+C|.|5+Xu.I2+43+15+25+35+45+{-.E|.-,+e~.&,.z|+!_.82+M[+K4.^-.5;.W=.%,.$(.W=.W=.;<.S3+^>.%;.G}.-:.T'.^|+7;.Q}.55+E|.T3+2Y %K T,.)=.V,.j!.T[.%;.:] %;.U2+65+~^.,<.K/+75+aP.UF.iK.d2+2E.nI.kR.9B.6z.`E.`p.YN.85+Ht.d<+Dg.wt.$a.w}+}{.95+7o.Zp.kV.bR.6z.+Q.xG.|S.6M.HY.6z.Wv.c;+05+T[+Dt.qs.L]+YN.|y.6o.9o 8f.+q.8B.Ct.Km.`;.Km.Bu.Pu.Lm.i2+5y.5C.EN.EN.a5+yk.5W.d2+o4+n3+'3+B3+b5+c5+d5+~x B3++2+.1+Vv _t 3[+e5+iq 3k 1p f5+;o 1p ,o k1+_t eu 8|+g5+h5+)3+w2+i5+j5+x4+s2+",
"i5+k5+^x j5+l5+.1+s2+4v m5+~4+@4+Vv ;5+Wd k1+:t kl ml +s du n5+=2+v3+z3+z3+o5+~5+B4+p5+q5+r5+C4+6J s5+u1+OA DQ =G _4+AQ v|+[E /z lC g/+U}+t5+l[+u5+U}+uA.m|+f[+=G vZ.u5+#<+5P q|+f[+G4+eJ (4++{++<+%v v~+p|+T!+C2+ON mM }` &B f[+zx '1+/z J}+S!+ v R}+;1+v|+J}+v5+Q}+D4+:2+^5+w5+]O E4+x5+y5+z5+A5+B5+5}+V[.K4.C5+k}+D5+G1.E5+%/.s^+F5+&!+03+@..G5+H5+u^+I1.*(.|:+z|+%;.w[+T[.O|+N|+82+^_.-:.=:.z[+/^.-<.@[.%<./^.#[.%;.I5+X<.J5+Q%.~=.|h fB RV XP Y,.Z%.&,.^-.!_.G}.z|+L[+M[+:] `<.W[..[.j}+K5+iV.L5+UF.M5+MQ.'B.,B.fC.gK.[f.^N.YN.}o.wj.8)+ 3+sc.|l.N%.g<+0r.$e..3+=x.9B.[z.Dt.6z.JT.OF.pJ.AO.[S.;B.VN.>y.1A./l.Tu.A4.bf.Tu.P0.6o.8f.Nm.bf.&e.xt.Km.@e.as.7C._y.HY.a5+N5+|++O5+2m.-Q.,N.P5+Q5+Ds o5+R5+S5+c5+yy T5+Mr $2+s2+~4+U5+r<+y_+Lm 4p r3+9|+a|+x_+%^+/t a|+w2+Tv V5+W5+Sv X5+gu *2+>3+",
"C3+0|+^x hu !4+*4+0|+X5+,5+.s ~t Y5+Z5+Yv nu Xv `5+Zv &o j|+ 6+w3+fu Tv Tv .6++6+c5+@6+#6+$6+%6+F2+&6+6J *6+5S AQ /4+o|+pC GH ]J %r g/+At =6+T!+@v #<+ui.$G ,1+H<+X_+G4+5P JK *G JK $I Gb.kv.-6+$v -0.v~+;G =G CQ |J 3G z-.+I CQ kJ {}+ v pC !J R}+5P _4+hs nC P}+;6+/2+>6+,6+^4+B2+0w qC '6+)6+!6+~6+{6+]6+O}.g]+W<+Ed.J6 >X k}+_1+G1.~=.^6+H5+=X /6+=[+.6.E|.P}.'<.(6+82+82+z|+(6+T[.=:.W[.G}.=:.y|+O|+@6.w[+H}.K4.h}+_6+G1+<{+T'.Y'..6.a3+gY zZ RV {-.m}+g]+,<.^(.5}+(6+M[+%;.O|+,<.:6+;<.<6+CT.DG.Rq.Rq.M5+sH.,B.TF.e++eK..Q.eK.Ct.:b.3y.Xu.cC.|o.9)+2_+3y.Uw.Lm.W1+5M.Dt.pI.ks.kV.kt.o9.7V.VN.MF.yG.GN. F.zG./l..q..q.Up.QF.Pu.8o.)l./l.Pu.Pu.Pu.T[+CO.Up.X3+Z3+RN.dU.|W.mH.[6+Ve.d2+}6+|6+16+u4+#6+'f m7 /i yy p4+Jr s3+i1+'}+CD Mm 26+x_+^t 7p ;o x_+Vv Mm 'x p4+xy B4+x4+~5+z3+36+x4+)3+",
"Mo *4+'x X5+)3+46+w4+0|+s3+E}+l5+56+*2+66+76+iu Qv 86+96+Pv Uv s3+c5+w2+{4+~5+b5+o5+06+a6+86+b6+c6+d6+e6+f6+)S QA :5+^z 9w pC zx Zu At *I g6+h6+I}+nC ;X.'@+=6+o|+W}+wt 3G mM T!+$v eJ i6+j6+ie.|J ;6+kJ {3+mM N<+k6+G/.l6+N<+iJ =G {}+GK m6+g/+wt Zu Bx o|+o|+P}+D4+,6+n6+,6+XN :2+o6+XN p6+q6+L4.r6+H2+L5 -<.82+;<.]_.R3+s6+^-.O}.s|.]_.^-.*(.5Y xO ^6+xO ,<+Q}.G1.'<.82+'<.w2.82+I}.-<.N|+,<.O|+31+t6+#<..}.t6+Z<.A|.%<.E|.6;.T3+E|.&[.zZ YP RV *X Q'.I5+-:.G}.,<.Z}+65+-<.O}.w[+V3+w[+:] u6+zO.2m.'B.#F.cD.BG.#F.;Q.hK.^E.ZN.WN.<l.Zv.Jt.Km.d8.3D.Pu..3+2_+Vw.xG._y.Eu.Vw.]S._y.kt.#y.]N./N.pJ.xG.v6+6M.1A.3o.Hg.5M.]N.WN.YN.rJ.8B./l.)l.-x.rj.+w.6o.qs.4B.d1+yG..y.>s.lJ.w6+)X.x6+`1+y6+z6+A6+k+ C6 _A B6+d5+)3+{x C6+X5+,5+(p 7F 1p 7p ml ml k1+6p ~t r2+g5+)x ]x >3+y3+{4+_A o5+C6+1A {4+",
"D6+'3+b5+46+]x )3+sn Tv $2+Sv 46+ku Wv E6+F6+G6+3w.H6+3A q5+n1+$4+>3+p4+06+)3+z3+]5+I6+B4+#2+S5.6S <P n6+>6+5S t1+t1+Bx DQ *9.%v gs u5+vZ.kJ L$+T}+o|+g/+g/+H4+q|+Bx kJ H<+*G ;G 2S @v :S Fh.6m.J6+K6+B2+XQ EW 2M [q.|J |J kJ $v DQ *9.Ba.js 2}+2}+Q}+zx X_+2}+OA u1+L6+M6+XN ,6+*v 2P 1P N6+O6+P6+t1.w1.v1.y|+-<.49.h}+w2.8g U[.Q6+93+W=.s|.Q}._-.>X Q}.E|.*X ,<+D&.w2.$(.D&.i}+T[.M[+X[.-<.O4+j}+82+82+I5+R6+<{+G}.O}.!(.Ed.-:.&<.^>.<-.U'.[X 5R BO 5R &[+<{+)|+%;.I}.a$.U2+'<.G}.S6+-:.s|.T6+-Q.BU.sH.iK.oI.z[ xU.d2+#F.GO.Xv.:E.ms.Tu.}!.Q1+.3+U6+Xp.8B.Ww.d8.pJ.4B. 5+5z.VN.JT.[E.kt.CO.xG.+Q.9C.0L.,B.9C.5M..q.5M.5M.}f.ar.8B.-x.Ru.0r.8B.Pm.Lg.Uu.d8.FO.yG.pJ.xG.[H.V6+`n.}M.&:+W6+X6+Y6+W{+b5+D6+Z6+D6+c5+z3+o5+yy `6+>5+;5+6F 7p Mm 1p eq %^+)x uy {4+&5+Vv )3+c5+)4+_A w2+B3+C6+)3+36+",
"~5+ 7+.7+`6+(A b5++7+C6+x4+~4+5v s3+Wv G6+@7+w>.#7+$7+%7+w2+{x Tv b5+z3+c5+o5+_A &7+*7+=7+Xn -7+;7+6P >7+&6+CT  Z OA /4+*9.;G ;G @v 3G %v 9m.E(+v5+5P ` +vZ.l[+X_+=G wt T!+@v (4+o[+-6+N<+Y +q|+8w RA :G PH TX !: Of.z-.mP 9w T!+q|+fs mC g/+2}+,7+ v wt O}+~O XN 6P ,6+WQ (J RA GK '7+:2+6J Np.{6+)7+Bd.t1.7}+.}.!7+~7+-:.t6+w[+@6.{7+W=.Ed.%<.<-.{-.^>.Z%.I1.{-.-,+$(.82+%;.]7+V3+I}.T4+O|+(6+W[.@6.H}.'<.=:.Q6+Q6+-:.V3+I5+-:.93+I1+GB (Y ,<+WM &*.{-.z|+)|+12+K/+^7+]7+W[.-<.;<.^_./7+V3+(7+M5+BU.)N.zU.0L.SN.'B.vU.9L.WS.tI.5z.ht.)l.}!.,(+T[+7C.Y1+_7+cs.W1+cs.~C.kR.+Q.xG.5C.[z.{N.5z.7V.#y.xG.v6+0L.HY.dB.9B.cR.pI.3D./l.-x.Yv.]N.8B.+q.8B.pI.cf.Xp.xG.9B.#3+:7+>s.<7+[7+}7+X:+|7+17+]X. 7+{x B3+y3+_A :A B3+27+q4+X5+t2+37+47+57+=t Cy ml 3m Sv Sv fu fu c5+~5+46+yy .D d5+_A NB D6+#6+",
"sn y3+@q k5+]x p4+CE +7+x4+=5+o3+du s3+Yt oE :$ D= s4+67+w4+TB k5+!3+b5+{4+.7+_A #6+77+87+o3+W`.:J 3V 97+GQ _` RA 'S {1+#c.=G 0w pC X_+-6+07+h6+{3+5P I}+P}+nC js T!+$v =G |^+  +(J WN JX JX kJ VN t1+%Z a7+1J @Z |J ~O *9.@v |` 6w &&+NA J}+hs 0w $v t1+hs o|+O}+qP WQ C2+mM t1+,6+:2+4S 4S [4+b7+c7+dg.P[.^7+d7+.}.:] W=.-:.e7+K4.A|.&<.T3+T3+#}.{-.^|+V% G1+]_.<{+{-.z[+O|+I}.U2+A|.82+-<.N|+:8.`}+W[.t1.h}+'<.I5+;<.:] D}.!7+s|.#[.T'.T'..6.)=..b.S%.g]+z|+/^.H}.X[.J/+`}+`a.f7+,<.W4+I5+g7+Ve.0P.)N.CT.MQ.#T.yU.]9.m0.$5.^W.BO./l.]N..q.8f.]i.g4+QN.+Q.1D.!x.[z.t}+h7+kt.;z.[S.dB.zG.7V.jR.;A..F.;A.JT.,B.P5.5C.dK.kt._y.[z.Yv.Pm.-x.`v.]l.d8.U^+]i.Nm.X3+1A.#[+i7+j7+nH.AU.zU.CT.k7+JY.>T.B3+l7+D6+l7+m7+n7+Mo )3+o5+46+k5+tn o7+Om a|+/t pl Mm Sv uy fu Tv _A z3+ 7+c5+)4+06+b5+y3+ 7+B3+",
"p7+a6+@q q7+Mo Mo $2+{4+!3+X5+l5+eu o3+%4+r7+s4+S@ 76+s7+v4+v4+c5+>3+b5+{4+t7+u7+v7+Ds w7+x7+*1+<z F5.zQ 6S FW {3+oC 8w AQ bk I}+9w kJ q|+o'+D4+zx O}+T!+nC u5+T!+g/+'@+v~+%L Ao.pP Ao.nM /4+DQ RA C2+Ex &Z eS XQ 3S PA jW 0w (z ^z U}+*G 3G ]J jJ X_+mM nC DQ _ +H3+t1+H3+:2+Ex B2+GW ]O 6S [4+B5+y7+_3+eg.L}.|c.@}.V3+,<.u|.f7+P}.'<.Z<.^-.^_.s|.K/+]_.Q}.xO z[+W4.W=.]_.=:.R3+z7+(6+82+Z}+&f.I}.H}.I5+P}.%;.P}.;<.A7+;<.h}+(8.&<.p1.T,.^>..6.=:.e4+!_.W4+-:.T[.^(.=:.i}+w[+A7+A|.y[+u|.K4.B7+Ra.&Q.%T.vU.jK.MQ.;Q./9.1E.l5.[z. F.Dt.6z.4o.Xp.]S.#y.5C.6M.-z._y.{N.6B.JT.{N.7V.XE.dB.5M.{N.{N. 7.oJ.Kn.1E.nd.zG.~X.C7+{N.,B.a/+!x.9B.OF.J|.Xv.Y1+5B.YE.5y.5y.1D.#T.eB.AO.AU.KT.vU.0P.D7+1@+E7+F7+{4+@q b5+n7+)4+G7+Mo  7+57+XC H7+]k nu l1+@s 6[+C}+fu $4+W5+'3+F7+I7+X5+QB p4+p7+ 7+,4+77+p7+",
"J7+,4+D6+.q G7+ 7+Z6+8I '3+W5+z3+)4+K7+L7+M7+N7+O7+0% P7+Q7+'3+!3+)4+y3+q7+q7+uG R7+b5+#6+S7+T7+U7+V7+W7+GT %Z _` RA }P =L ^J VN @v o|+hs _4+o|+|}+g/+EH kJ #v =G JX v~+Gb.lM TH 0M X7+Y7+XN Y7+:G 6 .iV Vr _z OA &Z |` /4+FQ q|+pC ;G <E %v H<+4w <E O}+_ +UQ t1+}P mM mM ,6+B2+,6+Z7+`7+GW  8+.8++8+Z[.:6+B}.@8+(6+`a.A7+#8+S6+t1.$8+!(.^_.dU %<.(8.H}.Q}.W=.]_.<{+(8.V<.O|+-:.w2.V3+U2+.}.j}+%8+Z<.z7+e7+w2.'<.@}.e+ R3+*<.p1.e+ s|.s1.E|.-,+z|+82+@[.O}.:] (6+T[.&8+^7+(6+5}+,<.*8+y|+Z}+=8+pd.KT.aP.&Q.jK.. +m0.`N.;Q.dB.Wv.BO..Q.5M.Hg.J|.!x.>y.HT.-8+xG.-z.xG.,z.~C.dB.xG.AO.VN.pJ.1A.6M.1E.VN.;Q.;8.5M.vh.xG.GN.dP.+Q.kR. F.|E.6z.YE.Nm.5y.|S.Y1+qH.6z.pJ.v6+;8+;8+zU.'B.'N.NT.hV.>8+,8+l7+'8+ 7+y3+zw .q Jo )8+Vt x4+Y5+!8+Uv hu 3[+Wd =t =t l1+-5+s3+>3+Tv w3+b5+~8+_A .7+{8+BD ]8+B6+",
"D6+^8+l7+/8+Mo b5+C6+Io D6+Ko b5+Io !3+j|+`p =% !4+s7+'3+ 7+=2+y3+y3+.q )4+x2+,4+(8+ D uG _8+:8+aM <8+~O v~+uC :2+(S }P ~O wt JK o|+mM =L $L q|+uM NA 4w T!+=6+v~+pP L$+'@+kJ A=.&U Rf.[8+6 .6 .XN p|+k6+WQ &Z PH _S t1+8w FQ XQ GK 1P }M js o|+Cx R}+3V {2+5P mM Y7+Ex 3V 7P WQ YQ 1%.GW }8+|8+18+28+38+:8.V[.y|+X[.48+58+68+p|.93+78+E}.D&..b.s|.I1+V<.g]+82+!_.W=.=:.=:.'<.82+;<.@[.R3+@[.'<.R3+z[+&[+ [. [.D}.I5+!(.h}+88+7;.G}.Dd.g+ e~.%;.W=.D&.e4+%<.(8.O|+y|+6;.]7+A7+P}.v|./1+N4+C}.=8+jV.98+XX.vU.pd.KT..F.9L.=A.dB. F.|A.|A.YE.Nm. F.kt.FO.{N.#5+08+B.+.y.t}+dP.VN.jR.{N.|A.VN.;A.6M.@T.;A.=8.OF.XE.jR.bP.$5.<6.nd.,8.GN.^W.NF.4r.YE.a8+a8+|S.|S.a8+v6+cK.od.9L.KQ.aP.KQ.BT.vU.b8+c8+b5+d8+F7+)4+(A e8+ym j5++7+~4+f8+#2+Xn tn nu ml a|+)o du fu b5+o5+R5+b5+b5+,4+uG p7+uG q7+]I @q ",
"'8+D6+l7+g8+Ho Mo F7+D6+'3+BD ^8+N7+h8+5v i8+j8+du $4+Tv *2+k8+o1+)4+x2+}L 16+l8+m8+x7+2v n8+o8+;U TT )t (m.XN p8+SX 3P /4+q|+/4+_` {3+VN _}+T}+5P 2}+p[+/}+=G '@+q8+T}+r8+o[+L$+(J `C.sC s8+JX uM 6 .8w ~O -L Vr O{+QA (` z-.sM qP ^J `7.'1+C2+nC q|+5P XN DQ OA Vr 5S H3+FW GT &Z t8+u8+v8+|8+n2.dg.w8+x8+d7+e7+t1.$8+(8.t1.93+t6+W<.I1+*_.s6+^|+K$.P|+q!.s6+N[+Z<.O|+-:. [.&f.-:.H}.](.-:.R3+$(.@}.w2.W[.P}.y8+w[+D}.(8.&<.P|+Q}.S3+%<.]_.;<.93+%,.w[+U[.g]+j}+21+j}+L5 D3.82+w[+I3+w1.z8+A8+9W.hV.3P.xN.q0.uU.cK.*Q.<6.9B.HY._9.<6.Wv.FO.[z.6z.]S.xG.,z.+Q.'y.HT.!9.B8+'y.dP.7V.jR.6M.aP.KT.#F.JT.dK.{N. F.HY.7V. F.[S.pI.+F.9C.hK.^E.Wv.!x.[z._y.'B.eB.C8+2^.jR.-Q.KQ.D8+E8+^9.F8+'N.CT.G8+&7+.q Lo _j r7  7+C6+Mo G7+k5+l5+l5+:t Cy .s a|+gu /t 46+z3+{4+Mo H8+)3+)4+Ko uG .7+@q /I q7+_8+",
"I8+d8+J8+p7+)4+oG sn K8+2v oG Jo F7+4v !4+C3+=2+n1+n1+zy C3+D6+@6+y2+L8+@- Ko uG M8+x7+87+N8+F@ *k.P-.YQ a7+O8+Y7+)t SH P8+/4+7w OA B2+uM z-.T}+/4+|J DQ vZ.t1+;6+s8+|J gV 3V 3V EW 07+nM Q8+i .-L B=.iV GT :G UQ =m.KK sM |J q|+3G ZH vZ.q|+lJ kJ GH q|+DQ _ +;6+UQ /4+&Z p8+`7+o6+R8+}8+^$.S8+jg.T8+U8+m: %8+ [.X[.A7+z[+D}.@[.z[+p1.T3+V% 7{.T5.K$.fR tZ +=+Y4.%(.D5+s|.P}.R3+V8+@[.j}+h}+^-.<-.W=.:] &f.X[.j}+R3+H}.4{ W8+88+^>.z[+:] !(.#}.w).@}.&f.%f.z|+g]+(8.@[.w2.]7+]7+J/+O4+ b.X8+K5+>t.Y8+^ +Z8+iV.&Q.. +Q!+9C.6M.6C.[S.`p..q.1A.`6.[z.FO.a8+a8+jR.t}+`8+mH. 9+>z.'y.HY.mH.=A..y.&Q.-Q.BT.^9.@T.DX.dP.7V.lt.1E.[S.kR.9L.[S.YE.YE.dK.{N.Z3+eB.GN..9+/W.;A.cD.zU.ZP.Xe.XX.+9+@9+#9+$9+%9+&9+*9+n<+Lo Ds XC Jo !3+$2+q4+~4+f8+^x C}+y4+eu 'x )3+w4+'3+w3+>3+Z6+]x B3+@q =9+l7+v7+.q -9+",
";9+>9+m7+2v /I 9r ,9+Ko rn '9+t7+#q Ho X5+w3+)9+x3+u4+TB x4+)4+!9+~9+x7+{9+l8+_8+{9+]9+^9+/9+JI.(9+i .}8+u8+GQ _9+5J SH {O :G uW uW B2+on.(J :9+DQ <9+q|+nC 9w pP r8+O{+mM NK [8+YN oP oP {O K6+GT a7+<P RT uC xD sC 3G /4+9w /4+FQ =L mM =G hs W}+DQ D4+_ +GT {2+{3+{3+t8+Ex YQ YX sP 6S [9+}9+|9+n|.19+y|.29+L4.O|+~7+39+z[+82+49+X<.59+_-.5R 7{..6.<-.{=..6.Q}.$(.%(.W<+82+J/+:] 5;.N|+12+-:.G}.J/+:] P}.X[.f7+X[.U2+69+}<+^-.]_._6+^>.z|+&<.<{+{-.w2.](.w[+^(.z|+,<.72+79+C3./1+|2+v1.89+99+{9..Y.tZ.nV.I +2m.uU.`n.jR.~C.yk.6C..Q.-x..q.!x.5z.pJ.JT.kR.xG..5+tG.FN.VS.;A.(9.7V.@T.FN.mI.q.+cK.yU.gp.~C.2m.KT.-Q./9.HY.[S.+F. 7.nd.yG.5z.@T.B.+a8+a8+2E. 5+Z3+mI.2M.09+Ve.ZP.BT.@Y.a9+K$+b9+c9+^8+F7+iq H~+I7+4v d9+}m 2m 1A s2+q4+.s .s ^x ~4+Uv fu eu $4+1A )4+1A &7+w4+p7+@q ~9+'8+zw .q ",
"GM e9+}L Ko qG c9+9r K> 1m uG B3+f9+w4+Mo 3v '5+g9+x2+#6+s4+Q7+h9+i9+j9+k9+{I J> l9+m9+n9+/9+o9+<n.p9+q9+WX RT XK [8+i .&Z uM Vr WQ XN mP ~O WN /4+nP Cx {3+O}+q|+EW JX JX [8+r9+t8+!O *U XQ 5J i .}8+A..)t m..z-.*U oP nP FQ VN 1M 3G DQ =G I}+D4+nC ~O W}+H3+]O ,6+YX r9+s9+MQ t9+u9+;U %Z v9+jg.w9+x9+x9+39.y9+P}.93+z9+@[.41+A9+J6 ^-.~=.^>.^>.I1.^>.^>.^6+W=.]_.'<.j}+-:.O}.V3+&f.v1.V[.:] '<.j}+-:.v1.I5+]7+u|.d7+e7+@}.(8.W=.t6+g]+:] @[.g]+(6+82+O|+i}+y|+O|+W[.N|+B9+`<.`[.O4+N|+P}.C9+:#+wZ.y.+sZ.]W.Ve.9M.JT.MQ.MQ.DX.,B.dK.1A.[z.[E.5z.5z.xG.+F.7V.gR.AO.3B.wG._S.HY.$Q.KT.nJ.3P.~c.Mn.kE SN..y.r0.&Q.0M.KT.2m.zG.o9.zG.5B.}y.`N.bP.FX.D9+aP.9M.M5+zU.HY.E9+F9+_@+M$+CT.~ +b-+2g.G9+H9+EE m7+87+.D I~+I9+sn J9+j5+Sv 46+=5+W5+@2+k1+y4+~4+46+>3+)3+b5+)4+w4+=9+d8+@q S7+K9+w7+.D _8+",
"L9+p7+K9+>9+rG uG GE Vt 1m D6+^8+M9+1A b5+`C N9+'2+RB O9+h9+)B W& k9+x7+(I P9+Q9+R9+/9+S9+T9+U9++c.G..L@.g .!S ,` i=+{$.SH Vr k .5S }'.V9+yt  v A2+7w DQ mM nC q|+8w O{+XQ JX uC 5J B=.B=.>U 7P t8+}8+ST ,` XK 4V M{+*O sM ~O VN Pr.3G RA C2+pC IH nC H3+K6+t1+&Z B=.r9+QT gV bS s9+W9+1%.z;+X9+Y9+T8+s2.}c.'c  [.`[.Z9+A|.@}.K4.e+ G}.G}.93+^-.@[.W4.dU I1+^-.^-.@[.|:+U2+@[.12+H}.eg.D3.y|+J}. [. b.w1.L5 I}.`[.`9+@6.@6.H}.~7+41+ 0+I1+-:.&<.@[.X[.=:.,<.U2+H}.O|+]7+]7+ [.N[+14+Y[.29+L5 .0++0+KY.}g.IY.{c.DU.. +X3.{9.bL.iV.~1 .F.|A.YE.{N.-z.yG.#y.vG.#y./W.{N.B8+JT.SN.+3+@0+_S.-Q.1M.r0.nJ.VS.$Q.lO.p.+BT.9W.%T.jU. 7.QN.9C./9.1E.xG.Ih.#0+tp.$0+q.+nH.AU.%0+&0+>N.ZP.BT.8V.~ +*0+2Z.=0+F7+l7+x7+L9+-0+^8+k5+0p C!+%5+!3+%5+K7+k5+I7+Uv s3+x4+k5+l5+Mo Io ;0+'3+Z6+>0+uG ]L ,0+uG GE &7+",
"HE GM '0+_8+]I m7+2v CE Lo )0+Ds I7+'3+{4+n1+w4+3v &7+j8+!0+~0+{0+vw w7+n9+]0+]0+_I ^0+/0+zw (0+eJ _0+qS u8+,U Y@.RT &&+eS SH BQ ~O sM X_+=L DQ $L mM  v H3+J6+C2++v.8w YN B=.nP QT }8+}8+W9+:0+s9+>U *Z g .6S QT )t m .(J _S AW ZH :9+OA 7w 9w DQ O}+H3+_` DQ <0+EW <8+t8+4S >U |%.qS [0+L..}0+|0+10+20+w1.j%.`<.Y[..}.|:+@8+t|.30+,<.4{ D&.%;.Ed.6;.<{+.6.G}.%;.](.'<.O|+Ed.40+X[.L4.`[.:8.%f.w1.50+O|+31+O|+@8+7}+P}.V3+M}.60+:] !(.70+Ur *(.^|+V<.(8.W=.J/+|:+|:+v|.29+7}+N|+I3+80+88+.[.90+H%+5;+]`.]`.@Y.[g.yh.hV.~1 yk.DG.oJ.DX.=Q.dK.pJ.AO.1D.{N.00++}+t}+JT.@T.JT.@T.(9.pZ.iR.3P.;$+%Q.KT.lO.,s.qd.M +^c.-$+$G ]9.Ve.DG.bL.dB.hK.hK.a0+[H.b0+c0+hU.d0+|M.e0+V$+CT.kO.$T.8V.i.+e;+f0+=0+]I =9+S7+g0+tG @q q7+b5+.q 3g z)+Mo h0+hu s2+'x 'x x4+Sv D6+z3+)4+)4+Mo H8+m7+=9+_8+>9+6r l8+.D ",
"uG 5r tJ i0+=y (I ^I l8+8r sn Lo .q Ho  7+8I F7+j0+,2+RB e; V& k0+l0+]9+E. m0+0% n0+Le.o0+p0+q0+SH r0+T+.}8+T+.bS :` Vr oP uM D..3P /4+9w GH hs o|+JK q|+8w {O C2+Y7+YQ .R )t _` mS I..r9+qS qS L@.>U p .^$.QX aM ZN z-.z-.VK U7+=L =L WK mP ~J W}+VN EW mM JK XQ YN 5J CW %O }8+eP ,U z;.XK s0+(j.t0+u0+n|.v0+20+L}.48+w0+x0+5;.h}+L2+e+ H1.#<.I1+^-.3R I1.5;.I}.O|+@[.(8.W4.w2.R3+I}.y0+D3.+6.z0+t1./1+D3.X[.:6+J}.A7+@8+@6.y8+;<.78+P/+-,+E|.!=.%;.^_.](.%;.J/+'<.12+J}.D5+O4+A0+b7+P[.B9+B0+_h.0m.9m.C0+{c.XX.hp..O.z[ KT.SN.+ +kR.!9.Vw.xG.AO.#y.td./N.X1+/W.{N./9.Ra.^B.=A.$Q.oZ.:#+9`.D0+*j.^c.^c.g>+)C.Ra.Mn.TX.=Q.]9.^9.Q!+~X.jR.;D.lU.E0+F0+GY.UX.6C.&0+gU.hU.2M.V$+:S.C%+t,+G0+H0+c8+GM S7+i9+I0+HM p7+]I d8+J0+YC `C 3v -5+s2+*4+5v s3+X5+)3+v4+w4+)4+g8+L8+_8+K0+Ko K0+m7+6r _8+!0+",
"tJ vw (I L0+J8+M0+GM >9+N0+l8+1v qG O0+I7+j5+N7+]x P0+Q0+h9+;! P9+'4+k9+3I ^9+N8+R0+S0+T0+U0+V0+_h.f/+W0+AH X0+@l 5S _` =L Y0+kJ tM {1+qP =G 9w JK !J =L nC WN UQ YQ <0+YN B=.]$.YQ L=.qS T+.4` bS qS 5 .zQ oS rP jS Y0+6 .Qf.1J EQ 1M rC OA VN DQ {3+H3+v5+K6+r9+]O <0+5J @v.eP |%.=$.<$.I..Z0+`0+ a+]7.1c..a++a+@a+%8+#a+88+(1+R6+@[.G}.5;.O}.w2.<{+&[+^-.w2.|:+:] (8.H}.@[.(8.#<./1+v1.A|.B9+N[+&[+t|.P}.v1.$a+%a+/8.&a+L5 *a+S3+O}.^_.](.^-.)|+(8.!_.'<.](.=a+(8.X[.V8+E5+x8+x8+c7+-a+Z[.;a+f;+Qq.,J tZ.i=+~1 ~c.Ln.{9.kE `W.s0.,8.a_+yG.3B.jR.]B.#y.;A.+3+(9.IT.dP.k.+0L.wG..y.>X.od.Z8+yh.hU.&$+wh.~j.Oq.nJ.D0+n0.n0.fp.V +HN.td.#r.$y.DT.>a+,a+'a+)a+em.!a+8V.vU.}6+~a+k,+C0+{a+/ +$I ,8+^0+n9+/0+]a+^a+(I GM g0+,0+r<+ 7+t7+G7+Wv j5+%5+C3+x4+L8+Z6+b5+F7+_8+;0+5r ~9+S0+_8+6r T9+HE  q ",
"/a+tJ Q9+(a+_a+MJ PM PM H9+:a+DG <a+3v 1A 3v No ,2+L8+'B [a+}a+|a+`= 1a+S9+IM 2a+3a+4a+5a+6a+7a+8a+9a+0a+d&.2%.ST .R k[+`H ZN on.nM VN 8w RA <E =G v,+C2+{3+{3+4S <0+<8+B=..R aa+TT L=.bS mS L=.ba+n .UT RH OK HT nP 1J NK ca+PH 3P FQ k6+ca+VK XN B2+H3+RA B=.QT 5J WK 5J ;U -$.,U L=.q9+da+ea+J0.Nh.10+fa+z|.ga+ha+@6.4{ (8.e+ #<.P}.82+=:.R3+w2.]_.]_.'<.W4.21+&a+:] k}+E2.J/+N|+w1.ia+|2+u|.D3.v1.U2+v1.B}.N}.ja+L5 'c J# 41+#[.;<.,<.93+X<.h}+^>.j}+]_.D&.&[+ka+w2.N|+Y[.t|.z2.la+ma+n|.na+ep.Wk oa+9m.;t.-$+Mn.ti.u0.O!+pa+.y.~N.]S.]B.)c.XE.#y.xG.-z.dP.08+f++uU.iV.yk.yk.qa+hU.E%+:S.!c.:S.h=+_@+V_+d-+ra+sa+ms ,X.{9.td.b`.{N.)B.HT.ta+ua+va+wa+xa+ya+za+E%+09+}6+g++z%+C%+r&+g!+Aa+Ba+ q S9+T9+K9+=y 2v w7+Ca+6r Da+^8+Fs Jo YC E}+z3+!3+Mo ^8+1A Ko -9+l7+~9+x7+Es Ea+GM ^0+L0+^I w7+",
"k9+(v }2 C= ># 2L m8+Fa+2r  q Ko M9+4v '9+sn #* A. p; W& h9+Ga+Ha+m8+vJ ]L 5I Ia+Ja+Ia+T0+$q Ka+1).La+n .b&.b&.]$.sP hW OK EQ 6G /4+RA %Z RA nC {3+H3+8w WN t8+s9+YQ r9+YQ s9+I...R jV r9+bS L@.Ma+H+.q .p*.zQ gV :G RT Y0+PH *O Na+:J jW Pl.H(+(J YN oP O{+Wi.uC GT mP TT TT bS [0+^$.,U pS Oa+Pa+Qa+Ra+B0.50+I}.38+d7+@6.$8+D}.7}+:] e+ L2+s6+w2.R6+=:.W=.5;.'|+y0+O}.O|+w2.Sa+v1.Ta+Ua+`[.`[.J}.@<.v1.I}.]6+Y[.@<.y3. }.%8+O}.@[.w2.O}.X[.S3+-,+s|.-)+W4.^-.A[+-)+G1.(1+v|.u|.20+Va+B1.s2.Wa+s&+Xa+Ya+u~+^c.oZ.]W.. +0L.s0.@T.Mf.t0.Za+c;+7V.pJ.dP.5C.t}+00+yk.0`.&Q.-Q.JT..y.E%+y&+`a+cm.[g.-j.VS.:S.VM.)C. b+8z W0.= +@0+M +=8.;A..b++b+@b+#b+JN.uF.$b+>8.%b+kO.^ +p>+t,+^ +=j.l*+h~+dG &b+*b+yS |L =b+HM -b+L0+AP ww ;b+n7+k5+.q =5+)3+k5+!4+~4+F7+1A p7+}L F7+ q 6r T9+GM GM sG >I  q )B ",
">b+q^ (. };  { ># vG (8+,b+'b+9r q7+q7+Z6+Z6+)b+!O.&{ e; ~9+ 7+M@ !b+R9+}O ~b+{b+]b+^b+/b+2v b6+(b+:0+g .;$.O@.<` _G XK Pr.tM WQ mP TN RA EQ kJ XQ UQ nC QT t8+p~+6J i .]$.|%.r9+I..YQ %O rP 5J hV b&.5%.L@.UT Z@.aM iV _S _S +j._J Of.+c.4G G +#v ca+:J 1S <h..R gV EQ 7S ZQ (9+[0+lx._b+y,+:b+<b+[b+x1.38+B}.@<.}b+20+/8.|b+49+_6+-:.93+^_.W<.G}.^_.j}+5;.j}+C|.S<.'|+=a+j}+H}.Y[.+6.B}.1b+.a+D3.+6.O% /8.50+D3.`[.4F 68+@8+2b+h}+h}+&f.j}+S3+J/+(8.D&.P[+H1+k}+5;.(8.w2.&f.Fd.}c.@<.3b+4b+na+e)+g'+e!+Ct }g.yh.q0.G%+X3.5b+#r.@T.1E.vh.Yp.>y.dB.|A.yk.-Q.FN.nJ.ZP.hU.f++qa+lO.jY.0++[g.@$+6b+5g.jY.h=+~j.VM.2W..f.7b+8b+&$+,s.SN.;A.mI.s0.{C.|`.>M.9b+0b+ab+aK.bb+E%+C%+Tq.Bh.-j.cb+f;+MY.db+eb+^a+]L fb+vG L0+6r uG gb+J0+l7+hb+8I /8+q4+3m 46+%5+w3+k8+y3+}L F7+=9+(I HE ]I GM =y rG 2v Es ",
"ib+jb+{. kb+Bs jb+!I }L J8+l8+v7+p7+/I  7+ 7+h9+l; l; lb+l8+QB S7+fb+IM mb+nb+5a+/b+%< RW *R c%.ob+n&.##.-Z -$.L=.;U _G HT -L B=.@j.ZH WQ PC #v 3V 8w ~O EW YN TT uC dS ;U I..^$.r9+L@.p*.]$.1J LQ BW bS o .{$.RX rP (` pb+qb+oP Ix 5u. A.Fh.9w N<+07+6m.NK -U {$.uC *U 8o IT hV Qr.Q-.[$.z;.rb+sb+tb+{7.x1..a+ub+s2.vb+j%.wb+,7.Dd.K4.K4.Z<.*_.&[+J/+H}.J/+](.z&.L/+'|+21+5;.O|+v1.79+v1.:8.B0.Y[.Z[.xb++6.7}+6- z|.yb+@8+*a+G}.A|.I}.e7+#<.&f.E2.U<.D&.j}+O|+5;.(8.w2.j}+v1.@<.A0+38+T8+zb+Ab+Bb+Cb+On.fu.tZ.-j.wh.-8.yk.yh.]B.n0.l5.vd.jR.VN.7V.pJ.6M.JT.HY.pZ._S.>X.0`.E%+oZ.oZ.jY..s.Xe.6b+wh.cm.>t.F9+0`.- +dU.Gh.Db+0`.kO.*Q.CT.uR.*L.Eb+Fb+E0+%A.Gb+}M.Hb+8++Xe.{c.{c.zh.|g.f;+a-+Ib+Jb+HJ uw +q CG =y x7+^I HE q3+g8+J0+CE Ho j5+Kb+@1+ 7+]x Z6+ 7+l8+g8+'8+T9+L0+PM >9+4r Ea+&R -b+vG ",
"g; 1r [v Z= bO 1U  q tJ ]I =9+~9+,0+=9+pG g8+_8+Lo '4+~8+S7+w7+]L ^0+IM T9+Lb+Mb+zM 4$.Nb+qV Ob+Pb+y*.Qb+}$.p*.T+.RX A-.;U 5S HT |E UQ XN p|+o|+XN oP K6+;6+YN <8+6P ]$.qS ^$.,U ^$.I..TT 1` z=.rP ]$.QX RX hW rP p*.C..ca+PH OK }` ea.ca+(J !: JX Y +Ao.NK {O Rb+{O VQ Do.oB.&@ Cq.Sb+0a+p9+Tb+y0.19.Ub+ a++a+@<.ub+.a+A2..}.L% #<.t|.~7+R6+*(.5;.12+|:+Q[.X[.O}.H}.|:+](.=a+Vb+Vb+C1..a+v|.K}.1c.y|.z|.Wb+y3.68+Xb+R3+V3+48+@6.J}.V[.ha+N|+Yb+#:.Zb+&f.w[+P}.w2.D&.L/+&[+B}.`b+$f.la+ c+.c++c+@c+A{+Vn.am.2g.zh.oe.>X.@0+r0.V +s0.<6.O5._9.jR.{N.-z.~C.AO.+3+&0+-Q.>N.w.+t,+#c+|g.Ye.=t.#$+,j.cm.$c+{c.1g.6b+Nn.%c+^c.qd.q0.Rq.<#+xU.Ra.NN.z6.D0+|++|M.3++0`.CG.&c+z%+A%+*c+=t.Bh.#c+i!+=c+-c+3I ;c+|O CG 'L T0+^I w7+c9+gb+uJ oG g8+d9+2m @1+f8+=5+Ko g8+YC Ut =y Es Es 4r 4r GM -y Cs *y ). ",
"6I )( +< >c+!) ,c+!L  q pG 6r  q wS pG -b+GE /I ,4+@6+=9+=y i9+i9+#* IM CG 'c+xJ 'Z )c+!c+xJ ~c+c,.0'.^u.z;.Ma+-$.A..hW p*._G [M -L Vr 1J EQ UQ UQ O{+UQ uM !O %O i .TT ;U .Z {c+-$.L@.L@.7S Rb+hV 4 .{).7J nP 7S gV :G SH uC }'.qb+l6+IH PH .I zo.]c+1h.Q8+NK AC #Z Eb.^c+kS /c+U~.(c+_c+:c+<c+im.y0.[c+Qh.7c.|2+w|.}c+xb+~7+h}+v1.B}.e7+X[.!(.12+@[.|c+G1.N[+H}.O|+I}.J/+u1.B1.J5 O[.Z5.1c+x3.2c+3c+4c+5c+m: 6c+O}.u1.@6.`[.50+u1.L4.21+z7+y0+7c+f- 8c+14+Y[.&[+H}.O|+9c+29+s2.Qh.0c+ac+bc+_o.kM @c+<h.cc+Ze.`e.cm.q0.r0.Kn.1++HY.V +ud.jR.XE.AO.AU.&Q.NN.zO.;$+lO.E%+z%+0++0m.cu.Bk.,t.Pn.am.Vn.am.Tq.8m.Ck.=j.w.+.s. f.*j.Qq.>Q.r0.n0.;A.uU.^9.dc+NN.iR.R$+ec+z%+{a+oa+z%+=j.fc+gc+hc+ic+jc+FJ 5I kc+lc+'Z ^U mc+tJ HE Fs K8+>0+7I nc+w4+!4+]x )4+H8+F7+(I }L }L =y uG vG Es HE 4r >b+pJ &y ",
">! U' {B oc+U, ^Z L$ vG oJ L0+4r wS `= pc+EE YC YC Wt l8+w7+L0+Cs 5% (a+{b+T0+IJ (O AS TW St qc+6M rc+sc+b&.5 .f   #.kV 7S 5J 1M }'.5S eS XN QA qP FW B=./4+_` EW YQ TT {$.Wi.5 .,U TT L@.7S mS 5 .4 .aM QX =U .Z jS 1J 4V aM 4M tc+eJ IH `C.+r.Qf.uc+'t.vc+{O e .NK wc+mB.xc+yc+zc+nF.x>.Ac+Bc+Cc+Dc+Ec+d9 ~7.r2.B1.Fc+t|.~7+93+%8+~7+30+e+ @[.z[+-)+$(.i~.Sa+O|++6.z2.V[.X[.+6.'7.Gc+79.]7.d9 N4.Hc+6c.N4.Ic+}2+Z<.z7+Y[.L5 L4.e7+Jc+Q[.t|.&a+Kc+Lc+Mc+Y[.Y[.j}+P}.X[.5c.K}.Nc+Oc+Pc+Qc++^+y-.<J Rc+Y^+Un.1u.Bk.6b+We.bp.uR.gp.BT. 7.TN.oJ.;A.X3.bL.ZP.09+{W.-$+3P.zh.Pn.dm.So.Bk.,t.Tq.&B.Un.Vn.)t.Sc+%s.Bo.Pn.4P Ct wh.Rq.Mx n0.Tc+uU.Ve.~C.zU.uU.BT.Uc+=j.y&+j.+p>+,t.w.+#c+Vc+Wc+Xc+rC Yc+yJ {b+Zc+`c+L$ 5I ^U C6+<f nG 3v 8I  7+ d+.q 4v ]x L8+L9+l7+L0+}L tJ S0+L0+.d+vJ pJ uw (v +{ +< ",
"06 e7 +d+U, ;! 3L .y ,b+,b+Es L0+xw  q l8+2v No h8+=9+~8+Ut =9+]0+@d+(a+FJ AG *R :L #d+BP FM $d+8o %d+Sb+AA.L=.o .b&.A-.I..:G hW zQ HT xq./4+sM L$+XQ XQ B=.5J YQ Rb+=m.aM Rb+da+z;.L@.i,.HQ {$.bS 7S c&.Pf.x*.<$.Fx 4V BW }'.Y0+OK :J MK 0E 5u.|V qr.dv.`Q z=.IQ e .)u.cv.&d+*d+_).=d+-d+8'.;d+>d+,d+Dc+'d+)d+jg.M}.M}.B0.$8+4{ e+ I1+Z<.O|+(1+w2.82+w2.^>.Z9+#<.B9+X[.B9+C3._8.1c++b.hg.Jd.>f.!d+`0+]7.29.r2.y1.y3.u|.+6.K}.+a+@a+/1+ja+P}.Q[.]7+~d+Ua+O4+B9+12+O|+I}.C3.{d+k1.]d+^d+/d+(d+_d+:d+<d+[d+$s.8u.)t.#$+*0.>t.bp.|E.~1 TN.p0.2m.=8.hK.~C.3P.E%+sZ.p>+:#+0`.6b+}d+pw. C.pw.&B.~t.XA.Cl.av.|d+!G zo.,t.Wn. f.M7.!c.bp.*j.MT.-Q.n0.^W.`n.k.+!a+1d+oZ.2d+_@+fu.cb+Rn.ip.Sc+3d+4d+-p.5d+pc+6d+7d+|O |O 8d+9d+L0+{L 0d+^8+G7+F7+n7+e9+'3+)4+.q x7+tG _8+]9+/a+]L T9++q Ea+_I _I L$ _B zP ",
"R= J5.*! ;( IJ EM uw 3L }O +q  q  q !0+EE }L EE l8+_8+x7+GM 2v 4r }O IM S0+IM wJ JM BP ad+St 23.C].J~.bd+!).,U qS b&.I..,U .U 7S aM m .uM 3S 3P O{+FW PH 6 .I..cd+t8+^$.L=.a'.Q-./$.-$.5 .o*.bS ox.hV  #.dS t>.e[.Bl.wW o*.fP :` @l sM dd+fa.ed+=0.fd+Qf.aM i .Rb+LX K=.gd+iF.Lo.=& Z* Is.B..hd+id+jd+kd+I5 'd+d9 Jd.A1.C3.J# J# 68+t6+$(.93+@[.X[.X[.@[.GB |c+&a+O|+B9+K}.s2.<8.ld+%4 `0+%4 Vh.md+nd+Jd.ig.od+Id.'7.A2.xb+B0.y3.ja+(1+yb+T4+D5+u7 J}.pd+]7+O4+&f.#<.B}.x|.}8.qd+rd+sd+td+ud+vd+)G wd+xd+yd+zd+OH Wq.vi.Ch.Sa.^c.!c.$G BT.q0.Ra.AO.^9.>N.E%+nV.{c.Xe.b-+,t.}d+Vn.{t.Ad+Bd+*B.yC.Cd+*D.*D.'t.OH YH Pn.=t._;+0R.Qa.3P.@r.^c.0R.^W.#y.uU.E%+}6+;$+R$+*c+WW.T$+Un.My.Dd+Ed+Fd+QX Gd+Hd+Id+Jd+Kd+!4+)8+|O yS St =4+2v Ld+>0+Ho Jo  7+ 7+.q x7+S7+~9+Md+yS .d+_I }O 'Z FJ FJ 1L FJ zs ",
"(v ,R #. (v wJ JE 1O 1L 1L >. s, vG 4r *y qG '8+tG .q x7+1v  D _I Nd+AG |O *R Od+Pd+Qd+Od+}m wp.#  Rd+V~.Y~.i,.Sd+`@.J../E c&.oS o .m .-L %Z WQ 8w uM XN oP L=.I..mS <` 5 .ox.(9+.Z SY (9+G..x*.eP ys.($.f&.R-.MX 0y.rw..#.Wi.8o ZN AW dV yl.Xn.+v.A=.(J uC 5J `Q [n.SD.}E _).Cr.{, Z~.Td+Ud+Vd+Wd+rm.Xd+@c %l.Wh.79.}8.-s @6.B0.v|.A0.$8+@}.@[.R3+z7+&[+D&.I1+Yd+7}+C3.3c.1c+Zd+Zd+&7.ng.`d+ e+.e++e+Sh.@e+#e+3c+9c.x2.L}.:8./8.$e+.}.|c+O|+Ed.N|+`<./1+W[.1b+v1.I}.w1.5c+]8.%e+&e+*e+0k =e+-e+<q.G;.+G._P.;e+>e+rr.]t.a++,e+F9+}g.xh.Qa.m0.aP.aP.2m.%Q.:#+wh.qa+ZP.fu.Tq.'e+ A.Bd+!t.iS )e+Cw.O-.!e+Ry.-C.>  .r.1u.]t.,e+{9.*T.r0.qd.bp.-Q.6C.k.+*T.Z8+j.+~c.Uc+9;+dm.~e+OH {e+]e+^e+/e+Le.(e+_e+:e+<e+[e+Mo 1O /a+}e+>L J8+|e+rn rn .q p7+ 7+.q _8+d8+=y _8+HE ]L /a+vJ qV 'Z rV IE M- 2L L< ",
"Lb+1O JJ x@ xJ >L ,L ${ u)  { }; .y uw ^I }L x7+Lo x7+x7+}O ]L 5I ]L qJ Lb+yJ 3O 1e+2e+Jd+3e+n5.Hb.4e+Pb+5e+y*.K;.^u.Q6.6e+oS %O 4 .c&.)t -L YN :` EW XQ XQ }h.IQ _G =U UT ox.z;.I..T+.bS ]$.SY -$.O@.aV f[.&j.7e+8e+0P >  9e+dP ^v.MX bP lP o[+e .Qf.gV !O Pf.UX _n.`u.wW ^x.8E.i! 0e+ae+be+ce+de+ee+fe+nm.ge++e+ig.8c.A1.j%.wb+y9+@8+D}.C5+b4+$(.Ed.w2.|D &[+G1.u1.79.79.he+ie+je+e9 3j.ke+le+me+4j.+e+ne+og.Ec+oe+pe+N}.j%.+a+4F L4.&a+O}.=:.X[.O% v1.J}.B0.B9+:8.qe+~f.re+Pk.se+te+ue+ve+we+xe+ye+ze+Ae+~J.qC.t~+pp. C.e-+Xe./E }g.Rq.<g.uU.*T.4W.lO.3P.lO.F9+-j.=t.YH &B.!e+!t.Be+Ce+Hx.O-.De+`A.Cl.*D.'t.OH .r.Sf.!j.%Q.Sa.Sa.z6.yk.&0.=A.mI.q.+gU.0`.p>+:S.wx Ee+Fe+Ge+He+nw.Ie+Je+Ke+Le+R[+1A Me+BM :L 2O Ne+,#.qJ BG 2v 7r qG 2v tG rn &7+x7+(I w7+Oe+T9+/a+IM =y qV 1O AM ,. 2L IE EM ",
"3I JM 'Z D@ s= L$ ,. (. oz Pe+V' zP tJ =b+L0+HM =y _8+ q (a+vJ _I #d+Ne+Qd+Qe+Re+<e+Se+Te+C-.a}.sk.5e+Rd+Ue+4'.f&.Ve+q*.He.O@.{$._G Y@.1J jS EW %Z FW XQ Vr {O gV <` Wi.ys.Ma+pS Rb+-Z %O {$.mS |%.t>..p._u.J=.>w.#  #v.i&.Pt.}x.We+TK Lr.}h.8w 5J CW Pf. R Rb+ZQ =k.P@.{).LX Xe+0e+Ac+Sr.Ye+Ze+`e+Z9 Yk. f+Bm.Zh.D6 [j.s3.x2.!d %8+A|..f+C5+#}.5;.Ed.I}.+f+#<.'|+A}.y|.}j.je++e+me+@f+t3.0c.#f+$f+6j.me+ne+ig.-, Wh.%f+&f+/7.A2.y9+w0+t6+V3+R3+H}.H}.Q[.t1.(1+X[.C1.l1.je+Tk.,d+*f+=f+-f+;f+>f+,f+[z 'f+)f+!f+~f+tQ.,u.OH 4g.:#+MT. f.ti.4W.aP.VS.>N.hU.kO.ZP.ZP./t.zh.YH 7u.t~+Cd+VC.{f+%U fF.]f+^f+Oz.~v.+O wc+fd+QK dm.#$+bp.M7.z6.~9.*L.!a+09+ Y.y&+6@+kY.p>+CG./f+XA.yd+^f+(f+Fd+vi._f+:f+<f+;i [f+_L }f+yP JE LM oJ {L NJ o<+|f+EE ^I >9+Ko p7+x7+ q =y ^0+'L 1f+'c+JJ (a+3I AG 'L 3L AG ",
"s= s= H& zP JE G& m_ [L JV.u) z@ EM !I !I pG @- ~9+]0+2f+3f+/a+}f+|O l; !c+4f+5f+6f+7f+8I <#+8f+/0.Ik Q-.9f+2%.0f+n&.e&.$L hV Z@.hW SX (` QA TX 7o OK WQ uC TT i .7S 2q.Sb+dS ys.I..L@.7S Sd+L@.9'.e  .  @D.;u.ex.$@ ,^++t.9'.LQ a&.1` bM PH WK z..PT NK gV OX xD sr.@  $M.Cq.af+bf+Pf.Vd+cf+df+ef+_7 ff+rm.*o.Xk.$o.t7 gf+hf+6c+y9+x0+Xb+$(.W4.G1.z7+A|+I}.v|.79+if+O4.he+jf+le++e+kf+lf+!d+jf+#f+5j.+l.mf+-, @e+jf+ne+`0+x2.x2.L5 ,7.X[.J}.Z}+H}.v1./1+'<.w2.31+nf+}8.1j.me+2j.jm.3b+J{ of+}: pf+qf+rf+sf+i' UA.0V s~+op.tf+9`.)d.M7.*j.3P.>X.q.+3P.*T.~j..f.- +uf+^t.vf+wf+XA.-C.VC.ev.{f+Oz.Ry.xf+yf+%w.^v.'u.PD.rp.vf+pp.zh.oe.Hh.8b+AY.:S.Ta.E%+8V.c!+#c+f;+!2+XA.XA.`A.zf+Fd+xw.Af+Bf+Cf+Df+Ef+Ff+Gf+Ne+%R IJ qJ >L FJ 7r ^I o<+GE rG .q l8+-b+6r PM AM k9+5I zJ rV Ne+'Z pJ JE 3L zJ GJ ",
"GJ xJ G& EJ A, ,R :} Hf+7: U, %D qJ Es +q L0+_8+G. R. (a+JJ Zc+/b+}f+Vr.If+Jf+5f+Kf+Lf+J!+J7.nq.4g.Zn.Q6.5 .Ve+Mf+n&.2%.1` b&.g .4 .eS tM sM ZH 9w |J uC gV %O 7S UX R-.j,.aM I..T+.^$.]$.a'.4'.w=.`u..p.;k. ~.*@ f[.v>.TY 9'.@c.1` 7J !O oP uC nP NK 5J sC Wi.=$.Nf+Of+~  Pf+l,.6e+Qf+Rj t5 Rf+Ii Sf+1<+Tf+Uf+Vf+Wf+0j.<b+ou A2.L5 .}.H}.&a+12+z[+A|+79+X[.Sa+C3.79.}j.ng.jf+Xf+Yf+dj.jf+me+&e+Zf+`f+ g+2j..g+Sh.+g+me+9g.hf+E3.B0.@g+W[.]6+#<.I}..[.:3+]7+/1+u|.N4.#g+$g+%o.%g+Xh.&g+*g+k(+=g+Ud+-g+;g+Oy.lF.>g+~f+Ky.8M mq..f.6b++7.~c.g>+0;+,g+&$+%Q.RN.d-+'g+)g+(G ~t.wf+QD.QD.dO.X@.Oz.ev.QD.UC.PG.X@.UC.(G qA.+O  O {t.nq.HC /c.VS.r.+_#+!g+rf+Ch.{t.So.~e+~g+VA.{g+]g+^g+/g+(g+_g+:g+<g+[g+}g+|g+'; EP 2O 1O IJ _L BG .d+Cs 1g+2g+Es Fa+ww uG uG 3g+/a+IJ IJ AM AG GJ IJ wJ AS [I +Y JE ",
"JM F& KM m@ M$ 92 ^@ TM 4g+U, qJ /. ,. HE J8+ q Fa+fb+F. L(.#d+zS ad+5g+6g+ad+7g+8g+9g+0n._J !G `N <w 0g+sk.n&.ag+@!..Z y*.A;.D-.HQ UT eS uM 3S JX XQ 4V 5J OX ]$.Wi.&O o*. #.Pf.SY L@.-Z (9+bg+f&.aV 1'.Dl.cg+Co.I(.by.dg+M(.Jt mS xD =m.bM dS 1` i .TT ys.qS bg+eg+fg+4e+gg+hg+6/+ig+jg+kg+t5 Gs lg+mg+ng+le+zm.og+ e+pg+e9 M* +a+]6+68+J}.T4+|c+(1+7}+(1+X[.38.qg+jf+Xh.6a #f+og.au rg+3j.sg+$l.5j.tg++e+5a 4j.tg+ug+vg+wg+L_ 6- $8+B}.Wb+/1+|2+@<.38+w1.K}.5c+xg+rd+yg+zg+Ag+Bg+Cg+Dg+Eg+Fg+Gg+Hg+Ig+Jg+Kg+Lg+~J.(v.Ky.1h.gu.']+C<.ya+Vo.Q +}M.!c.D9+Mg+Ng+Og+Pg+bF.Be+UC.+B.Os.Qg+Rg+Sg+cx.{f+gJ -#+Jy.{f+{F.QD.PG.Eo.+U Tg+/t.Ug+Ta.Vg+Wg+Xg+Yg+Zg+`g+ h+.h++h+@h+(f+#h+`A.C +$h+%h+&h+*h+=h+-h+)8 /L Od+Qd+Ne+Ne+BM uw Te+FM -0+]I jq l8+=9+l8+l8+yS FJ pJ L$ /a+zJ 'Z #d+[I TW GJ CV zJ ",
"TW %< O& TW ;h+'| G< -( K( xz 'L I{ IE PM yS 3g+]0+K9+CG |O =# *% Y= A, >h+5f+,h+vG 'h+yl.[h.|z NX Sl <z )h+B(+!h+Pb+=m.l>.j*.i*..Z _$.xD :G JX iV  R {O 4V o*.mS {$.zl.ys.mS TX bg+|%.(9+-$.}$.RX t>.)u.|'.^x.C=.G..1$.$& ~h+o>.RX C;.1J dS PH QN =U Ma+{h+T+.Dz.Sb+]h+^h+^h+ge.0(+jg+/h+ZC kz (h+^; &%+_h+:h+<h+[h+Wk.&d }h+7c.y|.w|.M}.|c.P}.|h+w2.O|+Sa++f+1h+2h+.i.3h+4h+5h+Yf+6h+au og.Xh.Xh.7h+au 8h+6h+5j.9h+0h+ah+Wh.bh+L4.}c+L4.d7+w1.Z[.u|.A5+j%.Gc+Mk.ch+nm.zm.dh+eh+fh+gh+hh+ih+jh+Wd+kh+lh+mh+61+zB.yJ.pB.ay.,u.rp.Tg+du.nh+B&+Tg+E%+r0.%Q.d0+oh+ph+YD.qh+{f+xf+%U QD.Ce+rh+OG.nM Nx cx.Hx.@C.vn.cv.%U @C.8A.cv.sh+,j.th+lZ.uh+vh+wh+xh+yh+> +zh+Ah+Bh+z=.]g+Ae+Ka+%h+Ch+Dh+Eh+Fh+Gh+Hh+Ih+-. 4f+Jh+BP Kh+AM 2O <O ^U ~I oJ o<+=9+uG uG =y =y {L 'Z xJ )c+wJ JM _O KM NW M( =R AS ",
"Q) 4$.]; s@ ^} g^ Lh+,u ^| z@ zM 1f+zM 2L Cs Ea+/a+S0+IM :L yJ ad+R+.0k.j^ Mh+SW Nh+_p.|z Lt.aV Do.IQ 0%.Oh+Ph+1E Qh+R_ j*.cS 9,.SY m..aM =m.=m.-L -L =U i .OX t>.]$.R-.SY x*.t>.1S cS pS L@.(9+C=.|%.o..2q.SY zX E;.Rh+a'.8,.R+.xo nP {$.x*.1`  R eP Sd+0a+:0+Sh+Th+Uh+Vh+UX Lf.Wh+ZC 9r 'b+yz pc+Xh+Yh+Zh+`h+ i+N:+,d+'o.Ov d9 Qh.G0.x2..i+$8+H}.v1.u7 +f++i+@i+!d+Vh.cc.#i+$i+6h+og.`f+$f+5j.$l.%i+&i+le+ne+ke+$l.:h 3j.*i+kf+=i+J# D}.}2+-i+o|.68+;i+5c+>i+,i+'i+)i+!i+Uk.aI r'+hh+~i+Y$ M:+E,+{i+]i+^i+/i+le.pL.Ar.)F.Vz.Pt.(i+Ch.~1 _i+g>+}g.hp.r.+zX.:i+Qn.<i+dF.[i+VC.Ge+`A.}i+us.Ss.rA.oB.Ny.,u.qA.|i+.O xf+cF.lF.,u.1i+fv.2i+n)+3i+Ng+4i+5i+6i+7i+8i+i^+Ao.9i+p~+0i+-f ai+bi+ci+di+ei+fi+gi+hi+ii+wG ji+ki+ki+~L x@ yP qJ AP GM GM li+]L tJ S0+/a+}O qV 3$.}f+wG mi+T| AJ D< q_ Q) i> ",
"|I nV ~U j> AJ w@ {~ %< ES #y RW L$ >L {L >. ]0+]0+Ea+2O /b+ni+&* oi+pi+qi+w>.Gi Di.8V 2h.K=.g  ri+6%.Y< z..si+ti+Z@.TY ui+o&.*!.-$.b&._G %Z :G nP 4V %O {$.Wi.ri+Wi.UX o*.bg+o*.cV 5 .o*.I:.-Z 5'.vi+R-.j*.b&.wi+,$..Z 4'.RX R. Q@._G {$.{$.<` w=.Do.0'.ox.xi+yi+zi+Ai+fg+Bi+Ci+>y _a+'b+'. 1L oJ MM tw Rs VC Di+Ei+jm.Fi+Gi+Ec+E0.Hi+Ii+B0.41+I}.Wb+V[.A}.Ji+2h+Ki+Yf+&7.Li+ne+ne+&i+Mi+7j.rg+`f+Ni+2j.ke+7j.pg+'b Oi+md+l-+Pi+B1.+a+~7+h}+ [.Qi+|2+20+Ri+Si+Ti+Ui+Vi+Wi+Xi+Yi+Fg+Zi+`i+ j+.j+v<++j+@j+Fg+]i+#j+#C.#C.#!.Ry.Ly.qM jM ne.X^.$j+%j+a++$c+9;+&j+~t.XA.Cd++B.Rg+`A.!d.xi.dO.`A.+B.vn.oB.Ot.cx.kq.Os.Hx.sE.F=.Py.bv.vf+*j+=j+-j+;j+>j+,j+'j+%$+;t.~J.)j+!j+xw.~j+{j+]j+^j+/j+(j+3D _j+,t :j+<j+[j+4f+7f+S..7d+}j+CM 'L ,. vG 4r ~9+'}+}O CG _I :L xJ AS P$ xJ  < q_ AJ j@ q_ KM AS ",
"M' '( |j+i> t= T$ CP K$ y@ y@ s= LM 'Z 1j+sG St uw Ia+%* V@ If+ad+2j+4f+g> FG AW 6V =++j  8A.g  Y~.<$.bV i  VT 3j+4j+5j+@!.G-.7'.U!.($.p*.GQ i .4V P-.6j+5 .%O -U 5J W~.=$.L@.b&.BW t>.i,.UT }$.-Z Sb+j,.m>.t>.ox.R+.SX z;.@!.q*.U!.pS bS Rb+9'.5M 7V x*.8y.7j+yi+Ue+8j+9j+0j+aj+Qt !I BG ,#._O ,b+yM +y bj+cj+dj+ej+fj+gj+hj+ij+jj+2c+L}.Ey 38+n1.Wb+j%.1c+kj+@b.lj+mj+nj+Xh.%i+6h+%i+&i+$l.%i+oj+89 ,o.pj+qj+rj+@c 20 3j.sj+bh+H4.@a++6.]6+&a+e7+}2+tj+Ub+Sh.Tk.uj+vj+wj+xj+yj+zj+G}+Aj+Bj+]# U@ Cj+E,+Dj+yj+^w.Ej+Fj+=w.Gj+<w.Oz.jM hg j)+Hj+Ij+Jj+S$+Kj+Lj+*D.Mj+Mj+tQ..~+7V vQ.Gj+Nj+~J.[x.tQ.Ky.Tt.}).Oj+Pj+Ot.X@.Qj+ B.Rj+8E j)+Sj+Tj+Uj+Vj+Wj+Xj+Yj+Ry.{g+ye+cF.Zj+`j+ k+.k++k+@k+#k+$k+%k+8} l+ *h+&k+*k+/U =k+3O Q$ -k+_L Te+>L vG T0+^x ;k+uw qJ Ne+1f+]U zJ AS >k+s&.J& ^L L{ ,; ^| ",
"SW Q- CS g$ T$ (Z CP s@ x@ y@ Nb+$R MW '. mc+=y $- H:.,k+/U /L 1e+'k+4f+)k+!k+f0 w*.Y< H7 dx.g  uD.b,.vW bV 8M NX ~k+{k+VK ]k+)).y*.@!.A..,U ^$.sP ^$.Rb+<` {$.x*.<` 4V OX Y< OX i,.bM M(.L@.D;.X~.bg+h,.k*.ri+O~.}$.!).qS [v.H:.q*..Z O@.b&.)u.cx.v*.g&.^x.^k+/k+(k+%9._k+df+ib+,b+sG BG z@ :k+s  ;( N| 6O `{ U$ <k+[k+}k+hj+|k+1k+2k+d9 &, x|.ub+s2.!7.3k+[j.H5 P& Yf+Xf+sg+Yf+Mi+$l.&i+&i+Ni+4k+>d+5k+6k+.l.0k 89 7k+5a 8k+9k+8c.0k+A}.E3.t1.u|.-f.N4.xg+ak+bk+um.ck+dk+ek+fk+M:+ j+Bj+Bj+gk+/# hk+ik+jk+kk+lk+mk+nk+,w.)= &w.Y5 XA.ok+pk+qk+rk+ g.(i+.r.bv.Ny.Ge+&9.|h.sk+Bh++B.$A.$A.vn.+B.Ce+Tt.$M.oB.Ry.dO.ev.ay.wC.fF.YA.tk+uk+vk+wk+_C.xk+yk+zk+Ak+fF.Bk+Sg+Ck+Dk+Ek+Fk+&+ Gk+Hk+C# Ik+5) Jk+Kk+/j+Lk+<j+Mk+~; Nk+xS LM 1O EM yP (a+]L ]0+Ok+CG rV #d+L( ^} ^} q$ D< !@ ); m@ q= q$ D< ",
"(Z ,; ]/ xG AJ w= BS R~ Q$ L$ P$ zP MW pJ 'L Pk+$- IJ f> Qk+Rk+Sk+6g+Tk+}S |z Y< 1'.A+ b  Cq.|$ !  g  D;.$@  v.bV Uk+Vk+z(+!k+SH.S-.PJ P@.H+..Z ;U hV ]$.-U Wi.<` <` Wi.7V -U R-.#w.b,.f  p..&  I-.5'.Of+V~.R-.D;.j,.E=.f&.E-.8'.['.e[.<$.=k.<n.ny.Ex.Wk+%d+Xk+Yk+Ao.N=.Zk+E@ (B 1L Q$ _B -. K$ ]Z `k+;h+ l+Wa .l+ys +l+[k+@l+#l+$l+vg+`v n2.s2.O4.69.~f.qg+le+%l+&l+Zf+Xf+Zf+)o.$f+*l+=l+tg+-l+>d+;l+>l+,l+tg+'l+5a vl )l+og.!l+~l+9k+_8.Hd.{l+C1.#o.<j.=l+]l+^l+92+/l+(l+_l+:l+L. b. U@ D= <l+[l+H< <l+}l+|l+{i+1l+2l++J.KB.Dq.0y.3l+4l+Wo.5l+6l+7l+8l+9l+rp.0l+[h.oB.cx.'I.'I.al+$L.=v.'I.'I.rA.bx.Qg+rA.+B.+B.:J p|+0y.YA.UA.bx.|V $G q0.bl+cl+dl+el+fl+gl+hl+fV.il+jl+kl+ll+ml+;+ nl+ol+pl+g/ ql+5- rl+&+ &+ ^j+sl+tl+Kh+*R *R }j+IJ ul+vl+)b+'Z GJ l_ XE 2% -[ gG @)+4$.B] R- ]; O& ;(  < ",
"L& R- *( U  5/ x$ Q) AJ w1 P$ ^. xM DM _v L. Ia+1O /b+If+wl+'k+1e+,b+xl+SK vs.J-.%  %@ |).I(.!  %@ |$ Z* D+ o..Zu..v.5j+yl+(m.7J I{.M=.T+.y*.}$.QX W~.e[.RX aV -U CW p*.W~.zl+|).t>.R-.I:..Z R-.#w.K;.Of+!).'= .@ $$ Rh+6%.4'.j*.k*.G..pk.sr.2$ sr.Al+Bl+Cl+Dl+aM El+Fl+NJ =b+L$ x@ JM 'R x@ ]U $R R$ a` k^ cO 'I %y Gl+Hl+Il+aM.]o Jl+2k+Kl+Ll+28+(j.Mk.`d+tg+'b Ni+Zf+Mi+.l.=l+Ml+=l+>l+Nl+Ol+Pl+U| Ql+Rl+<j .l.Sl+Tl+Ul+&7.lf+$c 9k+jg.Vl+L}.1c.<j.|j.fe+*l+Wl+Xl+Hg+Yl+Zl+`l+[. Z& 5; '#  m+a% h|+|a+gk+Aj+.m+hh++m+@m+#m+El.$m+ZC.%m+!k.&m+*m+=m+'j.-m+qr.dF.SC.Rg+fF.;m+$A.&D.hz.pz.yW rA.bx.X@.$M.+G.sf+`t.fx.hz.ay.Fo.X@.Er.P=+qh+ D.Nz.>m+,m+'m+)m+!m+~m+{m+:f+]m+^m+/m+b# u% |~ R# (m+_m+Z3 @, P% p% :m+`. <m+[m+<e+<e+27+}m+p-+=5+T0+tJ |O 'c+LW Mb+j_ |m+&5 ,) m@ ,; C< L{ k> o@ J& ",
"m@ `k+O3 q4 6` X  j> ~U O' j4 'R Ts 1m+zM |O Ia+{b+2m+|g+Se+3m+sG 4m+<q.0E.j  Aq.Vz.B- <$ $$ $$ $$ 1$ &$ S{.C+ b  B+ MX 8Q.5m+#B #Z Vr.6m+/$.pS H+.;U {$.IQ W~.5 .%O W~.|'.0'.zl+^x.M;.bg+j,.Ur.7m+8m+1).D=.Y~.b  ;  0,.Xi.e  4'.A..M;.=  X~.X~.9m+0m+am+bm+Ao.cm+dm+~. uV 3L JE [I zJ ]U {; KM T) +Y 3L HJ ,L yM ,L Pg em+fm+}9+gm+hm+im+jm+Ov eb+km+lm+tg+mm+pm.nm+om+`f+tg+&i+pm+qm+rm+sm+rj+tm+4k+tm+4k+um+4k+vm+wm+89 pg+xm+ym+md+zm+]7.l1.<j.@f+Am+Bm+Cm+Dm+Gg+Em+T-.9I jx.Oe.<p.Fm+,) `~ Gm++* 8% <l+L. Cj+M:+Hm++m+Im+]R.Jm+Km+Lm+Mm+Nm+Xy.Jk.&s.Tz.WC.#D.{J.Sg+$A.rh+$L.$v.vC.TP.&w.$M.tE.$v.$L.Bk+`t.OG.i' 'I. i+Om+l*.kM Pm+tk+Qm+Rm+Sm+Tm+Um+sx.K-.Vm+Wm+Xm+Ym+Zm+`m+)+ 2# ^- ^+ 7- tu  n+c# i# .n+Y. +n+@n+#n+A,+C~+$n+Od+7d+}f+%n+{b+|O !c+&n+wG (Z -R y< :* ]; '| Z  ~!.]; d& l@ ",
"t= B& m@ d& *n+#. c$ I$ t@ v@ =n+]. AP (v 'Z |O 7d+R..I*.5f+Ki JT fz.0y._x.0V    dx.by.`# `# ~, %$ %$ @~.D].$$ Y~.B+ bV TK -n+;n+Jx vC C].S-.-Z >n+y*.L@.Rb+UX x*.|'.ox.vi+1).$w.8a+l,.X!.K;.S{.l,.AB.`+  @ g  2$ t+ cw.=++[).I(./$.w>.ok.D^.*$ LS.,n+'n+!d.)n+!n+pc+-. G& xS ~L u= JE ,R _@ nV =R I& ,R KE q' zP (B yz N0+~n+{n+]n+^n+/n+(n+Am+_n+:n+<n+[n+)o.#c Ni+2j.`f+`f+<j Ol+}n+|n+1n+2n+1n+<h+5k+Ql+'l+Nl+3n+4n+Sm p;+)l+zm+5n+%l.<b+Cl re+6n+&o.7n+8n+%>+J. 9n+0n+an+AK.h. UG.Z& 93.g[.`$ K, |a+:# bn+I. K. cn+dn+en+9e+fn+gn+hn+in+jn+kn+ln+mn+nn+4n.on+pn+qn+rn+sn+tn+vC.$L.un+dq.AE.+G.^H.zE.Ys.qB.vC.@  hz.;@ xl+xJ.Cs.eF.9F.vn+wn+Lx.xn+Tm+yn+{;+zn+An+Bn+Cn+Dn+En+x; 7+ X> Fn+Gn+Rr v# !+ C*  _ Hn+In+Jn+9* Kn+Ln+Mn+7f+Nn+I& CG On+zS Pn+&n+yJ J$ B& L{ C' oc+0[ u$ j@ J) l@ Qn+",
"Rn+Sn+v= *n+d& i@ 8@ b^ Tn+u) m@ F& ]U Kh+1O Jd+^b+Un+2m+Vn+Wn+m4.7x.Fs.Xn+o  !v.dx.4q.bM.+& `* E+ Yn+J(.D/.1$ %& D;.uD.H;.6V uw.Zn+Q6.`n+Pb+^u.hg+a'.qS L@.t>.eP =$.R-.Ur.6%.#~.x>.K_. o+.o+x>.+o+Z~.I/.$$ <$ AB.V; )w.3x.@o++$ =  J{.Rk ~, #o+$o+B- %o+&o+9r s, HJ EJ _O ); R~ t= N| *o+DP B] g$ h> DS A@ v@ JE =o+^. Tk+H| Pg -o+;o+>o+,o+M/+[n+'o+ak+=o.fe+)o+!o+~o+{o+,o.>l+2n+]o+^o+/o+(o+_o+:o+sm+rm+<o+[o+}o+|o+1o+B_+2o+3o+&l+'o.-b ak+4o+ch+6f 5o+6o+7o+L. b. xA.8o+9o+bO.0o+'% !~ l; ao+V, bo+a% |* co+]# do+eo+~i+Hm+:p.fo+go+ho+io+jo+ko+lo+mo+K-.HC.no+oo+po+yJ.+G.sn+TP.qo+ro+so+pL.qo+pL.G;.to+!v.^H.UP.Fx 4q.7q.uo+vo+wo+Hx.xo+yo+zo+Ao+Bo+Co+Do+Eo+Fo+D% Go+V> ^- Ho+u* Io+:- S% t; 2- @, -] -] `( Jo+Kk+Qr Ko+N%+7r !; ^b+Od+Se+Lo+Jh+Mo+2m+.. No+.. u& Oo+~U w$ B& g= _Z G$ ",
"Po+l@ Qn+Qn+U  {@ Qo+Ro+:Z O& %. ]} B@ zJ *R Qd+Jf+So+xs.3J 9E ws.N-.Tr.u! GG.PI.To+*I.&@ n- 6$ wI.U* @& G(.w+ F+ !  '= a,.6%.8A.R7.Uo+}E .~+R!.Q-.Pb+y*.sc+Sb+Sb+bg+Dr.b   v.Z~.Vo+Wo+Xo+Yo+Zo+0e+zA.K_.o<.%$ l- GA.:G.`o+'C.cy. p+F;..p+g,.lF.+p+o(+@p+#p+'. /. X{ EJ I& $. ); CP $p+%p+32 x4 ]; B& q= )L 16 _O $R OJ oJ yM 17 yw }r }r &p+Yu.*p+Vh.=p+-p+;p+um.>p+,p+:o+'p+<o+)p+!p+/o+~p+{p+]p+{p+^p+/p+!p+(p+Jl+0q om._p+Xk.:p+<p+ l.*o.[p+od+K{+,p+}p+@j+J. .* |* |p+03.GW.1p+!% y: >) /* 2p+Q@ K, I@ _#  m+K= 3p+H< Aw {i+yj+P6.4p+5p+6p+7p+8p+9p+0p+ap+bp+cp+dp+dp+Bk+ro+<P.5U.so+ep+fp+GI.ro+dq.zJ.Cz.M_.MM.bM.OK +G.!v.mK.%D.&@ Ar.gp+hp+ip+jp+kp+lp+Ym+mp++k+;+ c* o* _+ /+ 8* w* l# v* ^- v* u% v% c* C* np+op+l* Vb np+pp+qp+AS Un+8g+rp+Re+sp+tp+Sn+sp+Z-.`+.Rn+up+%; vp+Po+g= `+.",
"m, F$ w& Rn+^6 OI.u$ R3 ]; .. <} wp+{U 2e+:e+xp++G 9M 8M XT To+F=.yp+d}.DH.zp+8O.>@ J+ U* V* V+ R* Z# 7$ U* $& <$ $& #& && 2'.$  J-.LQ Na+Ik Ap+m>.uz.Bp+Bp+7m+Cp+Al+!  ~  Dp+Ep+K_.2).Fp+Gp+;!.Hp+zA.Gp+6' 6$ -W.<P.[P.Ip+Jp+Kp+Lp+&L.Mp+Np+Op+Pp+U$ &y [v Qp+zP G& T) V  ~; P$ c& j@ ^} Y  R3 b^ 16 R$ $. K$ ); ]U xM zP zP Rp+L< #p+yw Sp+Tp+Up+Vp+Wp+Xp+Yp+Zp+`p+ q+v<+.q++q+@q+#q+$q+%q+&q+*q+]p+=q+-q+;q+tl x<+^o+[o+(p+>q+,q+'q+hj+)q+l++!q+H!+@j+M. co+b. N@ J@ bE.{^+x$+~q+{q+ER.)$ ]q+H> xs 4% ,# x> -% k; x> R@ 9[+Aj+^q+en+lk+O~+/q+(q+_q+:q+<q+[q+}q+|q+MM.1q+2q+Lg+3q+4q+5q+6q+7q+8q+&S.b'.[P.<& }P.F^.AJ.9q+[$ AE.AJ.eO.=v.X@.Sp 0q+aq+Xm+bq+cq+dq+eq+fq+u% )+ A% x# w% [- 2+ [- 8* s* E% i% gq+^+ z# 9+ 4# G; u; `3 hq+iq+jq+CE kq+>h+lq+3m+Rk+mq+Rk+Po+nq+f2 oq+pq+)c+sV qq+f= ",
"`+.rq+I< %& =( sq+// tq+u& M' uq+B>.|v vq+I!+<w TK rr.w*.qC.Er.Mo.X8.s[.xy.||.x<.mD.&G.eE.O+ .& PI.N+ e~ `# @& 1$ D].0,.)  ,  1'.#@ B+ 9h +c.Ig+U8.)r wq+xq+yq+zq+F+ Cq.Aq+Bq+Bq+Cq+Dq+Eq+(1.]|.Hp+i[.F- '$ $= Fq+Gq+vE.iM.Hq+Iq+Jq+Kq+Lq+m(+ys _a+Mq+(( Rp+xP A@ 4$.K$ ~@ t@ !@ f^ 8@ A& I) L| L& d$ CS #. #Y .. ~; P$ $R q' JE uV ,#.%D yw )k+Ye+Nq+Oq+Pq+Cp.Qq+Rq+Sq+bj.Tq+{n+$q+Uq+Vq+Wq+Xq+Yq+Zq+`q+*q+ r+.r++r+[o+Km @r+#r+$r+%r+Ra+&r+en+Fg+Wd+*r+a. (# /# jx.F:.=r+-r+;r+>r+~q+sS.t> Y@ ]% ,r+>% b% 5; 'r+M& %% B. vS I. So+ j+Wd+7o+jh+)r+!r+~r+{r+]r+^r+/r+KW.(r+_r+:r+<r+[r+}r+HI.|r+1r+2r+gP.*S.||.jO.un.3r+[N.YA.Fo.>g.)` 4r+5r+6r+7r+-h+Bn+8r+9r+0r+i* ]' ar+j% n# [- Ho+A% 3+ 8* br+>- '' H; cr+[- <) dr+p* D% ,+ L# er+{' fr+*<.gr+Oz }j+hr+ir+jr+kr+jr+B:+lr+mr+vp+nr+[I ,; or+",
"Z) p  2X.F$ `  P' |= J) zG _@ pr+n>.4m+Sl [S 0E Y< YT fk.g  Je.bM.lD.XP.{  $= &L.jw.qr+rr+_F.T+ :& ,@ DH.sr+T* +& +$ y+ M{.e  $> e  tr+0S $O m*.Lx }J Ve+BC xo 1$ %@ gP.ur+x! vr+wr+vr+xr+yr+zr+^|.Ar+-!.q[.:G.Br+Cr+Dr+Er+Fr+Gr+Hr+PW Ir+Hf+`{ OW F] A@ ^| h$ F& ]; _@ xG E~ S  `  w= ~U x$ K& L& q$ a@ {@ h@ Q) W  Jr+J& A@ HJ H& yM sl+!I N0+GG kG ,l >8 Kr+Lr+51+Mr+Mr+Nr+Or+Pr+Qr+Rr+Sr+%r+Tr+Ur+Vr+Wr+Xr+Yr+;*+Zr+`r+ s+Yi+.s++s+]i+@s+|l+#s+9[+6. Q=.y> $s+]q+`$ Z{.%s+&s+l. *s+=s+>^ ,: -s+#! ^* w. ,# G@ 4% )}+;s+7% %- do+>s+`i+}l+9[+{i+Ki ,s+'s+)s+!s+~s+{s+]s+^s+1G /s+le.l>+(s+_s+En.:s+<s++r zB [s+/d.y= }s+|s+1s+2s+3s+4s+5s+-h+6s+7s+ml+:m+8s+W. 9s+|) |) !+ z% 0} w% ^+ }+ 8* x# o* !' u# `> |- }~ z# a- }{ |) E^ 0s+as+bs+cs+ds+es+fs+gs+Q$ sV hs+/b+]b+is+lr+js+lr+ks+f= 6[ ",
"ls+ms+ns+os+ps+qs+rs+n(+Vn+ j.-n+$O +t.Lt.8J Lt. v.qC.[x.vn.&  `* =@ 6$ _  $= W# ]Q.QI.ss+ts+$= RO._$ DK.SP.=@ %> 5& kw Y~.$$ E;.H7 o>.WT i&.R7.KH z..Uf.Zn.dJ us+vs+ws+xs+ys+zs+As+Bs+Cs+Ds+Es+Fs+Gs+Hs+;g+Is+Js+Ks+Ls+Ms+Ns+Os+Ps+eO |@ Qs+Rs+L] s$ `2 $Y $9 xG )0 !@ H) #3 |> l= N& E$ d> k> 7@ c> Q! (9 c5 1= A& O& E& K$ _O _O ,. ,L $R Ss+!. )0+Ts+Sp+}r Us+cf+Fh Vs+aM.Ws+Xs+Ys+Zs+Or+Ts.&3+`s+ t+.t++t+3e+Oq+Yi+@t+#t+$t+jk+zj+{i+%t+Bj+do+K= |* I_.))  % I@ &t+CD.*t+=t+-t+NC.;t+./ e{ $R.3; >t+$* H@ L, :* '# |a+D= -- ,t+]# r7+do+G. |l+Em+'t++m+)t+F.+!t+~t+{t+]t+]t+^t+/t+(t+_t+:t+<t+[t+}t+|t+1t+2t+3t+4t+5t+6t+]m+7t+ci+8t+9t+0t+at+&h+bt+Dn+bt+/m+6# c* !+ q* 6+ }+ 4+ m# ct+_+ z% $' s# {- :- C; ~+ gq+6* 7* t; ., -+ h+ Y. dt+et+Q[+ft+gt+Fk+ht+it+O&+kG Hs >> Mq+~. ~. 7O oc+",
"jt+kt+lt+mt+nt+t4.H;.$  dg+%  e[.9y.9y.'g.fk.rw.1'.Gs.F+ y+ EH.jw.J+ G9 w[.lA.ot+dn.pt+HP ZL.OI.r+ -!.f{ DH.W# 8  W# }$ y+ <$ Q~.D+ $@ 6%.a&.@c.vW  v.i  TK Lt.qt+Vi.8Q.3J rt+q+ Hy.cM.st+tt+M} rq.ut+vt+wt+xt+yt+zt+od At+Bt+Ct+Dt+,u [@ 3U Et+dO jS.Ft+,u o^ AJ Gt+Rs+KJ Ht+U  8@ 7@ f@ f@ N..k@ R3 R- 7^ g@ 2= E$ T$ Q) J& _O _B JE ^. _m It+). Tk+pc+,I }2 _a+Sp+kG l1 Jt+Rf+Kt+Lt+Mt+Nt+Ot+L,+Nh+Pt+Qt+Rt+St++m+ut+Tt+Ut+xA.2. |l+Vt+bn+Wt+(# Xt+Yt+Zt+D. `t+ u+./ I;..u+GS +u+@u+,D @> #u+44 o; >% J> $u+>t+_* :* p; Wt+#- =% %7+D= b[+<l+%u+&u+Wd+}p+Fg+*u+=u+Hg+-u+&%+;u+>u+,u+'u+)u+!u+~u+{u+0(+]u+^u+/u+(u+_u+7t+:u+0t+<u+[u+}u+/j+8s+|u+1u+W. 2u+-] ]- 3u+ar+^+ s* }+ z% [- F% l# '' x* j# v^ 1+ ^+ }+ !' v* 4u+ , 4- I; .n+W. 5u+6u+j+ 7u+G2.8u+9u+0u+au+bu+cu+du+%/+eu+Cd fu+gu+hu+"};
