/* XPM */
static char * 4_xpm[] = {
"256 256 4327 2",
"  	c #65615F",
". 	c #6A6663",
"+ 	c #706C6A",
"@ 	c #716D6B",
"# 	c #726E6B",
"$ 	c #6F6B69",
"% 	c #6D6A68",
"& 	c #6C6866",
"* 	c #676462",
"= 	c #625F5E",
"- 	c #605D5C",
"; 	c #635F5F",
"> 	c #64605F",
", 	c #5E5957",
"' 	c #5B5654",
") 	c #5A5552",
"! 	c #5A5451",
"~ 	c #625C5A",
"{ 	c #6D6865",
"] 	c #6F6B68",
"^ 	c #6E6A68",
"/ 	c #736F6C",
"( 	c #726E6C",
"_ 	c #716C6A",
": 	c #716D6A",
"< 	c #706C69",
"[ 	c #6F6A68",
"} 	c #6B6765",
"| 	c #6C6764",
"1 	c #696563",
"2 	c #625E5C",
"3 	c #69635F",
"4 	c #6A6460",
"5 	c #68615D",
"6 	c #6A635F",
"7 	c #665F5A",
"8 	c #645C58",
"9 	c #5F554F",
"0 	c #5F5650",
"a 	c #5E5650",
"b 	c #625C59",
"c 	c #655F5D",
"d 	c #65605E",
"e 	c #66615F",
"f 	c #6E6865",
"g 	c #706A66",
"h 	c #726B68",
"i 	c #746D6A",
"j 	c #726C68",
"k 	c #6F6965",
"l 	c #66615E",
"m 	c #5F5A57",
"n 	c #55504D",
"o 	c #56514E",
"p 	c #534D48",
"q 	c #5E5956",
"r 	c #6B6562",
"s 	c #6C635C",
"t 	c #726A64",
"u 	c #78716D",
"v 	c #79726E",
"w 	c #7B7370",
"x 	c #7A7370",
"y 	c #7C7572",
"z 	c #7B7471",
"A 	c #7A7471",
"B 	c #78726F",
"C 	c #736E6D",
"D 	c #767170",
"E 	c #716C6B",
"F 	c #6E6968",
"G 	c #6D6969",
"H 	c #6F6B6A",
"I 	c #726E6D",
"J 	c #767270",
"K 	c #787371",
"L 	c #7B7775",
"M 	c #7C7876",
"N 	c #7F7A78",
"O 	c #7E7977",
"P 	c #7B7674",
"Q 	c #7A7573",
"R 	c #797573",
"S 	c #777270",
"T 	c #787472",
"U 	c #787370",
"V 	c #746E6B",
"W 	c #6E6661",
"X 	c #6E6964",
"Y 	c #75716E",
"Z 	c #77726E",
"` 	c #706D6B",
" .	c #6E6A6A",
"..	c #757170",
"+.	c #7C7776",
"@.	c #7A7674",
"#.	c #7D7977",
"$.	c #7E7A78",
"%.	c #7E7976",
"&.	c #827B75",
"*.	c #7B736C",
"=.	c #67615C",
"-.	c #605B58",
";.	c #615C5A",
">.	c #686462",
",.	c #76706B",
"'.	c #7A746D",
").	c #817870",
"!.	c #827970",
"~.	c #81786F",
"{.	c #877D73",
"].	c #817A74",
"^.	c #7C7775",
"/.	c #7D7976",
"(.	c #797572",
"_.	c #787473",
":.	c #75716F",
"<.	c #77716E",
"[.	c #7D7773",
"}.	c #7F7875",
"|.	c #7C7672",
"1.	c #756D68",
"2.	c #685D58",
"3.	c #675952",
"4.	c #64564F",
"5.	c #62544E",
"6.	c #5F524B",
"7.	c #61544D",
"8.	c #60534C",
"9.	c #605651",
"0.	c #6C645F",
"a.	c #6C645E",
"b.	c #6F6760",
"c.	c #766F6A",
"d.	c #746C67",
"e.	c #77706D",
"f.	c #766F6B",
"g.	c #776E6A",
"h.	c #6B605B",
"i.	c #5C4F48",
"j.	c #5E514A",
"k.	c #5F534B",
"l.	c #5F534C",
"m.	c #60554D",
"n.	c #594E47",
"o.	c #5C514A",
"p.	c #564C45",
"q.	c #544A43",
"r.	c #524841",
"s.	c #534B46",
"t.	c #615B55",
"u.	c #68635E",
"v.	c #66605A",
"w.	c #645E58",
"x.	c #655F5B",
"y.	c #5D5854",
"z.	c #57524F",
"A.	c #585350",
"B.	c #595551",
"C.	c #605A56",
"D.	c #6B6663",
"E.	c #756E6B",
"F.	c #7C7571",
"G.	c #7E7773",
"H.	c #807875",
"I.	c #7F7874",
"J.	c #7D7571",
"K.	c #7A726D",
"L.	c #80756F",
"M.	c #7D726B",
"N.	c #796C65",
"O.	c #74655E",
"P.	c #706057",
"Q.	c #74635A",
"R.	c #75635B",
"S.	c #75645B",
"T.	c #736259",
"U.	c #716058",
"V.	c #73625A",
"W.	c #716158",
"X.	c #6D5D55",
"Y.	c #6B5B53",
"Z.	c #675850",
"`.	c #695A52",
" +	c #6C5D55",
".+	c #6B5C54",
"++	c #6A5C54",
"@+	c #594E48",
"#+	c #706762",
"$+	c #756E6A",
"%+	c #736D69",
"&+	c #736C69",
"*+	c #716B67",
"=+	c #6F6864",
"-+	c #6D6661",
";+	c #6B6460",
">+	c #716965",
",+	c #6F6865",
"'+	c #706A67",
")+	c #726C69",
"!+	c #736D6A",
"~+	c #756F6B",
"{+	c #746E6A",
"]+	c #77716D",
"^+	c #716C68",
"/+	c #696460",
"(+	c #635E5B",
"_+	c #615D5A",
":+	c #5C5855",
"<+	c #6F6763",
"[+	c #6C625D",
"}+	c #6E635C",
"|+	c #71645D",
"1+	c #71635B",
"2+	c #72635B",
"3+	c #706159",
"4+	c #6C5E56",
"5+	c #6B5D55",
"6+	c #6E5F58",
"7+	c #73655E",
"8+	c #776B64",
"9+	c #786C65",
"0+	c #786D66",
"a+	c #796E68",
"b+	c #756A64",
"c+	c #736760",
"d+	c #695C54",
"e+	c #66574E",
"f+	c #635148",
"g+	c #635046",
"h+	c #675349",
"i+	c #69554B",
"j+	c #655349",
"k+	c #67564D",
"l+	c #6D5D54",
"m+	c #6C5D54",
"n+	c #6D5E56",
"o+	c #74665E",
"p+	c #6F6058",
"q+	c #6D5E55",
"r+	c #695B53",
"s+	c #665951",
"t+	c #60524B",
"u+	c #62554E",
"v+	c #584B44",
"w+	c #564841",
"x+	c #584A42",
"y+	c #55463E",
"z+	c #594A41",
"A+	c #5F4F46",
"B+	c #63534A",
"C+	c #615249",
"D+	c #6D6058",
"E+	c #756962",
"F+	c #71655E",
"G+	c #766A63",
"H+	c #756861",
"I+	c #766860",
"J+	c #796B63",
"K+	c #796A62",
"L+	c #74655D",
"M+	c #6E6059",
"N+	c #6D6159",
"O+	c #6B605A",
"P+	c #675D57",
"Q+	c #665E5A",
"R+	c #615B59",
"S+	c #5D5855",
"T+	c #59534E",
"U+	c #58514B",
"V+	c #68605D",
"W+	c #6B615C",
"X+	c #6A5D53",
"Y+	c #786A63",
"Z+	c #7A6C65",
"`+	c #7C6E66",
" @	c #796B64",
".@	c #796C64",
"+@	c #7E7069",
"@@	c #81756E",
"#@	c #837771",
"$@	c #827871",
"%@	c #847A74",
"&@	c #7F746E",
"*@	c #80746C",
"=@	c #7E746E",
"-@	c #7D726C",
";@	c #7E726B",
">@	c #7D716A",
",@	c #7D7068",
"'@	c #7B6D66",
")@	c #766961",
"!@	c #7A6C64",
"~@	c #7D6F67",
"{@	c #7F7068",
"]@	c #7F7169",
"^@	c #7C6F67",
"/@	c #7A6D65",
"(@	c #72645C",
"_@	c #73665F",
":@	c #76685F",
"<@	c #70635C",
"[@	c #71645C",
"}@	c #746760",
"|@	c #6F625B",
"1@	c #695C53",
"2@	c #6F6158",
"3@	c #74665D",
"4@	c #746962",
"5@	c #776D67",
"6@	c #796F68",
"7@	c #7B706A",
"8@	c #7C716A",
"9@	c #7C6F68",
"0@	c #7B6F67",
"a@	c #72665E",
"b@	c #756860",
"c@	c #766962",
"d@	c #7A6F68",
"e@	c #84776D",
"f@	c #85796F",
"g@	c #746C68",
"h@	c #65605D",
"i@	c #666260",
"j@	c #6D6663",
"k@	c #6A615B",
"l@	c #695F58",
"m@	c #72655B",
"n@	c #736356",
"o@	c #746255",
"p@	c #756356",
"q@	c #796659",
"r@	c #7C695C",
"s@	c #7E6B5E",
"t@	c #77675C",
"u@	c #72665F",
"v@	c #71665F",
"w@	c #756B64",
"x@	c #7B7069",
"y@	c #796E67",
"z@	c #70625B",
"A@	c #6F5F56",
"B@	c #69584E",
"C@	c #66534A",
"D@	c #68554C",
"E@	c #67554B",
"F@	c #625047",
"G@	c #604E45",
"H@	c #5F4E44",
"I@	c #645349",
"J@	c #5A4940",
"K@	c #59493F",
"L@	c #594A40",
"M@	c #5B4C42",
"N@	c #675950",
"O@	c #65574E",
"P@	c #685951",
"Q@	c #695950",
"R@	c #635147",
"S@	c #615046",
"T@	c #5E4D43",
"U@	c #5D4C42",
"V@	c #58473D",
"W@	c #57483E",
"X@	c #56473E",
"Y@	c #54453C",
"Z@	c #54453D",
"`@	c #51443B",
" #	c #50443C",
".#	c #584D45",
"+#	c #5B514A",
"@#	c #605751",
"##	c #625A55",
"$#	c #625D59",
"%#	c #5E5955",
"&#	c #66605E",
"*#	c #706864",
"=#	c #6F655E",
"-#	c #746861",
";#	c #7B6D65",
">#	c #7D6E65",
",#	c #7F6F66",
"'#	c #817167",
")#	c #817168",
"!#	c #7E6E64",
"~#	c #806F66",
"{#	c #7C6B61",
"]#	c #7A685E",
"^#	c #7A675C",
"/#	c #7A655A",
"(#	c #776156",
"_#	c #786256",
":#	c #7B6458",
"<#	c #796256",
"[#	c #7E6659",
"}#	c #7C6558",
"|#	c #7C6458",
"1#	c #7D6559",
"2#	c #7A6356",
"3#	c #776154",
"4#	c #765F53",
"5#	c #766054",
"6#	c #715C50",
"7#	c #6F5A4F",
"8#	c #705B4F",
"9#	c #6E594D",
"0#	c #6E5A4E",
"a#	c #705B50",
"b#	c #705C51",
"c#	c #6C584D",
"d#	c #6F5C51",
"e#	c #6D5C52",
"f#	c #695A51",
"g#	c #675951",
"h#	c #695B52",
"i#	c #685A52",
"j#	c #6F6159",
"k#	c #70625A",
"l#	c #6E6058",
"m#	c #6D5F57",
"n#	c #6E615A",
"o#	c #6C6059",
"p#	c #726761",
"q#	c #716762",
"r#	c #6D635D",
"s#	c #6C615A",
"t#	c #6B5F57",
"u#	c #6D5B51",
"v#	c #6A564C",
"w#	c #6B574C",
"x#	c #68544A",
"y#	c #665248",
"z#	c #6A574E",
"A#	c #6E5B51",
"B#	c #6F5D53",
"C#	c #6C5A50",
"D#	c #6D5A50",
"E#	c #665349",
"F#	c #6B584E",
"G#	c #645047",
"H#	c #68554A",
"I#	c #6A564B",
"J#	c #675348",
"K#	c #655147",
"L#	c #675248",
"M#	c #645046",
"N#	c #69554A",
"O#	c #685349",
"P#	c #614E45",
"Q#	c #614E44",
"R#	c #5F4D44",
"S#	c #56453C",
"T#	c #5A4A41",
"U#	c #5C4B43",
"V#	c #5E4C43",
"W#	c #5E4B41",
"X#	c #665247",
"Y#	c #5B483F",
"Z#	c #67544A",
"`#	c #6C584E",
" $	c #6D594E",
".$	c #6A574D",
"+$	c #6B5A51",
"@$	c #72655E",
"#$	c #6B625C",
"$$	c #665F5B",
"%$	c #615B57",
"&$	c #645B54",
"*$	c #6A615C",
"=$	c #6D625B",
"-$	c #6A5C53",
";$	c #635247",
">$	c #6F5C52",
",$	c #715D53",
"'$	c #705C52",
")$	c #6C594F",
"!$	c #6F5B51",
"~$	c #715E54",
"{$	c #726057",
"]$	c #74635B",
"^$	c #77665D",
"/$	c #78665D",
"($	c #7A685D",
"_$	c #74645B",
":$	c #746259",
"<$	c #6E5C52",
"[$	c #6F5B52",
"}$	c #725E53",
"|$	c #746055",
"1$	c #69574D",
"2$	c #6A574C",
"3$	c #66544A",
"4$	c #66544B",
"5$	c #68554B",
"6$	c #645044",
"7$	c #6E5B4F",
"8$	c #65544B",
"9$	c #66564D",
"0$	c #6F5F57",
"a$	c #6B5A52",
"b$	c #6D5B52",
"c$	c #69574E",
"d$	c #6C5A51",
"e$	c #716259",
"f$	c #786B63",
"g$	c #88796E",
"h$	c #81746B",
"i$	c #716964",
"j$	c #6D6866",
"k$	c #67615E",
"l$	c #6E6560",
"m$	c #6B615A",
"n$	c #695E57",
"o$	c #68574D",
"p$	c #6C584A",
"q$	c #6C5648",
"r$	c #6D5748",
"s$	c #6F5749",
"t$	c #6E5747",
"u$	c #6E5646",
"v$	c #6A564A",
"w$	c #635249",
"x$	c #64534A",
"y$	c #68574F",
"z$	c #67574E",
"A$	c #6B5950",
"B$	c #69564C",
"C$	c #5F4E45",
"D$	c #5C4B42",
"E$	c #5B4A41",
"F$	c #57463C",
"G$	c #524136",
"H$	c #524135",
"I$	c #5D493E",
"J$	c #5F4D42",
"K$	c #645248",
"L$	c #615047",
"M$	c #5C4C42",
"N$	c #57483F",
"O$	c #58493F",
"P$	c #5C4E45",
"Q$	c #56483F",
"R$	c #594B42",
"S$	c #584A41",
"T$	c #645A54",
"U$	c #645C56",
"V$	c #645D58",
"W$	c #6B6561",
"X$	c #6C6460",
"Y$	c #726862",
"Z$	c #736861",
"`$	c #79665C",
" %	c #786358",
".%	c #7A6358",
"+%	c #7A6357",
"@%	c #725C51",
"#%	c #755F53",
"$%	c #776155",
"%%	c #796356",
"&%	c #816A5D",
"*%	c #7E665A",
"=%	c #7C6457",
"-%	c #7D6659",
";%	c #745E52",
">%	c #735D52",
",%	c #715C51",
"'%	c #6F5B4F",
")%	c #6F5B50",
"!%	c #766055",
"~%	c #6D5A4F",
"{%	c #665348",
"]%	c #705D52",
"^%	c #715E53",
"/%	c #766358",
"(%	c #655247",
"_%	c #69594F",
":%	c #75675F",
"<%	c #6F655F",
"[%	c #6A5F59",
"}%	c #685B54",
"|%	c #64544B",
"1%	c #685449",
"2%	c #6C564A",
"3%	c #69544A",
"4%	c #6B564B",
"5%	c #6C574C",
"6%	c #6C574D",
"7%	c #6B574D",
"8%	c #6E594E",
"9%	c #69564B",
"0%	c #735E53",
"a%	c #6D584E",
"b%	c #604D43",
"c%	c #655045",
"d%	c #624F46",
"e%	c #68564D",
"f%	c #645147",
"g%	c #645148",
"h%	c #5C4A41",
"i%	c #5F4C42",
"j%	c #655248",
"k%	c #6E594F",
"l%	c #705A4F",
"m%	c #725D51",
"n%	c #6B564C",
"o%	c #6E635D",
"p%	c #6C635D",
"q%	c #676260",
"r%	c #615B56",
"s%	c #6F6258",
"t%	c #716258",
"u%	c #6B5D56",
"v%	c #614F45",
"w%	c #5C483C",
"x%	c #725C4F",
"y%	c #6D584D",
"z%	c #6E5A4F",
"A%	c #705B51",
"B%	c #685347",
"C%	c #695346",
"D%	c #655249",
"E%	c #6A584E",
"F%	c #786C66",
"G%	c #706761",
"H%	c #6C6865",
"I%	c #696562",
"J%	c #69615C",
"K%	c #6C625C",
"L%	c #5A4A42",
"M%	c #6D5649",
"N%	c #6D5647",
"O%	c #695244",
"P%	c #685141",
"Q%	c #6D5546",
"R%	c #6B5649",
"S%	c #625147",
"T%	c #614F46",
"U%	c #6B5445",
"V%	c #6C5647",
"W%	c #604F45",
"X%	c #67544B",
"Y%	c #645249",
"Z%	c #5E4D44",
"`%	c #534338",
" &	c #514035",
".&	c #58453A",
"+&	c #5A483E",
"@&	c #57473E",
"#&	c #56473D",
"$&	c #58483F",
"%&	c #5A4B42",
"&&	c #594940",
"*&	c #5B4C43",
"=&	c #5C4D45",
"-&	c #5D4E45",
";&	c #5A4C44",
">&	c #685F58",
",&	c #675F5A",
"'&	c #67625E",
")&	c #625D5A",
"!&	c #7D6C61",
"~&	c #776054",
"{&	c #796357",
"]&	c #80685B",
"^&	c #81685B",
"/&	c #745F53",
"(&	c #725D52",
"_&	c #6E5A50",
":&	c #746156",
"<&	c #776358",
"[&	c #756155",
"}&	c #715D52",
"|&	c #6C594E",
"1&	c #6D594F",
"2&	c #726259",
"3&	c #726A65",
"4&	c #605048",
"5&	c #5F4B41",
"6&	c #624F45",
"7&	c #6A554B",
"8&	c #715B50",
"9&	c #6F5A50",
"0&	c #735F54",
"a&	c #604D44",
"b&	c #6A5950",
"c&	c #604F46",
"d&	c #67554C",
"e&	c #6F5C53",
"f&	c #634F46",
"g&	c #756055",
"h&	c #6F594E",
"i&	c #6E5E54",
"j&	c #71655F",
"k&	c #5F5956",
"l&	c #6C6058",
"m&	c #5F4C41",
"n&	c #614D41",
"o&	c #5E4C42",
"p&	c #67534A",
"q&	c #655043",
"r&	c #625046",
"s&	c #6A584F",
"t&	c #65534A",
"u&	c #716660",
"v&	c #685D56",
"w&	c #6C5649",
"x&	c #6B5447",
"y&	c #675143",
"z&	c #644E3F",
"A&	c #695243",
"B&	c #6B5345",
"C&	c #624F44",
"D&	c #625148",
"E&	c #5D4C44",
"F&	c #5C4C43",
"G&	c #55443A",
"H&	c #56453A",
"I&	c #5B493F",
"J&	c #5B4B41",
"K&	c #584940",
"L&	c #5D4D44",
"M&	c #56473F",
"N&	c #645951",
"O&	c #69605A",
"P&	c #625C58",
"Q&	c #8D7968",
"R&	c #897464",
"S&	c #826856",
"T&	c #745D52",
"U&	c #725C50",
"V&	c #745E53",
"W&	c #735E52",
"X&	c #7D675B",
"Y&	c #7B6558",
"Z&	c #7D6558",
"`&	c #7E675A",
" *	c #846A58",
".*	c #836957",
"+*	c #786154",
"@*	c #755F54",
"#*	c #725E52",
"$*	c #766257",
"%*	c #776459",
"&*	c #6E5E55",
"**	c #5B5754",
"=*	c #5A5450",
"-*	c #6E5F57",
";*	c #645146",
">*	c #6E584D",
",*	c #6A554A",
"'*	c #674F41",
")*	c #665043",
"!*	c #5F5B58",
"~*	c #5E5855",
"{*	c #695D56",
"]*	c #5F4D43",
"^*	c #5D4A3F",
"/*	c #57463D",
"(*	c #68544B",
"_*	c #685447",
":*	c #6F6057",
"<*	c #6D615B",
"[*	c #645F5C",
"}*	c #685E58",
"|*	c #65574F",
"1*	c #6C5A4F",
"2*	c #705A4D",
"3*	c #6B5547",
"4*	c #685244",
"5*	c #6A5446",
"6*	c #685143",
"7*	c #6A5345",
"8*	c #5D4C43",
"9*	c #5C4B41",
"0*	c #604E44",
"a*	c #58483E",
"b*	c #5A4A40",
"c*	c #615148",
"d*	c #625248",
"e*	c #5B4B42",
"f*	c #54443B",
"g*	c #55463D",
"h*	c #5A4D45",
"i*	c #675D56",
"j*	c #615D5B",
"k*	c #78695F",
"l*	c #89715F",
"m*	c #8C6F59",
"n*	c #755E52",
"o*	c #735D51",
"p*	c #715B4F",
"q*	c #786255",
"r*	c #7A6256",
"s*	c #81695C",
"t*	c #7F685B",
"u*	c #7A6458",
"v*	c #7B6457",
"w*	c #756054",
"x*	c #766156",
"y*	c #796458",
"z*	c #766155",
"A*	c #7B665A",
"B*	c #655A53",
"C*	c #5F5B59",
"D*	c #635C58",
"E*	c #624E44",
"F*	c #695449",
"G*	c #6C564C",
"H*	c #5F4C43",
"I*	c #5E4A41",
"J*	c #6C564B",
"K*	c #5E493C",
"L*	c #62554F",
"M*	c #5C4A40",
"N*	c #5D4B42",
"O*	c #635047",
"P*	c #634F45",
"Q*	c #5E4C44",
"R*	c #5A483F",
"S*	c #6C584C",
"T*	c #6A5549",
"U*	c #6B594F",
"V*	c #695C55",
"W*	c #645852",
"X*	c #5F5047",
"Y*	c #645247",
"Z*	c #5C4B40",
"`*	c #685346",
" =	c #695345",
".=	c #5E4E45",
"+=	c #5F4E46",
"@=	c #635248",
"#=	c #5C4C44",
"$=	c #5B4A42",
"%=	c #58473E",
"&=	c #53443C",
"*=	c #564840",
"==	c #60544E",
"-=	c #5B5450",
";=	c #58534F",
">=	c #7E6351",
",=	c #796050",
"'=	c #6B5549",
")=	c #786155",
"!=	c #826A5D",
"~=	c #7D665A",
"{=	c #7B6559",
"]=	c #745F54",
"^=	c #786257",
"/=	c #665952",
"(=	c #6B6764",
"_=	c #6A625D",
":=	c #675449",
"<=	c #685348",
"[=	c #655148",
"}=	c #5E4A40",
"|=	c #614D43",
"1=	c #665147",
"2=	c #5F4A3E",
"3=	c #6B5A50",
"4=	c #58524F",
"5=	c #604B40",
"6=	c #5B4940",
"7=	c #6B584D",
"8=	c #675A52",
"9=	c #615A54",
"0=	c #58524D",
"a=	c #63574F",
"b=	c #614E43",
"c=	c #6A5548",
"d=	c #695245",
"e=	c #695448",
"f=	c #695951",
"g=	c #615048",
"h=	c #5B4B43",
"i=	c #604F47",
"j=	c #5F4F45",
"k=	c #594A42",
"l=	c #5E524B",
"m=	c #57504B",
"n=	c #534E4A",
"o=	c #6A5B53",
"p=	c #725B4D",
"q=	c #6F5A4E",
"r=	c #776055",
"s=	c #826A5E",
"t=	c #7C6559",
"u=	c #7F685C",
"v=	c #7E675B",
"w=	c #7F695D",
"x=	c #675851",
"y=	c #5D5754",
"z=	c #665B55",
"A=	c #59463B",
"B=	c #56524F",
"C=	c #544F4B",
"D=	c #56453D",
"E=	c #5A4840",
"F=	c #5C4A42",
"G=	c #5F4D45",
"H=	c #5A4941",
"I=	c #635146",
"J=	c #765E50",
"K=	c #6A5B52",
"L=	c #57514C",
"M=	c #61544C",
"N=	c #635044",
"O=	c #675346",
"P=	c #675245",
"Q=	c #6B5548",
"R=	c #685448",
"S=	c #5F4F47",
"T=	c #5F5048",
"U=	c #5E4D45",
"V=	c #5D4D43",
"W=	c #5A493F",
"X=	c #605047",
"Y=	c #5D514A",
"Z=	c #554E48",
"`=	c #524C48",
" -	c #796358",
".-	c #776256",
"+-	c #7D685C",
"@-	c #5C5553",
"#-	c #665850",
"$-	c #68564C",
"%-	c #6C584F",
"&-	c #725C52",
"*-	c #624E45",
"=-	c #6E574A",
"--	c #6C574B",
";-	c #6B584F",
">-	c #645045",
",-	c #5B4F49",
"'-	c #58473F",
")-	c #56463E",
"!-	c #594840",
"~-	c #5D4B43",
"{-	c #625149",
"]-	c #614F47",
"^-	c #6F594C",
"/-	c #6F5E52",
"(-	c #5C5753",
"_-	c #64564E",
":-	c #655146",
"<-	c #655145",
"[-	c #675246",
"}-	c #6A5447",
"|-	c #68574E",
"1-	c #5E4E46",
"2-	c #5B4F48",
"3-	c #59524D",
"4-	c #504B46",
"5-	c #66574F",
"6-	c #7C665A",
"7-	c #756156",
"8-	c #5D4A40",
"9-	c #705A4E",
"0-	c #6E5649",
"a-	c #765D4F",
"b-	c #735B4D",
"c-	c #62534C",
"d-	c #5A5553",
"e-	c #57514E",
"f-	c #594941",
"g-	c #5B4941",
"h-	c #584840",
"i-	c #65544C",
"j-	c #6B574A",
"k-	c #69564D",
"l-	c #715B4D",
"m-	c #6D5D52",
"n-	c #64574F",
"o-	c #6A5649",
"p-	c #695447",
"q-	c #63524A",
"r-	c #66554C",
"s-	c #5E4E44",
"t-	c #584C44",
"u-	c #58524E",
"v-	c #544E4A",
"w-	c #776053",
"x-	c #766053",
"y-	c #736056",
"z-	c #725F55",
"A-	c #745D51",
"B-	c #735C50",
"C-	c #725B4F",
"D-	c #765F54",
"E-	c #766157",
"F-	c #785F51",
"G-	c #634F44",
"H-	c #615149",
"I-	c #6F584B",
"J-	c #645750",
"K-	c #615A55",
"L-	c #64574E",
"M-	c #6C574A",
"N-	c #665145",
"O-	c #634F43",
"P-	c #55453D",
"Q-	c #504139",
"R-	c #5B4A40",
"S-	c #59473D",
"T-	c #5A534F",
"U-	c #57524E",
"V-	c #7A6254",
"W-	c #665750",
"X-	c #625B59",
"Y-	c #725D53",
"Z-	c #756257",
"`-	c #725E54",
" ;	c #7C655A",
".;	c #765F52",
"+;	c #65564E",
"@;	c #575250",
"#;	c #56504D",
"$;	c #62524A",
"%;	c #53433B",
"&;	c #64524A",
"*;	c #59483D",
"=;	c #70594B",
"-;	c #5A483D",
";;	c #63564E",
">;	c #5C5754",
",;	c #625045",
"';	c #634E42",
");	c #604D40",
"!;	c #5F4D41",
"~;	c #5D4B41",
"{;	c #52433B",
"];	c #4D3E37",
"^;	c #52423A",
"/;	c #55453C",
"(;	c #56463D",
"_;	c #69584F",
":;	c #64534B",
"<;	c #67554D",
"[;	c #604D42",
"};	c #61554E",
"|;	c #5C5550",
"1;	c #6C5C54",
"2;	c #796255",
"3;	c #796153",
"4;	c #605A57",
"5;	c #715C52",
"6;	c #786156",
"7;	c #775F53",
"8;	c #765E52",
"9;	c #786054",
"0;	c #826A5F",
"a;	c #735C51",
"b;	c #725B50",
"c;	c #6F594D",
"d;	c #62544C",
"e;	c #56514F",
"f;	c #544E4B",
"g;	c #5D4D45",
"h;	c #5E4B42",
"i;	c #6D574A",
"j;	c #604E43",
"k;	c #63564F",
"l;	c #665E58",
"m;	c #65584F",
"n;	c #615045",
"o;	c #655246",
"p;	c #624F43",
"q;	c #5D4B40",
"r;	c #57473D",
"s;	c #55473F",
"t;	c #483A33",
"u;	c #493B34",
"v;	c #473A33",
"w;	c #52443D",
"x;	c #54443C",
"y;	c #574840",
"z;	c #6D5C53",
"A;	c #5E4B3F",
"B;	c #59483E",
"C;	c #57453B",
"D;	c #625249",
"E;	c #675B54",
"F;	c #5D5753",
"G;	c #5A5654",
"H;	c #6D574D",
"I;	c #705A50",
"J;	c #796156",
"K;	c #796257",
"L;	c #715A4F",
"M;	c #54504D",
"N;	c #524D49",
"O;	c #5B4C44",
"P;	c #5A4A43",
"Q;	c #564740",
"R;	c #6F584A",
"S;	c #655044",
"T;	c #635750",
"U;	c #5F5A56",
"V;	c #655D56",
"W;	c #685950",
"X;	c #675347",
"Y;	c #614F43",
"Z;	c #5E4B40",
"`;	c #463932",
" >	c #52453E",
".>	c #453933",
"+>	c #554740",
"@>	c #52443C",
"#>	c #4C3D36",
"$>	c #4D3F37",
"%>	c #584941",
"&>	c #5E4C41",
"*>	c #554439",
"=>	c #645851",
"->	c #5E5753",
";>	c #5B5755",
">>	c #6D594D",
",>	c #5C5653",
"'>	c #6D574C",
")>	c #7C6357",
"!>	c #7B6357",
"~>	c #765E53",
"{>	c #65554D",
"]>	c #524D4B",
"^>	c #4F4A47",
"/>	c #574C47",
"(>	c #5A4D46",
"_>	c #5E4E47",
":>	c #57473F",
"<>	c #504038",
"[>	c #534339",
"}>	c #6D5A51",
"|>	c #67554A",
"1>	c #65554C",
"2>	c #655C55",
"3>	c #665950",
"4>	c #54463F",
"5>	c #4F4039",
"6>	c #4C3F39",
"7>	c #52453D",
"8>	c #5A4B44",
"9>	c #594B43",
"0>	c #5D4E46",
"a>	c #63534B",
"b>	c #665A53",
"c>	c #5F5955",
"d>	c #5C5856",
"e>	c #746056",
"f>	c #736156",
"g>	c #625853",
"h>	c #726056",
"i>	c #786055",
"j>	c #775F54",
"k>	c #655046",
"l>	c #5E5149",
"m>	c #5B514B",
"n>	c #4F4A48",
"o>	c #4D4947",
"p>	c #554C46",
"q>	c #554A44",
"r>	c #5E4F47",
"s>	c #685C54",
"t>	c #5E5854",
"u>	c #625A53",
"v>	c #655850",
"w>	c #6A594F",
"x>	c #56463C",
"y>	c #51433B",
"z>	c #5A4C45",
"A>	c #574941",
"B>	c #5F514A",
"C>	c #53443B",
"D>	c #776052",
"E>	c #65544A",
"F>	c #655953",
"G>	c #615A56",
"H>	c #715B51",
"I>	c #746054",
"J>	c #4B423B",
"K>	c #4E4845",
"L>	c #6B5448",
"M>	c #715A4E",
"N>	c #6E5C53",
"O>	c #60524A",
"P>	c #584E49",
"Q>	c #4C4744",
"R>	c #4B4643",
"S>	c #524945",
"T>	c #534944",
"U>	c #5A4F48",
"V>	c #64544C",
"W>	c #605149",
"X>	c #534238",
"Y>	c #5E564F",
"Z>	c #63554C",
"`>	c #4F4038",
" ,	c #5A4B43",
".,	c #705D53",
"+,	c #6E5B50",
"@,	c #635852",
"#,	c #5D5956",
"$,	c #675A53",
"%,	c #6D584C",
"&,	c #776258",
"*,	c #6C5B52",
"=,	c #5B4D43",
"-,	c #453D35",
";,	c #6E584C",
">,	c #6A5245",
",,	c #755E53",
"',	c #6F594F",
"),	c #5D5049",
"!,	c #5A4F49",
"~,	c #594F4A",
"{,	c #4F4742",
"],	c #47423F",
"^,	c #45403D",
"/,	c #49423E",
"(,	c #564D48",
"_,	c #514842",
":,	c #574B45",
"<,	c #584A43",
"[,	c #695850",
"},	c #605148",
"|,	c #62534A",
"1,	c #6A5A51",
"2,	c #695D55",
"3,	c #685C55",
"4,	c #5B5551",
"5,	c #5D554F",
"6,	c #645850",
"7,	c #61554D",
"8,	c #5F5149",
"9,	c #584B43",
"0,	c #5B4D45",
"a,	c #64554D",
"b,	c #62534B",
"c,	c #66554D",
"d,	c #66564C",
"e,	c #64564D",
"f,	c #6A5A52",
"g,	c #6C5950",
"h,	c #6C5B51",
"i,	c #635D59",
"j,	c #6C5F57",
"k,	c #6B564A",
"l,	c #6A5448",
"m,	c #7C6454",
"n,	c #8C6E57",
"o,	c #7A6252",
"p,	c #735D50",
"q,	c #735F53",
"r,	c #746257",
"s,	c #6F5E54",
"t,	c #705E54",
"u,	c #685A51",
"v,	c #504A45",
"w,	c #4E4A47",
"x,	c #5D524B",
"y,	c #5E534E",
"z,	c #61534C",
"A,	c #63554D",
"B,	c #61524B",
"C,	c #584538",
"D,	c #66554A",
"E,	c #6F5E55",
"F,	c #6E5D54",
"G,	c #6C5C53",
"H,	c #685850",
"I,	c #544942",
"J,	c #51463F",
"K,	c #5F524A",
"L,	c #67574F",
"M,	c #68584F",
"N,	c #66564E",
"O,	c #61524A",
"P,	c #60514A",
"Q,	c #5E5049",
"R,	c #5C5049",
"S,	c #5D524C",
"T,	c #574E48",
"U,	c #4C443F",
"V,	c #46403D",
"W,	c #504B49",
"X,	c #534E4B",
"Y,	c #46403C",
"Z,	c #49413D",
"`,	c #534A45",
" '	c #574C45",
".'	c #5B4E47",
"+'	c #594C45",
"@'	c #574940",
"#'	c #5B4E46",
"$'	c #594C44",
"%'	c #584C45",
"&'	c #594D46",
"*'	c #5A4E47",
"='	c #574B44",
"-'	c #594C46",
";'	c #5C514B",
">'	c #564C47",
",'	c #5A504A",
"''	c #5D514B",
")'	c #5D5149",
"!'	c #62544D",
"~'	c #63544C",
"{'	c #6A5E58",
"]'	c #73645B",
"^'	c #68615B",
"/'	c #61564F",
"('	c #62564F",
"_'	c #594D47",
":'	c #534842",
"<'	c #554942",
"['	c #5A4F47",
"}'	c #5E524C",
"|'	c #5A5049",
"1'	c #4E443F",
"2'	c #4C423B",
"3'	c #665851",
"4'	c #63554E",
"5'	c #5C4E46",
"6'	c #60534B",
"7'	c #564942",
"8'	c #61534B",
"9'	c #665D58",
"0'	c #706B67",
"a'	c #726D6A",
"b'	c #776A61",
"c'	c #7A6A5F",
"d'	c #77655A",
"e'	c #6F5D52",
"f'	c #6A5A50",
"g'	c #695A53",
"h'	c #685952",
"i'	c #6B5C55",
"j'	c #6B5E56",
"k'	c #857160",
"l'	c #816C5A",
"m'	c #7C6656",
"n'	c #6B5C53",
"o'	c #6E5E56",
"p'	c #695E58",
"q'	c #594F48",
"r'	c #59514C",
"s'	c #564F4A",
"t'	c #4C433D",
"u'	c #554E49",
"v'	c #5E5550",
"w'	c #655A54",
"x'	c #65564F",
"y'	c #635A55",
"z'	c #64605D",
"A'	c #5E5B59",
"B'	c #5E5652",
"C'	c #5A5452",
"D'	c #524C49",
"E'	c #56504E",
"F'	c #554F4C",
"G'	c #554F4D",
"H'	c #595250",
"I'	c #564F4D",
"J'	c #585250",
"K'	c #514C49",
"L'	c #504B48",
"M'	c #4F4A46",
"N'	c #4E4945",
"O'	c #453D36",
"P'	c #49413A",
"Q'	c #514C48",
"R'	c #4F4844",
"S'	c #4D4743",
"T'	c #4A433F",
"U'	c #48413D",
"V'	c #403A36",
"W'	c #3E3834",
"X'	c #423C38",
"Y'	c #47413D",
"Z'	c #4A4340",
"`'	c #4C4541",
" )	c #4B4541",
".)	c #4C4641",
"+)	c #4E4946",
"@)	c #474039",
"#)	c #4A4542",
"$)	c #494441",
"%)	c #443F3A",
"&)	c #4B4642",
"*)	c #4D4845",
"=)	c #4A4643",
"-)	c #484441",
";)	c #494542",
">)	c #484341",
",)	c #595452",
"')	c #4C4743",
"))	c #4C4845",
"!)	c #4B4641",
"~)	c #46403A",
"{)	c #4A4540",
"])	c #48433F",
"^)	c #494541",
"/)	c #4A4543",
"()	c #4C4745",
"_)	c #443F3C",
":)	c #45413E",
"<)	c #514C4A",
"[)	c #595351",
"})	c #595350",
"|)	c #5C5552",
"1)	c #5F5854",
"2)	c #524D4A",
"3)	c #4F4B47",
"4)	c #534E4C",
"5)	c #5E5856",
"6)	c #605957",
"7)	c #655F5C",
"8)	c #726D69",
"9)	c #6C6762",
"0)	c #5F5853",
"a)	c #57514F",
"b)	c #5C5551",
"c)	c #59524F",
"d)	c #585351",
"e)	c #4B4744",
"f)	c #49433F",
"g)	c #4D4844",
"h)	c #504C48",
"i)	c #433D39",
"j)	c #433E3A",
"k)	c #443E3A",
"l)	c #453F3C",
"m)	c #494440",
"n)	c #55504C",
"o)	c #56514D",
"p)	c #56504C",
"q)	c #4E4944",
"r)	c #453F38",
"s)	c #48413B",
"t)	c #4D4744",
"u)	c #504B47",
"v)	c #544F4C",
"w)	c #726D6B",
"x)	c #67625F",
"y)	c #68605C",
"z)	c #665F5C",
"A)	c #635D5A",
"B)	c #635C5A",
"C)	c #66605D",
"D)	c #58504A",
"E)	c #544C46",
"F)	c #524B46",
"G)	c #544D49",
"H)	c #58514E",
"I)	c #504C49",
"J)	c #5D5654",
"K)	c #5B5552",
"L)	c #5F5855",
"M)	c #5F5957",
"N)	c #5B5653",
"O)	c #5C5654",
"P)	c #70655B",
"Q)	c #71655B",
"R)	c #6C6662",
"S)	c #75726F",
"T)	c #68625D",
"U)	c #6D6966",
"V)	c #5D5755",
"W)	c #6D6967",
"X)	c #5B4F4A",
"Y)	c #584D47",
"Z)	c #5A4F4A",
"`)	c #544943",
" !	c #564B45",
".!	c #564A45",
"+!	c #594E49",
"@!	c #574C46",
"#!	c #564D49",
"$!	c #69625E",
"%!	c #726B66",
"&!	c #6F6964",
"*!	c #665D55",
"=!	c #736C66",
"-!	c #7A7572",
";!	c #777370",
">!	c #76716F",
",!	c #74706E",
"'!	c #635E5C",
")!	c #595450",
"!!	c #5D5856",
"~!	c #605C5A",
"{!	c #6E6967",
"]!	c #736E6C",
"^!	c #69635D",
"/!	c #635C57",
"(!	c #67615D",
"_!	c #6F6A67",
":!	c #6D6864",
"<!	c #6C6966",
"[!	c #6A6764",
"}!	c #6B6866",
"|!	c #6B6766",
"1!	c #63605E",
"2!	c #635F5E",
"3!	c #656160",
"4!	c #625E5D",
"5!	c #686261",
"6!	c #6B6563",
"7!	c #706966",
"8!	c #716A67",
"9!	c #6F6966",
"0!	c #716B68",
"a!	c #6E6863",
"b!	c #6E6864",
"c!	c #6B6662",
"d!	c #6A6562",
"e!	c #645E5A",
"f!	c #57504D",
"g!	c #4E4947",
"h!	c #57514D",
"i!	c #594F49",
"j!	c #5E5048",
"k!	c #5C4F49",
"l!	c #61554F",
"m!	c #5F534D",
"n!	c #706965",
"o!	c #746D69",
"p!	c #6C6560",
"q!	c #615752",
"r!	c #60534D",
"s!	c #6F635B",
"t!	c #6A605A",
"u!	c #5F524C",
"v!	c #584C46",
"w!	c #564A44",
"x!	c #574E49",
"y!	c #6D6763",
"z!	c #6D6764",
"A!	c #6C6763",
"B!	c #6E6A67",
"C!	c #746F6C",
"D!	c #5A5653",
"E!	c #65605F",
"F!	c #7F7773",
"G!	c #807975",
"H!	c #807874",
"I!	c #7C7773",
"J!	c #6B635C",
"K!	c #79716D",
"L!	c #786F6A",
"M!	c #706660",
"N!	c #71625B",
"O!	c #5E4F46",
"P!	c #6D6560",
"Q!	c #736C68",
"R!	c #726B67",
"S!	c #6F6762",
"T!	c #635953",
"U!	c #655750",
"V!	c #655B55",
"W!	c #605752",
"X!	c #5F544D",
"Y!	c #605046",
"Z!	c #635246",
"`!	c #5D4E44",
" ~	c #5D5047",
".~	c #5B4D44",
"+~	c #5D4F47",
"@~	c #5C4D44",
"#~	c #5C4E47",
"$~	c #625751",
"%~	c #5F544E",
"&~	c #63544B",
"*~	c #574841",
"=~	c #584942",
"-~	c #736761",
";~	c #675E59",
">~	c #655E5B",
",~	c #675F5B",
"'~	c #685E59",
")~	c #6D615A",
"!~	c #6D6059",
"~~	c #5C504A",
"{~	c #635751",
"]~	c #625650",
"^~	c #635851",
"/~	c #60554E",
"(~	c #615650",
"_~	c #685D57",
":~	c #6D645E",
"<~	c #716863",
"[~	c #716763",
"}~	c #736A65",
"|~	c #726963",
"1~	c #746963",
"2~	c #756963",
"3~	c #756A63",
"4~	c #70645E",
"5~	c #695D54",
"6~	c #6F635C",
"7~	c #6A5E56",
"8~	c #6A5F58",
"9~	c #655A55",
"0~	c #625852",
"a~	c #5C5450",
"b~	c #5A524D",
"c~	c #5E534D",
"d~	c #6B5F58",
"e~	c #6B6059",
"f~	c #665A54",
"g~	c #655952",
"h~	c #655851",
"i~	c #6F645E",
"j~	c #625D5B",
"k~	c #6B6664",
"l~	c #726A66",
"m~	c #766B64",
"n~	c #7B6D64",
"o~	c #786860",
"p~	c #7D6D64",
"q~	c #7F6E65",
"r~	c #7C6B62",
"s~	c #827167",
"t~	c #7D6C63",
"u~	c #7B6A61",
"v~	c #73635A",
"w~	c #7C6C63",
"x~	c #76675E",
"y~	c #70584B",
"z~	c #755E51",
"A~	c #675144",
"B~	c #675044",
"C~	c #644F43",
"D~	c #675448",
"E~	c #745F55",
"F~	c #675B55",
"G~	c #5E5651",
"H~	c #5C4D43",
"I~	c #5A4B41",
"J~	c #635043",
"K~	c #544337",
"L~	c #6C6562",
"M~	c #6E655F",
"N~	c #54463E",
"O~	c #52433C",
"P~	c #55463F",
"Q~	c #53453D",
"R~	c #655B53",
"S~	c #5C534E",
"T~	c #706661",
"U~	c #6C6765",
"V~	c #6D6662",
"W~	c #746A63",
"X~	c #7A6B63",
"Y~	c #78665B",
"Z~	c #715A4D",
"`~	c #685246",
" {	c #675043",
".{	c #685145",
"+{	c #6B554A",
"@{	c #695347",
"#{	c #644F42",
"${	c #675145",
"%{	c #76655B",
"&{	c #625E5B",
"*{	c #615853",
"={	c #584A40",
"-{	c #59473E",
";{	c #57453A",
">{	c #6E6662",
",{	c #736E6B",
"'{	c #6B5E57",
"){	c #635149",
"!{	c #67564C",
"~{	c #5F4E43",
"{{	c #574A43",
"]{	c #595451",
"^{	c #5F5550",
"/{	c #66554B",
"({	c #6E625B",
"_{	c #716862",
":{	c #786B65",
"<{	c #7A6A62",
"[{	c #6D5548",
"}{	c #725B4E",
"|{	c #644C3F",
"1{	c #6D574B",
"2{	c #604C40",
"3{	c #624C40",
"4{	c #644E41",
"5{	c #72645A",
"6{	c #5F5B57",
"7{	c #625750",
"8{	c #6B5546",
"9{	c #56483E",
"0{	c #5A4C42",
"a{	c #5B4E45",
"b{	c #624D41",
"c{	c #60554F",
"d{	c #675A54",
"e{	c #4F4139",
"f{	c #59483C",
"g{	c #5D534E",
"h{	c #5D4E47",
"i{	c #6F6560",
"j{	c #68625F",
"k{	c #746862",
"l{	c #776961",
"m{	c #6D5549",
"n{	c #7B6459",
"o{	c #664F42",
"p{	c #6C5E55",
"q{	c #5B5651",
"r{	c #564F49",
"s{	c #5E524A",
"t{	c #594B41",
"u{	c #53453C",
"v{	c #635B59",
"w{	c #54453E",
"x{	c #574942",
"y{	c #6A564D",
"z{	c #59534F",
"A{	c #615147",
"B{	c #75645A",
"C{	c #6E574B",
"D{	c #745C50",
"E{	c #6A5347",
"F{	c #5F5046",
"G{	c #645348",
"H{	c #55473E",
"I{	c #61544E",
"J{	c #645D5A",
"K{	c #53443D",
"L{	c #6E5B52",
"M{	c #5F4C40",
"N{	c #604D41",
"O{	c #5E534C",
"P{	c #5E5751",
"Q{	c #635F5D",
"R{	c #72594B",
"S{	c #7A6257",
"T{	c #715D51",
"U{	c #615C59",
"V{	c #605147",
"W{	c #63554B",
"X{	c #5E4F45",
"Y{	c #5D4F45",
"Z{	c #67605D",
"`{	c #695B54",
" ]	c #6B574E",
".]	c #624E43",
"+]	c #604E42",
"@]	c #5C4A3E",
"#]	c #5C493D",
"$]	c #60544D",
"%]	c #58483D",
"&]	c #655951",
"*]	c #72635A",
"=]	c #715B4E",
"-]	c #755E50",
";]	c #745C4F",
">]	c #6F5547",
",]	c #775F52",
"']	c #766256",
")]	c #715F56",
"!]	c #715F55",
"~]	c #67574D",
"{]	c #605146",
"]]	c #5F5045",
"^]	c #57493F",
"/]	c #655751",
"(]	c #686260",
"_]	c #67564E",
":]	c #735C4E",
"<]	c #5A483B",
"[]	c #645D59",
"}]	c #77665E",
"|]	c #6A5449",
"1]	c #725A4E",
"2]	c #6F5546",
"3]	c #796154",
"4]	c #75655C",
"5]	c #6A5D56",
"6]	c #5C4D42",
"7]	c #785F50",
"8]	c #5D4A3E",
"9]	c #5B483B",
"0]	c #5D4B3F",
"a]	c #645751",
"b]	c #635C59",
"c]	c #6E584E",
"d]	c #70594D",
"e]	c #755C4D",
"f]	c #76665D",
"g]	c #615146",
"h]	c #64544A",
"i]	c #745B4B",
"j]	c #59483F",
"k]	c #615651",
"l]	c #605854",
"m]	c #614F44",
"n]	c #605956",
"o]	c #625B57",
"p]	c #7A6459",
"q]	c #664F43",
"r]	c #7A6255",
"s]	c #715748",
"t]	c #7A6559",
"u]	c #79695F",
"v]	c #625247",
"w]	c #6D5648",
"x]	c #695548",
"y]	c #54443A",
"z]	c #55453B",
"A]	c #564F4B",
"B]	c #5A473B",
"C]	c #5E5A57",
"D]	c #625B58",
"E]	c #665044",
"F]	c #725A4D",
"G]	c #755C4C",
"H]	c #7C6355",
"I]	c #6E5444",
"J]	c #705C50",
"K]	c #66605C",
"L]	c #6C5E57",
"M]	c #5D5551",
"N]	c #604E46",
"O]	c #59463A",
"P]	c #5E4C40",
"Q]	c #6D5D53",
"R]	c #716159",
"S]	c #604A3E",
"T]	c #675247",
"U]	c #735B4E",
"V]	c #6A5244",
"W]	c #775E51",
"X]	c #786053",
"Y]	c #6F5344",
"Z]	c #7E6558",
"`]	c #816B5F",
" ^	c #79685F",
".^	c #514137",
"+^	c #524238",
"@^	c #5D5652",
"#^	c #665449",
"$^	c #6E5F55",
"%^	c #644E43",
"&^	c #684F42",
"*^	c #6F574B",
"=^	c #7B6255",
"-^	c #6F5343",
";^	c #7F675A",
">^	c #7E685C",
",^	c #6A5E57",
"'^	c #4F3F35",
")^	c #644E42",
"!^	c #685245",
"~^	c #695042",
"{^	c #6D5446",
"]^	c #6E5446",
"^^	c #73645C",
"/^	c #5A4C43",
"(^	c #5D4D46",
"_^	c #765E51",
":^	c #595552",
"<^	c #5A5350",
"[^	c #624C3F",
"}^	c #6E5648",
"|^	c #6B5244",
"1^	c #755C4F",
"2^	c #7E675C",
"3^	c #645F5B",
"4^	c #524237",
"5^	c #605650",
"6^	c #735C4F",
"7^	c #694F3F",
"8^	c #836A59",
"9^	c #726258",
"0^	c #6F625A",
"a^	c #645B56",
"b^	c #54463B",
"c^	c #52463E",
"d^	c #564D47",
"e^	c #574F4A",
"f^	c #544F4D",
"g^	c #5D544E",
"h^	c #655348",
"i^	c #665953",
"j^	c #615750",
"k^	c #5D544F",
"l^	c #60544C",
"m^	c #5A514C",
"n^	c #5B524C",
"o^	c #6A4F40",
"p^	c #755F52",
"q^	c #7D6657",
"r^	c #796559",
"s^	c #716057",
"t^	c #6E6159",
"u^	c #59514D",
"v^	c #53433A",
"w^	c #4C4138",
"x^	c #564E48",
"y^	c #514944",
"z^	c #4D4946",
"A^	c #554D48",
"B^	c #5C524C",
"C^	c #58473C",
"D^	c #64554C",
"E^	c #544C47",
"F^	c #534D4A",
"G^	c #5F5651",
"H^	c #685B53",
"I^	c #65564D",
"J^	c #514A45",
"K^	c #504843",
"L^	c #736055",
"M^	c #735F55",
"N^	c #5A514B",
"O^	c #58514C",
"P^	c #65605C",
"Q^	c #5B5049",
"R^	c #5A4E48",
"S^	c #5D524D",
"T^	c #54463D",
"U^	c #52453C",
"V^	c #574D47",
"W^	c #4A4037",
"X^	c #473F39",
"Y^	c #4C4642",
"Z^	c #5E554F",
"`^	c #5C493E",
" /	c #5E514B",
"./	c #5B504A",
"+/	c #5B4D47",
"@/	c #5B4E48",
"#/	c #665B54",
"$/	c #504945",
"%/	c #4F4845",
"&/	c #504844",
"*/	c #62554D",
"=/	c #554B44",
"-/	c #524943",
";/	c #534A44",
">/	c #4C433E",
",/	c #4D443F",
"'/	c #574D48",
")/	c #584E48",
"!/	c #5C534D",
"~/	c #6D5F58",
"{/	c #6A5B54",
"]/	c #706056",
"^/	c #6E625C",
"//	c #5D5550",
"(/	c #5B544F",
"_/	c #5E5853",
":/	c #746C66",
"</	c #696461",
"[/	c #58514D",
"}/	c #554E4A",
"|/	c #5F564D",
"1/	c #514B47",
"2/	c #544D48",
"3/	c #4F4945",
"4/	c #504A46",
"5/	c #57504C",
"6/	c #625954",
"7/	c #645A55",
"8/	c #58514F",
"9/	c #5B5452",
"0/	c #564E4B",
"a/	c #5A5351",
"b/	c #5E5755",
"c/	c #58504B",
"d/	c #574F49",
"e/	c #534A43",
"f/	c #564E4A",
"g/	c #534D49",
"h/	c #4A443E",
"i/	c #4C453E",
"j/	c #605C5B",
"k/	c #5B5451",
"l/	c #524944",
"m/	c #5D5653",
"n/	c #5E5754",
"o/	c #564F4C",
"p/	c #47413E",
"q/	c #433E3B",
"r/	c #4A4441",
"s/	c #5D5552",
"t/	c #5E5654",
"u/	c #5A524F",
"v/	c #4E4844",
"w/	c #514B48",
"x/	c #484340",
"y/	c #3F3A37",
"z/	c #413C38",
"A/	c #423D39",
"B/	c #46413D",
"C/	c #554F4B",
"D/	c #4A4541",
"E/	c #4D4945",
"F/	c #49433E",
"G/	c #403A35",
"H/	c #494340",
"I/	c #4E4A46",
"J/	c #524E4A",
"K/	c #6F6866",
"L/	c #7B7673",
"M/	c #797574",
"N/	c #787372",
"O/	c #767271",
"P/	c #7C7877",
"Q/	c #797571",
"R/	c #7E7A77",
"S/	c #847D77",
"T/	c #898179",
"U/	c #777471",
"V/	c #78736E",
"W/	c #736F6D",
"X/	c #645E5B",
"Y/	c #5E4F48",
"Z/	c #756F6C",
"`/	c #645C55",
" (	c #6E6866",
".(	c #706863",
"+(	c #665A55",
"@(	c #5D4F48",
"#(	c #5F514B",
"$(	c #5D5048",
"%(	c #63544D",
"&(	c #5B534E",
"*(	c #5C524D",
"=(	c #5A4E49",
"-(	c #5C4F4A",
";(	c #776F6B",
">(	c #79736F",
",(	c #746F6E",
"'(	c #706B6A",
")(	c #6D6968",
"!(	c #6E6A69",
"~(	c #716D6C",
"{(	c #746F6D",
"](	c #706A65",
"^(	c #777371",
"/(	c #76726F",
"((	c #686563",
"_(	c #615E5B",
":(	c #534F4C",
"<(	c #55514E",
"[(	c #55514D",
"}(	c #575350",
"|(	c #6F6C6A",
"1(	c #726F6C",
"2(	c #74716F",
"3(	c #686361",
"4(	c #706B68",
"5(	c #716C69",
"6(	c #736D6B",
"7(	c #797370",
"8(	c #7A736F",
"9(	c #7A7470",
"0(	c #76716E",
"a(	c #605A58",
"b(	c #686360",
"c(	c #77706C",
"d(	c #6B615B",
"e(	c #695C56",
"f(	c #73635B",
"g(	c #78675E",
"h(	c #7A685F",
"i(	c #806D63",
"j(	c #877468",
"k(	c #8A796F",
"l(	c #8E7F76",
"m(	c #94857D",
"n(	c #94877F",
"o(	c #92857E",
"p(	c #91847C",
"q(	c #95867C",
"r(	c #91837B",
"s(	c #8F8178",
"t(	c #8D7E74",
"u(	c #8A7A71",
"v(	c #8C7C72",
"w(	c #867469",
"x(	c #8B7A70",
"y(	c #84746A",
"z(	c #938070",
"A(	c #8A7B6F",
"B(	c #7B6F68",
"C(	c #726760",
"D(	c #6D625C",
"E(	c #5A473D",
"F(	c #6E5F56",
"G(	c #776A63",
"H(	c #7A6F67",
"I(	c #70645A",
"J(	c #75675E",
"K(	c #6E5A51",
"L(	c #5C5755",
"M(	c #5B534F",
"N(	c #7F756F",
"O(	c #817872",
"P(	c #817772",
"Q(	c #79706B",
"R(	c #7A716C",
"S(	c #79716B",
"T(	c #766D67",
"U(	c #736964",
"V(	c #716761",
"W(	c #675C56",
"X(	c #645952",
"Y(	c #6C605A",
"Z(	c #5E5752",
"`(	c #6E645D",
" _	c #73655D",
"._	c #75665E",
"+_	c #76675F",
"@_	c #776960",
"#_	c #786A62",
"$_	c #7B6E66",
"%_	c #7B6E67",
"&_	c #7E726C",
"*_	c #80756E",
"=_	c #7E746D",
"-_	c #786D67",
";_	c #776C66",
">_	c #685A53",
",_	c #6A5C55",
"'_	c #7A6B62",
")_	c #796A61",
"!_	c #736863",
"~_	c #726965",
"{_	c #6C6663",
"]_	c #6D6765",
"^_	c #756C68",
"/_	c #766B65",
"(_	c #776B63",
"__	c #776860",
":_	c #7A6960",
"<_	c #77655B",
"[_	c #856C5F",
"}_	c #856D5F",
"|_	c #836B5E",
"1_	c #866F62",
"2_	c #897366",
"3_	c #8D786C",
"4_	c #8C776C",
"5_	c #988271",
"6_	c #A38B75",
"7_	c #8F7A6D",
"8_	c #887366",
"9_	c #846E61",
"0_	c #836C5F",
"a_	c #856D60",
"b_	c #7E6455",
"c_	c #846C5E",
"d_	c #80695C",
"e_	c #7F695C",
"f_	c #7E685B",
"g_	c #786357",
"h_	c #716056",
"i_	c #604F44",
"j_	c #5C534F",
"k_	c #5C4D46",
"l_	c #584841",
"m_	c #594942",
"n_	c #64605C",
"o_	c #73665E",
"p_	c #705D54",
"q_	c #736057",
"r_	c #726863",
"s_	c #6E6561",
"t_	c #776D66",
"u_	c #76645A",
"v_	c #7A6457",
"w_	c #866E62",
"x_	c #836B5D",
"y_	c #866D60",
"z_	c #82695C",
"A_	c #897060",
"B_	c #876F61",
"C_	c #866E60",
"D_	c #846B5E",
"E_	c #7D6253",
"F_	c #82695B",
"G_	c #81695D",
"H_	c #7F675B",
"I_	c #7C6659",
"J_	c #544338",
"K_	c #5F4B3E",
"L_	c #615852",
"M_	c #594A43",
"N_	c #4F423B",
"O_	c #615953",
"P_	c #5E5A56",
"Q_	c #6D6057",
"R_	c #887063",
"S_	c #836A5D",
"T_	c #866D5F",
"U_	c #876E61",
"V_	c #846C5F",
"W_	c #7B5F4F",
"X_	c #816759",
"Y_	c #7C675B",
"Z_	c #5C4A3F",
"`_	c #665249",
" :	c #5F4B3F",
".:	c #615751",
"+:	c #4B3F37",
"@:	c #564C46",
"#:	c #57524D",
"$:	c #575451",
"%:	c #665D56",
"&:	c #665A52",
"*:	c #776257",
"=:	c #5E4A3F",
"-:	c #6F615A",
";:	c #66625F",
">:	c #64605E",
",:	c #7A6E67",
"':	c #7B6C63",
"):	c #7D675A",
"!:	c #866E61",
"~:	c #886F61",
"{:	c #8B7264",
"]:	c #876E60",
"^:	c #846B5D",
"/:	c #887061",
"(:	c #8D7362",
"_:	c #887062",
"::	c #785B4B",
"<:	c #7D6457",
"[:	c #6D5A4E",
"}:	c #58463B",
"|:	c #635045",
"1:	c #5B483D",
"2:	c #51433C",
"3:	c #5B4D46",
"4:	c #4D4039",
"5:	c #4D423B",
"6:	c #544F4A",
"7:	c #55524F",
"8:	c #68574C",
"9:	c #7B685E",
"0:	c #71594C",
"a:	c #6E5548",
"b:	c #8A7163",
"c:	c #897062",
"d:	c #8E7462",
"e:	c #765C4D",
"f:	c #705D51",
"g:	c #595553",
"h:	c #544237",
"i:	c #5D4C41",
"j:	c #614D42",
"k:	c #5B493D",
"l:	c #493E36",
"m:	c #514E4B",
"n:	c #68635F",
"o:	c #6B6661",
"p:	c #77685F",
"q:	c #70574A",
"r:	c #6D5345",
"s:	c #886F62",
"t:	c #826A5C",
"u:	c #765C4E",
"v:	c #786458",
"w:	c #71625A",
"x:	c #544339",
"y:	c #625146",
"z:	c #5A534E",
"A:	c #54473F",
"B:	c #4C4038",
"C:	c #504741",
"D:	c #4F4A45",
"E:	c #504D4A",
"F:	c #6B645F",
"G:	c #6F6861",
"H:	c #7F6E61",
"I:	c #856E60",
"J:	c #71584B",
"K:	c #7A665A",
"L:	c #645B52",
"M:	c #53453E",
"N:	c #4F423A",
"O:	c #4E423A",
"P:	c #514841",
"Q:	c #63564D",
"R:	c #7D675C",
"S:	c #76655A",
"T:	c #745B4E",
"U:	c #826B5E",
"V:	c #80685C",
"W:	c #876D5F",
"X:	c #8D7260",
"Y:	c #7B6659",
"Z:	c #57463E",
"`:	c #50423B",
" <	c #50433B",
".<	c #4F413A",
"+<	c #53463F",
"@<	c #4E4139",
"#<	c #524842",
"$<	c #514D49",
"%<	c #524E4B",
"&<	c #786258",
"*<	c #5B473A",
"=<	c #826B5D",
"-<	c #886E60",
";<	c #5C5652",
"><	c #51443C",
",<	c #554841",
"'<	c #634E41",
")<	c #604C41",
"!<	c #7B6356",
"~<	c #56453B",
"{<	c #59514E",
"]<	c #544740",
"^<	c #574A42",
"/<	c #51443D",
"(<	c #50433C",
"_<	c #4E413A",
":<	c #585451",
"<<	c #81695B",
"[<	c #876F62",
"}<	c #725F53",
"|<	c #706259",
"1<	c #625044",
"2<	c #574F4C",
"3<	c #574740",
"4<	c #554840",
"5<	c #554741",
"6<	c #585452",
"7<	c #796155",
"8<	c #80675B",
"9<	c #745E51",
"0<	c #625048",
"a<	c #594B44",
"b<	c #53463E",
"c<	c #4E4039",
"d<	c #6E584B",
"e<	c #6D5749",
"f<	c #6F5E56",
"g<	c #81695A",
"h<	c #7B6251",
"i<	c #7A665B",
"j<	c #73655C",
"k<	c #58504C",
"l<	c #5D504A",
"m<	c #6C5548",
"n<	c #695549",
"o<	c #7D6557",
"p<	c #836A5C",
"q<	c #80675A",
"r<	c #7C675A",
"s<	c #7B6A5F",
"t<	c #6F5D54",
"u<	c #6E5749",
"v<	c #706058",
"w<	c #74594A",
"x<	c #785E50",
"y<	c #7C6557",
"z<	c #7F6859",
"A<	c #816A5C",
"B<	c #74655B",
"C<	c #70645C",
"D<	c #645953",
"E<	c #69554C",
"F<	c #564941",
"G<	c #5B514C",
"H<	c #7B655A",
"I<	c #725A4C",
"J<	c #71594B",
"K<	c #79655A",
"L<	c #745A4B",
"M<	c #755B4C",
"N<	c #7F6758",
"O<	c #836958",
"P<	c #836D5F",
"Q<	c #5B5652",
"R<	c #544741",
"S<	c #5B524D",
"T<	c #715A4C",
"U<	c #756258",
"V<	c #72584A",
"W<	c #7E695D",
"X<	c #77645A",
"Y<	c #544C48",
"Z<	c #514742",
"`<	c #564943",
" [	c #5B4C45",
".[	c #5C4F47",
"+[	c #59504B",
"@[	c #5A524C",
"#[	c #54504E",
"$[	c #675C55",
"%[	c #716157",
"&[	c #725749",
"*[	c #816B5E",
"=[	c #6E5D53",
"-[	c #6B5B52",
";[	c #736359",
">[	c #706158",
",[	c #70635B",
"'[	c #514D4A",
")[	c #514B46",
"![	c #504944",
"~[	c #64554E",
"{[	c #5A4E46",
"][	c #564B44",
"^[	c #534942",
"/[	c #4F443E",
"([	c #534841",
"_[	c #50453D",
":[	c #574B43",
"<[	c #594D45",
"[[	c #554B45",
"}[	c #433C36",
"|[	c #443E3B",
"1[	c #443D39",
"2[	c #4C4440",
"3[	c #564B46",
"4[	c #554943",
"5[	c #584D46",
"6[	c #504641",
"7[	c #483F3A",
"8[	c #49403B",
"9[	c #514843",
"0[	c #544A44",
"a[	c #5E544E",
"b[	c #574F4B",
"c[	c #786052",
"d[	c #756157",
"e[	c #705F57",
"f[	c #625752",
"g[	c #514A46",
"h[	c #534C48",
"i[	c #524B47",
"j[	c #443F3B",
"k[	c #3B3632",
"l[	c #38332F",
"m[	c #3A3631",
"n[	c #3F3B37",
"o[	c #413C39",
"p[	c #403C39",
"q[	c #423E3A",
"r[	c #433F3C",
"s[	c #423E3B",
"t[	c #44403C",
"u[	c #47433F",
"v[	c #45413D",
"w[	c #46423E",
"x[	c #484440",
"y[	c #4B4542",
"z[	c #4C4643",
"A[	c #48423F",
"B[	c #4A4440",
"C[	c #554C48",
"D[	c #584D48",
"E[	c #5A504B",
"F[	c #3E3935",
"G[	c #3E3835",
"H[	c #3F3A36",
"I[	c #48423E",
"J[	c #4D4642",
"K[	c #5E544F",
"L[	c #4E4743",
"M[	c #514A47",
"N[	c #605955",
"O[	c #685F5A",
"P[	c #705E55",
"Q[	c #76655C",
"R[	c #76645C",
"S[	c #6D5E57",
"T[	c #645650",
"U[	c #635650",
"V[	c #69605B",
"W[	c #6A6664",
"X[	c #685F5B",
"Y[	c #62544B",
"Z[	c #5C524B",
"`[	c #564E49",
" }	c #534C47",
".}	c #5B5553",
"+}	c #6E6B68",
"@}	c #7C7875",
"#}	c #6C6867",
"$}	c #83766F",
"%}	c #82756D",
"&}	c #81736B",
"*}	c #807169",
"=}	c #7A6A61",
"-}	c #7E6E65",
";}	c #76635A",
">}	c #6C5B53",
",}	c #5F554E",
"'}	c #524C47",
")}	c #585450",
"!}	c #5D5A57",
"~}	c #63605D",
"{}	c #64615E",
"]}	c #65625F",
"^}	c #686562",
"/}	c #666360",
"(}	c #676360",
"_}	c #696360",
":}	c #696361",
"<}	c #67615F",
"[}	c #666160",
"}}	c #6A6462",
"|}	c #6F6967",
"1}	c #6F6A69",
"2}	c #6C6968",
"3}	c #6A6360",
"4}	c #6D6562",
"5}	c #6E6663",
"6}	c #69615F",
"7}	c #68615E",
"8}	c #69615E",
"9}	c #6B6461",
"0}	c #6D6664",
"a}	c #6E6764",
"b}	c #655D5A",
"c}	c #615B58",
"d}	c #736F6E",
"e}	c #6A6563",
"f}	c #5C554F",
"g}	c #6F6A65",
"h}	c #73706D",
"i}	c #76716D",
"j}	c #766F6C",
"k}	c #76706C",
"l}	c #716B66",
"m}	c #645C57",
"n}	c #78685F",
"o}	c #7E6F65",
"p}	c #827268",
"q}	c #83746B",
"r}	c #877970",
"s}	c #887B73",
"t}	c #8C7F78",
"u}	c #897D76",
"v}	c #877B74",
"w}	c #847871",
"x}	c #857971",
"y}	c #7F6B60",
"z}	c #7C675C",
"A}	c #6C5447",
"B}	c #735B4F",
"C}	c #745D50",
"D}	c #675A51",
"E}	c #605953",
"F}	c #5C544E",
"G}	c #60564F",
"H}	c #5B524B",
"I}	c #5C534C",
"J}	c #5D534D",
"K}	c #584E47",
"L}	c #665C56",
"M}	c #736963",
"N}	c #564842",
"O}	c #6C635E",
"P}	c #6C615B",
"Q}	c #6F5F55",
"R}	c #746258",
"S}	c #766258",
"T}	c #6B5951",
"U}	c #746158",
"V}	c #72625A",
"W}	c #77675D",
"X}	c #786B64",
"Y}	c #7A6D66",
"Z}	c #857B76",
"`}	c #867D78",
" |	c #867D79",
".|	c #857D78",
"+|	c #847B77",
"@|	c #807773",
"#|	c #837873",
"$|	c #7C6E67",
"%|	c #7F6C63",
"&|	c #7C6960",
"*|	c #7F6C62",
"=|	c #7D6B61",
"-|	c #79675E",
";|	c #77655C",
">|	c #746157",
",|	c #77675E",
"'|	c #70635D",
")|	c #77675F",
"!|	c #685851",
"~|	c #6C5D56",
"{|	c #6C5C55",
"]|	c #6A5A53",
"^|	c #5A493D",
"/|	c #756359",
"(|	c #756760",
"_|	c #746860",
":|	c #676361",
"<|	c #6D625D",
"[|	c #756056",
"}|	c #816D61",
"||	c #7B685D",
"1|	c #7F6D62",
"2|	c #7C6A5F",
"3|	c #7A675D",
"4|	c #755D51",
"5|	c #665C55",
"6|	c #605C59",
"7|	c #5F5852",
"8|	c #625953",
"9|	c #5D544D",
"0|	c #52443B",
"a|	c #51423A",
"b|	c #51423B",
"c|	c #635F5C",
"d|	c #69615D",
"e|	c #70645D",
"f|	c #71584A",
"g|	c #70594E",
"h|	c #846E62",
"i|	c #877266",
"j|	c #8B776B",
"k|	c #8C796D",
"l|	c #8A766A",
"m|	c #877165",
"n|	c #897063",
"o|	c #8C7263",
"p|	c #8B7163",
"q|	c #8A7062",
"r|	c #866C5F",
"s|	c #856B5E",
"t|	c #856C5E",
"u|	c #82685B",
"v|	c #7A5F50",
"w|	c #69625F",
"x|	c #746359",
"y|	c #7D6E66",
"z|	c #7A706B",
"A|	c #6C6664",
"B|	c #73675F",
"C|	c #615D59",
"D|	c #625A54",
"E|	c #625850",
"F|	c #615954",
"G|	c #5F5B5A",
"H|	c #785F53",
"I|	c #755C4E",
"J|	c #775E50",
"K|	c #7D6458",
"L|	c #7F6659",
"M|	c #866C5E",
"N|	c #896F61",
"O|	c #8B7162",
"P|	c #8A7061",
"Q|	c #886F60",
"R|	c #83695C",
"S|	c #7E6F66",
"T|	c #7E726A",
"U|	c #7B6F64",
"V|	c #7F6E62",
"W|	c #75635A",
"X|	c #775F51",
"Y|	c #755D50",
"Z|	c #71645B",
"`|	c #5B5550",
" 1	c #675E57",
".1	c #735B50",
"+1	c #775D50",
"@1	c #796053",
"#1	c #8C7264",
"$1	c #8A7164",
"%1	c #6A625F",
"&1	c #75645C",
"*1	c #735E54",
"=1	c #736962",
"-1	c #7C6C61",
";1	c #836A5A",
">1	c #796457",
",1	c #7A6155",
"'1	c #785F52",
")1	c #5A5550",
"!1	c #655B54",
"~1	c #755C50",
"{1	c #7A6154",
"]1	c #785E52",
"^1	c #8D7264",
"/1	c #917668",
"(1	c #7F6557",
"_1	c #7E695E",
":1	c #725F54",
"<1	c #735A4D",
"[1	c #61564D",
"}1	c #72594D",
"|1	c #846A5D",
"11	c #7C6253",
"21	c #806658",
"31	c #79685E",
"41	c #786459",
"51	c #7F6655",
"61	c #7C6354",
"71	c #6F584D",
"81	c #6C5345",
"91	c #71594D",
"01	c #5C5651",
"a1	c #61544A",
"b1	c #635349",
"c1	c #55453E",
"d1	c #6B5246",
"e1	c #765D51",
"f1	c #6B574B",
"g1	c #7C6456",
"h1	c #796355",
"i1	c #6F5648",
"j1	c #5E4D41",
"k1	c #674D3F",
"l1	c #7B6960",
"m1	c #6B6360",
"n1	c #7A655B",
"o1	c #634D40",
"p1	c #675042",
"q1	c #7E6350",
"r1	c #7E6658",
"s1	c #726156",
"t1	c #605B57",
"u1	c #62554C",
"v1	c #4E4038",
"w1	c #565250",
"x1	c #6C5347",
"y1	c #816758",
"z1	c #7C6A60",
"A1	c #7D685D",
"B1	c #7B6353",
"C1	c #816552",
"D1	c #856E61",
"E1	c #80685A",
"F1	c #7C6356",
"G1	c #5D5752",
"H1	c #5B493E",
"I1	c #665347",
"J1	c #665246",
"K1	c #71594E",
"L1	c #7E6354",
"M1	c #776359",
"N1	c #816A5E",
"O1	c #5F5A58",
"P1	c #726158",
"Q1	c #7E6657",
"R1	c #836C5E",
"S1	c #736157",
"T1	c #55514F",
"U1	c #755D52",
"V1	c #795F53",
"W1	c #7F6A5E",
"X1	c #80695D",
"Y1	c #80695B",
"Z1	c #786153",
"`1	c #7C6252",
" 2	c #6E574C",
".2	c #775E52",
"+2	c #615C58",
"@2	c #5F4F48",
"#2	c #575351",
"$2	c #7B6256",
"%2	c #897163",
"&2	c #81685A",
"*2	c #78675D",
"=2	c #735E51",
"-2	c #7F685A",
";2	c #5F5954",
">2	c #624D42",
",2	c #685247",
"'2	c #503F34",
")2	c #53433C",
"!2	c #534F4D",
"~2	c #6F5446",
"{2	c #745F52",
"]2	c #72655F",
"^2	c #6D5547",
"/2	c #614C41",
"(2	c #644F44",
"_2	c #6B5143",
":2	c #766359",
"<2	c #614C40",
"[2	c #635E5A",
"}2	c #52423B",
"|2	c #71574A",
"12	c #876D60",
"22	c #897164",
"32	c #7E6759",
"42	c #6E5445",
"52	c #655D59",
"62	c #856B5C",
"72	c #7E6556",
"82	c #776357",
"92	c #785F54",
"02	c #796054",
"a2	c #765D52",
"b2	c #776255",
"c2	c #4F4743",
"d2	c #90735E",
"e2	c #846B5C",
"f2	c #8C705F",
"g2	c #8A6F5D",
"h2	c #846A59",
"i2	c #806A5E",
"j2	c #6E5D55",
"k2	c #4E4641",
"l2	c #534B45",
"m2	c #51453E",
"n2	c #554A43",
"o2	c #4E4540",
"p2	c #463C37",
"q2	c #433933",
"r2	c #5A4D47",
"s2	c #775E53",
"t2	c #745C51",
"u2	c #7E6559",
"v2	c #72594C",
"w2	c #736158",
"x2	c #7C685C",
"y2	c #635952",
"z2	c #776559",
"A2	c #79675D",
"B2	c #7D6A5E",
"C2	c #7C6759",
"D2	c #736258",
"E2	c #726157",
"F2	c #504A47",
"G2	c #524A45",
"H2	c #47423E",
"I2	c #433D3A",
"J2	c #3D3834",
"K2	c #3A342E",
"L2	c #4C4542",
"M2	c #61534D",
"N2	c #60524C",
"O2	c #635954",
"P2	c #605954",
"Q2	c #696462",
"R2	c #6E5C54",
"S2	c #6A5951",
"T2	c #705E56",
"U2	c #726058",
"V2	c #736159",
"W2	c #745C4E",
"X2	c #67584F",
"Y2	c #50463F",
"Z2	c #50453F",
"`2	c #75655B",
" 3	c #5A534D",
".3	c #5A5551",
"+3	c #75706E",
"@3	c #746F6B",
"#3	c #6A6765",
"$3	c #6A6665",
"%3	c #686463",
"&3	c #696564",
"*3	c #666261",
"=3	c #5B5655",
"-3	c #706B69",
";3	c #605856",
">3	c #615A57",
",3	c #5F5856",
"'3	c #645C5A",
")3	c #675F5C",
"!3	c #6A6361",
"~3	c #423D3A",
"{3	c #3D3835",
"]3	c #3D3935",
"^3	c #46413F",
"/3	c #46423F",
"(3	c #6E6966",
"_3	c #403C38",
":3	c #726F6D",
"<3	c #666362",
"[3	c #6B6867",
"}3	c #7B7774",
"|3	c #837F7C",
"13	c #827E7C",
"23	c #807C7A",
"33	c #837E7C",
"43	c #7F7B79",
"53	c #787471",
"63	c #6A625E",
"73	c #726660",
"83	c #786C64",
"93	c #6E6057",
"03	c #6C5F56",
"a3	c #6F6660",
"b3	c #6C625B",
"c3	c #685F59",
"d3	c #655C57",
"e3	c #645E5C",
"f3	c #6A605B",
"g3	c #74665F",
"h3	c #786962",
"i3	c #796961",
"j3	c #76655D",
"k3	c #6D5950",
"l3	c #6A5952",
"m3	c #6B5A53",
"n3	c #66564F",
"o3	c #6B5B54",
"p3	c #695952",
"q3	c #685750",
"r3	c #73635C",
"s3	c #746B66",
"t3	c #6F6A66",
"u3	c #5D5958",
"v3	c #807B79",
"w3	c #827D7B",
"x3	c #7D7875",
"y3	c #7E7774",
"z3	c #7D7774",
"A3	c #7E7874",
"B3	c #7F7975",
"C3	c #7C7673",
"D3	c #7F7976",
"E3	c #7B7572",
"F3	c #77716C",
"G3	c #625651",
"H3	c #7F736C",
"I3	c #817670",
"J3	c #7B716B",
"K3	c #7A706A",
"L3	c #7C726B",
"M3	c #81726A",
"N3	c #83736B",
"O3	c #84756C",
"P3	c #8B7B72",
"Q3	c #8A7B71",
"R3	c #87776E",
"S3	c #887970",
"T3	c #82736A",
"U3	c #7E6F67",
"V3	c #7A6C63",
"W3	c #786A61",
"X3	c #736A66",
"Y3	c #76665C",
"Z3	c #655449",
"`3	c #77645B",
" 4	c #6F635D",
".4	c #5E5958",
"+4	c #635D5B",
"@4	c #5C544F",
"#4	c #6E645E",
"$4	c #776E67",
"%4	c #837974",
"&4	c #7E7570",
"*4	c #7D746F",
"=4	c #807771",
"-4	c #7E736C",
";4	c #7C7069",
">4	c #7A6E66",
",4	c #796D66",
"'4	c #796D65",
")4	c #766A62",
"!4	c #756961",
"~4	c #71655D",
"{4	c #6A5F56",
"]4	c #76645B",
"^4	c #826B5F",
"/4	c #6D5B50",
"(4	c #635E5D",
"_4	c #6E645F",
":4	c #715A50",
"<4	c #6E574D",
"[4	c #776A62",
"}4	c #655E59",
"|4	c #665F59",
"14	c #615248",
"24	c #64564C",
"34	c #6D645F",
"44	c #67605B",
"54	c #66584F",
"64	c #68625E",
"74	c #5C4C45",
"84	c #6F645D",
"94	c #725A4F",
"04	c #6B554B",
"a4	c #635D58",
"b4	c #665E59",
"c4	c #625F5D",
"d4	c #7D6354",
"e4	c #6F615B",
"f4	c #7C6151",
"g4	c #5E5A58",
"h4	c #69615B",
"i4	c #655E5A",
"j4	c #57473C",
"k4	c #605B59",
"l4	c #765C4C",
"m4	c #5A5755",
"n4	c #5F5C59",
"o4	c #68615C",
"p4	c #715849",
"q4	c #6F584C",
"r4	c #625A56",
"s4	c #6A544A",
"t4	c #7D665B",
"u4	c #6F584E",
"v4	c #695349",
"w4	c #826C60",
"x4	c #5E4D42",
"y4	c #5B4A3F",
"z4	c #685248",
"A4	c #6A554C",
"B4	c #745D4F",
"C4	c #79665B",
"D4	c #686461",
"E4	c #725C4E",
"F4	c #796459",
"G4	c #644F45",
"H4	c #655047",
"I4	c #59463D",
"J4	c #765D4E",
"K4	c #746155",
"L4	c #5D5957",
"M4	c #7F695E",
"N4	c #69544B",
"O4	c #5C4F46",
"P4	c #675249",
"Q4	c #5F4B42",
"R4	c #5C483F",
"S4	c #68534A",
"T4	c #745A4A",
"U4	c #7B706B",
"V4	c #634E45",
"W4	c #665148",
"X4	c #604C43",
"Y4	c #705648",
"Z4	c #6E5C51",
"`4	c #5F5148",
" 5	c #6F5A51",
".5	c #665146",
"+5	c #554C47",
"@5	c #544B45",
"#5	c #554B46",
"$5	c #785E4E",
"%5	c #6C5549",
"&5	c #644F41",
"*5	c #5D493C",
"=5	c #5D534C",
"-5	c #4B433F",
";5	c #443F3D",
">5	c #766052",
",5	c #5D4F46",
"'5	c #6B594E",
")5	c #46403B",
"!5	c #504842",
"~5	c #5F544F",
"{5	c #5B504B",
"]5	c #4D4540",
"^5	c #483F39",
"/5	c #514741",
"(5	c #534943",
"_5	c #49423D",
":5	c #453F3B",
"<5	c #48403B",
"[5	c #66574D",
"}5	c #68584D",
"|5	c #63544A",
"15	c #796254",
"25	c #826959",
"35	c #79665A",
"45	c #6B5F59",
"55	c #4E4640",
"65	c #4B433E",
"75	c #524A44",
"85	c #504742",
"95	c #504640",
"05	c #574D46",
"a5	c #584F49",
"b5	c #4C4540",
"c5	c #5A4A3F",
"d5	c #57483D",
"e5	c #584B42",
"f5	c #574B42",
"g5	c #705F55",
"h5	c #62564E",
"i5	c #574C44",
"j5	c #60534A",
"k5	c #47403B",
"l5	c #4F4B48",
"m5	c #4C4844",
"n5	c #4F4946",
"o5	c #514B49",
"p5	c #3A3532",
"q5	c #55504E",
"r5	c #474240",
"s5	c #474340",
"t5	c #403A37",
"u5	c #423D3B",
"v5	c #46413E",
"w5	c #433E3C",
"x5	c #433F3D",
"y5	c #44403D",
"z5	c #504943",
"A5	c #453E39",
"B5	c #403934",
"C5	c #3D3732",
"D5	c #4B443F",
"E5	c #726055",
"F5	c #705F56",
"G5	c #4D443E",
"H5	c #59504A",
"I5	c #655852",
"J5	c #403B38",
"K5	c #494442",
"L5	c #4A443F",
"M5	c #4C443E",
"N5	c #47403C",
"O5	c #3E3833",
"P5	c #3C3530",
"Q5	c #453F3A",
"R5	c #4A423C",
"S5	c #47413C",
"T5	c #423C37",
"U5	c #4A4642",
"V5	c #796F67",
"W5	c #594F4B",
"X5	c #69625D",
"Y5	c #5D5857",
"Z5	c #615D5C",
"`5	c #64615F",
" 6	c #756E68",
".6	c #5F5753",
"+6	c #625A57",
"@6	c #615A58",
"#6	c #5A544F",
"$6	c #45403C",
"%6	c #4D4843",
"&6	c #66625E",
"*6	c #5C5957",
"=6	c #676362",
"-6	c #646160",
";6	c #656262",
">6	c #6D6A67",
",6	c #59544F",
"'6	c #565049",
")6	c #5E5954",
"!6	c #6C6967",
"~6	c #696663",
"{6	c #6B6865",
"]6	c #6E6965",
"^6	c #786E67",
"/6	c #766C65",
"(6	c #695F5A",
"_6	c #64544D",
":6	c #605A59",
"<6	c #645C59",
"[6	c #6C5F58",
"}6	c #726861",
"|6	c #70655F",
"16	c #685C56",
"26	c #645954",
"36	c #756B66",
"46	c #79716E",
"56	c #786F69",
"66	c #847D79",
"76	c #837B76",
"86	c #857D79",
"96	c #817D7B",
"06	c #78716E",
"a6	c #7B7470",
"b6	c #766E69",
"c6	c #695E59",
"d6	c #665852",
"e6	c #635A53",
"f6	c #635A54",
"g6	c #635B55",
"h6	c #817770",
"i6	c #7C726C",
"j6	c #7A6F69",
"k6	c #7A7069",
"l6	c #776C65",
"m6	c #74655C",
"n6	c #6C5D53",
"o6	c #6D6561",
"p6	c #635850",
"q6	c #6B625D",
"r6	c #68605B",
"s6	c #696664",
"t6	c #64584F",
"u6	c #5F554D",
"v6	c #675A50",
"w6	c #6A6058",
"x6	c #746B64",
"y6	c #65564C",
"z6	c #70655E",
"A6	c #6C5446",
"B6	c #645F5D",
"C6	c #645F5E",
"D6	c #634D41",
"E6	c #675F59",
"F6	c #89776D",
"G6	c #918077",
"H6	c #95847B",
"I6	c #918076",
"J6	c #938278",
"K6	c #907F75",
"L6	c #8F7E74",
"M6	c #907E74",
"N6	c #928075",
"O6	c #8D7C72",
"P6	c #8E7D73",
"Q6	c #86776F",
"R6	c #81746C",
"S6	c #7C706A",
"T6	c #7B716C",
"U6	c #676261",
"V6	c #685D54",
"W6	c #625952",
"X6	c #675E58",
"Y6	c #6A615A",
"Z6	c #6A6059",
"`6	c #665B53",
" 7	c #5B4C41",
".7	c #5A493E",
"+7	c #675D58",
"@7	c #8A7265",
"#7	c #8B7366",
"$7	c #8B7467",
"%7	c #89766B",
"&7	c #85776F",
"*7	c #7F736D",
"=7	c #756C67",
"-7	c #6F6661",
";7	c #716760",
">7	c #665D57",
",7	c #67625D",
"'7	c #645B55",
")7	c #696561",
"!7	c #62574F",
"~7	c #68564B",
"{7	c #71635C",
"]7	c #58463C",
"^7	c #665549",
"/7	c #83685A",
"(7	c #826759",
"_7	c #846C60",
":7	c #87766C",
"<7	c #84766E",
"[7	c #796D67",
"}7	c #6D584B",
"|7	c #554941",
"17	c #695D57",
"27	c #6F625C",
"37	c #665448",
"47	c #56504B",
"57	c #654D3E",
"67	c #624D40",
"77	c #7D6152",
"87	c #856B5D",
"97	c #856D61",
"07	c #87766D",
"a7	c #69635E",
"b7	c #6D594C",
"c7	c #7A6558",
"d7	c #544840",
"e7	c #635449",
"f7	c #57514B",
"g7	c #6A5D55",
"h7	c #7F665A",
"i7	c #7D6252",
"j7	c #826758",
"k7	c #867267",
"l7	c #68625C",
"m7	c #7E6554",
"n7	c #65554B",
"o7	c #55443B",
"p7	c #6D5C51",
"q7	c #836859",
"r7	c #84695B",
"s7	c #83695A",
"t7	c #846A5C",
"u7	c #876F63",
"v7	c #827168",
"w7	c #524137",
"x7	c #82685A",
"y7	c #816F65",
"z7	c #514239",
"A7	c #7F6759",
"B7	c #83695B",
"C7	c #7F6658",
"D7	c #806E63",
"E7	c #6A6461",
"F7	c #806759",
"G7	c #7B695E",
"H7	c #886C5A",
"I7	c #654F40",
"J7	c #605049",
"K7	c #544842",
"L7	c #705E53",
"M7	c #584C47",
"N7	c #4C4644",
"O7	c #544E4C",
"P7	c #484543",
"Q7	c #55463C",
"R7	c #55473D",
"S7	c #5C493F",
"T7	c #4D4846",
"U7	c #4B4644",
"V7	c #786356",
"W7	c #554338",
"X7	c #544A45",
"Y7	c #524843",
"Z7	c #544841",
"`7	c #846D60",
" 8	c #5C514C",
".8	c #5E5047",
"+8	c #564338",
"@8	c #564A43",
"#8	c #4F4641",
"$8	c #725544",
"%8	c #81685C",
"&8	c #605249",
"*8	c #594C43",
"=8	c #524339",
"-8	c #514238",
";8	c #53453B",
">8	c #544B46",
",8	c #544944",
"'8	c #6A5346",
")8	c #4F4843",
"!8	c #554A42",
"~8	c #574A41",
"{8	c #856C5B",
"]8	c #836E61",
"^8	c #53463D",
"/8	c #4A3E34",
"(8	c #493F37",
"_8	c #4D433C",
":8	c #63554F",
"<8	c #675953",
"[8	c #584F4A",
"}8	c #635B56",
"|8	c #5A524E",
"18	c #5D4F49",
"28	c #554944",
"38	c #544843",
"48	c #4B4440",
"58	c #625851",
"68	c #514740",
"78	c #50463E",
"88	c #534840",
"98	c #584C43",
"08	c #574A40",
"a8	c #796960",
"b8	c #736256",
"c8	c #4D4641",
"d8	c #4E443D",
"e8	c #483F37",
"f8	c #403831",
"g8	c #3C352F",
"h8	c #3F3A35",
"i8	c #3E3936",
"j8	c #5B5048",
"k8	c #625A58",
"l8	c #68615F",
"m8	c #665E5B",
"n8	c #57504E",
"o8	c #5F5755",
"p8	c #6D6867",
"q8	c #585454",
"r8	c #585453",
"s8	c #524C4A",
"t8	c #524B48",
"u8	c #524B49",
"v8	c #5E5551",
"w8	c #433F3B",
"x8	c #44403B",
"y8	c #48433E",
"z8	c #49453F",
"A8	c #665F5D",
"B8	c #6B6462",
"C8	c #54504C",
"D8	c #564F48",
"E8	c #443E39",
"F8	c #49443F",
"G8	c #4D4740",
"H8	c #544E48",
"I8	c #413B37",
"J8	c #766D68",
"K8	c #78706C",
"L8	c #5A4D48",
"M8	c #574B46",
"N8	c #675E5A",
"O8	c #635853",
"P8	c #5A4C46",
"Q8	c #5D4E48",
"R8	c #5F5049",
"S8	c #65554E",
"T8	c #706C6B",
"U8	c #716E6C",
"V8	c #7D7876",
"W8	c #676461",
"X8	c #65625E",
"Y8	c #64605B",
"Z8	c #655E58",
"`8	c #756D69",
" 9	c #76706D",
".9	c #6D6660",
"+9	c #726964",
"@9	c #6F6059",
"#9	c #797472",
"$9	c #74706D",
"%9	c #767371",
"&9	c #6E6B69",
"*9	c #787068",
"=9	c #706D6A",
"-9	c #614C43",
";9	c #66544C",
">9	c #614D44",
",9	c #867972",
"'9	c #877B75",
")9	c #82766F",
"!9	c #81746D",
"~9	c #766A64",
"{9	c #756B65",
"]9	c #7B6F69",
"^9	c #7E7068",
"/9	c #7E6F68",
"(9	c #81736C",
"_9	c #817771",
":9	c #7C726D",
"<9	c #786D68",
"[9	c #786E68",
"}9	c #685D55",
"|9	c #726A67",
"19	c #685E57",
"29	c #756C66",
"39	c #736B66",
"49	c #6A5D57",
"59	c #624D43",
"69	c #675146",
"79	c #78665C",
"89	c #78645A",
"99	c #786359",
"09	c #7B726D",
"a9	c #7C736E",
"b9	c #7E716A",
"c9	c #726159",
"d9	c #79645A",
"e9	c #7F726B",
"f9	c #644F46",
"g9	c #736862",
"h9	c #624D44",
"i9	c #70665F",
"j9	c #5C544C",
"k9	c #7B665B",
"l9	c #6C655E",
"m9	c #68605E",
"n9	c #7E685D",
"o9	c #786961",
"p9	c #766C63",
"q9	c #6E665F",
"r9	c #715E55",
"s9	c #654F44",
"t9	c #675147",
"u9	c #786960",
"v9	c #745E54",
"w9	c #634E44",
"x9	c #614C42",
"y9	c #75665D",
"z9	c #706964",
"A9	c #504239",
"B9	c #6D564B",
"C9	c #6D5D56",
"D9	c #65615E",
"E9	c #5D4A41",
"F9	c #6E5E57",
"G9	c #695348",
"H9	c #5A473E",
"I9	c #70584C",
"J9	c #74645C",
"K9	c #6E6762",
"L9	c #61514A",
"M9	c #6C554A",
"N9	c #5C4940",
"O9	c #6D564A",
"P9	c #725A4B",
"Q9	c #6E615B",
"R9	c #795F4F",
"S9	c #634E43",
"T9	c #58463E",
"U9	c #685142",
"V9	c #745C4D",
"W9	c #79655B",
"X9	c #775E4E",
"Y9	c #58463D",
"Z9	c #645043",
"`9	c #716661",
" 0	c #8A6A55",
".0	c #5C504B",
"+0	c #6D564C",
"@0	c #624F47",
"#0	c #7C685D",
"$0	c #7D6151",
"%0	c #856651",
"&0	c #6F6259",
"*0	c #735E4F",
"=0	c #6B5D57",
"-0	c #685B55",
";0	c #5A463B",
">0	c #856754",
",0	c #866753",
"'0	c #816452",
")0	c #655C56",
"!0	c #70584A",
"~0	c #534B47",
"{0	c #715F54",
"]0	c #876955",
"^0	c #675C57",
"/0	c #4D433D",
"(0	c #463F3B",
"_0	c #453E3A",
":0	c #5C5048",
"<0	c #6B5D54",
"[0	c #655B56",
"}0	c #775F50",
"|0	c #665D59",
"10	c #4D4643",
"20	c #403B37",
"30	c #413B38",
"40	c #45403E",
"50	c #3F3B38",
"60	c #413D3A",
"70	c #48423D",
"80	c #59524E",
"90	c #534F4B",
"00	c #67584E",
"a0	c #6C5B4F",
"b0	c #656260",
"c0	c #716A66",
"d0	c #726D6C",
"e0	c #6E6862",
"f0	c #666361",
"g0	c #6A6561",
"h0	c #756E69",
"i0	c #80746A",
"j0	c #75706C",
"k0	c #78716C",
"l0	c #6C6661",
"m0	c #777372",
"n0	c #757271",
"o0	c #7D7672",
"p0	c #7E7772",
"q0	c #827B77",
"r0	c #837B77",
"s0	c #787573",
"t0	c #706D6C",
"u0	c #747170",
"v0	c #655E5C",
"w0	c #6D605A",
"x0	c #6D6460",
"y0	c #716864",
"z0	c #76665E",
"A0	c #7B6B63",
"B0	c #64554B",
"C0	c #80766F",
"D0	c #7E736D",
"E0	c #7D736C",
"F0	c #736A64",
"G0	c #746A65",
"H0	c #79706C",
"I0	c #7C7068",
"J0	c #82746B",
"K0	c #83746A",
"L0	c #85756B",
"M0	c #7F6F65",
"N0	c #7E6D64",
"O0	c #7F6E64",
"P0	c #806F65",
"Q0	c #7F6E63",
"R0	c #827269",
"S0	c #867971",
"T0	c #887D75",
"U0	c #84736A",
"V0	c #756357",
"W0	c #776E69",
"X0	c #7B746F",
"Y0	c #78726E",
"Z0	c #73706E",
"`0	c #726C6A",
" a	c #746E6C",
".a	c #6C635F",
"+a	c #6B544A",
"@a	c #756D67",
"#a	c #77726F",
"$a	c #84776F",
"%a	c #857267",
"&a	c #846D61",
"*a	c #826C5F",
"=a	c #806A5D",
"-a	c #7F6C60",
";a	c #766154",
">a	c #7A6B61",
",a	c #736B67",
"'a	c #73645D",
")a	c #726762",
"!a	c #70584D",
"~a	c #4B3F39",
"{a	c #7F746D",
"]a	c #8A796E",
"^a	c #836D60",
"/a	c #7E685A",
"(a	c #79675C",
"_a	c #7D7069",
":a	c #70594F",
"<a	c #4D4038",
"[a	c #796F6A",
"}a	c #765E4F",
"|a	c #837369",
"1a	c #7F726A",
"2a	c #534843",
"3a	c #4E413B",
"4a	c #7F6451",
"5a	c #7D6352",
"6a	c #7D685B",
"7a	c #735D53",
"8a	c #554A45",
"9a	c #72655D",
"0a	c #7F6657",
"aa	c #7A6153",
"ba	c #7D6658",
"ca	c #7C6658",
"da	c #806B60",
"ea	c #7E6352",
"fa	c #70594C",
"ga	c #735B4C",
"ha	c #785E4F",
"ia	c #7A6456",
"ja	c #877063",
"ka	c #826854",
"la	c #8D7668",
"ma	c #7D6D63",
"na	c #776E68",
"oa	c #7A6152",
"pa	c #7B6456",
"qa	c #8D7467",
"ra	c #7F6654",
"sa	c #806B5F",
"ta	c #7B6A60",
"ua	c #755D4E",
"va	c #816D60",
"wa	c #8A7264",
"xa	c #765F51",
"ya	c #846D5F",
"za	c #8A7263",
"Aa	c #786254",
"Ba	c #7D6555",
"Ca	c #6B5449",
"Da	c #7B695F",
"Ea	c #735A4B",
"Fa	c #897162",
"Ga	c #8C7466",
"Ha	c #7C6556",
"Ia	c #816858",
"Ja	c #755D4F",
"Ka	c #765F50",
"La	c #8A7162",
"Ma	c #7F6757",
"Na	c #755A4B",
"Oa	c #795B49",
"Pa	c #6E564B",
"Qa	c #907668",
"Ra	c #745E50",
"Sa	c #7E6656",
"Ta	c #7E6555",
"Ua	c #775D4D",
"Va	c #775C4D",
"Wa	c #745949",
"Xa	c #775846",
"Ya	c #80614E",
"Za	c #55483F",
"`a	c #705B4E",
" b	c #886E61",
".b	c #806757",
"+b	c #77665B",
"@b	c #765A49",
"#b	c #6E564A",
"$b	c #4D433E",
"%b	c #826755",
"&b	c #7E6858",
"*b	c #625C56",
"=b	c #725B51",
"-b	c #775E4F",
";b	c #655347",
">b	c #725D50",
",b	c #8B7365",
"'b	c #856C5D",
")b	c #7B6455",
"!b	c #826956",
"~b	c #786558",
"{b	c #6B6158",
"]b	c #6F5E53",
"^b	c #836C60",
"/b	c #7B5E4D",
"(b	c #745B4F",
"_b	c #725A50",
":b	c #54453B",
"<b	c #645246",
"[b	c #6D615C",
"}b	c #876E5E",
"|b	c #7E6757",
"1b	c #786456",
"2b	c #635B57",
"3b	c #826553",
"4b	c #6E564C",
"5b	c #54483F",
"6b	c #7E6C62",
"7b	c #6F5A4D",
"8b	c #7F6455",
"9b	c #5F5751",
"0b	c #7E6557",
"ab	c #6F574C",
"bb	c #6C554B",
"cb	c #6A584D",
"db	c #4F4741",
"eb	c #524740",
"fb	c #7B6B62",
"gb	c #806557",
"hb	c #7E6A5E",
"ib	c #675B53",
"jb	c #554D47",
"kb	c #7F685D",
"lb	c #69584D",
"mb	c #584D44",
"nb	c #4B4743",
"ob	c #4D4742",
"pb	c #4E463F",
"qb	c #4F463F",
"rb	c #51473F",
"sb	c #564A42",
"tb	c #54463C",
"ub	c #8E7361",
"vb	c #896F5E",
"wb	c #876E5F",
"xb	c #7F6556",
"yb	c #876D5D",
"zb	c #4F433D",
"Ab	c #50443E",
"Bb	c #403B35",
"Cb	c #3E3934",
"Db	c #48423C",
"Eb	c #504740",
"Fb	c #554B43",
"Gb	c #564C44",
"Hb	c #6C6561",
"Ib	c #7F6A5F",
"Jb	c #6C5B50",
"Kb	c #806D62",
"Lb	c #7E6C61",
"Mb	c #806C60",
"Nb	c #816C60",
"Ob	c #816C5F",
"Pb	c #7B675C",
"Qb	c #4A423E",
"Rb	c #514945",
"Sb	c #3C3734",
"Tb	c #453F39",
"Ub	c #423F3B",
"Vb	c #4D4A46",
"Wb	c #494642",
"Xb	c #47443F",
"Yb	c #48443F",
"Zb	c #47423D",
"`b	c #645D5B",
" c	c #817D7A",
".c	c #7F7B78",
"+c	c #75706D",
"@c	c #6E6763",
"#c	c #6C6461",
"$c	c #5B534D",
"%c	c #554F4A",
"&c	c #544E49",
"*c	c #6A6564",
"=c	c #6B6665",
"-c	c #66615D",
";c	c #65615D",
">c	c #605C58",
",c	c #69645F",
"'c	c #7E7875",
")c	c #847F7D",
"!c	c #85817E",
"~c	c #7E7671",
"{c	c #8B7F75",
"]c	c #8E8075",
"^c	c #88796F",
"/c	c #847064",
"(c	c #87756A",
"_c	c #857368",
":c	c #847065",
"<c	c #816C61",
"[c	c #7D6C62",
"}c	c #73675E",
"|c	c #6F645B",
"1c	c #78675F",
"2c	c #827872",
"3c	c #807873",
"4c	c #7C7670",
"5c	c #7B756F",
"6c	c #777472",
"7c	c #696665",
"8c	c #7A7673",
"9c	c #6D635E",
"0c	c #504C4A",
"ac	c #72645D",
"bc	c #74675F",
"cc	c #827770",
"dc	c #807670",
"ec	c #776457",
"fc	c #5F5249",
"gc	c #635B54",
"hc	c #685E56",
"ic	c #63574E",
"jc	c #786F6B",
"kc	c #7A6E68",
"lc	c #807168",
"mc	c #8E7969",
"nc	c #8C7463",
"oc	c #7E6758",
"pc	c #7D6456",
"qc	c #836F63",
"rc	c #796B62",
"sc	c #816D62",
"tc	c #837066",
"uc	c #7C6D64",
"vc	c #847063",
"wc	c #836F61",
"xc	c #7E7067",
"yc	c #83756D",
"zc	c #877C75",
"Ac	c #81756F",
"Bc	c #81766F",
"Cc	c #80746D",
"Dc	c #80736B",
"Ec	c #7D6E64",
"Fc	c #807067",
"Gc	c #807066",
"Hc	c #6E625A",
"Ic	c #575452",
"Jc	c #564940",
"Kc	c #5F4F44",
"Lc	c #605045",
"Mc	c #80726A",
"Nc	c #896F60",
"Oc	c #886E5F",
"Pc	c #7C695E",
"Qc	c #585553",
"Rc	c #5B4B40",
"Sc	c #7B6152",
"Tc	c #7E6353",
"Uc	c #886B59",
"Vc	c #84695A",
"Wc	c #7F7067",
"Xc	c #826E63",
"Yc	c #7C6C64",
"Zc	c #7A6355",
"`c	c #5C4C41",
" d	c #8F705A",
".d	c #54514E",
"+d	c #7C665B",
"@d	c #7B6355",
"#d	c #565351",
"$d	c #6D5F56",
"%d	c #856F62",
"&d	c #887165",
"*d	c #725F56",
"=d	c #756053",
"-d	c #534E49",
";d	c #7D6454",
">d	c #8A6F5F",
",d	c #8B7265",
"'d	c #8E7669",
")d	c #614D40",
"!d	c #836B5F",
"~d	c #71594A",
"{d	c #866F61",
"]d	c #866D5D",
"^d	c #836B5C",
"/d	c #57534F",
"(d	c #886E5E",
"_d	c #866C5D",
":d	c #514D4B",
"<d	c #836C5D",
"[d	c #886E5C",
"}d	c #7A6352",
"|d	c #504A48",
"1d	c #756358",
"2d	c #705D4F",
"3d	c #6F5D50",
"4d	c #59514B",
"5d	c #68564E",
"6d	c #524741",
"7d	c #74645A",
"8d	c #6F6056",
"9d	c #4B443E",
"0d	c #4B4540",
"ad	c #4E443E",
"bd	c #514A44",
"cd	c #5D5651",
"dd	c #77665C",
"ed	c #78675C",
"fd	c #6B5B51",
"gd	c #6C5C52",
"hd	c #68594F",
"id	c #5A5652",
"jd	c #554D49",
"kd	c #5F5C5B",
"ld	c #756F69",
"md	c #746F6A",
"nd	c #797471",
"od	c #74706F",
"pd	c #827C76",
"qd	c #827E7B",
"rd	c #7F7A77",
"sd	c #797470",
"td	c #696463",
"ud	c #716E6B",
"vd	c #524D48",
"wd	c #6A635E",
"xd	c #605B5A",
"yd	c #6F6055",
"zd	c #6A5D54",
"Ad	c #71635A",
"Bd	c #756459",
"Cd	c #80736C",
"Dd	c #827670",
"Ed	c #857B75",
"Fd	c #7F7670",
"Gd	c #837870",
"Hd	c #7B7068",
"Id	c #867870",
"Jd	c #6B635E",
"Kd	c #817A76",
"Ld	c #807B78",
"Md	c #787470",
"Nd	c #74716D",
"Od	c #6F6C69",
"Pd	c #736B65",
"Qd	c #6F6863",
"Rd	c #62564D",
"Sd	c #614E42",
"Td	c #746B65",
"Ud	c #746961",
"Vd	c #72675F",
"Wd	c #70655D",
"Xd	c #6D635B",
"Yd	c #6B635D",
"Zd	c #6F6761",
"`d	c #55443C",
" e	c #4D3F38",
".e	c #4D3E36",
"+e	c #766C66",
"@e	c #625349",
"#e	c #4C3E36",
"$e	c #56463F",
"%e	c #51413A",
"&e	c #50423C",
"*e	c #473A34",
"=e	c #493C35",
"-e	c #50413A",
";e	c #5B4B44",
">e	c #4B3E37",
",e	c #544640",
"'e	c #4F4037",
")e	c #69564A",
"!e	c #4E3F37",
"~e	c #54473E",
"{e	c #54443D",
"]e	c #4F4138",
"^e	c #50423A",
"/e	c #69574C",
"(e	c #665E57",
"_e	c #665C57",
":e	c #4B3D36",
"<e	c #755F51",
"[e	c #6E594B",
"}e	c #68584E",
"|e	c #4C3F38",
"1e	c #65534B",
"2e	c #5E544D",
"3e	c #564D46",
"4e	c #4F453F",
"5e	c #443C37",
"6e	c #4B423D",
"7e	c #62524B",
"8e	c #6A5F5A",
"9e	c #5F5752",
"0e	c #5D524A",
"ae	c #534941",
"be	c #594E46",
"ce	c #605853",
"de	c #534740",
"ee	c #534741",
"fe	c #514640",
"ge	c #59504C",
"he	c #4B4441",
"ie	c #3A3531",
"je	c #3B3733",
"ke	c #37322F",
"le	c #383431",
"me	c #3B3734",
"ne	c #736F6F",
"oe	c #625E5A",
"pe	c #6A6260",
"qe	c #807C79",
"re	c #736E6A",
"se	c #817C7A",
"te	c #4F4944",
"ue	c #4E4742",
"ve	c #615957",
"we	c #534D4B",
"xe	c #7A716B",
"ye	c #67605C",
"ze	c #776962",
"Ae	c #7A6D67",
"Be	c #817269",
"Ce	c #85766E",
"De	c #7D7169",
"Ee	c #82726A",
"Fe	c #84746C",
"Ge	c #7A716D",
"He	c #867A70",
"Ie	c #79716C",
"Je	c #544A46",
"Ke	c #584B45",
"Le	c #4C4846",
"Me	c #4C4948",
"Ne	c #877971",
"Oe	c #7D736D",
"Pe	c #82766E",
"Qe	c #847972",
"Re	c #837872",
"Se	c #5E534B",
"Te	c #61544B",
"Ue	c #6E635B",
"Ve	c #82756E",
"We	c #6F6B67",
"Xe	c #59473F",
"Ye	c #766861",
"Ze	c #7F6D63",
"`e	c #7E7169",
" f	c #645A53",
".f	c #826D62",
"+f	c #7D655A",
"@f	c #53423A",
"#f	c #514139",
"$f	c #6E584A",
"%f	c #605852",
"&f	c #745B4C",
"*f	c #69615A",
"=f	c #816A5F",
"-f	c #5F564F",
";f	c #796052",
">f	c #796051",
",f	c #765D4D",
"'f	c #595049",
")f	c #4A413B",
"!f	c #4B423C",
"~f	c #544B44",
"{f	c #7A6151",
"]f	c #746053",
"^f	c #715F53",
"/f	c #6F5F58",
"(f	c #78655B",
"_f	c #60514B",
":f	c #5E504A",
"<f	c #5C4E48",
"[f	c #433C38",
"}f	c #71665E",
"|f	c #736860",
"1f	c #6F645C",
"2f	c #70645B",
"3f	c #7B7675",
"4f	c #504946",
"5f	c #544D4B",
"6f	c #716B69",
"7f	c #807A77",
"8f	c #807976",
"9f	c #76706E",
"0f	c #756F6D",
"af	c #797371",
"bf	c #7B7472",
"cf	c #7D695D",
"df	c #836E60",
"ef	c #7F6B5E",
"ff	c #826E60",
"gf	c #806C5D",
"hf	c #7C685A",
"if	c #786559",
"jf	c #5F534E",
"kf	c #857870",
"lf	c #877A72",
"mf	c #887971",
"nf	c #86766D",
"of	c #7F6D64",
"pf	c #766356",
"qf	c #695F59",
"rf	c #837C78",
"sf	c #817975",
"tf	c #807772",
"uf	c #706059",
"vf	c #75655D",
"wf	c #71615A",
"xf	c #6B6767",
"yf	c #5C5756",
"zf	c #655D58",
"Af	c #786E69",
"Bf	c #786F6C",
"Cf	c #82746C",
"Df	c #8B7C73",
"Ef	c #8D7E76",
"Ff	c #8B7D74",
"Gf	c #8E8179",
"Hf	c #8F827A",
"If	c #8B7E78",
"Jf	c #887B75",
"Kf	c #8C7F77",
"Lf	c #8E7E74",
"Mf	c #8E7B70",
"Nf	c #8A7468",
"Of	c #897061",
"Pf	c #8C7262",
"Qf	c #927766",
"Rf	c #947864",
"Sf	c #8F7461",
"Tf	c #8E725F",
"Uf	c #8A6F5C",
"Vf	c #876C5B",
"Wf	c #746A64",
"Xf	c #6C6665",
"Yf	c #776D68",
"Zf	c #7C695F",
"`f	c #6D655F",
" g	c #796F69",
".g	c #4D413A",
"+g	c #4C403A",
"@g	c #51453F",
"#g	c #887469",
"$g	c #887367",
"%g	c #867266",
"&g	c #8A766B",
"*g	c #8C766B",
"=g	c #877064",
"-g	c #8C7161",
";g	c #927561",
">g	c #937560",
",g	c #967863",
"'g	c #947763",
")g	c #927765",
"!g	c #836F64",
"~g	c #605D5B",
"{g	c #4E423B",
"]g	c #4A3E37",
"^g	c #837871",
"/g	c #86756C",
"(g	c #8B7160",
"_g	c #937661",
":g	c #947662",
"<g	c #957761",
"[g	c #8F7360",
"}g	c #7A6A60",
"|g	c #4A3E38",
"1g	c #8B7060",
"2g	c #967762",
"3g	c #94755F",
"4g	c #957660",
"5g	c #92745F",
"6g	c #5F5C5A",
"7g	c #4C4039",
"8g	c #8A7060",
"9g	c #947660",
"0g	c #94765F",
"ag	c #967761",
"bg	c #957760",
"cg	c #91735E",
"dg	c #4C3E37",
"eg	c #886F5F",
"fg	c #8B705F",
"gg	c #8C7160",
"hg	c #917460",
"ig	c #8E715D",
"jg	c #866C5C",
"kg	c #896F5F",
"lg	c #483C36",
"mg	c #50433D",
"ng	c #8C715F",
"og	c #8B705E",
"pg	c #8F735F",
"qg	c #977861",
"rg	c #93745E",
"sg	c #8A6E5D",
"tg	c #8A705F",
"ug	c #594B45",
"vg	c #4D403A",
"wg	c #493E37",
"xg	c #534640",
"yg	c #51443E",
"zg	c #89705F",
"Ag	c #90735F",
"Bg	c #907360",
"Cg	c #8E7260",
"Dg	c #876D5E",
"Eg	c #665E5C",
"Fg	c #7E665B",
"Gg	c #4C413B",
"Hg	c #473B34",
"Ig	c #463A34",
"Jg	c #977963",
"Kg	c #8B705D",
"Lg	c #8D715E",
"Mg	c #8E7360",
"Ng	c #493D37",
"Og	c #947761",
"Pg	c #907460",
"Qg	c #937660",
"Rg	c #7A695F",
"Sg	c #554842",
"Tg	c #423832",
"Ug	c #50453E",
"Vg	c #4E423C",
"Wg	c #52463F",
"Xg	c #4F433C",
"Yg	c #917663",
"Zg	c #957862",
"`g	c #90745F",
" h	c #977862",
".h	c #896E5E",
"+h	c #8B6F5D",
"@h	c #846A5B",
"#h	c #5C5854",
"$h	c #846959",
"%h	c #856958",
"&h	c #4B403A",
"*h	c #50443D",
"=h	c #92745E",
"-h	c #896E5C",
";h	c #5C473B",
">h	c #685A54",
",h	c #82695D",
"'h	c #917562",
")h	c #876C5C",
"!h	c #685B52",
"~h	c #5A4639",
"{h	c #58463A",
"]h	c #474341",
"^h	c #8E7362",
"/h	c #947762",
"(h	c #92735E",
"_h	c #92735D",
":h	c #4B4745",
"<h	c #4A413C",
"[h	c #4C413A",
"}h	c #83695D",
"|h	c #896F62",
"1h	c #8F7361",
"2h	c #8F725C",
"3h	c #91735D",
"4h	c #60544B",
"5h	c #4A423D",
"6h	c #473D38",
"7h	c #93755F",
"8h	c #91725D",
"9h	c #8F715C",
"0h	c #90725C",
"ah	c #8B6F5C",
"bh	c #5C5149",
"ch	c #645145",
"dh	c #6E594C",
"eh	c #4E4744",
"fh	c #4E4A48",
"gh	c #605550",
"hh	c #81675B",
"ih	c #82685C",
"jh	c #8F7462",
"kh	c #90725D",
"lh	c #8E705C",
"mh	c #886E5D",
"nh	c #63534C",
"oh	c #484442",
"ph	c #4D4541",
"qh	c #514844",
"rh	c #524A46",
"sh	c #846C5C",
"th	c #886F5E",
"uh	c #8E725E",
"vh	c #8F725D",
"wh	c #8E715C",
"xh	c #7B6759",
"yh	c #61554C",
"zh	c #52463C",
"Ah	c #706157",
"Bh	c #6D5C50",
"Ch	c #786353",
"Dh	c #796454",
"Eh	c #7D6756",
"Fh	c #806A58",
"Gh	c #836C5A",
"Hh	c #836C5B",
"Ih	c #816E5F",
"Jh	c #73645A",
"Kh	c #766558",
"Lh	c #61574F",
"Mh	c #615E5A",
"Nh	c #605750",
"Oh	c #5B4F47",
"Ph	c #51463E",
"Qh	c #4F4842",
"Rh	c #5E564E",
"Sh	c #4E4741",
"Th	c #595149",
"Uh	c #5C534A",
"Vh	c #5B5249",
"Wh	c #5C5249",
"Xh	c #60554B",
"Yh	c #62574D",
"Zh	c #5E5750",
"`h	c #4E4843",
" i	c #4C4640",
".i	c #635F5A",
"+i	c #615850",
"  . + + @ @ # + $ % + + + & * = - ; > , ' ) ! ~ { ] + ^ / ( _ : $ < [ } | 1 2 3 4 5 6 7 8 9 0 a b c d e f f g h i j k k l m n o o p q r s t u v w x y z A B C D E F G H I J K J J L M N O O L P Q R S T U @ V V W X Y Z ` + H @  .I ..+.M M Q @.#.$.%.&.*.=.-.~ ;.>.< ,.'.).!.~.~.{.{.].^./.T J (._.:.<.[.}.|.u 1.2.3.4.5.6.7.8.9.0.a.b.c.d.e.f.g.h.8.i.j.k.l.m.n.o.p.q.r.s.t.u.v.w.x.y.z.A.B.C.3 D.E.y F.G.H.I.I.I.G.F.J.K.L.M.N.O.P.Q.R.S.S.T.U.V.W.W.X.Y.Z.`. +.+Z.`.++@+#+$+%+&+j *+k =+-+;+>+,+'+)+!+~+!+{+%+~+]+^+/+(+_+:+",
"<+[+}+|+1+2+3+ +4+5+6+7+8+9+0+a+b+c+d+e+f+g+h+i+j+k+l+.+m+n+o+p+n+q+r+s+t+u+t+7.v+w+x+y+z+A+B+C+D+E+F+G+H+I+J+K+L+M+N+O+P+Q+R+S+T+U+V+W+k.X+Y+Z+`+ @.@+@@@#@$@%@&@*@=@-@;@>@,@'@)@!@~@{@]@{@]@^@~@/@(@_@:@<@[@}@|@1@2@3@4@b+5@6@7@7@8@9@0@a@)@b@c@8+d@e@f@g@l h@i@j@k@l@m@n@o@p@q@r@s@t@u@u@v@w@0+x@y@c+[@z@3+A@B@C@D@E@F@G@H@I@J@K@L@M@N@O@P@Q@I@R@S@G@T@H@U@V@W@W@X@Y@X@Z@`@ #.#+#@###$#%#S+&#*#=#-#;#>#,#'#,#)#!#~#{#]#^#/#(#_#:#<#[#}#|#1#2#<#3#4#5#6#7#7#8#6#9#0#a#b#c#d#e#f#f#.+g#h#i#1+1+j#k#o+!@o+j#p+l#m#n#o#p#q#'+( D.",
"r#s#t#A@u#v#w#x#y#x#x#v#i+z#A#B#C#D#E#F#G#H#I#J#K#L#M#E#i+h+N#w#w#O#E#g+P#Q#R#U@S#T#J@U#V#W#y#X#Y#y#Z#Z#`# $a#7#w#.$+$@$r##$$$>.%$&$*$=$-$;$>$,$'$)$)$!$~${$]$^$/$($_$Q.:$<$[$D#)$)$d#}$|$|$,$!$`#z#1$E@2$3$4$4$D@5$6$7$8$B+9$0$Q@a$+$b$c$4$3$C@d$e$f$g$h$i$@ j$k$l$m$n$o$p$q$r$s$t$u$v$w$x$y$z$A$z$k+I@x$j+Z#5$B$E@D@j+f+C$D$H@E$F$G$H$I$J$R@K$K$F@L$H@U@M$F$V@N$O$z+P$Q$Q$R$S$Q$n.T$U$V$W$i@X$Y$Z$K+`$ %.%+%@%#%#%#%$%5#5#4#3#_#%%4#&%*%=%-%%%5#3#;%#%a#@%0#6#>%,%7#'%7#)%,%!%b#~%{%D#~%]%^%/%)%N#N#J#E#(%{%Z#E@_%:%_@<%-+: 6 ",
"[%}%|%(%L#y#1%v#(%x#2%3%w#4%5%I# $a#)%6%7%`#8% $v#7%9%7%0% $)%a%4%w#b%c%d%e%f%g%h%w$E$Z.D$f+i%E#j%M#6%k%a#l%m%8%n%I#6%i+ +o%p%q%r%s%t%u%v%w%(%c#c#7%B$c# $`#`# $`#x% $7%4%v#y%z%`#`#A%b#a#c#7%v#E#E#E#j+5$E#3$3$5$9%B%C%B$K$D%j+E#R@E#i+Z#K$D%D%j%B$E%>#F%G%H%I%J%K%5+L%f%q$M%N%O%P%Q%R%j+S%F@T%U%V%R#W%R@g%Z#Z#E#C@X%Y%w$A+Z%C$D$`% &.&+&U@v%T%T%S@W%H@D$J@K@@&#&$&%&&&*&N$=&*&-&;&m.>&,&'&)&q#.@!&b#5#<#<#<##%~&#%4#4##%;%$%#%{&_##%4#]&*%^&2#5#5##%/&m%m%b#0#7#|$7#c#a#8%8#x#(&)%_&'$:&<&[&0%0%,%7#}&E#~%|&_&`#}$1&2&-#3&;.C.",
"}%4&i%5&v#K#Z#w#6&y#1%3%n%N#3%7&8%8&w#y%_&c#9&b#x#5%v#a%7#0&8&a#5%J#h+g+Q#a&P#X%F@b&c&x$d&e&j%f&K#7%a%g&h&3%4% $I#7&5%n%B%i&j&(+k&l&++R@g+m&g+f%7&i+i+7%c#c#7%z%`#6%v#d%n&o&j%x#B$g+h+x#w#x#Z#p&D%j%3$j+I#E@D%E#3$5$9#q&r&j+s&t&3$g%Z#x#E#F@R@C@j+Z#v#A#I+u&l h@k@v&r&K$(%w&x&y&z&A&B&q$r&S@W%v%T@C&T%D&G@r&D%g%j+D%j+K$f+C$E&F&c&$&G&H&I&n&U@x$Z%Z%Z%Z%J&E$V@&&N$K&F&L&-&*&&&K&M@&&M&N&O&P&x.Q&R&S&T&~&<#+%U&;%5##%#%V&$%W&X&Y&4#3##%4#Z&`&]&}#$%_# *.*+*@*>%(&}&'%z%7#y%z%8%8%b#a#)%)%a#,%V&g&#*(&'%}&$*/%%*)%c#c#7#7#&*W+**=*",
"-*)$H#;*E@5$j%j%K#K#i+x#c#h+J#x#5%'%a%y%x#6%,%(&)%b#n%I#8%>%>*y%n%h+f%g+d%G@3$F#F#j+d$F@Q#M#f%g+5$ $y%l%,*I#I#w#,*6%)%5%'*)*m#!*~*{*e+j%]*^*6&a&P#/*f%7%7%7%`#6%4%g+r&G@G@R#d%r&g+v%E$g+5$Z#(*E#g%3$3$C@i+X%C@3$5$2$9#_*Q#X%C@t&C@r&R@E#g%f+K$C@j+E#v#)$:*<*[*)&}*|*{%j+1*2*3*4*5*O%6*7*(%Z%C$Z%G@C$T%C$c&S%D%Y%K$S@Y%S@f+c&C$c&W%8*J&C$9*0*o&8*8*E$8*Z%R#E$a*b*z+-&c*d*M$&&e*&&M$f*g*h*i*%$j*k*l*m*;%5#n*o*6#p*o*;%;%V&$%$%+%<#q*_#m%~&r*]&s*t*+%u*v*2#!%5#/&w*w*g&(&z%,%k%)%/&,%z%a#,%b#x*w*y*z*z*A*$%W&0%5#7#z%)%z%H#5$B*C*D*",
"E@N#;*X#v#.$i+.$)$i+x#K#E*g+y#I#5%8%w#6%h+N#F*U&(&8%)%z%V&h&7#G*w#i+(*a&6&]*H*i+7%9%F#`#I*d%x#E#!$5%h&y%y%a%c#i+6%7&,%J*K*n&r+S+! L*c&h%h%M*Q#N*R#N*R#a&O*h+h+P#P*G@d%R#Q*D$R#R#0*R#T@R#R*P#x#Z#O*D%K$j+E#E#j+C@3$S*T*N#f%R@D@3$j+j+K$K$T%F@F@C@D%Z#v#7%U*V*)&k&W*X*j%Y*Z*`*`*C% =5*x&R%Z#.=+=.=c&8*T@D$Z%L${%f+T%@=@=F@c&+=8*.=Z%L&T#@&#=T#U#D$F&$=F&E$J@%=e*J&F&B+T@Z%T#&&e*z+J&T#&=*===-=;=5+_&>=,='=@%@%a#8&6#p*@*#%$%$%q*$%$%)=$%5#<#Z&!=-%`&~={=u*{&{&_#z*#%V&m%a#0%]=z%8&0%z%k%a#0%W&/&_#A*u*$%{&^=w*_#6#$*a#z%'$b#/=(=_=",
"1&N#x#b%:=h+Z#E#M#E*b%Q#d%f%y#c#5%I#7&7&x#N#4%<=y%,%}$0%@%,%0%7#a%v#`#[=0*H*O*h+w#L#x#6&i%m&}=|=1=4%,*8%8%4%7&I#c#a%a#7#2=h+3=' 4=6.L&V#8*o&5=8*R#E$h%R#R#V#O*G@T%c&Y%c&E&N*Z%V#Z%N*8*V#Z%F@]*v%D%K$f+3$I#Y%C@5$5$w#T*R@t&g+6&K$6=f+j+D%K$F@F@3$K$Z#.$7#7=8=9=0=a=c&b=0*D$T*c=q&R%5*d=e=6&D&L&C$C$L&U@e*L&T%T*c&W%S@F@8$w$f=+=.=Z%g=L&F&h=F&T#L&Z%D$A+e*e*Z%i=S@D$c*C$H@F&E$L@a*e*j=Q$k=l=m=n=o=k%p=>*h&8&m%q=9#8#8&>%>%~&~&#%V&r=)=$%q*<#~&<#<#+%-%s=~=t=q*<##%#%V&(&,%0%(&#*7#7#a#)%a#W&@*$%)=_#<#u=v=Y&w=5#(&,%a# $)%)%x=y=z=",
"I#J#H#{%r&i%v%a&a&]*Y#a&v%Z#7&6% $n%x#`#n%n% $4%,%7#7#U&8&@%@%8&0%5%k%h+t&R@.$c#z%a%y#j%A=Q#j%h+h+h+x#)%I#N#v#z%n%6%5%A%y#E#|*B=C=i.F&J@D=h%E=F=G@D$V#G@v%G@V#G@R#G@L$Z%i=D$G=8*D$Z%H=D$C$T%t&F@v%g%g%D%B$g%K$5$5$j%y#T%4$K$I=R@g%W%Y%K$R@S@S%K$K$Z#7%J=w#K=V$L=M=v%r&W%S%N=O=`*P=Q=5*e=T%c&Z%Z%C$D$L&F&A+H@R=Z%+=T%c&S@D&L$Z%+=F&L$S=T=U=h=L%e*8*D$F&C$.=Z%w$T%V=Z%c&C$.=e*W=E$X=C$z+%&Y=Z=`=P@c#F*5%5%7#7#8%,%a#m%@%6#5##%;%o*5##%_#;%#%4#2#3#<#~&~&}#+%2#~&5#>%W&(&,%V&(&,%7#'%,%,%0% -.-w*5#5#t=1#v*+%v*~=+-]=,%}&(&b#Z.@-#-",
"c#~%.$C#E%u#R@c$O*f+t&$-%-i+J#I#8% $)%5%9&k%b#8&h&,%8%@%m%;%o*@%&-9&n%v#Z#*-h+6%=---_&;-Z#f%Z#)$E*6&(%>-w#7&N#3%7&1%M#3%x#g%Z.A.C=,-S='-)-M*H=!-E$U#Z%Z%~-Z%Z%D$Z%L$N*9*J@Z%E&Z%L${-A+Z%]-Y%d&f+T%K$F@r&E#T%3$j+G@S@r&c&T%3$K$r&r&r&f+f+@=D&S%K$C@5$.$i+^-/-r%(-_-@=r&x$K$:-<-[-c=}-3*>-c&8*e*8*.=L&E&L&e*H@;*8*Z%8$|-x$D&D&+=A+B+w$L$X=A+E&1-F&F&E&.=E&g=w$W%S@Z%C$F@L$8*8*C$9*8*c&L%%&2-3-4-5-w#N#I#y%8%(&8%,%8&l%m%W&#%$%>%/&V&U&8&8#@%)=<#$%5#5#4#<#+%+%$%5#W&6#l%6#>%w*,%a#a#,%z%w*$%$%6-_#_#2#2#o*<#}#}#u* -z*z*]=7-o=k&g#",
"c#v#v#F#v%u#c$r&j+K$K$E#8-x#x#7& $n%n%a#,%0%g&@%!%,%@%@%U&9-;%@%;%>%a%6%3%v#X#0-a-b-k%c#y#7%x#h+f%r&g+y#K#Q#y#c#6%3%E*M#K#B$c-d-e-l.U=f-%=g-$=h-!-T#8*D$D$h%c&Z%R#D$Z%+&F$C$y$i-Z%D$~-H@R#K$F@Y%f+g%d&F#D@4$R@K$j-f%T%c&L$F@C@]*0*K$F@f+f+f+|-4$B$k-5$2*l-m-m y.n-r&R@I@T%;*6$o-T*p-p-N=A+F&L%Z%C$8*q-.=E&Z%C$L$L$D&f+F@L&r-C$4$r-c$B+g=w$X=A+.=+=A+D&8$k+e%@=L$s-T%T%H@M$D$Z%V@J@Z%f-L%t-u-v-.+_&y%7#9&l%W&k%6#!%>%;%o*o*6#6#>%8#>%/&8#@*+%)=w-5#5#5#x-4#$%#%5#;%@%a#a#@%7#,%,%W&.-#%/&5#<#{&5#o*)=)=#%4#q*;%~&5#/&m%8#q=x=y=#-",
")%`#7%y-!$z->$)$)$D#.$y#g+[=v#'$k%7# $8%A-U&B-C-T&.->%#%V&U&U&>%D-h&l%E- $v#1&(&F-u*7#8%v#1&y#H*H*d%B$x#x#)$h+N#,*E#g+G-F#Z##-) 4=i.A+#=H-$=$=#=F&h=E$D$U#c&T%T%c&L$R#+&F$Z%c&e*c&.=Z%L$c&r&t&s&L$c$.$7=E#x#t&t&I-X#c&L$C$S%Y%K$g+G@F@c&F@T%Y%$-1$5$5$5$c$J-y.K-L-K${%K$C$;*;*M-N-O-G-9*X@#=h-P-Q-e*c&Z%E&D$L&L$w$f+e*c&F&D&D&4$t&;-4$r-w$D&X=+={-x$t&t&K$T%S%c&c&C$c&H@R-9*S-F$M$C$e*=&l=T-U-o=k%7#a#8&6#8%8%@%,%8#m%@%@%8#a#6#6#/&V&a#o*q*~&#%#%;%#%4#5#$%#%#%W&@%a#8#8#a#a#'%>%V&;%5#_#$%$%6#m%_#_#~&V-x-o*o*8&@*8%(&7#W-X-o=",
")%a%!$z%Y-Z-`-]%`#`#d#F#7%`#I#8%a#(&!%(&~&B-r=~& ;)=$%$%5#;%o*U&)=@%h&:-a%6%,*>%T&U&.;6%n%O#f%C@K$E#:=F#7%x#C&K#h+j%j%f%5$7%+;@;#;Y=$;U#!-h-%;$&E&L%&&D$E$8*&;T%W%F@H@*;E$c&Z%L&L$0*$=C$F@I@+$+$T%E#Z#N#)$D%K$E@=;R=G@Z%D$G@C@k-{%-;T%f+d&f+F@E@F#U*F#Z#t&;;>;r%n-5$1%F@D&j%,;';);!;~;Z%&={;y+];Q-^;%;/;f-&&e*C$c&Z%X=(;E&c&D&f+E@.$3$_;d&r-:;r-<;4$j+3$d&R@[;]*e=c&F@]*W=h%I&V@9*C$U==&};|;A.1;a#(&6#,%,%(&0%>%,%>%>%m%@%,%7#V&V&@%a#a#,%;%;%5#2;$%V&V&#%D-5#/&>%a#8&7#m%,%z%(&V&3;w*/&<#$%;%;%>%U&$%5#@%V&m%@%8&8#,%8%8%.+4;P@",
"]=}$)%5;,%z%a#h+)%9&A%k%k%c#a%h&0%V&V&^=r=6;7;8;~&9;0;{&5#T&@*a;n*@%l%h&8%a%3%b;o*o*C-c;N#v#i+E#B$j%)$1&c#M#Z#5$5$g+G#E#g+E#d;e;f;2-g;H=F&h-Z@%;!-H=S=U#Z%T%T%T%R#S@U@T@L$g=F@Y%[;)*D$h;8*8*Y%f+F@O*K$Z#Z#K$H#i;M-R#G@L$C$Z%r&C@w&5*j;Y%S@S@F@D%E#3$j%j+x$k;S+l;m;H#J#w$8$E@n;o;p;q;M$r;s;t;u;v;w;y+x;y;y;F&F&U=C$c&i=D&C+L$c&j+5$B$4$d&c$z;A$3$4$j+K$C@C@j;A;q;0*r-r&r&o&M*B;C;0*R-L$D;E;F;G;.+(&@%8#a#>%6#@%0%(&6#8#@%a#l%7#6#W&a#8#0#l%@%6#8#m%V&@*;%8&#%#%5#>%(&W&,%(&a#7#7# %@*V&#%)=_##%!%V&m%o*6#m%@%0#8%8%I#I#I#,*W-y=.+",
"5%k%a#a#>%(&(&0%k%c#k%H;8%7#I;h&m%o*o*Z&~=r*J;7;4#n*9;K;#%V&#%#%A-o*h&7#8%H;6%U&L;8&8&8%I#7%N#x#w#n%c#I#w#h+D#j%f%j%E#h+h+E@7.M;N;n.O;X=$&P-P;Q;L%)-$=L&.=L$T%T%V#S%o&S@T%G@W%C$h%O-h%e*U#!-~-N*F@C@D%3$X%t&3$E#1&Y%8$c&]-c&r&r&(%R;S;d%S@F@f+X%5$j+j%K$8$T;U;V;W;S*X;c&S%j+I=Y;b=Z;M&&=`; >.>+>@>#>$>%>%>%&L&D$.=L$c*c&L$L$S@T%C@.$C@E@X%E@D@D@1$F#$-4$Z#j+$-Y%K$H@T%&>M*-;*>C;U@C$f+x$=>->;> +k%l%8&,%y%a#8&@%@%a#9#8#a#8#a#m%6#6#a#7#,%@*>>7#<=V&;%W&6#o*/&!%w*V&W&W&,%0%z%'%V&W&5##%5#z*V&#%@%W&m%8&W&w*8%7#c#x#h+x#i+|*,>A$",
")%0%x*,%q=y%'>y%5%5%8%4%,*n%4%>*U&o*#%)>=%!>~&)=~>T&)=~&T&U&>%n*T&a;I;a#7#8%>*l%8&8&@%8&n%6%7%i+7%c#c#3%_&F#i+h+x#:=h+x#h+{>l=]>^>/>(>L%_>%>:><>#=&&!-$=8*C$f+F@r&,;q;Q#T%R#!-(;[>%=U#$=E&D$e*V#F@Z#C@X%3$C@D%C@}>|>t&c&c&c&T%T%S%j%c&F@R#t&t&.$B$E#3$t&1>=>C.2>3>9%1%c&F@R@W%b=b=F$4>5>6>w+7>8>9>v;9>9>0>g;T#U=U=|%c&C$D&w$T%L$F@Z#E@3$E@D@1$E% $u#%-z#5$E@E%j+Y%R#R@]*9*]*Z%w$L$S%f+a>b>c>d>r+`#8&7#8%8%7#7#@%V&8%8%7#7#7#7#(&6#,%8%n%7#,*'%,%,%W&>%m%8&6#;%5#_#W&W&/&,%7#(&'%9%$%5##%5#5#V&5#>%6#,%q=7#7# $,%)%w#}$e>f>g>) h>",
"!$8%a#h&8%8%8%y%5%4%5%w#,*7&5%h&L;T&<#!>!>=%~&i>j>T&9;9;U&L;h&@%a;l%h&l%8%>*k>l%V&8&U&U&8& $ $x#3%N#4%7#5;}&`-D#f%j%E#h+E@l>m>n>o>p>q>O;f-L%r>M&L%F&.=F&8*Q*G@R#i%I&C;S-8*x;H=#=#&@&T#A+Z%U=T#C$R#h;R@X%K$R#R#0*6&R#G@Z%T%c&W%R@R@f+c&Y%E@k-g%X%Z#3$3$3$+;s>t>u>v>w>J#c*Y%8*H@W#x>k=y>z>A>B>3.g;y;v+&=C>z+e*h=h-C$c&X=A+L$w$f+c&f+D%D@D@$-E%F#)$D#D>_&)$F#U*.$E@4$~;0*E>t&@=c&D&D&c&S%d;F>G>;>8=A$H>a#y%7#a#8%7#8#7#7#a#,%'% $a#a#8#z% $c#>>9&8%8%W&,%7#8#8%>%#%#%/&#%/&,%|$I#q=>%w*5#$%5#w*#%#%(&6#a#I>(&,% $ $b#}&7#H#j=J>K>Z.",
"k+3%K#n%5%I#4%c#7&n%n%I#I#7&3%y%L>M><#r*=%r*j>7;4#n*~&T&8&p*>*p*9->*H;h&'>4%J*h&p*l%a;8&L;,%7#K#1=h+4%7#9&a#w#i+5$i+y#N>O>@+P>Q>R>S>T>U>V>$;r>W>S=U#g=c&D&x$G@c&+&W=X>%=8*T#U=L&A+E$U#$=S=Z%{-L$k+c&G@P*r&T%W%F@j%c&L$c&D$C$r-e%f+F@F@Y%C@Z#g%5$5$j+j+d&8=s>F;Y>m;Z>:=F&L$A+E$9*/;w;v+x+9>#=e*h-`>s;@>Z@ ,#=g;Z%L$D&x$r-C$E>w$w$I@5$E@$-B$F#`#1&1&'$.,'$+,.$.$E@Y%j+t&d&Y%t&c&I@M-S@1>u+@,G>#,$,Q@a#5%,%7#y%J#%,J*8%&,8%8%a# $7#,%7#8%y%w#8%8%y%5%8#>>a#7#8%l%/&w*@*w*>%,%/&W&M>3;#%{&#%o*;%o*;%W&6#m%7#6#6#I#}&(&a# $*,=,-,R>8.",
"|*7=:=y# $w#n%c#7&x#N#c#w#O#7&a#;,>,4#<#+%<#5#,,,,#%5#(&z%1&F#F#.$.$.$.$!$`#c%y%H>(&V&,%7#',_&)$5$c#)%|$5;1&h+g+.$d&B+),!,~,{,],^,/,(,_,:,<,B+H-[,9$k+{-w$8$:;c&H@L&-&4&#=},$;4&e*i-|,B+Z%D$f*%=v%G@4${%K$K$L$T%O*L$T%c*H-Q@e%x$8$r-r-c$$-D%D%E#C@3$E@1,2,3,4,5,6,7,|>Z%H=&&T#H@O>8,k=y;k=:>)-{;y+9,0,=&a,b,a>1>c,1>d,9$|,$;P@5-e,f,B+k+k+1$;-)$)$!$1&.$+,g,U*e%4$E@E>E>4$Y%B+t&|>|&h,T;i*i,j*j,2&$*m%,%a#k,l,T*I#5%7#,%z%y%+,0%6#c#>>6%w# $ $9&)%#*(&z% $8%7#m%m%;%;%a#,%@%m,n,o,#%5#M%p,#%W&q,r,s,E%t,|$)%c#;*a#y%F#u,T;v,w,x,",
"y,6.z,A,B,8$x#N#f%x#1%M#v#|&w>|>S@C,D,i&E,F,G,1,Q@1,H,+;d;M=l=I,J,j.6.K,z,d;$;j=e+L,H,M,{>N,O,O,r>M@b,5-b,d;P,8,Q,6.R,S,T,U,V,W,X,Y,Z,`,q.:, '.'O>),),),+'i.+'h*@'#'$'%'&'*'2-='-'*'*'i.P>;'>','!,''.'6.z,8.j.j.|%a>A,t+8.K,j.6.)'6.6.!'A,~'|%3$K$k;J-{']'t#'&^'/'('@=C$e*h-J@U@0,k=W>O;%>k=0,='_'!,:'<'['Y=l=};7.};7.}'!,|','1'2'm>o.}'};4.s+3'i#g#i#Z.P@_-;;4'7.P$5'6'7'i.j.A,8'!'/=9',&0'a'b'c'd'X..+Y.H,S@X=W>b,;-8%e'b&f'h,>$ $ $h+:=7%c#Z.g'.+`.h'`.i'j,j' +n+-*o=o=k#k'l'm'q+n'Q@q+o'p'q'r's't'u'v'w'x'|*x'x'k;w'y'z'A'B'",
"A.C'D'E'F'G'F'4=H'I',>F'J'K'L'M'N'O'P'`=C=n=N;K'^>^>Q'R'S'T'U'V'W'X'Y'Z'`' ).) )+)N'.)@)R>#)$)$)%)&)*)+)R>=)$)-);)>)#)Q>*)+)z.,)@;M;W,+) )Q>=)')Q>*)*)*)*)))R>!)~){)])^)R>#)$)$)$)R>/)()K'C==)_):)<)[)})! })|),>1)o 2)L'3)Q>+)+)*)+)^>K'L'K'4)5)k&~*6)7)r g < 8)9)%$0)4=a)A.b)b)c)4=})F'[)d)2)e)e)=);)f)f)g)h)K'N;L'n=^>Q>])i)j)k)l)m)g)n=C=n)C=o)u-u-u-p)F'n)n=n=q)r)s){)t)u)v)z.S+h@l { # w)x)y)z)A)B)B)C)D)E)F)G)H)S+o I)^>I)B=m J)! K)C'J)y=y=L)k&y=M)N)Q>R>d)O)M)7)B)i,P)Q)U$c>L)k&k&y=)&R)Y S)T): U)S+,>y=K),>C'V)(+W)>.-.",
"X)Y)Z)`) !.!Y)@++!@!Y)@!#!$!%!^+!+&!*!=!-!@.;!J >!S ,!@ & e '!,))!!!~!>.1 {!^ + w)]!g ^!< & 4 /!(!'+_!a':!r :!<![!}!& W)|!1!2!3!4!> 5!6!$!f f 7!8!8!9!0!h '+'+a!a.b!;+c!W)} r D.d!D.r R)e!U$f!g!^>h!i!j!k!''l!m!@,n!o!!+!+0!!+'+9!'+'+)+!+b!p!q!r!8.7.5.('d+s!t!8=j.6'2-_'@+8.l.u!_'v!_'w!x!1)y!z!| D.A!B!@ ( J @.J ;!C!& z'D!N)) S+E!$ K R F!H.G!H!I!$.#.@.H.G.G.F.t #$W J!c.K!L!M!(@N!2+D#w*V&0$0$o'1;Y.1;M,B+A+X=O!''P!,.Q!R!S!T!h'U!|*h'g'h'P@g#P@$,V!W!I)K'r'X!k;N,k+Y!I=Z!`!H@s-.=-&S=L$X* ~n-.~ ~+~@~h=#~S,==''o.m!$~%~==",
"&~r>*~M&y; ,P-h-@~O; ,=~%>*=#'8.=>{*2,-$b@-#u@F+c+-~=$#$;~Q+>~q%1 E!,~*$'~}*@,3,)~!~;;#'~~''R,o.{~]~^~T;8=x,o.x,S,/~(~_~:~<~1.[~i$}~|~1~4@E+u@E+a@2~3~G+Z$=$4~l&5~6~7~8~n$z=@,(~%~$~$~9~W!0~a~**@;b~c~=&B+Z%L$i=j+D;+;d+o#d~e~o#f~g~3,J-v>O,X=D&D&D&x$Y%j+{%j%R@E#Z%H@U=L%%&Z%c&1-L%M&k=k=L%*=v+Y=l.{~b>h~d~t#|+H+u@i~r#_=6 l j~R+k~l~m~N.n~o~p~q~r~($s~t~u~r~v~w~x~3+G,w>B@<$z-7->%y%D-)=y~z~5#D-r=;%o*8&V&W&A~B~N-';C~:-D~j+5$2$ $7#4%7%b#E~ $w#z%)%>$m#F~d>>;G~B*_-8$x$d*H~I~z+J~M@@~e*e*L&4&F&D&K@a*X==&O;g;S=1-C+A+L$1-S=V>",
"i=g;~';&%>k=0>#=g;1-H-b,r> ,H-+=e*#=E$K~R@k+d&x$8$8${>v>)~Y$_=L~$ =+M~=${*8,r>L&A+F&T#:>=&X@Z@y+#=#=&&J~%>N~Z@O~P~Q~y;0,W>!'!'g#3.#-`.L,_;c$8$4$f+4$8$4$|-z;k+@=S@W%9*j=1-#=#=*&%>y;O;J-T!R~G~#,d)S~}'},o$H,D&U=G@D&f+F@L$.=C$L$-&g;e*1-Z%C$.=w$w$w$I@4$E#g+I@K$0*e*L&F&O;W>L&A+F&%&z+L%O;0>0>O!4&#=z+#=C$A+L$d&C#l+++}+T~0.$!j$U~V~W~9+X~Y~g&!%V&2*Z~5##%V&2;x-8#(& $5%`~T*8#l%n*T&;%$%<#<#+%$%$%)=,,@%8%W&6# {.{+{<=1%M-5%<=`~l,@{@{#{C~${B%e=5%z%7#}&%{l&&{q *{b>H,d&r-Y!J&n;={K&K&X@K& ,L%S=X=X=8*F&1-#=O;-&},c*D&+=c*D;i=L$",
".=g;#=X*r>r>-{k=O,0>g={-D;#=T#F&L&8*F&*;;{E$S%w$L$D&Z%v%c&d;l@>{,{<~'{T=U=.=U#U#U=Z%U#T#%=N$L%L%L&L&f% =D$Z@y+P~k=O>1-U#g;X*.=){c&r-t&c$X%$-t&3$K$j+4$t&3$5$X%E>!{~{*;T@+=.=*&L%k=g;h=#={{T;a D!]{^{6.D&/{D&D&i=f+L$w$w$@=c&I@f+c&C$+=g=w$1>B+L$Y%Y%t&E@{%I=S%f+H@.=},.=L%#=.=i=T#L%*&f-O!D;X*X=c*X=F&L&c&U=L$Y%F#B$/{{-({Y$P!H%d!_{:{<{b#T&;%,,;%[{}{4#a;T&4#T&a;8&,%y%5%y%h&8#l%5#,,r=+%t=+%)=$%)=;%a#(&,%c;|{1{ $i+v#7=z%z%z%9#k,2{`*3{4{4{)*N-T*`*l,s,5{6{T+7{8=r-3=@=j=J&8{N$9{0{a{%>0>#=1-.=c*X=B+L&#=0>#=g;L&D&X=L$A+.=i=",
"g;g;g;h=%&T#b{X@h-.=+=C$+=.=e*#=F&L&h=C$H&U@c&C$8*Z%U=r&i=c*#=c{C)d{k+|%c&+=E&e*L&c*A+$&T#k=O;L%g;.=f-h-&>0,e{Z@%>z+e*#=.=.=L$D&L$D&d&B$B$z#X%K$R@t&j+X%E@5$j%j;b=I=f{M*A+4&L&L%#=O;#=#=O;&~g{@;z.9 h{L&L$L$k+q-c&w$w$w$S%i=x$w$D&c*D&t&|-k+8$w$Y%w$Y%Y%{%Y*w$1>X=+=X=i=-&g;C$U=L%k=k=f-1-g=4&X=q-U=E&U=+=C$c&Y%1$E%e%t&|%({i{l j{k{l{g&>%;%;%#%B-m{U&,,8&a;o*@%@%8&m%y%6%7#7#7#@%#%B-<#<#n{<#<#<#5#@%@%0%a#Q=o{l%8%w#H#I#`#c#z%z%b#z%8%e=@{l,J*5%I-B%R%~%p{q{r{s{C+E>4$L$M$L@t{u{={={@'@'k=L&1-A+A+c&A+g;g; ,@~S=.=L&.=A+A+X=c&",
"#=F&h=N$K&L%$&W=y;L%&&A+T##=T#1-#=L&h=C$Z%9*+=C$D$D$A+U=D;.=E&l.v{J-e%G@{-.=E&.=B+L$F&E&L%h=#=L&U=Z%o&h-w{w{x{Z@y;%&h=U=E&L$g=x$x$t&k-)$D#y{}>C#C@s&4$z#D@$-K$[;C&f%J$Z*L${-1-#=#=#=#=1-S=D&c~e;z{6.A{8*w$x$t&x$w$8$f+Y%w$c&w$Y%L$w$w$d&4$E>w$w$8$Y%f+f+K$K$L$g=f++=X=L$A+g;g;g;%> ,L%1-:;r-1>D;i=L&U=F&L&A+c&L$K$E%$-T%Y%r+O+x)j{@$B{r=@%m%o*#%=-C{8&8&U&l%%,U&8&a#7#y%y%7#y%2%b;~&D{<#|#~&<#6;$%4#a#8&a#7#'=E{8&a%i+7%|&c# $}&8%a#,%(&b#,%a#b#)%)%7#6#}&:*m %#6,:;4$t&D&F{G{`!*&-&M@H{S$-&X*X=A+1-X=A+L&F&O;#=.=F&h=h=L&L&L&#=",
"%&#=h-%>y;:>h-k=k=z+h=E&E&1-b*F&F&1-F&C$D&c&A+A+#=L&L&L%U#U=.=I{J{h~3$w$w$U=+=e*c&c&+=L&g;h=L&.=F&h=k=Z;/*O~K{A>f-%;.=w$.=D&D&x$!{~%`#F#)$L{B$:=$-E@k-k-1$B$R@M{N{Y*^*J$F@w$g=g;g;#=#=U=+=c*O{@;P{W;D;D&Y%4$8$B$!{f+8$t&x$Z%*>*>w$r-o$3$E@x$w$w$8$t&f+c&I@E@4$w$L$4&c*L$i=F&L&f-k=&=*&|%x$4$D&C$H=h=h=h=L&.=.=C$G@R#3$8$I@1>d~h@Q{2+|$$%@%8&8&@%x&p*F*B-9-l%7#q=7#y%1%5%8%8%y%'>@%)=4#+%+%R{7;S{~&U&a#@%h&a#'>>-l%4%.$z%w#c#c#z%z%,%}&(&7#T{0%,%}&,%0%x*x*]'U{~!s>f'e%o$d&d*`!V{W{X{Y{R$y+@~g;c*a>X=A+.=L&*&#=@~#=@~z+z+L&g;L&F&",
"h- ,T==&;&M&f-y;X@ ,L&c*Z%.=U=e*F&U=F&+=T#c&+=L$.=.=f-#=L&U=1-k;Z{`{N>A$r-|%D&X=$=Z%Z%i=U=g;F&+=e*1-k=&&I&Q;w{y;y;%>$=Z%+=D&t&d& $p*)$ ]`#.$k-Z#B$B$B$.$B$k-j+.]+]b%@]#]I@k+{-i=4&A+S={-w$D;$]d-F;n-x$4$4$$-4$D@E>H#d&4$r-R-%]]*r-k+$-$-d&t&f+Y%4$w$f+i=f+E@d&/{/{x$L$D&A+h=%&r>O!%&4&c&x$F@8*e*L&%>h=#=h=F&L&.=L$@=Y%x$E@w$&]_+j~*]>%>%@%,%6#c;C%=]-]9-8#7#@%8&y% $y%c#y%7#a#l%#%4#;]r*:#>],]!>)=T&8&,%7#a#>*h&7#v#w# $7#c#z%a%7#,% $z%z%(&m%#*(&']!%_# -_$[*)&/=)]!]<$C#/{~]{]]]s-H~^]=,*&A+c*B+X=g;g;@~ , ,@~#=g; ,1-%>#=#=#=",
"h=T=.=#=%>M&r>T=@~g;+=.=.=.=F&&&L&L&F&.=c&C$A+w$A+i=h=F&#=L&c&/](]_]5$3$X%d&8${-L$D&8*C$U=#=E&1>1-L&*&k=1-W>=~f- ,:>L%U=C$D&t&t&C@:]F#.$7%3$Z#B$5$B$k-Z#.$$-f%M{;*,;<]^*6&E@b&{-A+c*c*w$8$8$L*>;F;h~r-j+D@1$e%e%E@5$D@k-t&0*Z%t&G@D@t&D@d&I@f+w$c&f+C$h=&&x$F@D&3$D&B+c&A+%&#=e*L%X*{-$-@=8*T#g;h=%>F&L%h-e*.=A+L$t&w$|-t&w$T;m []}]/&o*(&8&7#|]--a%y%8%p,8%(&y%5%7#y%5%a%7#a#8#o*;%1]+%v*2]3]!>~&,,@%>%,%7#l%8%n%i+I#c#c#z% $a%8%8%a#z%,%#*(&'%w*$%_#{&u*4](+(+5]U*2$F#)$E>S@@=A{6]I~O$%&F&c*D;A+c**&@~j=g;h=#=},%&@~g;#=%&N$k=",
"O,g;h-Z@y+w{y;g;8*.=w$E&+=U=%&%&L%T#$&F&Z%A+.=L$g=A+e*T#e*.=L$(>z)X%j%3$3$j+d&r-q-8$C$A+U=g;C$e*i=F&h=%&g;T=r>L%W%*~%&Z%8*G@T%T%G@7]B$B$B$E@E@D@X%Z#C@X%B$B$j+8]m&C&9]0]E#D@E@1,X.r-8$k+r-d&a]q y=h~x$k-X%)$;-E%c$4$K$1$E@x$L$@=j+f+Y%Y%t&Y%w$w$D&C$8*h=L&C$E>f+t&E>.=8*f-M&*&h= ,4&8$Y%c&F&L%e*h-z+L%g;=&O;A+L$w$4$t&3$4$w$6,-.b]W.(#;%m%a#h&`~>*c]y%7#l%,%8%y%8%,%8%9& $a#6#8&T&;%d]~&1#e]=%+%)=5#m%W&m%I;,%8%I#i+i+6%w#)% $`#7#8%7#8%b#0%0%0%c#!%#%_#u*f][*d j,;-{%F#)$E@g]g]h]j=M@M@*&L&c*g=A+I=N%i]X;g;O!1-.=O;g;*&#=g;@~=&",
"M&:>y;Q;&=w{O;e*U#L&.=c&w$.=a>4&+=H-T#j]C$+=U=h-C$A+h=%&L%+=D&k]l]m]5$X%D%j+t&d&e%/{L$C$+=E&+=L&C$A+L&S=L&c*g;%&@~#=F&.=E&E&G@G=T%T%5$Z#5$E@3$Z#Y%C@C@D@5$3$E#J$[;C&#]!;j%3$3$Y%4$B$X%}>u#)]V*U{n]h~o$B$d&)$F#B$.$e%4$X%E@@=X=.=f+t&f+w$t&E@4$I@8*L&L&.=F&E&E>I@f+.=K&$&z+O;f-#=#={-I@f+8*F&*&%&0>k=#=L&g;4&B+r-k+E>4$E@d&d*T;m o]2&5#p]m%&-5%q]4%5%y%c]@*a#8%w#y%5%k%7#a#(&>%8&;%M>d]~&r]s]Z&:#4##%@%>%@% $a#c#3%n%7%`#k%z% $c# $)%7#z%b#(&(&0%/&!%$%{&t]u]x)i@j,U*(%F#F#1$j+W%v]j=s-.=.=L&A+X=i=I=w]x]@=-&.=L&g;@~.=X*H-h=L%y;",
"%>h-M&Z@s;%>1-O!h=@&L&C$L$i=D$A+1-(;y]z]E$Z%.=L&.=.=*&S=f-8*D;S~A]E>k-4$E@t&3$t&e%3$D&L$C$.=C$U=Z%c&X=y+e*F&L&h=h=*&g;L$C$8*T%C$C$R#D%K$f%j+K$C@Y%j+X%X%3$C@D%Z;&>[;B][;j%t&X%f+D@k-E@$-E%)$l+7)i,4+C#C#)$U*D#)$F#k-k-E@f+w$A+w$t&Y%f+j+3$4$Y%c&Z%8*e*f-T#E&w$Y%S%e*%>H{W>O;L%0>D;X=D&c&.=S=k=k=f- ,g;.=q-B+x$x$/{t&E@$-r-A+g~C]D]A@5#o*7#7&E]--w#4%5%H;y%h&7#y%6%8%b#(&0%0%@*W&>%F]G]H]9;I]=%)=5#,,6#o*,%@%(&8%i+n%w#I#x#5%6%c#c#z%7# $J](&W&/&w*z*u*+%6-q~x)K]L]U*:=E%E%U*$-j+j+S%j=s-L&.=A+X=1-A+S=.=1-1-#=%>g;#=@~+~%&f-k=%>",
"s;k=M&A>*=w{g;L%T#T#F&U#8*c&g=h-:>X@y][>@&.=C$C$c&.=h=y;f-U#O,M], H,B$3$E@4$X%4$3$j+x$L$c&+=+={-U=Z%A+V>w$.=#=h=g;i=+=+=C$.=U=Z%U=N]T%]*g+C@D%f+f+I#w#X%X%Y%C@J$q;m&O]P]g+j+3$Y%3$5$D@5$5$ $Q]K]b]t%U*A#_&_&D#A#)$E%1$$-t&i-q-c*t&Y%3$E@E@B$E>D&1-A+@~h=f-F&L$@=C$N$k=g;L&@~O,$;X=.=c&D&F&A+r>h=h=h=h=4&D&w$k+4$c&F@S%S@L$X=T;S+o]R]5#>%w#N-S]T]n%I#4%7&4%y%8%7# $a#8#@%/& -5#/&V&U]V]W]X]Y]Z]1#)=V&@%>%>%V&@%8%I#I#i+c#`#w#c#n%a%w#`#c#a#,%m%!%z*{&_#-%`] ^x)7)j,U*)$g,F#)$F#.$.$3$S%j=`!@~A+c*A+X=T%1-g;-&@~#=#=#=z+z+K&%>%>%>",
"N~y+Q~M&*=*~S=L%f-O;e*L&F&T#L%T#y;@&.^+^/;E&+=U=c&V=F&f-r>E&l>@^m P@}>D@E@C@X%X%X%#^Y%w$w$c&{-c*C$A++=D$i=Z%#=.=A+L$L$A+c&X=F&T#E&G@T%8*R#a&Y%f+f+v$C@C@C@4$Y%r&J$f%[;m]Y*K$d&Y%3$5$E@X%X%2$++K]%$$^U*9&]%'$D#_&>$L{D@*,k+x$w$x$4$Y%4$3$$-3$3$t&q-L%H-0>0>h=U=D&U=O!M&T=*&S=X=i=.=#=Z%F&L&#=M&g;=&g;5-8$8$8$D&D&D&@=D&w$x$$;T;S+!*P.(&h&4%S;%^x#3%N#6%w#T*c#6%)%a#a#a#@%>%D-#%^=!%;%&^*^=^-^;^]&*%r=>%@%@%>%@%8%v#i+i+`#c#`#8%v#]%w#7%a%8%a#]=o*#%$%{&X&>^x~l x.,^3=A#;-U*C#D#)$~%e%I@X=L&@~A+.=.=L&g;.=1-g;#=1-#=%>%>O; , ,9>y+",
"P~y;s;9>x+*=-&%&h=L%%&A+L&g;F&L%M&&&+^'^f*T#U#L&X=A+K@L%#=1-l=b)S+8=c$k-D@3$j+j+X%E#4$t&E>w$_;c*A+L$Z%.=c&i=Z%+=|%Y%w$L$Z%E&#=$=U#G=Z%8*N*F@g%F@f+D&%,9#X%c;t&J$j;E#,;g+E#K$D%Y%C@E@4$X%E@1$J-b n]=>t&!$`-]=z-'$!$N>D@D@s&o$8$4$$-E@e%j+C@j+t&x$D&{-L&L%L%%>+=L$D;.==&@~A+i=S=A+A+c*A+.=h=L%C+D;$;B+1>Y%F@k+t&D&D&x$x$c&4${>};>;N)x=E#<=n%)^C~x#1&O#c#7%!^5%N#a#(&,%>%@*V&#%D-)=D-#%~^{^W]]^)>[#;^)=#%@%V&a#m%7#n%i+v#v#c#6%7#7%w#N#7%y%6%,%w*x%$%$%t=t*`$^^h@U{v&K=D#E%U*U*C#D#)$d&I@L$A+.=X=X=O!X*O!.=.=1-@~g;-&/^r>%>r>y;*=s;",
"*=y;(^=&k=M&h=#=f-z+&&e*L&F&z+f-y+@&#&/;f*&&E&L&L$U=r;(;4&Q,S,-=N)g~L,B$.$D@4$3$C@g+e%E@d&@=4$D&+=c&c,{-L$F&U=Z%D&f+w$c&U=E&h=U#U=8*U=U=T%L$R@f+K$f+D%D@w#0#i+J$q;j%6&K$3$j+Y%x$t&E@3$D@5$a,7{m ~*$~~'.$!$z~_^_&!$~%k-D@$-E@A$E%d&z#E@E>d&4$4$w$c&L&L&O;y;.=c&c&.=1-g;O;g;A+A+1>X=.=L$#=h=1-e*X=+=U=Z%c&D&D&Y%x$x$8$w$4$d&d;%~:^<^k;M,T*3%[^S;7%J#N#7&i+)^8%7#a#a#>%!%{&_#$%)=_#$%)=}^|^1^r]|#[#[#<#5#/&8&@%@%,%6%i+w#I#7%n%9&z%c#i+i+c# $0%!%A-u*2^~=X&]'<@3^&{}*b>h,;-)$F#D#)$U*t&8$w$A{A+X=i=a>W>S=1-.=O!W>$;O!*&k=#=h=M&M&y;",
"x+*~h=h=L% ,F&.=h-k=K&K&h=#=z+y;k=$&f-f*Y@(;E&E&+=X=e*4^+~,-~,u-@;c{!'E%F#$-t&3$C@j%D@4$4$t&S%L$A+i=D&x$w$U=U=L$C$C$T%i=Z%#=F&E&F&E&Z%0*W%L$C$f+f+Y%I#t&3$X%K$]*0*Z#j+K$j+t&t&3$t&1$G@r&|-u+$~y.,)5^l.c$)%n*6#_&_&)$$-d&4$.$.$1$$-k-5$4$E@D@d&t&c&Z%+=L%h=X*c&+=c&B+S=1-e*D&X=c,i=F&L&A+g;X=X=L&c*X=w$c*w$t&t&w$r-e%e%c$r-l.g{A.e-c~4' $A%N-N#I#h+3%n%i+T*8%y%,%@%/&_#{&$%<#+%<#+%{&6^7^3]1#|#*%-%<#$%V&@%H;8&8#_&I#i+w#c#i+N#n%c#v#`#z%m,8^[#~=u=-%X&9^0^e~-.S+a^V!v>b&F#E%F#)$1$t&d&w$Y!A{L$c*C$X=W%1-g;|,i=h=@~ ,=&0>%>j!O;A>",
" ,%>*&K&h- ,#=F&*&h=%&K&f- ,k=K&X@L%T#T#:>X@H=T#L&A+c&b^c^d^e^f;f^g^;'1>B$B$3$X%h^Z#.$z#t&f+G@c&C$L$c&j+L$X=c&T#C$Z%T%A+X=.=$=E&Z%8*Z%N*H@T%Z%f+L$Y%e%3$C@X%F@R#v%Z#6&R@V#L$F@L$x$A$d$z;i^j^k^]{n k^%~j.E%m%+,!$D#B$E@t&t&C$t&3$E@k-$-E@E@d&D@t&.=L&L$*&#=A+B+Z%U=+={-w$x$w$L$Z%A+i=a>{>X=|%1>:;D;z$D&w$L$4$k+s&h,U*4$M,l^g^m^v)n=n^%~c*1&4%9&1&7%6%6%6%a%7#7#6#W&>%5#<#<#_#~&!>)=n*7;o^)=1#1#;^9;$%#%/&>%y%l%7#6%i+I#7#7#w#i+v#z%_&z%Y-p^q^u**%v=r^s^t^}+0 ! e-u^9'T!h~W;B@U*C#!{r-|&z$H-/{|%T=H-$;W>a>L&L&L&#=g;=&S=0>@~K& , ,",
" ,f-)-z+k=h=L&X=L&%>*&0>L%F&S=%>@&V@v^@&g*Y@T#e*c*},Q, #w^x^y^*)z^A^B^j.e%y{Z#D@6&X%5$.$f+T%C$L&F&L$C$S@L$A+U=T#Z%C$c&c&C$F&#=F&Z%8*C$U@G@L$]-G@f+Y%3$t&K$f+T@/*V@6=C^@=k+a$*,*,/{d&D^k;7{@#E^F^D'F)G^c~k!3$c$K$E@$-d&c$w$w$/{$-E@e%1$s&d&r-8$w$C+O,W>5't+J-U!H^O>e+e+8$c,|%V>&~a>I^a>1>i-1>k+M,k+|-_;k+_;E,N>A$e%k++;l.9 5,J^Q>R>K^^{.'d;_;A#~%_&_&,$'$]%}$}$]=g&x*_#{&{&{&^=r=6;(#w* {e>|$L^M^`-|$x*]=]=Y-4%5%6%7% $7#'% $v#i+ $)%z%W&#% -u*6-d'R][@o#N^O^P^k$v-e^*{p'E;g~3.s+k;u+u+};Y=l.X!o.Q^Q^,-R^2-8,8'1-X*X*X=E&g;#=h==&",
"~~_'R^_'!,,-k!S^,-,-R^_'_'~~m!};$'T^U^g*u{&&=&6.2-Q^|'V^W^X^Y^N)e;`=Z^$]H-h%E$F@`^O*v%0*Z%8*D$v!$=T@8*C$c&c&X=A+Y=Y= / /Q,T=;'./0,F&c&@~6.6.j. /),+/@/H-C$C$8*R-E$Z%9*F@i-I^A,A,7.J-W*#/q!E^$/m k&%/&/0 %~n-7.!'!'*/j.),2-),M=*/7.M=7.7.M=8.M=R,v!Y)=/-/;/>/,/'/)/|'Q^l=7.u+l.l=Y=Y=l=*'R,j.l.l=),;;;;$,7.;;4'*/7,k;/~5^!/K^Y^U-N;f){,%'l!u+|*|*a,_-5-|*Z>5-Z.f,K=n'l+&*E,F,E,f,1;o=g#X{M=&'(>h~h~s+u,N@H,1,N>t,~/{/4+`.++i#h'_-i#`.o=X.]/0$^/T$//(/(/_/i,/+:/r </-.(-N)u-[/}/m=}/v-|/A]`=1/2/3/4/4/g)S'')3/5/6/==}'}']~(~T!7/}'",
"K)})8/9/9/! 0/@-4=a/J)H'8/,>b/@^c/d/e/;/f/=*g/M'+)M'M'^>h/i/~*(+j/j/;.U{k&k/<^H)l/<^|)m/n/<^K)F'o/H)H)<^k/n/n/~*n]-=@-,>y=o p/q/r/H)b)s/|)<^t/m/|)a/n/n/~*9/a/u/<^n/M]C.,>F'n=F^N;C=F'u-4=%#C)3 [*U{) v/F^G)M'u)u)*)Q>g)Q>M'n=C=N;n=N;w/K'2)Q'*)Q>x/],_)y/z/A/A/B/Q>Q>^>L'n=L'L'w,^>*)+)z^^>L'L'L'2)K'N;2)2)2)N;g/`=1/g/C/#;>;L=L=C=L'D/z^z^+)*)))e)+)))E/z^+)^>^>N;K'n=f;F^C=Q'Q'Q'N'F/G/H/Y'Y,x/*)I/^>I/h)J/n N)m m k&k&4;R+K)y=J)/!o]X-C)K/L/^.#.#.M M/N/O/D _.P/M $.L $.Q/R/@.@.S/T/U/;!V/@ W/` $ $ $ } B!X/S+k&k&S+]{*)Q>e;",
"g{I{6.8.q-G@f%D%f+g%q-8.H-t+%>O>j!T^C>%&Y/c{K%>+i Z/~+!+z!`/K- (f .(:~W*+(W*t+@(O;#(4'!'B>!'z,t+$(6'!'8't+%(A,|*A,4'#~$]5^&(L'^>g/-=*( /=(X)@/,-R^-(,-),,-R^@+2-,- /),7/;(u >(B Q Q @.^.T :.,('()( .!(+ ~({(]()+!+'++ $ $ W/R ^(Q R J /(J :.:.@ $ ((_(D!:(<([(}(~!} W)@ ,!J :.,!,!W/@ |(+ 1(+ W/,!:.:.;!:.J J S)J J ,!2(:.^ d _/-.  |!3(z!7!h j j *+*+4(0!5(4(6(( W/J T ^(7(8(x 9(0()+'&P&(+a(-.b(0!~+{+{+c($+1.d(V*5+E;-*e({* +0$1;X.f(4]g(h(i(j(k(l(m(n(o(p(q(p(r(s(t(u(v(w(x(y(y(z(A(B(m~C(D(=$D(e~s!5]V*i#`.++d+n$z=W!2)L'A]",
"7.x$R@v%E#F@g%D%X%g,}>U*X%E@0*b%b=E(J$~;d%f%j;W%F(o+G(N.7@H(I(^@'@J(F,K(F#)$X%j+|>e%i+x#Z#E#E#r&S%6&r&g+E#{%{%1%:=H#Z#8$n-(~N)L(M(%~),h= ,O;h=%&L%8>%>k=f-%>%>K&0>L&&&e*0>+;j,!~{')~v@-@N(O(P(Q(R(S(T(U(V(o%W(@,^~j^$~j^w'X(g~d~F+Y(D(({s#D(o%W(6/Z(M]F;!!) :^C*;+p%`(E+!@K+K+X~2+l#z@z@[@j#k# _^^._ _+_._:%o+:%@_#_$_%_&_*_=_m~-_7@;_c+|@5]d+s+v>J-3'>_d+,_~/k#k#1+ _'_X~)_J+!@G(k{!_~_{_&#[*]_^_/_(_l{__:_<_$*]=V&/&z*z*$%$%$%$%5#_#t=*%[_}_}_}_|_1_2_3_4_5_6_7_3_8_9_0_a_b_c_d_t*e_f_X&g_]=b#J]q,7#z%y%m%W&q,q,q,h_m#v&L(G;g{",
"|*T%g%v%r&G@r&g%E#E#z#D%E#d%T%]*o&~;]*]*D%5$B$m&9%v#F#;-c$A$N{6$c#1&c#`#7=5$7%,;f%T%5$5$Z#H#E@R@r&v%R@i_]*g+f%{%j%5$Z#g%v>X(!!q j_(~k_h= ,L%%>l_y;%>y;k=%>*~*~y; ,L&e*h=#=L&E&e*L&g;r>X*a,+;g#,_j'$,g#8'T=},0>8>A>A>A>N~N~ ,m_#=S=4&4&4&$;X*X*;&*'Z^W!t.F;n_Q{D]#$=#o_2&M^5;,%7#7%5$v#Z#Z#5$B$'$|&k%z%1&1&a%9&_&b# $~%D#p_q_E,E,0$*,*,e%b%j+C@r&8*G@T%K$K$5$5$I#v#v#`#8%0%(&9&`-Q.Y+m~r_s_] |!>+t_9@>#u_0%_#%%v_5#5#w*_#.-5#p]{&{&<#:#u=w_x_c_y_}_c_z_[_}_c_A_B_C_B_c_x_|_D_E_F_G_H_]&d_d_I__#w*x*/&m%,%,%6#(&]=w*]=}&p+t##,S+$~",
"_-f+W%V#G@V#V#R@5$Z#Z#X%R@o&9*H@J_+&N*g%g%v#i+p;:-j%E#9%Z#i+<=K_9-w#1%{%7%7%2$b=Z#K$5$H#Z##^E#E@$-E@3$0*]*]*f%g+v%H#E#j+N,3,5),>L_};#=%>%>%>y;y;Q;*~%>y;k= ,y+N$%>#=L%L%#=g;4&L%L%L%#=#=L&A+A+h=g;O;.=O;g;1-=&O;M_%>%>=~w{M&h-h=1-g;E&X=g=i=g; ,s;N_,'O_0)P_!*;~O+Q_|>c#7#7#a#8%8%a%i+5$7%7%1% $z%a#V&)%7#b#0%,%7#7#8%y%8%8%a%6%a%w#v#x#Z;g%g+v%T@v%O*B$Z#h+I#c;6%8%a%k%l%8&a#y%7#D#:%Z$q#U~} 5@%_p~y*$%A-%%{&{&5##%_#u*_#~=<#+%t=-%d_R_!=S_x_}_T_B_C_}_y_c_}_C_U_C_V_c_|_c_W_X_!=&%d_t*u=+%{&Y_g&q,(&a#,%,%'%I>W&[&(&l+t#D!' X(",
"1>K$f+G@w$Z%T%g%Z#D%E#v%]*W=0*W#Z_o&Z%t&f%`_.$6& :Z#h+9%j%i+w#<-B%w#E#h+y#i+v#@]5$E@i+x#:=E#K$R@j%Y*r&G@]*v%r&K$v%0*K$j%k+E;S+=*.:8,#==&k=m_k=y;k=y;M& , ,%>x+M& ,h=%&k=y;#=h= ,k=%>L%k=h=h=#=%> ,f-h=%&k=h=L%%>*=A>=~-&5'*~y+:>g;.=h=i=A+h=1-%>*=w;+:@:(/#:$:%:&:1$(%I#8%7#0%,%a%c#c#|&}&|$7-*:0%a#,%a#(&]=0%(&%,a#7#y%c# $a%c#c#v#i+x#=:g%O*i_T@W%j+~%i+I#%,;,w#z%a#8%8%7#7#c#4%6%D#-:u&;:>:,:':^=v_4#y~%%v_+%$%{&{&u*I_<#+%+%):d_!:V_}_[_x_y_~:{:]:B_]:^:V_B_/:(:D_|_}__:::<:[#[#-%}#}#<#$%z*w*w*T{T{#*0%0%]=0%[:0&t,n#!!G;g~",
"x$j+3$F@S@F@T%P#f%6&~;+&U@[>V@N*}:0*8*V#d%x#7%h+2{|:v#5$j%i+w#I#J#:=B$E#j%f%E#1:Z#Z#Z#:=B$j%r&R@R@,;v%U@C$W%r&K$K$j%E#o&4$>_S+k/%~Y/h=L%%>k= ,y;%>%>k=%>%>y;%>y; ,O;k=T#y;L%h=%>O;k=%>k=z+k=%>M&:>%>z+%>0,k= ,A>*=Q~2:s;O;=~Q;N~Z@Z@k=+=A+.=S=0,3: >4:5:x^6:7:7{&~,;:=i+7#z%,%,%_&z%'$}&,%l%7#a#(&a#(&a#(&(&(&7#,*7#8%6%I#v#(%i+h+h+Z#h+j%g%f%!{@=8:j%7%c#5$x#N#7&8%I;7#',6%n%5%I#h+5%G,6~l Q{J+9::#2#0:a:u*<#q*)=_#Y&Y&`&t=~=+%d_}_c_|_x_y_y_U_C_~:]:b:c:T_}_C_d:}_|_S_|_D_e:Z&t*s*H_v=t*~=u*_#w*0%,%6#W&,%T{#*J]f:I>Z-k#q g:h~",
"t&K$D%T%F@F@H@6=o&;{h:}:C;/*9*R#i:*;J@C$X%E#5$x#X#j:1%j+E#H#H#H#:=y#E#j%O*g+R@k:Z#H#H#H#h+:=v%r&j%v%v%D$H@W%f%0*3$E#E#d%D%W-N)c)}'%>#=k=O;1-8>%>k=k= ,y;k=%>y;N~k=h=K{D$y;y;%>l__>%>k=y;%>%>Q;y+Z@y+%>*=A>O;k=w{N~N~w+*=r>;&A>#~*=0,y+)-H-g;1-O;O;w+c^l:-/u)m:7,S%g+{%i+a#7#8%0%(&}$]=7#@%8&a#x*@%(&!%V&V&@%(&+{5%z%7#a%`#w#j%y#y#(%f%`_j+$-f%i_]*o&I=I#4%Z#5$5$6%5%8%y%8%6%I#y#x#h+k%;-M+n:o:p:Y_Y&q*q:r:v_:#+%_#<#t=v=v=~=-%t=!=c_c_c_c_[_}_s:[_C_~:~:c:T_y_y_y_[_t:c_x_2#u:r*1#;^]&s*]&d_):_#w*/&,%,%a#a#b#I>q,|$v:']w:q D!3'",
"E>Y%D%F@F@T%R#~;B;9*V@/*e*8*E$c&*>x:j]V#r&Z#i+H#:-N{G-f%j%i+x#(%y#C&E#j%f%d%r&-;6&j%Z#Z#j%j%r&j%h^y:U@8*T@v%j%R@j%E#E#O*j%_-! z:j. , ,k=h=*&T=O; ,O;y;y;y;*=*=M_%>%>M&o&s;P~N~y;%>y;y;y+Q;P~K{K{y;=~k=0,k==&k=w;4>z>=~Q;O;%>x+M&M_%>0,y;k=M&k=%>*=A:N_B:C:D:E:6'K$E#E# $k%V&@%(#V&@%(&(&@*@%(&0%/&!%_#@*>%@%@%P=7#b#8%c#v#I#P*K#:-(%5$Z#[=j%j%~;o&i_6&|:f%p&i+v#w#n%y%c#k%w#:=7%i+H#w#v#5+F:G:H:I:v=t=J:>]2;-%+%+%t=`&d_`&t*1#-%c_V_V_D_D_C_}_[_D_B_~:b:]:T_U_}_V_V_|_c_Z&}#.;+*!>|#;^]&`&*%-%{={=/&w*#*,%J]T{I>K:']g_']W.q G;U!",
"4$3$r&G@T%S@G@8*/*L$Z%G@G@B+8*T#9*z]E$Z%R#E#5$Z#x#o;|:x#H#Z#j%f%f%R@m]G@r&r&O*]*v%R@f%E#N##^r&Y*g+r&T@E$Z%v%r&R@f%j+j%T%f%{>L:b~@( ,f- ,S=h=h=h=L%%>y;=~P~w{N~N~y;y;N~)-w;y>Q~Q~K{y+M&Q~w{w{Q~N~Z@x+k=x+5' ,*=+>M:s;Q;Q;Z@K{P~M&A>N~*=k=y;Z@Z@s;P~w;N:O:P:M'M;Q:Z#2$F#7#a#0%(#D-V&>%>%>%#%(#R:/#^=t=_#(#@*V&9-p-8&5%X;w#i+h+b%C&>-x#D%j%E#Q#K#]*M*~;&>j;f%i+F#i+w#I#y% $5%c#x#E#y#i+I#`#`., G>S:u=*%:#_^T:-%v=s*U:}#s*!=&%V:t=s*}_}_c_c_V_}_a_C_c_U_}_c:W:~:B_}_}_|_X:D_1#-%)=)=2;|#*%t*`&`&`&u*Y:^=[&I>T{}&b#]=T{z*.-x*&*q G;3'",
"t&3$r&T%4$8$T%i=Z:J@C$T%T%F@L$D;U@[>B;Z%T%E#x#E#Z#i+N={%i+x#j%K$R@v%0*v%0*v%9*v%r&f%:=J#H#E#r&f%Y*R@@=D$T@v%r&O*K$R@g%g%D%x$X/##O;k=y;M&#=#=h=k= ,=~4>k=P~4>*=P~y;M&M:2:`: >w;+>N~Q~N~ <`:@>w;.<@>2:s;y>y;A>x{4>w;N_2:.<x{2:Q~*=x+Q;K{P~9>x+*=`:N~+>+<@<#<$<%<6'E#K# $8&m%&<$%$%w*@*>%]=K;.%K;+%_#r*)=<#.-V&M-9#,%S;*<c#h+G-m&m&>-h+Z#O*6&b%E#O*9*M*&>R@E#7%h+i+v#v#5%a%c#n%h+f%j%x#I#Z#r+q d>Q.d_`&+%3]!>H_0_V_=<t*]&U:]&s*]&v=}_}_D_|_|_D_}_}_[_B_y_]:-<~:U_}_y_D_[#2#2#}#)=~&4#)=}#`&#%)=-%u*Y&g_.-/&q,T{#*q,0%q,z*]=:*S+;<4'",
"F@F@$-4$k-D%&;c&F&!-h%Z%Z%G@T%S@S@j]W=8*O*K$5$Z#x#x#(%I=i+Z#j+R@v%v%v%r&v%R#S-T@|:R=R@I=H#{%,;I=Y*r&v%C$H@G@d%3$j%R@O*R@f%O*=*m>L%k=k=k=f-f-L%M&k=k=A>%>A>P~M&x+Q;N~s;w+A:7>`:2:w;w;2:w;><M:+<+>7>2:4>s;N~*=s;+',< >2:`:`: <.<4>s;=~<,Q;;&j!<,M:`:M:2:@<=/[(<(n-Z#`#a#@%,*>%#%r=V&#%>%g&t=+%+%:#+%+%<#6;r=@*Q=q=a#T*'<n%|:.]`^)<:-j%j%g%P#8-d%P#0*]*q;&>Y*j%h+E#H#x# $ $k%I#6&3$K$E#i+Z#i#C]d>W.+%}#:#!<d_s*&%|_}_R_!=V_s*s*;^d_a_[_|_c_}_s*}_V_}_B_y_T_[_y_t:;^}#2#v*+%_#5#D-n*D-o*$%3#n*;%5#3#_#z*w*]=(&T{|$I>#*W&z*#*F(;=,)*/",
"U*1$.$;-'$B$S%N*L$&&D$Z%8*C$f+f+W%W=~<R-f+R@5$.$2$>${%|:Z#Z#Z#Y*R@W%R#W%T%H@~;,;Q#R#F@K$Z#Y*Y*f%Y*r&G@R#T@v%R@f%j+j%v%O*Q*j%{<,- ,P;O;k=r>$;k=N~%>k=A><,s;4>Q;Q~Q;N~M:.'+']<w;.<x{^<w;></<+> >(<2:+>w;P~<,Q;Q;A:+<4>+<><M:4>,<_<2:M:M:Q;%>M&*~4>]<v+M:e{@:z.:<A,R@x#7#E->%5#_#6;5##%@*K;|#+%!>+%<#r=<#6;r=B-2*6#a#a#y%I#p;N{q;6&E#j%f%R@r&~;v%r&O*6&J$i%r&f%f%h+:=I#6%n%w#E#R@O*r&E#x#Z#P@-.d>2&):*%;^;^s*!=<<|_|_[_]&s*s*]&H_[<~:}_}_D_|_Z&`&c_}_C_]:]:}_;^`&t=:#%%<#+%)=5#~&@%o*U&#%o*m%@%;%;%w*W&V&y*#*#*(&I>q,(&T{}<|<]{G;/=",
"<$F#`-7%7%7%I@E&!-E&L$E&C$F@f+Y%@=f+M*o&i%O*E#5$i+9%9%1<E#h^E#R@r&S@0*U@N*T%U@&>]*U@R#j%E#:=Y*r&f%r&G@G@Z%v%K$f%E#g%F@v%g%f%2<~~k=O;g;g;.=g;3<*=%>%>*=P~s;$&@>*=Q;N~4>N~A>,<4<4>s;+>M:4>M:{{+<]<5<w;M:Q;u{;&9>^<+<7>/<x{+>3:i. >2:w;+>@(9>*~N~*~*=3:w+s;V^d)6<_-j+K#O*8&@%D-+%:#K;(#^=~&7<+%+%S{<#D-;%n*o*^-I-@%k%7#c#X;N=Z;&>6&Z#E#3$$-k-6&D%Y%O*g%g+J$v%O*6&B$5$i+6%Q#x#K#f%g+T%f%x#5$g#q G;2&&%2#8<s*!=!=|_V_[_]&|#-%7<2#3]!<;^[_x_S_`&-%}#`&[_[__:[_|_;^`&}#_#$%q*$%$%;%#%l%8&@%8##%8#8&9<m%W&V&m%W&g&x*0%']g&g&g&<&]'>;d>`{",
"h>!$1&_&7%v#K$i=1-D;0<g=D&c&f+g%4$j+f%~;~;d&<$H#`#x#v#f%j%Y*E#R@r&v%W%V#T@U@J@J$J@E$0*f%{%I=0*S@9*f%W%G@T@G@j%j%E#R@F@r&r&B>A]''#=@~L&1-L&#=k=M_y>s;K{h-s;w{M&y;x+w{+>+>s;s;a<*&;&@>e{w+w+*=]<,<Q~w;<,*=T^x+=~*=+>+<+>4><,*=s;+'b<4>x{c<K{*=P~*=s;y; ,x+%~:^g:4'K$5$h+7#;,#%H_t=<#u=+%r=<#!><#+%~&Z~=-i;d<^-e<c;a#8%4%<=p;A;m]g+i+Z#v#(*.$E#5$.$X%j+b%,;K$f%D%j%H#x#x#h+h+f%]*O*v%K$E#j%|*S+;>f<t=Z&=%]&;^s*s*x_s*[#2#v*2;4#4#g<2#2#9<1#-%t=}#`&=<}_]:T_`&-%v=v_$%$%$%$%#%>%o*8&l%l%@%x*l%y%h<m%/&V&z*W&/&g&w*.-'].-t]i<j<S+L(H^",
"1,1&`#`#v#5$R@Z%{-t&k+d&x$d&3$E@j+E@E@&>J$g%{%2$E#H#2$x#E#Y*:=S@r&G@G@J&T@T@]*b*E$J@9*g+(%K$H@T@T@v%R#W%Z%v%g%K$E#f%e%R@O*8,k<l<g;g;+=L&U=h==&Q;w{*~M&a<+>M_Q;*~%>Q;N~N~P~*=J&R-Q$N~@>w+^<w+a<#~a<a<x{%> ,8>=~a<v++'9,w+w+A>s;v+x{M:w+M:*=Q;<,w+w+x+=~x+%~N)6<|*)$i+7%(&J*>%r*1#+%S{+%2#v*2#2#+*6^M%m<m<p,p^p,p*7#y%n<N#|:i%[;D%j%Z#i+5$i+Z#.$`#B$C#5$;*g+C@Z#B$x#i+Z#h+E#3$h%V#r&6&g+,;n-**;>P.:#Z&[#]&;^o<<:]&;^t*-%)=;%4#~&<#)=v*2#2#+%t=t=`&;^}_p<q<-%v*:#<#_#.-5#5##%;%m%7#8%7#8%7#8%7#m%m%a#o*,%(&w*z*g_g_y*r<w=s< _U;C]}%",
"J-C#v#5$i+Z#K$f+Y%4$s&;-k-t<<$B$c$)$;*^*m&j%E#x#:=Z#I#9%h^R@r&v%r&W%T@e*E$9*T@U@J@E$R-g+f%R@G@T@T@W%j]T%W%T%d%D%h+C@K$f+F@0>u^l<g;#=g;g;+=h=h==~=~A>w+y;Q;%>*~A>*~+>`:N~Q;*=E$v%K@4>*=x{A>*~+>*=*=+>M_8>M_k==~K{*=*=x+Q~P~y>A>,<4>4>+>4>M_Q;*=9>w+k=j!z>;':+6<J-E% $}$0%w*6;~&1#+%z~U]U]u<X]*%2;7;A-A-;%)=$%4#7#7#c#I#I#(%j;b=D%h+i+i+v#7%H#k%z%!$'$7%E#E#Z#F#5$7%v#5$j%f%P#V#R#g%6&g+j;s+L(G;v<{=-%1#;^=%w<x<[#}#[#!><#;%;%)=y<2#_#_#u*{&u*+%}#v*2#!<v*}#v*v_q*$%5#!%@*>%>%W&0%8%z%y%8%5%N#J],%m%a#8#(&(#_#I_z<t*A<+-B<C<k&S+D<",
"(~z,A$v#2$$-X%f+C@z#B$E<j%5$(*5$x#v#;*&>^*j%Z#5$E#E#9%H#Y*Y*v%r&r&H@T@T@J@D$D$b*$&E$8*0*f%r&T@T@H@G@S@R@R#r&v%R@Z#f%O*R#K$8,b)m!=&O;L&g;+=1-h==~y;*~A>*=*=9>*~%>=~4>M:2:w{%>M&J@K&P~w+;&=~A>F<x{x+0,h{h{=&=&8>a<%>9>M&x+x+x+x+4>w+K{P~w+x+*~*~9>;&;&;&U>G<4,d)L**,,$g&H<A-~&)=+%w-I<J<}{0:!<=%*%+%@*#%#%5#5#~&8#5%c#7%v#h+f%f%j+9%x#i+w#k%7%z%7#c#k%v#5$h+v#2$v#7%i+F#j%j%h%F=V#f%;-j%d&&]S+#,w:K<!>1#1#|#L<M<W]r*<#+%<#$%r=q*N<y<)=q*%%)=_#_#Y&<#v*=%1#+%{=:#I_u*y*$%#%8&@%y%6#8%'%8%7#6%'%c#b#J],%6#(&@*_#6-e_O<P<s^0^s#Q<:<q!",
"^{c~8.z$s&1$c$*,C#y{5$Z#j+5$Z#Z#Z#B$h+0*Z;j+E#i+H#:=:=H#h^,;F@I=K$r&R#8*E$J@8*e*8*V=j=]*g+R@H@H@r&W%r&t&F@v%O*j%j%O*g%x$W><'F'~,R< ,L% ,g;S=L%k=*~ ,=~%>=~P;*~%>A>s;x{w;K{P~M:N~4>M:*~M_%>x+Q;9>9>=&T=b,g;r>r>O;=&k_9>;&k==~O>A>x+<,w++>@(9>9>O;O;j!R,m>S<K):<7{f#*:,,5#r=$%+%)=T<b-!<4#2;;^}#*%t=(#,,D-r=r=5#8&8%w#I#v#Z#E#Z#5$7%v#7%a%c#6%0%l%8%a%7%B$Z#.$v#H#x#v#v#.$g%w$D$R#g+5$h+W;g~C]#,j#U<!>H_!>|#Y]V<_^+%)=+%)=D-$%_#5#5#6-_#_#<#$%)=%%{&+*}#t=+%Y&t=f_X&+%_#8%8#6#7#8%8%7#y%)%7#k% $z%7#7#a# %y*t]W<+-X<t%j,s#g^v)2)A^",
"{,*(/'$]*/d;A,a,a,I^_;z#E#5$5$(*i+2$B$K$i%j%Z#H#Z#Z#Z#j%K$R@I@I@A{w$X=},X*X*X=X=C+},c*c*I@B@8$S%d*L$w$d&b&*,x$4$8$9$8,+'&'e/X,Y<Z<q>`<;&k=#=M&M_9>8>=~8> [k_5'5'B>.'),7>N~4>M:4>N~M:N~s;k_z>(>+'4<^<a<8,O,+;%(r>=&k=O>j!0,;&=~k_@(#~3:.[.[<,k_k_B>(>./+[@[]{#[c{3']%!%D-5#_#6;<#)=!>1#<#<#;^|#}#)=~&5#@*r=5#$%8&7#a%6%9%x#;-B$i+7%6%6% $k%k%6#)% $}&c#:=y#{%:=E#x#x#y#K#0*N*L&T@h;G#Z#Z.$[S+g:j,%[:#v*!>}#V-&[3]9;!>-%{&!% -y*g_^=g_g_g_t]_#g_{&y*)=y*g_v:/#X&*[`&+%+%#%@%>%@%7#z%7#a#7#7#a#7#)%^%=[-[l+A@P.;[>[|<,[v&,'s'-.U{S'",
"M;'[1/4/1/3/)[$/![$/A^G<8.$~~[!'U!|*~[7.),j!4'_-_-A,r-8'},k.$'{[I,][^[/[([I,I,<'_[t-:[+'t-h*{[.[<[j.i.),l>B>m>m>n.R^R^[[_,}[|[1[2[;/@:3[ !v!][q>4[`)4[ ! !5[ ' !q> !#<`)%'.'w+Q;s;+>9>*':'6[7[8[9[-/0[@!R^2-&'i.j.z,3:j!K,i.&'v!Y)0[q>0[@!@!Y)Y)!,m>a[v'b[A.@;0 b>n'~$!%_#+%+%<#7<|#v*:#<#;^|#}#6;5#5#r=$%5#;%a# $c#v#i+5$5$2$)$1&k%a#a# $8#8%8%>*y%v#E#f%E#f%`_E#.$Z#g+0*S@Z%r&4$f%t&r+w'q D!{*e$*:2#v*!>1#c[w-d[!]F,G,K=G,l+n'l+m+l+l+l+G,l+1;&*n'Z.e+r+r+ +9^ _f]e[f,h'Y.d*W-+;P@P@P@Z.g#Z.f[m^g[h[i[v-C/v)C=o)A.! ;<7)h@(+!*",
"}!$ @ ( W/w)/ @ + $ (=h@k/y=@-K)J)k&m/K)4=c)k/~*m/m/4,=*,>n)j[k[l[m[n[o[p[q[r[s[t[u[],v[w[w[u[$)x[-)R>R>Q>R>#)#)$)$)#)$)*)w/z.n *)Q>t)Q>Q>t)&)y[#)#)#)R>z[g)z[R>r/A[V,T'B[R'C[/>D[E[+[h[k)F[G[H[F[|[I[m)Y^%/J[$/h[&(v'K[r'$/L[y[Y^&)y[f)Y^Y^y[v/K>M[F;@^P&U)  N[O[o#o'h_{$P[h_!]z- -!><#<#Q[R[S.V.0$y-0$U.U.o'3+n+l#M+U!>_S[S[S[S[.+o=o=Y.Y.f,~[H,f=x'4'4.t+T[c-}'~[c{k]L*l<r!#(8.u+U[p'V[& W[X[<*~/P.s^U.2&Y[Z[`[u'i[i[i[1/L'^>s'M'^>h)^>^>^>L'3)^>Y^ )&)Y,k)])-.7)b y=K),> }J'! .}C',>[)C'A.d)H%+}W/W/^(J R @.@}M T ( @ $ #}H ",
"$}%}&}*},#,#=}-}^$;}g'Z.b;!$Y.Y.Y.>}-[f=L,_]r-a$1,a$*,y$&:,}'}M'h)h))}#,!}&{~}{}]}]}^}/}]}(}n:_}r r A!9!9!9!r {_{_</b(:}<}h@[}5!(]}}z!|}+ w)1}j$& W){!{![ ^ + W)W)i@/}c!>.e A.G'E'! C':+d)]>o A.e;C*i@W[{!( $ ] {!(]U{q x)] _ w)+ ^ W)} ^ ^ B![ [ ^ 4(# : !(2}{!D.6!3^k&4,)!4=z{})4;3}4}3}5}4}3}6}Z{Z{7}7}8}6}[]9}3}0}j{L~9!a}_}a}3}z)b}c}A)n]n]b/n]y=K)O),>e-4=H'a/9/H'! C'[)6)y=J)4;b { C d}e}A)~*k&X-b]N[f}g}W/:.,!( ( ,!W/h}i}+ ( ( C!j}E.e.k}0(l}k}f 3^(+B=m}{'m#1;1;.,,%7#>*,%P@`.P@,% $c#1**,;[n}-}o}p},#q}r}s}t}u}v}w}x}",
"y}z} -K;+%)=$%4#b;4#a;b;b;a;o*,,4#n*~&o*b;9-A}B}C}z~z~B}e'D}0 [(n :^;<E}F}G}H}I}J}U>o.O{|'K}Q^x,c~==('('g~F~l!{~%~(~^{L}t!d(r_M}M!i~<*s#d~d~{*F>('W*g~f~b>g~g~T;l!U> 'Y=@( ,:>M&N} ,Y=g^l]5)A.,)~ O}P}({l#Q}q+R}S},$}&A%T}.,U}:$Q[V}V}1;R]_$v~T.T.B{W}L+-#9+X}Y}'@!@;_Z}`} |.|+|@|#|$|%|&|*|=|h(]#-|;|h(-|/$Q[>|z%/$;|/$-|-|,|7}'|,|}])|f(o'o=5-!|`.+;x'%(x'`{3.r-Z#Z#4',_++~|~|3'i'{|o= +4+l#5+]|]|f=f,I@^|o;}&/|2&w:p+(@w:(@2+3+j# _L+^^(@^^l{(|G(_|-_R(&+| :|<|3+[|T&T&#%m%a#8#8%6#(&8&(&b#7#7#8%W&#%u*{=6-u*X&Y_+-}|||1|2|3|",
"t*}#r*v*2;9;+%<#9;4#p*a;A-4#n*5#4#n*5#n*;%b;a:0:4|z~A-D{l%p{5|P_6|,>7|8|9|t-F<N~u{u{0|@'&=e{Q-Z@:>M&h-&=&&.=h=y+y;y+w{y+m_s;r>H-T=1-r&L&#=+=$=H=f-T#U#g;U#e*U#f-h-a|b|:>e*$=z+K&f-$=9>;'v'm/c|2!d|D(e|:%X<4#f|7;D{B-A-r=g|p*p*;,p*8&7#c]a#h&l%l%9-b;n*;%n*9;7<7;Z]]&]&h|i|j|k|l|m|n|o|p|-<q|r|s|t|S_S_D_S_S_p<u|v|z_F_^:D_y_s*w|_$:#|#}#t=p](&a#6%}$I#i+i+x#v#_&1&|&7%1&b#)%8%8#/&8%>%,%,%,%w*a#,%a#8&0%1{i;(&m%5%5%7%9%5$2$|&'$7=F#z% $~%1&1&z%.,x|y|9@M.z|P A|c+V}#%T&>%o*8&7#8&a#@%8&8&(&,%,%)%8%w*v_t=t=`&Y&`&Y&t=Y&,]I_):t=",
":#v*2#7<~&)=+%7<~&)=D-b;a;T&A-,,~&4#~&)=o*b;q:a:D{z~z~d]D{4]B|C|6{D|`/E|Q~z+*&K&*&Q$X@:>g**=Z@&=:>)-:>h-!-.=L&h=L%f-)-y;!-$&J@$=H=J@Z%U#U#R#Z%$=$=e*H=$=E&E&8*f-!-)-Z@&&$=e*L%:>L%f-e*&'9.F|j*G|Y$c@,|@*n*H|F-I|J|4|A-C-g|h&p*o*o*U&;%g|T&V&9-l%L;T&#%;%4#~&9;3]K|L|L|t|r|]:-<]:M|N|o|O|P|Q|R|^:p<z_x_[_D_D_z_z_z_p<F_t|D_t|W<9}Q[~=t=t=}#<#!%0%)%b#`-)%1&_&.$z%0&z% $z%8%z%8% $x-V&0%0%a#6#/&H>(&@%,%8&c;V&m%7&k%c#0*v#z% $a%9& $A%A%0&5;(&7#z%J]z*0%S|T|&_,{U|V|W|)=;%>%U&7#8&8&m%6#,%,%@*@*.-]=/&{&:#Y&~=d_-%~=t=f_}#X|`&t*-%",
"|#2;)=)=J*n*#%n*)=4#;%U&4##%B-#%5#;%;%4#9-U&F]I<Y|_^8;!<=%7-Z|$#`| 1^~*&K&*&F&e*@~0>y;O;0>5'W>Z@Z@P-N$K&L%:>Z:g;A+=&O;f-$&:>:>!-&&H=h%U#Q*G=8*U#$=U#T#D$D$E&$=!-$&3<Z@f-e*W>#=L%h-!-&&f-x,G^!!C*H+L+@%M>.1B},]+1@1=^~&n*a;V&>%8&o*r=a;g|$%~&g&9-8&L;a;T&T&4#8;~&r]]&L|S_t|T_W:b:r|N|#1o|q|T_s|^:z_z_p<T_$1^:z_z_^&S_p<S_S_t|h(%1&1t=:#v*r*)=u*g&*1}&9&A#d[7%.,7=c#a#b#[|7#8#A%z%9<0%0%o*a#,%0%a#@%,%b#8#@%7#8%b#}&c#7%v#'$z%c#w#7%c#8%8%a#,%y%b#]=!%w*}&)_9+D.=1-1;1)=,,U&>%@%y%l%>%>%m%V&>1_#y*.-V&$%:#Y&-%t*u=):~=):Y&I|t=t*}#",
"|#2;7<<##%n*5#n*;%,,n*o*~&$%n*,,p*h&p*n*h&L;4|f|Y|+*,1'1'1;%e$U;)1!1D}A+-&X=j=T#X=g;O!{>},O;g;%>*&H-Z@N$#=f-K&E&i=A+S=r>f-h-h-$=$&$&-{E&Z%R#C$E&8*8*U#D$U@V#$=f-M&K{)-X@h=g=Q*E&O,L%f-&=+'Z^D!o 7+]#D-4#j>~1r*!<{1]11^B}n*D-o*o*T&b;a;L;~&,,5#a;h&l%b;a;4#~>~>4#9;q<L|S_[_T_T_]:s|N|^1/1#1-<W:T_p<S_x_D_S_z_t:S_]&z_D_(1S_c_h(%1S.-%|#|#<#<#:#{&_1*:(&,%9&)%A%:1z%a# $a#6#,%6#(& $,%8&0%(&>%W&a#a#,%w#L#<=1%W&(&6%w#7%`#2$c#w#v# $c#c#k%9&(&9&W&0%z*/&V&:$#_</3 )|*:~&r=;%@%8&@%a#z*$%u*Y&X&{=u*/&_#:#Y&t=:#]&t*`&t=~=`&-%-%H_v*",
"}#r*4#~&4#;%;%o*;%a;o*T&~&5#n*T&m%q=9-9-c;d]8;<1I<@1,]'1'14|9^U;_/[1c*1>X=V{.=s-V=.=X=s-X=.=g;#=g;T#L%f-U#$&h-c&w$Z%E&A+f-h-P-h=f-'-B;Z%U#R#L$D$U#U#e*$=&&&&g;:>P-Z@Z@M&U=8*E&e*%>L%e*L%k=S,N)d>n+>%7;i>.1<1r]=%)>8;}1D{~&4#r=D-B-L;c;L;n*,,n*4#;%l%U&A-,,n*4#~&9;Z];^S_[_t|t|]:t|Q|O|W:t|-<t||1p<<<^&z_D_z_t:t:^&^&D_1121T_317}41t=t=:#6;<#+%+%:#>^z}g&,%7#(&}&9%c#9&)%8%q=y%a%(&4%/&/&0%(&,%@%8&6%H#y#J#I#,%0%c#2$i+i+v#7%i+y#x#w#c#y%g&V&--,%a#*:V&_#[|+_</5 ^$_#<#;%U&@%8&o*/&#%5#<#I_5161z*z*g&:#:#t=`&&%t=`&-%`&-%Z&`&`&:#",
"-%)=)=+%~&<=T]F*4%|]|]a;$%T&@%o*m%@%q=>*9-71B}[{8191X]'1W]8;h_U;01a1H@W%E>x$b1D&W%c&Y!j=L&F&U=L&F&$=h=.=e*L&g;F@J@~-E$)-Z::>)-P-)-)-B;~-E$U#C$D&F&U#E&H=e*b%&&h-y+w{y+c1P-$=E&T#f-h-E&#=h=~~,)6<m+@%M>M>L;d1B}|#|#e1~&D{8;8;4#4#)=a;b;b;,,n*o*n*T&c;L;T&4#A-4#2;~&9;7;8;T_t|^:r|r|]:N|W:M|]:z_S_^:z_^&z_^&;^<<q<]&^&S_(1X_[_h(3}S.1#-%+%:#+%+%+%:#+%+%>^g&A%}&b#0%b#a%7#y%@{X;f1,% $I#8%>%(&(&,%z%6%i+)$x#c#9#a#1&`#v#B$B$H#:=E#Z#v#A%]=@*2%d=c#8%(&>%V&]=v~l >~Q.D-)=n*@%8#q=W&o*W&;%{&I_g1h1z*g_Y&I_`&:#`&f_):`&t*t*y<g1`&*%:#",
"}#:#q*~&>*a#,%(&,%b#4%5%8%p*%,8&@%8&8&>*h&9-d]J:i1y~3]'1'18;h>U;`|Y[j1r&K$j+_;e#8$s-8*8*e*H=8*L&E&U=U#Z%E&U#i=8*V#E$$&h-:>)-)-y+{;P-F$D$$=Z%Z%U#H=T#$=U#U#L%T#1-h-Y@)-)-:>U#$=&&h-L%$=f-z+,-,):<f,8&'>L;L;k11]9;8;9;;]i>n*8;;]7;r*D-4#n*<#)=~&4#a;l%c;4#,,#%n*n*4#~&7;+*Z&F_D_r|W:^:N|t|T_T_^:^:t:z_^&z_q<q<^&;^q<z_x_F_p<t|l1m1n1-%!>+%+%+%+%t=+%+%:#1#6-]=V&0%*:}&,%z%F*o1#{4%5%i+c#w#c#!%a#y%k%w#x#f%.$k,${P=C~9%H#E#w#c#3$5$B$D#(&>%W&w&p17%7%8%7#a#,%P.(+J{;[5#n*o*8&>%@%5#0%z*@*{&u*.-q1g_):t=d_:#-%t*d_`&t*t*&%r1]&t*`&v*",
"4#+%<#p*l%(&a#-](&7#5%y%>*9-q=#%W&7#y%h&c;d]B-F]0:0:@1H|X]7;s1t1;<u1f{R@K$j+:=4%w>x$c&C$L&,;8*T#$=c&U=V#H=!-E$'-$='-&&L%)-y+v1&=&=)-/*U#~-Z%Q*H=T#9*T@&&+=T#L%D$$=y+%>M&)-H=f-L%L%#=f-K&f-,-!!w1Y.l%g|p*L;x1B-n*7<7;_^~>B-7;8;8;7;~&i>i>!>v=<#5#b;l%8%U&n*t=#%A-4#4#+%7;=%!<w-o<r|]:t|^:t|t|t|S_t|S_z_S_q<^&x_L|q<<<S_z_y1s|z13}t=1#:#+%t=t=:#)=:#+%|#-%1#+-A1^=!%*:)%9&5%5%e=F*a%z%`# $c#N#y%w#w#_&F#x#x#T]E]B%,*v#v#F#w#q=9#>$~$0&z*@*V&'=A~v#z%6%y%y%z%F()&o]x|D-;%b;8&!%8&;%@*z*w*.-o*B1C1u*):`&-%1#V:-%d_&%&%V_D1E1=<d_t*v*",
"+%t=b;!%8&x%;%/&W&a#8%0%g&0%m%c##%@*>*(&71c;M>B-C};]F1{1{1+*s1t1G1L-H1h^j%:=I1K$K$3$x$F@T@J1J1.=D$$=f-$=F&L%D=L%L%h-f-h-P-P-{;K{x;)-!-'-J@Z%D$+=U=L%&&o&U#f-)-Z:(^M&K{a|@&:>'-h-)-h-H=f-f-R^) w1Y.8&g|b;b;K1a;A-)=7;3]7;~&~&)=7;8;_^r*r*7<=%!>4#T&8&h&9-A-<#4#4#,,~&~&~&w-+*7<~&w-[#^&z_x_t|S_s|T_{:y_D_]&<<D_;^^&z_x_F_L1^:h(3}M1-%:#:#|#v*|#+%:#:#|#1#|#}#N1{=Y_g_0%}&}$c#k%w#)%!$ $7%7%w#1&m%+,)%x#.$y#,*';<=E*v#|&2$2$5$)%0&$*V&V&(#_#I-<=w#a#)%)% $c#.+O1:+P1$%o*8&6#U&8&@*@*_#{&_#_#Q1v*v=`&V:-%t*d_d_s*!=s*R1A<Z]}#e_%%)=",
"v*<#>%U&d]J=$%o*m%a#7#8&A->%6#;%6;5#/&V&@%l%C-C-_^<1F1{1'1r]S1t1G1L-&>Z_K$:=,;j%K$E#Y%T%C$D&G@.=.=E&!-f-U=$;L%A+f-H=e*z+3<&=M&Q-{;%;/;:>'-$&8*Z%T#f-H=F=E&h=L%P-h-k=C> ,%>:>g*f-T#$&e*k=L%,-:<T1f,W&b;g|b;M>A-n*n*n*9;7;)=)=7;~&7;U1V1,17<r]!<~&o*l%h&p*U&M>b;A-a;A-4#3#A-3#~&4#n*p*)=8;2#Z&D_z_T_~:Q|y_S_x_[_t:z_}_D_S_b_p<-|m1]$H_t=t=t=:#t=v*:#!>1#1#:#|#*%`&t=u*g_g&0&)%9&z%z%1&k%}&)%x#8%w-x-7%i+7%h+w#i+>-v#i+i+5$H#F#|$^=@*#%5#_#5#9-'$ $0%a#z% $v#.+q ->P._#;%p*p*8&#%$%;%_#{&{=W1X1e_d_d_`&-%d_&%s*A<t*d_Y1s*Z12#<#:#<#",
"v*#%@%l%8&`1o*8&0%>*@%U&C-@%@%@%D-,,@*_#9-'>c; 2C}B}_^@1.29;R}+2c>N@n;Z*R@1%R@h^f%E#j%s&I@D&c&C$T#U#M&H=/;Q*U#D$L%e*@~P-y+y;h-Q;s;h-)-f-h-$&E&E&+=&&!-H=E$!-:> ,=&h=S=+=@21-W>h-:>)-h-f-a|U>#,#2Y.m%U&a;a;B-.1n*8;X]~&7;)=<#9;9;9;U1H|@1@1$2=%)=T&8&h&>*c;L;9-p*p*9-o*#%#%#%;%n*n*p^4#;%~&-%4#z~<<t|%2]:[_y_C_S_D_y_^:S_&2|1*2%1:#1#t=+%t=t=}#:#+%)=2#!>r*)=<#t=*%{=K;V&#*a# $z%k%0&}&0&)%_&z%=2/&1&B$7%.$w#N#X#h+H#Z#i+h>41^=#%V&V&!%D-#%@%(&(&0%0%,%a#Z#g#**N)o'#%$%@%6#m%/&#%V&#%#%$%u*~=1_t*d_]&V:A<!=s*]&`&t*-2}#2#}#}#Y&t=",
"_##%@%6#o*X|W&m%>%>%>%p*p*m%#%;%$%u*6;4#4#c;L;;,B-1];]Y|3]3]r,+2;2e,K$j;v%R@j+R@r&j%j+5$3$Y%L$N]C$+=#=h=F&F&$=D$T#H=f-:>M&)-k=O;;&%>g;h=h-e*E$F&e*:>H=&&$&$&h-h-T#i=X=h=S=e*U#g;O;d;S=L& ,Y=,)w1Y.;%;%a;U1U1A-4#,]7;7<7;9;<#9;7;9;~&H|!<{1F-'1<#n*#%l%l%%,9-c;9-p*p*@%5#t=~&U&#%,,#%$%#%~&q*A-4#+*r]t:C_T_T_]:t|D_D_D_^:S_p<z1m1:#-%}#+%t=t=1#:#+%+%:#)=<#+%+%|#-%t*B-o*/&,%`-}&0%,%*18%b#7%a#}$,%A%v#7%w##{>2X#H#~%!$2$`#V&a#/&@*(# -#%m%@%a#7#,%0%]=0%E%v>,)#2m+@%5##%>%@*x-r=,,5#$%$%~&<#;^s*;^`&`&A<!=d_t*-%;^d_t=t=):):u=:#",
"#%$%;%@%U&D>#%V&>%;%;%A-.-{&$%_#+%7<~&4#4#p*,2p*M>.1D{91;]z~!]-.N[O@K$j%v%j+K$g%R@j+E@Z#f+F@@=L$i=g=U#e*$=T#N$U#&&[>'2:>h-)2H=h-y;#=$=!-#=&&$=H=g;f-L%!-(^:>3<y+L%+=L&g;$=L&.=#=i=+=E&A+@~l=@;!2f,^=4#i>~&7;j>7<U19;9;9;7<7<7<9;2;7;4|$2[#=^~2C};%8&+{,%4%5%%,4%5%,*q=~&;%n*,,U&9-#%5#o*;%{2W&3#q*q*<#S_[_[_]:[_D_D_[_t|^:T_]2z)~=1#t=1#~=t=t=+%:#:#~=<#:#+%+%|#-%*%^2;%w*N#)%7# $8%,%(&)%i+y%,%,%b#1&1&w#b{/2(2h+~%)$F#1&8%,%8#!%8#X]W&,%@%a#}$,%0%,%,%E%J-}(w1P@}&5%@*,,$%_2$%)=<#<#{&<#<#`&s*3#}#-%-%s*]&d_`&t*d_`&-%`&v=5#_#",
"6-#%>%@%o*!%5#;%#%o*)=u*{&<#~&<#)=7<7;n*4#c;9-9-C-n*B-M>1]q=-[(+o]_-Y%j+r&f%j%j+E#E#5$g%g%Y%G@L$c&Z%L%E&U=Z%L%e*U#L%E$L%M&k=)-h-#=h-D$!-f-U#8*f-$=)-:>#=f-f-Z@M&$=$=@&f-$=8*C$e*U=U=E&Z%4&''B=!2f,@*)=)=8;~&~&9;8;7;7<7<7<7<7<r*r*7<9;r*[#!<V<7;_#>%h&8%5%n%4%}&:-F*9#8&p*8&8&p*.-p*#%6#m%6##%#%%%3#x-%%w-]:]:t|^:^:S_T_[_`]L}S+:2~=-%:#~=-%~=:#+%+%}#+%t=:#+%t=-%2#R{>^t](#0%5;a# $7#/&b#1%T*a#,%}&!$k%1&S;<2X;x#1&!$|&b#z*!%(&c#c# $8%,%}&]=0%,%g&@*7#H,n-:(!2k;b&8%,,v_t=R{:#{&~=U:G_`&t=t=}#e_+%t=-%`&v=-%:#}#`&`&`&[#o*$%$%",
"+%$%)=>%#%3#)=$%o*D-o*~&)=)=~&~&4#8;)=A-b;h&--c;M>B-L;B-A-u#i#[2B')'c&K$r&K$j%K$R@O*f%C@3$f+L$C$F&{-L&U=+=L$F&D$f-$=H=h-:>y+c1}2y+)-)-e*f-8*e*U#H=L%h-+=h=L%W>1-F&g=g;$;T#c*E&$=E&E&g=c&T=x,@;T1g'0&7;7;9;7;9;3]7;7;7<r]r*9;,1!>!>7<7;7;r]2;|2+*2#$%8&c#n%F*a%O#1%n%7#N#<=4%1%4%--q=6#m%0%w*m%g_{=5#u*$%4#4|^:T_s|12S_T_0_/$9'q >[$*-%1#*%-%1#t=+%+%t=+%|#:#+%t=&%r*3]~=~=W<(#(&A%,%0%/&a#v#F* $)%7#y% $:=N#J#i+_& $i+a%a%@*V&;%;%6#b#,%9&,%*:V&/&w*(#y-7.J}%<v-6,|*}&$%-%~=t*U:1_V_22V_&%d_t*t=t*}#}#1#`&`&t*-%`&t*~=t*322#{&)=",
"+%v_<#D-4#$%$%5#o*;%,,n*;%~&~&~&4#4#n*b;U&>*@%8&b;a;,,#%A#5-v>N)&(Q^0>N*U@N*V#H@H@V#W%r&j+F@G@U#8*8*h=X=Z%G=;*E&h=e*1-L%O;m_P~O~)-f-)-J@h-$=D$U#D$L%!-&&{;h=U#$=E&i=c*E&L&4&{-i=c&U#L&i=;;a[:<#2++p_j>~>j>9;9;7;9;8;7<7<!>$27<r*!<!<r]7<v*!>42r]<#)=D-,%1%a%N#N#e>h+O#;*n%M#J#y#J#O#5%8#W&V&W&5#$%)=v_Y&$%w-T:p<^:12r|D_<_(@52m l&&* ;*%~=-%*%1#!>:#t=+%t=}#}#t=-%t=}#t=:#t={= %]=,%6#,%a%7=i+9&k%7#6%n% $`#w#i+`#`#`#1& $7#7#8&8%A%0%a#7#)%7#(&7#,%[&+;S,+[L'+)B^};1,A1V:V_62|_|_;^D_y_s*]&H_72=%-%}#}#-%;^]&*%`&&%]&[#-%v=t={&",
"<&8282g& %g__# -@*t]u* -_#$%{&$%{&5#$%@*w*]=@%W&@%(&,$k+_-a=^~C=O^,'_'.=8*Z%G@N*Z%8*D$R#R#R#Z%E&8*U=T#$=A+F&a>#=S=A+#=P,0,<,j.R,(>i.w+k=O;F&L&U=X=a>U=1-g;.=h=.=L$L$c&L$+=H=E$F&N]C$U=c*8.B^e;e-5]N>7;927<029;a2U14|927;V:|#!>,11#$2!<r*|#v*|2+*2#<#B-a#I#7&)%c#H;a#N#`#i+x#h+E#;*w#0#8#x*W&w*g_b2)=):Y&v__^1^7<C}]:|_d'k#|@G>S+p''{A@{=1#~=~=-%!>:#t=:#1#:#1#t=`&:#:#t=+%<#t=X&{=0%z%7#v#I#v#v#v#5%k%v#c#7%v#.$!$c#)% $ $(&)%a#,%(&(&,% $z%,%J]}$B#`./'m^c2D/x/{,9 b>m+M1 *d2e2!=U:|_]&U:V_f2g2h2u=I_X&):):e_t*~=U:u=%%i2Y_r^|$",
"n-U!n-_-P@n'G,-[1;E,E,z;G,-[z;G,j2l+G,1,-[1,M,H,N,Z.i#k;/~@:k2&)T'l2!,(>8*V#R#Z%Z%U#e*E&c&R#F&H=F&g;@(v+v+%'m2n2:,v!I,i!0[Z<o2p2q2Z<Z<#<:':,%'r2#~.'),A,+;g=D&x$T%t&i-y$9$g=Z%Z%c&:;N]c*u+J}4,}(d{j2_#8;s28;8;8;t28;9;02)>K||#=%u2=%Z&*%;^!>v2n*#%@%6#M1>|U*s,F,w2{$u#C#|-B#U*3=u#.$}$}$(&I>K<v:{=>^{=e_e_r<7<+%I_x2B{k#6~y24,4=S~[%7~0$U<{=6-6-:#n{n{t=~=t={=*%~={=(#6-u*.%6- -u*d[L^D#E%E%E%D#,$N#a%v#1&c#1&7%z%Y-b#)%c# $z% $7#,%W&8%c#)%9&>$1,*/=>a[y^B[:(n f)K^$~2,2@z2B{g(%{%{:$B{B{A2B2C2Q[x|D2T.x|9^9^E2P1Q.P.A@F(.+r+n-",
"j[V,],$)+)u)Q'L'K'2)K'L'L'^>L'^>F2Q'^>+)M'g)Q>Q>Q>')u)3/'}F^;=>;z.M'3/u^''I{l<l<@/),k!*'.'k!w!_'m^G2L[`'f)Y^ )B[ )#)$)H2V,I2J2K2k[F[o[^,p/Z'J[J[L2J[Y^L[G2g{l<z,!'M28.N27.a]l!@/6.l< /}'O2P2Q22!;~{'X.R2a$>}R2a$S2a$T2T2U2Q.V2{$A$w2:$/#L|!>W2$*B#b&X2|*),2-U>Y2Z2n.R,l.$(M=l>d;8'A,|*a,Z>X2f,G,&*&*&*P1`2%[&*A@P.>[ _|@m>r'X/[*G)x!z=,[k#2&2&P1s^W.W.W.T.P19^s^W.W.%[9^%[P.9^A@P.n+8=7,l=l=Y=s{A,L,-[_-y%|*x'_]}&t<B#z%c#d$g'h'x=`.P@g'D^_-D<S~u'g/`=X,o q :^:^d)f^2)C=n) 3o)e-U-n)o)4=;=.3;=;=)!o)n n o)n)n)n=X,n=N;2)n=u)&)l)",
"C]C]d >.] / W/W/J S S :.{(W/j}Y Y +3( ( ( @3$ 5(_ < ]!@ $ #3$3%3&3*3  m 9/k/H)a/! |),>b/|)9/K)e-,>e 1 $ W)$ ^ } ^ B!D.k~(}, X,Y^2)f^=3d i@U~^ -3_ [ $ } Q2k&|)n/;3n]n/L)L)>39/K)k/9/|)@-b x)1}} q%A)J),3n/b/b/y=,>6)>3'3>~7}>~)30}!3J{J{>~b]1)e-K'*)#)e)w[~3{3H[y/]3_):)^3;)/3/3g!R>R>=)=)))w,w,L'K'2)n)n)U-^>K'2)v)o)(-~*l d!(3x)S+)!! )!4=)!})o);=U-p)U-U-u-=*#;U-4=U-e-e-U-U-C=X,Q'#)u[o[H[_3;)e;) y=y=! ! @-~*n]6)~*b/6)n]n]J)J)y=|)! })5)] / W/:3( !($3<33!<3[3% ( ,!}3L ^.L L P M #.|313233343L #.L R (.^(J T S 53^(w)I%;.",
"< }}63O[r#73c+u@839+G+[@e|6~N+d~!~d~{*{*d~93n$03$,B*{'D(M!M!M!a3b3w'j.k=T#F&h=L%&&E&L%!-.=U#f-f-y;*=j.6.b>,^d~F>D<p'i*c3d3b}y=f;A.e3V+f3u@g3h3i3j3S.W|y-*1L;k3l3>}>}m3m30$f,n3Y.n3!|o3f=p3h'5+x=`.p31;q3f<0$v<V}r3e[U.f<U.P1U2s^V.V.V.W.]$U.)~s3o!%+0!t3l S+v)%<f^!2u3  :|>.* i@& #3^ & & |(@ ( W/W//(L L R ;!,!^(T R @.^(D ..I O/O/R M M 43v3w3v3$.x3y3z3A3B3A3|.z3y3A3C3D3C3E3A F3<.D.h@]{]{M;e-F;G^F>G3u+4'@,4+h'{/h'h'h'x=~[x=A,!'t+z,5$1&U*A@+_$_H3I3N(J3K3L3L3d@X}o+k#2+m#._':M3N3O3P3Q3R3u(S3T3T3U3V3W3I+l{Y+b@u@Z$M}X38)",
"# -+a3M!f$Y3e[d$1$E%E%Z3A$|-k+x$x$D&i=X=c*.=A+n<I=N$h=#=-&},h=O;%&K&e*T#L%e*^;L%f-e*h=K&U#e*L%M&h-y;f-h-Z:H=e*L%g;T=*/o%W+,&N[(+2 y)K%4~__`3]=V&.1L;'>b;b;b;L;.1a;a;b;,,,,@%',h&8%7#h&y%h&',@%a#8%8#b;T&t2~&U14#~>4#~&7<!<F1!>r]|#Z&!>:#!><#)=*:u_3+D+ 4'~,~a(d)d).4+40)@4a 7/^{G<B^9 .:J}9 y2B*z=n$=$e|4~4~}+O+=$#4Y$$4O(%4&4*4=4N(L.-4x@,:Y};4H3>@B(,:>4,4N.,4m~9+9+83G+'4)4!4~4{4<%,~7}x)C]G|D*!1/=B@2$j+F#7=1&9& $z%_&1&|&7%B$j%B$j+E@B$5$w#B$B$>$~$S1T.T.%{r<]4U<U<Z-)$>$5$B$ $J#y*p]^4i2R:X&p] -y**:|$,$d#'$>$/4__Y}/__{R!",
";:<%Z$j#E%.$X%5$B$B$5$Q#j+j+C@C@=[e%b&r-x$i=f+h+g+1-$=8*E&8*@&$&E&L%h=z+f-T#@&h-O;L&g;#=#=#=h=K{h-&=f-T#e*U#g;T#$=Z%Z%L%f~T~_=7)(4_4^/f(&-b;L;.1t2B-.1L;a;a;b;b;A-:471g|l%8&l%l%h&8%h&8%l%7#8&l%8&8#l%>*<4T&g|4#U1t2n*9;r*r*!>3]!>!>!>}#:#)=:#{={&|$e#[4i~k@Q+i@j*-.}4|4*{_'i.+'*=x+x+*=*=*=A>=&/^S=S=D;c*q-O! ,O;=&r>a,-*k# _ _(@p+v<j2*,b&+$b$d$d$h,z;3=+$h,b&_;w>b&_;_;o$h]d*1424({3444/!{ > a^p'547%7=A#.$1&A# $z%1&z% $`#D#5$)$_&>$f%E#j%v%Z#v#5;(&}$b#0&(&+*`&61r*Y- $7%i+|& $,%>%:#V:t*t=W&n{K;{&!%0%(&b#(&}$e=b#B{X}1~64",
"!*=$m#k-.$k-X%k-E@5$B$I=3$e%E@3$X%j+K$Y%+$&;w$F@]-U=A++=U#F&a*(;U#h-N$L%h-F&:>L%@~L&L&L&A+#=U#L%y+y;74h=e*U#U#$=U#U#L&e*#=E;c3x.C*84k#a%b;b;1]1].1a;a;94B-A-t2a;L;>*04h&>*G*y%7&c]7#g&',7#y%l%'>8&8&H;y%'>>*l%b;71~>~>~&!>+%t=r*!>!>!>|#*%_#t=t=v=V&!%_&k#D(O&c|~!a4b4.:]<j!0>9>0,+~r>x+%>k=%>O;=&S=A+c*D&L$4&.=S=S=~'D;8$8$4$r-d&!{e%c$E%U*s&C#U*c$E%c$3=E%B@w>B@B@/{e%s&s&d&w$S@~{c*Y(c3l;k$c4P}{*I@1&1&B$7=1&c#z%1&1&c#2$9%F#`#'$}&>$X%D%j+Z#k-7%)%0%]=,%0%(&(&z~d47#7#c#B$B$1&A%,%a#V&:#+%_#_#.% -n{ -z*]=}$,%}&`*a#b#Q._@o]",
"~!5]9$B$B$k-D@B$B$B$F#j%d&E@X%d&D@4$d&3$t&e%t&x$f+g=A+g=A+c**&b*e*h= ,X=X=F&F&h=h=$=L&E&.=g;f-f-P-M&e*$=h=U#$=F&F&F&Z%L&U#d+}*b]O1e4t<g|b;b;K1L;a;b;D{f4B-4#A-a;J*J*J*h&H;>*y%4%5%y%8%n%7#y%8%4%4%4%04'>8%l%>*T&p*b;A-r*r*r*!<r*r*<#t=!>~&6;:#t=+%@*$%x*_&|+t!d>g4m}T$<,0,+>0>%>T=r>T=r> , ,O;=&*&1-1-c*1-S=S=H-.=1-X=c*d&d&/{k+B@d&o$o$E%g,g,C#g,c$1$1$U*1$c$C#E%s&U*e%h,c$k+8$8$E>8$b,W(h4X/j*^/m+7%1&1&7=F# $`#!$+,8#9#8%.$D#1&1&b#1&.$5$j+Z#$-v#z%,%b#}$}$7#0%,%(&,%c#B$B$7=1&)%}&}&@*Y&{&u*{&u*_#{&_#^=}$A%a#b#B%b#,%,$k#i4",
"  #-t&.$E%B$D@.$$-.$)$B$B$X%E@3$E@X%e%3$e%Y%E#D%8$L$L$w$D&f%K@j4L&g;$;C$.=U#F&e*f-F&L&+=+=A+h=T=L%y;U#!-H=h=L%D$e*A+L$.=c&q-=>n]k4p+A%<471g|g|L;L;x<71g|4|a;t2>*'>04J*H;H;>*y%3%n%5%c]n%8%',8%8%k%7&H;71l4g|'>g|a;a;T&v=[#!>=%r]:#!><#A-#%B-<#:#+%.%t=_#>%E,o#;>m49'};*&r>0,r>S=O,|,},},r>r>=&=&@~X=S=g;L&A+S=X=A+S=g= ,k+4$8$r-r-e%d&c$;-C#D#C#U*c$s&!{o$c$c$U*E%1$g,o$c$E%o$/{r-/{|%D;h~}*b n4!~e#!$!$_&!$z%1&z% $'%q=z%`#)$}$b#~% $|&`#_&)$y->$7%)%A%b#,%,%0%9&,%,%)%z%i+7=)%`- $)%}&z*{=u*.%{&{&{& -!%w*0%5;_&b#4%9&A%i+<$o4",
"e}1>4$)$.$X%k-.$.$z#.$Z#B$B$E@B$D@E@X%E@C@Y%j+j+;-f+q-Y%F@D&W=J_C$X=c&L$c&$&F&#=L%h=F&F&U#U=F&F&L%:>f-f-&&T#E&S=+=c&L$c&L$w$h~G>L(X.l%71L;L;L;L;p4b;g|>*b;71'>G*04,*n%5%c]G*9&3%3%n%n%3%3%1%4%O#x#,*c]y%R{q4G*J*>*g|L;r]=^!>+*C-@*4##%A-;%,,~&+%2;:#-%K;!%:&j#t>G;5^j!|,T=S=O,&~V>{>B+H-X*T=y+=&h=g;A+X=$&L&O!1-4&X=A+.=8$t&x$r-/{e%E%s&U*C#D#D#C#E%B@!{e%c$c$E%U*c$C#s&E%E%o$r-!{!{x$q-~'z=P&~!L]D#b#}&b#z% $z%9&8#c# $.$_&_&A%z%~%_&1&A#+,!$.$~%1&1&,%(&A%0%,%(&)%(&}$Y-'$1&`#z%)%)%q,z*u*u*(#{&^=^=^=(# -*:g&b#b#}$Y-}&c#7%34",
"4;C$j+.$.$X%B$F#.$B$D@Z#5$5$z#k-.$E@3$j+f+Y%D%t&C@e%Y%r-t&Y%S@W=j]+=c&L$Z%#=L&L&h=e*h=T#e*T#L%e*h=y+f-f-&&f-U=c*Z%T%c&c&w$L$n-r4!!G,8&@%g|L;L;g|g|=-|]|]s4,*G*7&04G*4%y%04n%3%3%O#7&O#L#O#h+)%3%i+O#G*3%3%5%,*H;8%5%'>p*a;#%x%#%a;p*;%c;#%D-#%<#,]9;}#u*t4z}]'G>d>c{T=i=4&H-B+1>k+|-|%c*1-1-O;O!O;g;1-X=O!A+1-@~A+g;X=F&w$t&8$r-8$1$c$c$U*E%u#C#C#E%E%d&o$1$s&E%<$E%)$E%o$1$e%d&d&/{x$w$|,B*P&g4++~%1&A%)%A%}& $1&)%x% $.$w#b#5;)%9&_&1&5$]%v#B$!$d#|$0%0%}$g&]=0%z%b#(&0%b#9&_&`#k%)%,%@*$%_#y*^=z*z*z*^=$%W&5;A%0&a#7#I#_&`#@,",
"k/E&H=D@D@d&5$B$.$.$.$.$w#v#$-5$3$X%3$3$t&t&t&D%j+X%Z#;-d$e%S%C^K@L$){D&L&4&U=D$g;1-L%L%h=e*H=f- ,M&:>L%U#L%E&Z%c&Z%c&L$c&c&U!N[S+1,c]'>u4l%>*v4s4,*s4,*v4T]O#v4v43%F*04O#3%i+3%7&3%7&y#h+f&I#x#y#L#L#x#O#4%0-G*y%G*5%I<9-o*W29-8&U&p*9-#%8&#%2#3]W28&$%:#w4r~m};.b>V>S=S=A+q-8$x$_;9$c*-&T=1-X*0>S=O!i=A+g;@~0>#=.=.=-&+=/{k+8$8$c$o$e%;-c$u#B#D#E%1$3$!{e%E%1$c$d& $[:e%c$k+!{|-8$8$w$B+^~o]C*++1&b#b#_&b#9&)%z%B$|&`#7%7=(&)%5;v#c#|&1& $F#2$_&}&|$g&(#0%(#g&@*b#5;b#a#9&`#z%7%|&A%b#(&g&_#^=^=(#z*!%{&!%]=}&5;A%8% $2%z%`#x'",
"})F&G@E@D@5$D@.$.$k-.$c;p=7%5$E@3$t&t&t&j+Y%t&t&3$C@Z#E@5$P[E>x4y4U=D&w$){9*D$E&L&1-L&U=1-#=f-h=M&O;h=L&E&$=8*U#G=Z%U#c&D$i=k;->d-a$h&l%h&<4<=O#z4a%O#1=1=1=L#L#O#O#F*7&O#v#7%n%3%O#v#i+v#A4K#y#M#K#K#`#O#7&+{1{y%c]c]B4:]p*9-c;8&7#M>o*5##%{&)=7;y~)=)=+%]&C40.D4'{9$H-X=x$w$w$w$r-8$4&},T=g;S=g;-&1-g;4&A+g;=&S=g;g;#=L&C$x$r-8$e%d&e%1$c$;-D#<$c$1$s&c$o$1$E%E%t&e<E42*!{!{!{r-8$8$B+S=^~%$C*5+)$9&z%2$`#z%A%z%.$1&1&F#7%}&b#_&)$ $)%'$+,7%7=)%)%*1.- -F4^=!%g&}&,%5;,%,%`# $_&_&}&a#b#0%_#{&{=g_(#(#g_g_q,(&)%_&7#`#F#A#B$t+",
"a/0,C$F@D%B$k-.$.$F#.$B$Z#D@3$3$j+K$D%t&Y%Y%t&F@j+f+K$j+Z#j%Y%r&T@|%c&f+C$a*T#A+H-8$+=L&h=S=L&f-y;f-h=8*$=T#.=E&C$C$c&L$F@D&k;->L(G,4%+{,*1=O#L#L#G4G4H4h+K#7&I#6%7&4%O#L#O#7%3%O#7&O#3%x#h+7%p&I4P*K#K#O#3%3%4%a%5%c;:]J4l%>*8%8%8%1{@%@%#%D-<#w-y~_#_#v*!<K4S!e}g#G,c,H-8$8$8$!{8$x$9$D;4&},4&A+1-1-.=S=O!g;g;g;g;g;g;.=A+i=f+.=4$e%o$o$E%U*U*}>C#c$E%e%c$!{c$e%$-Z_9%$-k+r-r-r-8$/{8$i-g~o]L44++,`# $`#7%2$)%_&)$ $~%7=`#,%z%z%_&1&)%b#M^!$|&_&}&x*M4 ;.%(#^=z*0%]=0&(&,%|&_&`#9&z%}& $b#(#u*t=u*{&!%_#$%x*]=)%}&}&m%|&7=.$z,",
"4=_'D&G@F@D@.$ ].$F#F#X%j+5$C@t&t&D%K$Y%Y%Y%t&K$D%Y%Y%Y%C@C@t&R@C$T@N]V#T#z]8*c&c&c&L&F&$=E&h=k=f-#=#=h=T#U#C$C$U=8*Z%g%F@w$;;1):+S26%,*L#1%1=K#h+*-K#N4h+x#O#6%7&h+3%x#y#O#G*O#x#O#J#3%x#h+i+`#p&G#P*[=O#A%7&7&4%n% 2W29-8&6#I;7#7#E{6#8&V&_#)=+*J:.%u=:#1^;%s3{!h#d&b&c*8$x$x$r-E>r-k+c,%&D;X=F&.=%>-&O!1-S=1--&1-O;-&X*g;c*D&c*C$4$e%e%1$g,g,1$U*N>E%k+x$d&4$!{e%r&4$k+k+8$r-r-x$8$x$X=g~i,!*4+>$1&_&`#7%1&`#a%`#|&7=v#z%A%z%`#`# $b#}&)%b#}&5;*:^=n{:#u*u* -^=x*x*0%a#'$^% $>$7=w#9&c#,%@*u*{=u*!%!%@*/&/&(&b#z%T{A%!$1&v#z,",
"H'Y=L$S@S@f+.$.$`#.$.$X%j+B$E@3$D%K$Y%g%Y%t&j+j+3$g%Y%K$C@j+f+L$Z%D$E&U#H=$&C$L$C$U=F&T#&&E&h=L%h-f-h=U#f-U#U#8*6&J#6&R#T%@=O4B',)5-7&,*O#3%P4y#Q4a&R4K#7&3%O#1=O#n%6%n%y#3%G*n%S4x#P43%O#h+i+i+x#(*[=M#x#7%n%6%w#a%C{T4l%7#8&A%7#J*;,>%,%@*T&+%`&,]|#1#!<!<6^U4]!_;8$r-x$8$x$x$!{!{o$8$/{|%.=x$D&X*1-1-1-A+S=O!A+1-1--&.=1-X=c*g=X=D&S%d&o$U*A#U*E%!{o$/{!{e%r-8$k+E>t&d&!{8$4$r-w$x$i- ,=>D*g44+~$!$b#~%)$ $ $1&`#`#.$.$)%7=z%`#7= $,%(&b#)%}&}&!%^=u*{=X&{= -^=z**:(&}$)%)%_&d%7=c#q=!$A%]=$%6-(#1%(&,%W&(&(&,%)%(&)% $.$i+u+",
"})u!L$r-C$E$3$.$F#.$B$X%3$E@E@Y%K$t&j+K$K$D%I#t&Z#H#B$g%3$D%f+F@U#&&H=$=&&T#c&Z%Z%C$$=f-h=A+U#g;F&O,L%h=L%U#T#$=8*3$6&U@B%R@j.M(B=~'i+O#M#V4M#h+*-P#Q4P*k>F*O#n%7&H;H;3%7&3%,*a%a%i+3%x#i+O#3%G#i+7&h+p&J#L#N#I#5%5%n%',a#7#a#c]a#J*;,V&>%V&5#,,|#'1t=1#'1s]3]E+)+4$d&d&/{8$8$8$e%|-k+x$L$B+B+X=H-B+},S=1-S=O!S=S=},-&@~1-@~c*X=L&A+c*L$D&Z%g,g,s&$-r-/{8$/{r-!{|-r-8$A+D&k+8$8$8$1>w$8$V>7{%$g44+:1b#_&F#1&1&1& $1&_&~%~%1& $c#A#A#7%,%(&A%,%}&(&@*.%u*t=t={&{&{&^=!%]=Y-)% $`#|&|&7=7=}&}&]=$%+%z*/&,%(&0%0%a#}$)%z%)% $2$2$8.",
"!  /F&D$8*C$R@.$F#.$k-5$X%3$t&j+f+Y%f+Y%t&Y%I<E#:=--D%C@E@j+V#U#$=!-$&L%L%T#D$E$U#U=L%L%M&F&U#F&$=L&T=h-h-H=:>h=i=D$J@0*d<--l.}/K'@~G4O#i+i+ ]i+D@D@x#M#h+i+7&6%O#n%O#7&3%3%L#7&,*3%x#x#W41=K#M#E**-4%K#E*X4K#3%w#N#w#6%7#a#,%,%g&c;B->%>%8&;%)=[#=%-%-%V<Y43]&13}@=8$4$r-k+8$8$e%|-e%8$B+D&D;X=4&c*H-1-1-4&A+1-S=O!O!-&H-1-X=c*1-1-c*D&g=w$/{4$@=I@L$D$X=x$4$d&c&e*f-h=L&L&E&T#8$1>x$w$O,^~C.d>d+~$1&z%+,+,_&_& $1&)%_&_&)%|&_&!$I#z% $(&b#}&k%8%]=u*:#:#t=_#{&^=g_/&,%a#}&`#c#7=v#Z4_&}&b#/&!%(#(#/&;%}&W&b#8%8% $ $(&b#2$2$4.",
"m/k!e*X=8*8*T%F@.$$-B$X%K$t&3$Y%Y%t&4$t&j+Y%X%t&i+C@E@U*D%N*D$$=h=!-(;N$f-T#H=L&8*E$h=h=T#H=h=h=h=E&#=y;N$)-:>:>$=e*x:Z%6&G{`4C/n>/^R@O#6%7&E~M^ 57&N#7&P4a%H;5%4%7&k>O#3%y%,*n%n%w#n%n%L#N4[=[=g+.5M#M#a&M*M#(%I#O#n%6%a#(&z*>%>%71d]h&a#@%o*4#2#=%:#*%I|I|}# ^3}x$4$!{r-r-k+_;|-D&E>8$x$w$g=i=A+c*$;1-A+q-c*A+i=X*1-e*1-1-$;X=g=4&D&i=D&c*L$L$c&.=g;c*c*g=i=A+#=z+y;y;*&#=L&L&L$c*8$w$6'5^k&d>w'F,b#!$b#b#_&!$z%)%1&_&_&)%z%z%n<A~[-J1a%w#z%z%c#8%@*D-!%$%/&r=5#5#/&,%,%A%c#7%1&2$.$c#9&b#z*!%z*w*]=W&(&#*b#z%b#b#b#q,7#_&2$4.",
"y=F>D;L&&&Z%r&R@X%D@.$j+f+3$E@t&t&4$t&Y%j+f+O*Y%D@X%C@K$Y%D$L%f-h=h-P-&&f-f-e*$&f*$=e*L%&&h-$&T#h=.=&&h=%>Q;Q;T#L%X=j]J@h=q>+5D'g!n.-&.$7&3%h&>*7&3%7&I#7&G*y%7#H;6%1&_&O#L#O#n%G*5%y%a%i+h+M#Q#b%[=[=j%C@E<B$h+v#x#N#I#l%6#>%8#9-2%l%l%8%;%;%D-r*!<~=r*a-3]|#&13}x$8$e%o$e%z$e#s&!{8$x$8$w$4&4&A+A+4&c*1-i=X=4&H-4&D&@=n<S%c*g=c*w$z$X=:;.=L&A+A+1-A+X=c*c*D;c*#=@~x+s;k=%&*&r>A+c*A+j!;'v',>D!T!3.~$5;}$)%z%}& $z%z%)%)%z%1& $j:c#<-<-z% $ $`#9& $>%@*@*^=!%d<V&!%@*x*A%5;`#H#2$.$.$`#)%)%0%]=z*0%w*q,a#,%a#b#a#z%T{,%,%9&_&h~",
")!N^5'w$L$c&w$F@T%r&B$D%j+X%X%j+j+3$3$d&E@g%f+f+j+g%K$t&G@D$h=L%:>k=#=T#h-$&U#$&f-$=T#f-:>P-L%L%T#h-%>L%y;y+k=$=g;$=H=L%4[@5G2K>/)#55[=&k3041=4%n%4%n%4%3%P*5%y%',l%G*c]a%v#3%048%6%3%k>y#y#Q4f%R#5$k-j%f%K#3%D#N#7%`#N#a#$5.;@%9-%5a#7#(&o*>%>%~&}{n*r*X]}#-%&13}F~L$o$r-d$c$E%4$E>+$E@x$D&{-g=1-.=X=X=|%X=|%z$X=x$B@7=E@|%{-c*{-c*w$X=c*1-1-T=-&#=1-+=c*D;B+c*S=-&9>*=A>y;Q;y;h=]*T=,-B^&(;=e;0 c{#-X<(&!$!$A%1& $c#y%f1w#n%&51%[-*5[-z%z% $_&_&9&8%V&/&!%@*;%Q=*:0%>%Y-9&7=E#E#Z#.$_&_&c# $V&@*0%w*0%,%J]6#7#z%0#T{,%,%F#9$=5",
";=r'K}:,(>X*D&.=D&D&F@c&t&4$4$x$q-g=X=g=B+w$x$w$t&x$F@D$8*E&L&L%N$%>#=&& ,0>-&L&f-&&f-)-M&k=1-O!W>0,<,<,3:3:5'T=$;(^.'<'0[E^-5],;5-5[[<'j!r-(*6%`#z%%-`#7%1&`#`#`#F#.$x#p&.$7&x#v#6%i+(*;-g%Y%e%k-R@P#Z#f%O*F#!$A#)$~$_&,$6#>51&c#)%E~',8&@%o*;%5#,,o*o*2#1#6--:C)T!,5*,e%E%1$U*c$U*7=$-x$D&D&D;.=1-X=4&w$D;w$U@C$D;w$R=n<D#M,9$c*c*w$b1X=S=1-W>-&%&=&X*0>r>8,k;;;7.]~{{{{t-t-h*0,#'!,,'&($/Q'^>v,G^$~i#&*y-~$0&d#N#1%J11%5$C&Y*s&r&Y*N#,$ $b#|&z%7%w#)%g&g&x*|$W&(&]=0&b#'$C#E%C#U*F#d#A#>$u#.,.,C#>$>$e'/4'5|&z%2$H@o$|%O>Y=m^",
"]))5!5p>K}@+n.*'2-),j.i.R,k.6.*(G<+[~,@+,'g{*(j.~5{5Z){5;';'}';'c{;'+!m>'/>'='Y)+!{5@+./==,-X)m>T,]5^5o26[/5(55[5[v!/>p>`,_5l)D'W,:5<5^[Q^k!Q,;&b,+;b,O,P,B>B>i.),i.@/&'-'3:j!h{T=O>h{j!5'Q,3:t+j.#'3:+'+'(>#~8,d;a,[5e+A,+;}5|50,),K,y$:1m%8&>%5#@*;%15~&253545b F|X!6,a,N,|-b$s&B@k+d&c,~'b,W>;;z,8.*/W>H-a>X=q-|%|%{-8$D&q-w$8$r-x$L$L$X=4&O;8'K,R^n.K}V^V^V^556575859[95_,(505a5S<c/b5S'y=:^#)y^0~$[&]i#|*i#g#K=V{c5d5^]e5$'([([f5$(Y[k+D#!]S1g5-[W;f#Y.m+1;.+K=f#K=f#Z._-*/z,M=4'|*|*n-8.6,h5='i5};8.6'l>j5d;l>l>8.l../p>k5",
") [(l5+)M'm5')')g)F2^>N'u)Q'1/3/H/k)z/X'B[N'n5n5g)Q>*)')*)o5o C'.}a)L'n5$)m)Q>R>R>^>E'! K)})! F2j)p5F[J2o[^,],#)R>R>Q>R>g)^>e;B=o q5()$)I[r5>)s5],x/x/x/],],p/q/I2t5y/~3u5q/^3^,v5/3v5/3:);5:)$)-)r5w5;5;5x5y5/3-)>)R>z5#)Q>$)A5B5W'C5D5]~`{p3`.F,+$E5F5X.n'r+n^1/z5K}.:b>g~h~/=h~v>n-h5};O{m>m>a5G5G5H5m>B^S,<[8.7.7.8'~'q-w$+;I5J-k;7.6.$]m!9.b[i[v/')Y^ ))5i)p/_)J5~3v5w[s5K5))+)'[X,n S+O1-.D!B=n X,$<L'l5L'^>2)M'L5M5L5N5X'O5P5B5Q5R5@[w'.:8|b~}/'}G)h[A]m=}/}/2)2)K'4/3/S'Y^v/4/`=v,$/S' )S5T5i)Y'])^)$)x[')D/U5#)E/E/L';=",
"D.D.D4{_k k k k 0'Z/%+)+i >(k}a}c>K)S+y=&#f h &+8!8!*+R!=+>{F|0~S^a^V57!k b!k y!4 $$W5''}'9 G^@^2)v)]>]>,)U{b(y!k 9!'+_!X57)(4O1Y5Z52!i@3^:|D4W[W[} >.W[W[:|(};.#,,)z.g:~!2 q%>.1 :|:|1 >.>.>.W[} } i@  `51!>:* 1 } W) 6W)$ (=%#z.@;]>l5d)S+y=,3b/.6a^+6@6)&U{)&</P^r{Q<#6})4,=*})U-U-u-C/C=F2&)l)$6V,$6r/M'%61/n=C=#;o q 7)Z{Z{z)z)b]b}o]z)B)&#0(53,!+ U)&6t1~*>;]{,)*62 >.</((] ` d}@ }!$3=6-6;6[3#}@ + + @ @ : ^(/ 9)>6[!~}C*}(n o),6'6)6U{U{e +3/ J T :.T @.Q T ^(J ( + + !6!6^ @ ,!( @ <!D4c|D!N)6|>:[!I%~6H%{6B!{6U)]6D.d!",
"^6^6/64@Z$6~)~o#)~n#!~d~e~o%(6W+6 [*U{:}4}V(O+F+({!~j'5+g#O,g;+=g;e=h^k+!'n-A,B>0,h=Z%G@C$_6b>T$N[@;d):6<6d3V!n$,^[6)~73C(V(}6b3K%Y$Y$|6P}16('$]2-''^~7{(~V!d38 Z{H%[*k&G~G^26X(W*7{7.u+('$]{~=>I5{~S,./J})/Y)./l=$]g~8~l@K%V[d|c , ,)@616,_f,Y.Y.b&f,Y.G,`{3646y y356667686w333w3v396O #.Q ]!Q2M)>;! 5)  -3-+<.x 06a6u b6c6~/,_,_`{d64._->_h~3$c,`.}%D<e6f6g6K])&!!'!6 c3m$2,n#1+o_Z+H3H3h6i6j6k6l6X}$_I+m6m6y|=}v~n64+!~v@_4o63(3!m /!+#$~7.l>Q,),;;h~,^d~=$({u@3,w'D<7{p6c{+#a[$~!1z=}*q6r6o6_}s6i@K]*$%:&$m;t6u6v6j^w6s#M}x6",
"y6Q@9$b1x$I@x$8$I@Z#8$r-`.N.;_M~*$Q2} 6 T~z6|+m+k+f+T%O*M%G@c&r-Q*|:A6R#8*H=J@D$U=D$L$f+f+Y%++_~9'B6C6z)O&t!,^~'z$L$f+w$w$s-S=&~O@|,{>D&U=c&L$L&U=V#$=L&h{g~_~a^a^{ P&F|*{_~7. ,L%h-h-h-D6h-h-U#Z%h=L%&=K{y+s;Z@y;L%i=X*d;)~K%E6y)1 j*8 d~F,8&T&8&p*L;>%5#D-y*F6G6H6I6H6J6K6L6M6N6O6P6u(Q6R6S6T6,+4;z:U6j@*$V6l6X})@._W.B#E%)$)$F#5$e%E@j+K$3$E@$-k+_;8,B*W6W6$$1 =67}M!i~0^*,E@)% $z%e>/%h_h_F,e#t,:&|$0&(&0%/&a#8# $$-k+2@E+F%l~D4|4X6(~#~k=#=A+@~1-%&.=S=D;|%D;X*k=%>y+y+`:7>+> ,@~j!8.e~M!#+W } 4 Y6Z6`6l> 7%&.7K@z+%&A+c*|%",
"@=K$j+t&3$4$/{E@E@q=C#;-3$E@j#84:~q%>.i{-~^^c$C@j+R@0*P#v%G@G@Z%D$U#8*F=E$D$E$~-N*8*T%F@R@K$d&,^+7&{'!b4D(V*{-O*D%3$C@X%D%G@T%0*~;r&R@R@R@f+T%T%L$4$R#R#N*R-*/D<E6%#b)W!('},e*8*T#L%U#U#T#$=H=L%e*Z%F&h{O;r> ,g;#=w$L$C$G@i=H^d(,&B6-.c6M+!$@%o*@%8&p*;%;%D-;^D_[_$1@7#7@7]:U_s:B_U_s:$7%7P3&7*7=7 (K]w|-7;7@$^^=[)$!$!$_&F#F#E%Z#3$E@1$E%j+E@|-$-3$/{D&X@T;>7r6q%>:M~-#L+9%5%N#8%(&@%/&@*/&/&0%,%(&$%>1.-z*w*;%w*g_0%z%w#c#+,]';7,7'78.k=h=g;g;O!1-1-A+.=.=w$I@B+D;*& , ,*=4>+>9>O;g;X*4&g;+~T;}*)7m}!70,x;(;N$T#N$@&@&M$s-8*S%",
"K$R@/{U*~7u#.$E%6#B$Z#X%(*E#Y%5]P}c '!i~{7g,v#(*g+C&H*0*R#R#N*8*D$8*U#8*G=Z%E&V#C$G=G@f+C@D%j%W-_~-., c6'{Y%O*C@E@j+3$X%Z#r&R#F@R#d%f%O*Y%F@T@F@G@V#R#W=]7-{C$;;$[p)p /'^7j:$=e*$&@&&&e*H=&&T#&&D$$;H=)-f-f-h=f-&&C$F@|-&*z;C$$[W+!*~*s#q+7#g&m%8&8&@%>%;%~&;^]&z_z_F_^:T_/7(7W:12t|[_T_[__7:7<7[7:!n:W V([@k+.$E@D#!$)$.$K$j+3$3$Y%t&E>t&j+3$4$b$|&1$I@A{z+#/c36|A'}+1+z%b#c#6%4%>%.-_#;%/&V&m%W&w*%%6-{&Y_g_;%o*W&0%a#F*}7h&@{|,O^|7 ,k=*&#=#=1-g;O!A+.=S=8$D&D&x$@~O;%>x++>+~k=T=1-X*D;&~S=k=x+o (5N$N$C>Q$Y@X@Y@Y@$&D$M$J&H@",
"R@j+j+Z##^E@5$1{%,5$K$5$v#E<Y%Z.17(+O127j2B$v#j%R@G@R#G@T%G=D$8*J@E$$=E$'-R#D;T%c&G@f+d&D%j%f%$;W*!!' f~P@D%t&j+E#R@D%E#j%v%T%R#R#P#O*R@r&T%8*R#C$v%Z%R#%=F$6=37|547A]*');5767J@%=/*&&E&T#K@@&j]%=W=a*(;h-f-)-h-T#.=4$j+E@j%d$++O+, y='{C#7#l%m%,%8&@%@%;%K;;^]&]&D_D_]:12/7778712W:r|r|t|p<9707N(a7k$V(<@b7B$D@X%3$|>$-E@3$I@j+3$I@t&4$4$F@d&E>$-E%$-9*M$e*8.V!m g4n#z;l%(&z%a%N#6#>%5#;%V&;%.;c[g_I_I_c7u*_#$%A->1/&a#T*--8%'=_%s'd7 ,x+ ,O;@~*&#=g;O!g;.=g=c&{-w$O; ,k=*=s;9>%>=&4&D;X=X=#=V=K&]{ 'T#&=z+Z@g*u{/^y>@&b*D$H@H@",
"@=R@E#|>K$R@E#n<%,Z#K$E#B$7%C@8$}%A)O1[6;-v#v#E#R@c&F@6&t&Y%w$:;i=U=E&C$w$Z%8*Z%T%T%O*D%Q=g+d%0<T;q ,)T;d&Z#D%E#R@d%F@P#r&G@G@8*V#R#T%O*G@T%G=Q*C$G@R#8*J@W=j]^*e7f7h[#'(;/*r;=:b{y&2{T#$&a*S#a*S#T#S#/;)-Y@&=:>f-g=S@3$X%j%Z#8$g#**K)g7~%a#6#@*>%l%@%;%_#1#h7z_[_D_S_[_t|^:i7j7r|r|[_r|^:s|D_k7O3l7w|i~.+1%|>3$j+K$K$3$j+Y%j+:=4$I@E>w$4$/{d&$-d&1$}>3$c*8*r>X(F;~!|<L^6#8%7#8% $S*8##%o*W&W&8&z*m7~=f_+*+%6-{&6^{=z*a#8#--y%%,f,O^d7 , , ,f- , ,@~@~h=S=X=w$D;D&i= ,A>%>K{;&=&k= ,H-i=1-g;h-Q$%>! v!f-N$X@%>X@T^C>T^g*T#J&T@Z%",
"r&r&I=Z#S%R@f%4%v#j+j+I#B$v#Z#w$s+X/d>`{e&6%j%O*T%Z%8$A$U*d$X%D%L$c*U#U#~-Z%R#C$T%G@F@g%'=P#v%D&Z.,>d)k;4$Z#K$j%F@G@V#v%v%Z%R#8*8*G@P#G@Z%C$C$Z%R#G@R#U#U#E&Z%{%n7U- }#'T#J&D$o&q;W#$&&&@&x:o7@&J@o7a*.^x;Y@Z@M&e*+=V#v%H@U@f+D&p7**=* +5;(&>%W&>%a#@%r=:#[#Z&]&s*[_^&t|t|]:q7r7s7t7r|t|D_z_|1u7v7o47}({_;t&X%3$c&W%H@K$F@3$D&E@4$8$Y%4$4$e%E@d&$-k-$-E@E@V=A+h~k&g4o'(&/&(&(&w#)%/&w*W&/&$%w*$%{&I_):W]2#t=u*{&)={&_#W&--5%%,8#o=|)}'@~O;O;O,W>O;g;@~-&.=g;F&c&c&.= ,M&N~4>s;s;y;%>N$g;%>z+S$5'O;4=_'N$h-N$%>y;0|0|H{u{N$&&8*U@",
"S@;$h^E@g%j%,;$-E<5$C@'>E<B$Z#t&3'c}L(h'B$v#j%g%R#G=C@D%h+j%v#E@d&F@q-i=~-C$Z%T%G@R#r&j%X;O*F@c&;;Q<#2z,X%(*r&O*T%C$Q*G@x$D$D$C$Z%R#G@Z%G=Z%G@C$C$8*D$$=N*U#8*C$M=A.g/2-h=8*$=$=&&e*U#$=j]S#/*$&D$o7w7[>X@C>K&x;:>J@W=I&V#G@t&r-h~d-})q+,%7#>%W&>%0%_#X&-%1#[#s*x_D_D_t|T_[_T_12t|x7s7|1<:u||1a_y7a7z)~/c$t&4$I@c&s-V=Z%W%<-I=D&I@8$t&r-4$e%$-!{$-c$5$3$_;8$8$;;P&g4l+(&]=>5(&]=W&m7Z1w*/&b25#{&I_e_f_0_v=I_`&u*<#u*#%V&c;a#6#(&Y.~*~~=&*&g;g;O!4&0>1-#=@~*&U=.=1-g;k=*=*=<,s;P~A>s;M&&=O;j;-&.=k=F'@+K&%>z+*&N$T^g*K&N$K&L@J&D$",
"0*r&Y*j%K$E#3$5$Z#5$D%.$B$B$D@4$g#-., i#B$7%p&D%G@C$g%j%h+J#1%k-E@f+L$i-U=F@R#G@T%G@d%j%O*f%O*F@4.C'd)u+d&O*d%r&f+G@C$G@N*$=D$V#G@G@f+c&C$8*c&Z%c&D$E&H=$=J@D$G@u+A.f;2-h=U##=U#e*U#h=e*F&T#F&L&U=D$r;r;z7@&(;M&Z@j]/*F$U@F@Y%4$v>**=*m+]=@%@*W&6#5#~=|#A7[#]&]&D_S_L|T_T_[_S_v*T_87B7&2C7^&R|y_D7E7>~4+C#4$I@L$V=M@e*L&H@M$y:c&D&I@4$/{4$d&k-1$e%3$Y%f+f+w$D&~'e!g4+$6#@*/&/&0%m%W&m%z*w*z*w*_#I_e_&%d_t*t=Y&v_v_{&_#5#>%0%6#(&.+c}m!*&%&@~g;O!c*1-g;1-g;g;1-1-1-k=*~s;+>N~Q~4>*~s;y;y;%&v%z+Z%k=4=n.L%K&L&z+X@&=X@@'X@g*%&V=D$",
"T@T@r&K$Y%3$j+3$X%B$I<v#y{.$B$$-i#m C]h'B$i+E#R@C$R#g%j%1%D%g%g%5$K$T%c&G@]-c&N*V#R#O*g%f+g%d%T%_-) d)!'K$O*R@f%$-x$C$Z%{-$=D$E$G=R#G@R#Z%G@G=Z%Z%R#E&h=H=h-U#V#i.<(F^*'h=e*U#U#U#L&L&.=F&&&L%E&D&c&L&M$A+F&f-*&O;e*E$W%/{x$j+t&8=C];<:*x*@%U&@%.-t4!<{1=%;^s*s*s*D_[_T_y_y_s|D_^:D_R|F7p<D_L|h7i(_}e!u%$-D@w$Y!F&I~`!&&P$i:M@j=L$x$/{E@C#e%1$j+F@f+@=D&L$c&w$D;d|c|F#,%m%m%6##%q,W&/&g_w*5#5#{&f_&%V_t*`&Y&Y&Y&I_v_{&;%W&w*w*W&.+~*c~O;0>@~=&h=g;1-#=1-A+S=S=.=S=L%*~*=^<F<<,N~*=w;x+;&y;%> ,F&%>n x,z+N$$&K&N$T^g*K&N$u{X@V=X=",
"b*^*P={%f+j%Z#X%D%.$5%B$v#7%5$k-{/U{k4h'B$x#E#R@T%R#g%X%g%g%D%K$Z#E@T%T%G@Z%Y%N]C$L$r&d%D%v%d%Y%`{O):<k;f+Z#X%z#}>b$_;T%F&H=j]J@D$8*R#C$Q*8*N*N]@&Z:E&h=h=f-L%U#&':(F^R^ ,U#U#h=L%#=L%D$L%h=h-f-{-8*Z%T#$&&&L%L%f-G@K$Y%A$C#s&3=j'-.1)0$W& %H<(#.%|#!<!<=%[#S_s*z_S_x_t|D_T_t|D_D_D_D_q<z_z_L|s*G7j{Q+n+U*D@F@V=I~O$X@O$N$I~*&F&D&S@E>E%E%1$S%F@D&@=w$x$c&L$U=C$6/S+*1g_(&a#a#a#W&/&W&6#/&z*.-v_d_t:H7E1t*I_t=t=I_u*{&+%_#.-w*V& +~*E[ ,O;=&O;r>@~@~1-@~1-@~W>X*-&h=k=s;0,A>s;4<A>x+Q~P~@>4</^O;@'#;2-.=N$$&N$z+K&K&K&M&.~T#M$x4",
"I74{J1j+K$E#Z#Z#X%`#7%.$v#v#E<B$r+)&k4g#k3v#p&O*T%C$a&g%D%g%g%F@E#f%Y%F@F@R#f+G@Y%0<F@d%g+E#j+Y%#->;g:;;f+C@Z#E<,$v#X%F@Z%L&1-F&e*8*Q*Q*D$Z%U=i=N]U=#=h=J7L%f-:>:,%<n5K7O~m_P-P-f-)-h-!-f-U##=g;$=U=L$A+g;i=1-0>o&A+F@Y%D@5$$-k-4+q F;F(V&V&r=<#t=[#Z&C7;^s*S_t:s*z_z_[_[_t|D_^:D_^:^:S_!=]&u2V:31[*P&5+s&E@W%L&J&W@K&K&K&I~z+L&A{j+@=d&E%Y%n7w$D&L$D&w$c&c&D;i=l=~*L7m%8#J]7#a#W&/&w*g&']w*5#t=0_=<e2U:t*~=`&`&):)::#C-<#{&5#m%n3a/M7#==&=&O;O;#=T=@~@~.=@~S=X=S==&0>0,9>0,h*s;Q;A>7>*= [O;O; ,*=v)2-F&K&C>N$%&e*N$z+z+N$$&q;67",
"(%U@S@E#j+3$Z#3$Z#v#%-(*5$7%5$k-i#A)!*o=.$i+Z#F@F@c&R#V#G@j%O*K$6&N*O*T%T%Q*G@O*x$T%r&F@D%3$D%j+#-N),)4.F@Z#Z#Z#v#5$g%Y%c&c&+=0<Z%c&8*D$F&F=8*0<]-E&e*L%Z:U@U@P-4[g!N7`)y;P-y;l_8>:>:>f-h-H-q-N,{-C$8$D;+=C$E&L&A+@=4$1$.$B$3$U*`{q L)o'>%o*5##%1#]&*%[#;^!=x_s*s*!=x_D_t|S_D_^:D_z_t|S_S_^&h7H_/$h@-.3'w$f+Z%I~L@^]^]N$={L@L@H~A{@=4$o$K$I@L$L$c&A+c&D;g=c&L$.= /,>o=m%,%0%T{W&W&g_z*y*A*_#_#6-&%s*A<d_t*t*d_v=t*`&t=~&<#<#/&m%P@K),- ,=&O;=&O;@~#=-&#=.=0>S=D;X*a,O;h{+~9>x+z,#'x{Q;M_9>y;S$s;s;O7,'F&K&y; ,e*H~z+T#&&z+&&.=L&",
"V=Z%R#K$3$X%B$X%Z#Z#i+Z#C@i+E<.$g#A)a(`..$x#E#i%F@F@T%R#V#D%f+K$6&T%d%F@R#8*R#T%G@D%F@T%D%B$E#D@3') ,)M=F@(*g+g%h+Z#g%T%D&T%D$F@Y%N]Z%U#8*E&~-R#T%U#T#:>:>#=&&k=q>^>R>@!*=*~y+g;D;@2r>S=$;U=C$D&F@8$f+Y%|%X=H-q-c*w$w>.$B$p==-1$8=S+n/F(>%;%5#:#1#s*[#*%!=D_c_!=!=!=|_x_S_S_^:^&D_q<S_F_^&]&h7t**2[*6|J-w$D&M$O$O$O$K&#&^]^]X@F&W%@=I@Y%3$x$c*X=L$+=X=B+w$w$|%w$};4;o=/&w*/&W&0%z*>16-Y:6-{&I_e_`&t*s*Y1|_s*`&d_t*d_t*2#<#_##%m%`.@-~~O;O;#=g;-&%& ,O;h=O;O!S=X=D;H-0>O;5'h{x+8>9>;&9>w{Q~N~M&A>*=A. 'z+N$k=T#.=T#L&F&%&&&T#V=c*",
"s-8*G@K$Z#$-B$5$Z#Z#E<(*Z#5$5$1$s+U{m s+z#B$E#g%r&Y%f+T%R#P#R#D$|:T%V#G@G@8*G=N*T%D%g%d%R#i+Z#d&v>]{,)l.{-C@C@C@Z#i+K$O*c&x$C$8*E$|-+=8*U#Z%Q*!-C$E&h=f-:>N$H=%>@!`=P7(5 [%>L%f-h=A+q-8*G@E&G@F@&;f+r-f+x$_]i={-D&L$$-X%Z#c#%,k+$,>;N)h#}&5#5#)=)=[#[#[#]&[_[_D_S_t:S_t|z_z_e2^:|1S_p<z_z_^&L|>^2&+2, };k+.=e*Q7R7R7g*X@^]^]I~H~j=@=D&E>@=@=D&D&c&A+D&B+D&D&L$9$L*c}S[{&!%y*5#$%>1X&Y&):u*6--%=<U:s*&%!=s*;^t*`&~=):-%}#v_$%>%D>`.y=''*&O;=&1-y; ,%>O;#==&g;1-X=S=$;4&0>h==&x+;&k_;&+~z,B>z>;&O;0,4=_'-&%&T#F&j=j=A+X=D;T#O!F&c*",
"C$Z%9*H1m]5$B$B$5$E#B$5$5$Z#5$|-/=c}, I5|-7%5$C@K$D%T%G@R#G@R#S76&v%R#V#R#D$$=Z%Y%g%d%F@r&E#(*_;/=) ' m!a>O*E#E#g%v#E#f+C$Z%G@G=Z%~-D&g=Z%U=G=C$R#T#e*4&)-:>:>+'[[T7U7#<+<h-)-P-x;'-Z%Z%C$8*C$c&D%Y%K$Y%f+F@+=c&c&L$3$C@$-.$.$5-=>S+]{s+e#5#r=)=<#*%*%*%s*D_D_z_S_x_D_D_87z_s*S_z_p<S_z_D_!=;^Z-S[S+N)X!_-L$e*g*g*T^g*X@={L@X{X{8*c&j%/{x$x$w$c*x$w$x$8$w$x$8$8$U[4;*]A*{&V7c7{&u*{&):Y&u*{=I_&%d_d_p^t*]&t*t*-%I_`&t*-%^4u*$%w*o=y=}'=&0>g;y;M&y;k= ,=&=&-&S=A+1-A+S=1-0>@~O;O;;&8,T=@~;&9>x+x+A>m _'L%L&},Y!S@@=@=d*S%L&F&C$s-",
"Z%c&M*W7j%i+B$y{B$Z#B$5$5$E#v#L,g~k&d-^~%(F#Z#D%D%r&F@T%V#R#R#.&]*v%R#V#Z%H*U=Z%R#K$d%X#O#g%B$f=i^,>) %~),f+g%C@D%v#Z#O*8*Z%~-D$U=D$L$D&Z%Q*U#Z%8*8*U##=L%O;h=I,X7))#)Y7Z7M&M&y+&=%;.^T#U#E$Z%R#R@j+K$D%7%E%w$R@L$c&Y%3$D%X%3=('V!N)o $]_-*:5#q*2#h7[#h7]&z_x_!=87[_x_R_x_z_^&S_S_z_S_s*;^Z&$%A@{*>;4=a[l=|,e*T^R7g*H{H{K&J&V=`!J&j=I@Y%x$t&w$B+8$q-4$I@D&t&d&x${*7):*.-c7u*>1$%u*6-):f_{=t=~=U:t*-%-%t*t*`&I_v_t=-%-%`7}#v=_#.-S[R+ 8+~k=M&y;*~%>%>0>#=k=S=c*4&O!H-.=F&@~#=1-r>O,O!*&N$g*y;;&9>='n )/.8h=L&C$v%f+F@I@I@d*j=M$@=",
"W%S%]*K~E#X%v#F#y{5$5$C{I#I-z%3'D<,>@;5^U[_].$j%O*P#F@T%R#N*8*+80*R#T%Q*J@U#8*R#R#d%d%X#E#C@B$P@F>y=d)J}~~O,C@C@D%5$i+g%c&C$8*D$E&$=g-D$E$D$D$Q*D$8*U#F&S=h=@8(5@5#)$)#8`)%>M&Z@ [c1x;N$K&U=8*U=T%f+j+4$k,=-$8X#Y%f+f+F@K$s&_-$~8|.3p m>7{1;*:5#)=+*h7h7%8F_!=!=p<S_S_S_S_D_y_q<^&z_s*]&^&{=G,}%w'4=F'r'E[*'&8*8R7C>u{9{X@I~$&M$e*Z%w$@=x$r-w$8$x$D&I@8$x$w$|-K=w'U{Q.{&{=6-6-6-t=I_t=`&t=~=I_A<t*t*I_`&:#-%q*)=%%):+%v*}#`&t]t,W*N)+[l=4'O;9>=&;&%>g; ,L%.=c*H-1-.=1-#=-&@~X*=&1-T#/;=8-8;8^<][-/M;+5I,+~X=Z%S%S%Y%j+j+!{E>e%@=",
"Z%L$S@+&C@$-F#F#.$B$5$5$x#,*]%m+0~Q<A.*(W*k;N,k+3$v%V#F@R@E$E$]7R#8*v%~-D$U#R#c&T%F@G@T%D%5$t&>_#/~*}(K[c~7.O,r-4$F#F#s&w${-S=5-$;1-S=1-D$8*D$U#8*D$e*D$T=&'0[>8U,r5x/{,,8<,Q;M&Q;y;:>h-f-E&]-Z%T%G@g%F@j+F*'8F@t&Y%W%L$+$_-/'q!e^2)S'!5T$b>`.B#x*>%6;{=6-6-):X&X&v=X1V:]&]&z_;^*%s*t*~=41&*$,W(+[N;K>)8m^T,n2!8^<~8A>P$0{L@O$W@e*.=D&I@o$x$4$4$M,1,M,1,H,`4K,};W!O1d~:2I_t=u=f_f_):e_t*f_v=X&+--2{8]8f_I_I_t]p^_#6-g_t]82h>n'g7>7]{T-T,05*'Y=#~j.#~r>b,Y/0>C+H-W>},T=r>8'T=r>j!T=P$/^K&^8/8(8_8G5x[F/l20[&'8'A+n7n7E>8$E>k+$-I@",
"''k;:8<83'g#16J}[8G<f~h'x=f#d~P}}8(]b(|8w'F>h~z,O,g=c&R#T%c&N*M&.'18B>j.r2*'-'(>j.t+#(t+t+8$z$[%V!d!3(@49 T;u!8.8'c-8'B>.'*':, !`)4[='v+5'W>S=L&c&a>1-+~+'Y)T>t'Y'U7T7R'(528y+l_r> ,38w!4[w!k!),#(l<6.#(N2$;N]C$F@T%L$|%#-T;9 G2$/(-z{4875583,8=o=f#f,n'p+93p{-*F(F(2&9^w2D2R}{$E2D2Q.W.V}[6B*+5F)V)y= )b5A^p>P:Y2687888<[98080{%&V=b,w>s&!{N,#-d;k;7,};/~Q^['9 b[[(T$%{Y_t=f],|g(}]4]a8(@,^j' +Q}b8e$W.P.2&A@1,l+P.&*F(-*l#&:=5c8])I[J^E)a5)/V^5[ !5[Y)Y)U>K,,-o.,-Q^@+p.U>@+5[U>5[5[q>r.d8e8f8g8h8i8k)k2a5./j8k.l==5!/m^E[%~c{",
">;b]b]Z{J{k8w|U U V l8m8m8a^7}E7_!_ ( -3(]~*e-F^L'2)C'k/#;f!A]H'a/4=n]<^4=n88/e-k/|)a/|)J)L)o8k$f + p8(='!S+F^^>+)M'n5Q'Q>],J5y/p[_);5:);)]>e-F'G'O7G'v)K'Q>=)l5d-C*q8r8q5X,F^s8t8<)E'f;b~u8F^F^I'H'a/9/m/H)})v8a~H'K),>A.v)A.A.U{m c>-.}(:(2)^>^>+)^>M'K>Y^L5.)M'Q'C=#;p)p)n)f;C=f;f;u^e-#;v)) )&U{U{!!%<w,=)u[w8x8w8t[w[y8z8n u-4=b]z)b m/]{n n=2)$<$<K'h)`=m d!. q%_}Z{A8B8E79}3}B8_}U{')Y,B/')Q'v)v)X,n)X,2)'[X,K'n=2)n C8o ]{Q<z.I)l5w,z^e)Q>*)')D:z^4/D8^>L'+)^>*)))z^I/$)z^))z^))Q>y8E8F8G8H8Q'))e)*)z^D:K'Q'*)&)j[I8B/Q<",
"6/$~h~>_/]+;S%t&+;/]:8U!3'!'t+/]<*36J8f.^_K8c($+=+J%+[v!:,w!4[v!v!L8r2v!r2v!.!M8R^t+k!k!u!7.8.7.b>O+r#*$d3F:n!8!h 7!k 8!3}m O1V)!!X/7)J{)3K[}'),{5+!k!~~G^6 Z{&#~ B)N8O8.'z>5<z>P83:Q8Q8|>S=t+P,P,R8S8n3n3c-c-_6c-a,~[W(g.c(e.0!!(D4D4T81}Z/I W/U8@ W/@ B!U)_!(=w),!R @}M L V8^.^.L T Q #.T W/'('(F $3&3$3#3W[W8X8X8~}Y8=.Z8O_p>j.J-i' +3'L}`8u ]+ 9k}<.~+j .9$+b6g@+9j,~|5+p+@93+w:H+r#b4~*A)U{Q2C!Z #9T B >($9:.S)2(S)J %9^(W/j$U~#}#}}!&9|(% ^ + 5(*9 6{+W/C!1(< |(&9=9$ % +}% =9$ !6+}&9. ;:(+j~-.k4(+3 R)Q!>(>()+r c}A.4)->",
"B*I^I@d&t&3$d&t&j+Y%E#3$D@3$v%j+Y%Y%_]f, +4+.+_-0>%&K&h-m_y;h-:>h-y;f-L%K&f-Q;3<L%T@h=g;C$0<f+Y%T%R@c&#=0>=&B>4'g~n$p'}*'~w|>.,~'~_~T;d;i-v%E*M#V4-9G#h;T%;9~|z@m#Z.w$*-Q#Q4i%>9g%M#b%X4${W43%X#O#y#'>H;04O#F*O#J#,*a%l%:1:_<7,9'9;@&_)9*@!9]@;#J+c@-#~9{9E.d}Z/K3]90@$|~@~@U3~@U3^9/9$_(9H3[7&@_9:9<9K3[9W~=$}9b>g~p6k.O49{z+J&S@g+`#1&7%B$e%M,F(-*M+1+0^j,1@n+A@P['$}&}$}&]=0%]=x*R}(@K%q%I% (|936b+m~E+F+C<[6|@|+|@N+d~j&4@/6t_/6t_<%b3s#45E;b>=>T;-$h~/=3,o#3,g~b>T;b>$[B*{~T;3,T;X(#/19}+Y$29r__{a3 1`6&:~4d@{9U(39a}l j*d3",
"3,1>d&4$t&3$X%Y%4$Y%t&D%$-t&v%w$Y%w$D%t&f+j+Y%c&E&e* ,h=:>y;y;y;h-L%z+f-L%f-y;h-k=U=L&X=c&A+c&T%T%V#C$.=E&L&#=U=U=S=~'49r#<+j$q6|@l#D;O*Q4G4y#E*E*V459G#E*y#}=M#L#K#M#P*b%H*P#>9L#G#f&f&K#k>y#h+n%x#F*,*E*:-M#X#69I#5%8&;%a;@* %C47979X<89997-,%}$z-^$$|T|090(a9b9^9p~u_L^}$}&*1,$*1*1'$~$>$c$F,E,c9-[z$y$x$L$L$Z%V=J&a*C^S@Y!Z%S@v%5$E#|&.$2$B$7%Z#X%E@B$D%C@9%Y-}&]=}&]=A%,%d9g&F441I+u&{ @ j@_{y@G(*]3=/{B@/{d&$-x$w$r-w$x$|%B+A{8${>X=A+X=.=F&Z%F&Z%F&E&+=L$.=L&X=L&X=+=Z%A+F&#=F&f-L%M$L$1>H,~'b,j!=&e*C$B@m6e9j629.({(i@O[",
"3.e%$-4$t&Y%Z%Y%t&f+Y%3$X%Y%f+f+D&t&3$C@Y%Y%f+w$+=h=z+L%f-y;M&y;h-f-e*f-h=0>y;T#L%L&.=i=A+A+c&C$0*Z%E&E&E&Z%M&U=c&A+C$U=8'+7x)O+|-y#i+j%[=E*-9K#f9M#f9>9V4E*7&1=x#y#K#*-H*b%E#f&K#N4i+h+y#h+i+v#7&4%O#:-M#y#E#h+y#A%@%q=>%~&V&;%B-p*@%o*T&4#D-U&8&p*p*,%/$]90(6@ ^`-(&,%}&,%7#7#(&9#J*A%b#_&k-E#x#7%5$K$D%K$k-K$F@R@Z%Z*y4v%E>/{3$E@0*Z#F#`#7%F#~%!$1&)$.$F#F]7=}&Y-0%0%}$Y-z*V&0%@*!%a89+D.{6G%g9l{U*)$B$X%$-1$;-C#E@d&d&t&E@d&f+Z_v%f+I@L$c&U=E&.=L$C$C$i=S%S@f+w$k+w$D&L$C$h-X=U=E&c*1-c*K$w$@=L$L$.=c&S@j+5$7=<$J+0+<%{!:|d(",
"Y..$B$d&4$t&Y%F@Y%f+L$D%X%f+D&f+D&f+t&Y%Y%Y%f+w${-1-h=L%f-M&f-M&h-h=L%h-L%h- ,f-U#g;+=C$+=c&A+Z%.=Z%h=L&F&Z%h=E&c&c&U=E&E&l<9/n3n%6%7&h+y#p&*--9n%M#h9|=G#G4E*1=O#M#p&P*Q#G#Z#`_W4k>O#1=h+n%v4O#F*N#3%X#h+h+N#i+!$>%Y|o*a;5#4##%M>a;@%o*D-4#T&@%>%@%@%@%#%V.w|-*,%(&,%A%)%(&,%z%k%z%,*9&b#a#.$E@.$7%B$D%d%D%D%R@C@K$j+^*,;S%W%Y*f%j+Z#)$|&~%d#D#+,)%'$F#1&A#A#A%0%0%}$g&|$x*z*0%g&!%x*<_/@)7:|}6[@u#F#)$.$Y%1$1$.$1&$-C#1$c$E@Y%S%F@4$D&f+w$c&c&C$X=w$C$C$C$0<T%w$@=R@f+t&w$c*D&c&C$C$F&L&L$f+F@f+L$L$c&C$f+3$.$~%_&>$b@i9j9[*^/",
"+$z#k-E>E@t&t&F@f+f+Y%Y%C@f+F@D&L$f+Y%Y%Y%@=w$D&L$#=h=h=L%y+h-O;h=#=L%h-h-f-f-L%L&i=U=8*C$L$+=+=U=F&F&#=$=E&F&U#+=C$U=Z%i=j.<^{>G*04O#L#L#1=K#P*G41=S4H4y#M#k>1=L#i+f&P*f&M#h+3%O#3%O#7&O#O#L#L#O#3%J#O#L#7%9& $I;@%p*a;@%4#5#p,m<T&@%a;D-n*o*>%>%;%U&a;~&]$6}p+b#(&(&a#9&A%A%z%)% $8%5%z%a#.$5$B$7%.$D%K$f%D%X%B$B$Q#:=R@K$F@0*3$E@F#F#_&_&_&1&)%}&b#M^z-'$}&A%(&g&k9(#]=]=(#]=]=.-^=}#X~c!l9^/q++,)$F#.$4$E%k-)$)$$-F#q_>$:$A$e%E@j+Y%t&t&L$L$Z%w$/{A+A+C$F@F@Y%F@@=@=Y%t&x$c*A+c&g=D$+=L$@=w$Y%L$c&w$8$d&1$~%+,_&!$2&N+3^  o#",
"A$1$k-3$E@4$3$L$L$F@Y%.$3$D&F@F@F@F@F@Y%Y%F@f+]-L$E&h=#=L%%>Y@&=f-h=k=k=L%L%h=#=L&C$$=D$U=E&F&E&L&$=E&e*F&L%E&g;C$U=.=Z%Z% /k/f,H;,*F*z4n%1&O#W4K#P*P41=y#f9K#k>L#L#V4>9f&x#H;7&k%3%04L#L#:-E*M#1=1%y#O#1=X#,*,%8&8&@%8&o*5#T&=]d<n*8&a;n*n*o*>%#%a;@%T&<#Q.m9n+a#5;9&)%k%)%A%z%)%k%9&k%z%z%H#5$i+F#i+Z#j+g%D%C@5$E#|>H#g,3$f+E#E@.$1&|&1&)%!$M^}&5;,$d[e>|$}$|$$*n9 -{&g&!%.-g&]=V&^=F4o9p9q9l&A$F#`#.$.$4$Z%3$B$|&k-`#+,'$!$U<r9}>U*4$Z#f+D&D&L$@=K$t&Z%C$F@f+Y%D&j+j+E@1$Y%D&.=+=L$U@w$r-Y%f+S@c&S%D&/{E%B$~%]%b#A%.,-:x)z'[6",
";-1$D@4$E@3$f+c&c&L$K$4$E@t&F@F@f+L$f+f+t&T%T%c&]-U=#=#=h=h=Z@)-f-1-h=k=e*h=L%h=L%U#T#F&F&U#F&F&L&F&#=L%)-L%L&L&C$U=F&+=.=6.n/L,>*6%s4O#s9z4t9O#3%1=1=M#L#P*f9k>G4G4P*M#K#<=,*<=',3%v4|]1=|=H*S7W#E#M#J#y#O#F*+{8&@%@%8&T&;%C-C-m<g|o*;%T&n*T&;%D-@*o*4#7<e[Z{ +a#9&)%z%a#)%)%)%A%)%z%9&z%x#5$E#Z#B$`#B$X%k-4$3$E#f%E#F#2$F#3$F#.$_&_&)%z%b#5;}&0&d9K<$*x*x*}#+-t]{&{&{=!%w*!%]=0%!%u*y*u9*#D4t^C#7=F#.$B$j+x#j+E@)$k-F#1&)%!$_&]%d#)$C$4$4$x$Y%Y%e*t&K$D&L$f+@=t&f+K$t&3$E@3$f+X=L$w$r-r-4$3$F@c&c&C$f+4$$-5$)%}&b#_&'$j#d!e ,_",
"U*.$$-D@j+3$I@c&L$f+t&O*X%Y%F@f+F@F@f+f+Y%]-T%L$T%F&h=h=h=%>&={;f-&&L&y+h=e*L%F&f-f-L%L%F&F&U=S=h=F&#=h=L%f-#=L&i=C$F&H=Z%#(t/H,'>>*v9H;,2*14%L#O#O#1=1=|=G4w9y#K#x9a&h9L#t9F*F*J*G4<=L#*-X4H*b%P#f%P*y#h+3%n%y%8&>%o*o*U&U&M>B-y~c;a;o*n*A-;%)=)=D-;%)=)=0$>~ +A%b#A%9&9&z%z% $)%7#z%k%7# $.$K#5$.$F#`#1$3$Z#.$6&E#5$F#)$1*U*)$)$+,b#`-}$0&7-}$0&x**:H<p]p](#_#^=_#.%{&(#.-(#]=]=g_t=F4y9z9D4{7B#F#.$B$D@4$4$E@3$`#.$)$_&_&_&+,+,_&)$z#k-A$e%t&Y%L$G@0*Y%Y%f+S@Y%t&E>j+3$E#j+L$i=D&F@t&I@j+j+F@c&L$C$f+Y%X%.$)%_&b#}&]%j#4 e ~/",
"E%k-E@$-Y%d&Y%g=L$Y%K$F@X%K$Y%L$D&f+f+f+F@F@T%L$c&U#F&#=z+:>O~A9C>h-H=f-h=:>#=e*%>L%D$V#h=E&L&f-h=F&U#h=h=k=h=L%f-C$#=E&8* /L)[,B9717104h&4%z4a%7&O#3%K#k>[=h9M#H4j:P*E*O#O#v4v4s4P*E*E*6&Q#h;H*a&y#K$E*X#i+5%5%!%a;U&8&@%;,*^T&Z~d]o*a;o*a;a;4#4#)=r=n*~&s^Z{C9a#A%b#@*)%z%k%z%z%k%z%z%k% $7-.$5$B4w#2$.$X%Z#j%j%K$B$~%!$1&5$1&)%5;0&g&x*g&x*99k9 -6-{=n{_#z*_#_#^= -n9(#^= -z*g& -g_t]f].(1 k#,$D#)$.$z#$-d&1$5$$-E#Z#2$`#.$7%`#B$7%F#B$g%4$t&I@w$f+]7D&@=K$@=4$t&j+3$3$$-E>x$c*L$@=E>Y%t&K$T%w$c&D&t&j+k-.$ $c#z%!$'$w:F:D9u%",
"E%1$k-$-E@f+Y%F@D&3$f+F@C@j+Y%D&D&f+f+D&F@f+1%c&G@L&h=U##=k=g*Z@)-X@h-M&h-L%T#F&y;h=F&U#h=U=E&L&U#f-L%L%F&%&%&k=L%h=O;)-x; /|)q3'='>>*h&h&H>9&v4s47&L#y#W4|=f9V4k>K#[=G#O#L#O#,*1=P**-E*i%b%E9h;h;f%6&X4g+K#I#5%o*8&@%6#l%;,U&@*w-M>o*4#A-n*a;,,n*4#o*A-~&c97}F90%}&/&]=V&9&z%,$)%9&_&k%A%z%9&e>)$7#z%1&.$X%f%m&R@C@D# $`#I#5$B$,$d9*:]=R:H<_#_#{&u* -u*{&^=(#{&^=_#{&{&.-g_^=(#g&{&^=t],|*#W[|<}$!$,$!]U*$-c$k-D@B$;-F#.$F#.$B$E#3$B$.$Z#C@j%j+Y%|-Y%R-t&t&/{K$j+Y%j+t&E@D@I@w$w$w$c&K$K$j+f+4$E>f+F@f+G@B$E@B$H#|&k%'$>[-+;:u%",
"1$E@$-B$4$3$E@t&Y%t&F@]-Y%t&f+Y%D&f+Y%Y%Y%D&N]c&R#F&L%$&h- ,)-y+y+M&g*:>k=U#h=h=h-g;L%h=h=L&.=#=F&#=L%%&h=L%L%f-#=y;O; ,k=@/<^N,G92%B9'>h&8&h&E~s43%O#y#O#M#M#P*P*M#H91=O#z41=T]|=>9b%i%i%h;6=6=H*f&a&b%>-w#i+F*U&b;8&o*8&l%!%o*I9=-a;4#)=n*D{B-U&,,o*;%}#/$4}V}(#!%g&!%V&}&z%b#k%z%_&z% $A%a#)%`-!$D#|&)$9%+]C&1$j%.$_&5%x#Z#K$x#,%@*x*V&!%{&^=H<n{u*{&.%(#(#{&_#(#u*{=@* -^=g_x*{&^=t]n}<+I%l#:&!$b#1&!]U*1$E%F#<$A#C#A#D#+,d#)$z-h>L{b$E@I@4$t&f+4$4$K$K$F@Y%(%f+r&E>c$;-3$D&S%K$j%R@Y%Y%t&t&R@Y%w$0<3$5$E#5$:-7=7%`#J9K9d![6",
"j+3$D@D@X%D@X%4$3$j+F@L$g%j+@==]f+j+H#2*f+D&T%G-Z%E&8*e*C$L%Y@g*h-y;f-h-h-:>h=L%y;h-f-h=e*F&A+F&h= , ,L%f-h=L%L%L%L%l_:>X@_'8/L9M92%J*>* 2>*h&u4',,*3%O#|]M#M#M#M#P*S4O#v4t9L#w9E*6&a&N9N9-{L$R#G=R@]*H*)<^2O#4%8&8&l%l%l%@%a;o*O9x&c;c;~&2;>%n*#%)=)=4#;^^$9}c9(#$%!%!%g&0%)%k% $q=9&!$9&5;(&(&,%0%'$_&1%x#{%B$F#z#|:N#P9k,5$u#5$d%!%w*(#{&_#(#K;{&.%(#{&@*z*^={&^=6-_#m%.-{&{&^={&_# %)|K91 l#D#1&~%F#)$1&{$u_F#d#D#,$:1b#1&.$`#z%!$!$>$E%E@Y%1%4$4$f+X%@=S%f+R%f+G@f+E@B$3$C$k,I-z%Y%e%Y%@=S%t&E>4$E>j+j+j+E#[;7=F#`#s^39H%Q9",
"d&E@E@$-1$;-$-t&4$t&D&L$F@Y%f+Z#f+H#J=R9T<w$T%Z%R@:=;*g+h=K&@&K&h=m_h-%>h=f-L%h-h-L%L%g;h=E&+=U=L%f-%>f-k=h=g;%&h-f-3<M&P-`<#;c-S9D6J*8&8&>*>*'>g|u4(&9&,*k>M#W4K#S43%T]F*t9k>E*P*G#H*h%T9x$a&H*G@]*C$N*U9i%M#,%{&>%l%8#@%o*;%@%d]d=G9q=b;A-@%4#5#5#~&4#=%]49}f((#(#(#^=z*0%)%_&_& $6%k%)%,%(&0%5;(&g&'$J1>-:=`#F#F#7=:]V9J#(*5$7%g%>%x*_#_#_#(#(#_#6;(#^=_#w*p]p]u*!%C}[-U&_#^=.-^=(#y*x~-+:|m#F#`#|&|&F#)$.$7%2$Z-`-W989d[!$|&`#)$_&6#b#)$e%t&j+4$E>t&$-t&t&F@|:L$D&R@3$j+R@D&I@F@Y%I@t&t&4$3$s&d&!{c$$-B$k-X%6&Z#E<`#<$Q(,{[6",
"B$$-$-D@z#E%E@Y%C@f+D&L$g%f+Y%f+w$Y%{%X9{%t&W%R#D$(%W%c&U#L%$&:>L%k=m_%>L&c*e*f-k=f-.=L%T#E&Z%+=h-L%h-h-%>L%F&K&k=y;P~Q;&=w!I'W>G4b{w9'>g|71'>>*g|>*u4J*<=M#h+f9v#5%,*O#O#G4k>X4H4Y#N9-{J@N*Y9F@f+g%0*h%N*V#P*,*;%;%x*m%@*p*p*o*h&[-B%h&q=U&8&#%~&5#~&n*!</$m1V}_#(#_#$%!%(&9&)%)%`# $k%9&,%(&0%x*]=&-x*Z9:=7=7%5$)$Z#F*^-:=Z#Z#D#)$M^(#(#_#_#5#$%_#.-!%_#u*(#{&w*>%/&(&w#,*7#(#(#{&^=<&L+;+3(L]d$1&)$_&.$B$.$J#9%)%b#!$0%E-e>'$:11&)%A%U&1&$-E>3$f+x$f+E@Y%f+T%L$L$@=T%f+R@3$F@Y%d&t&D@$-$-E%d&A$3$4$$-.$B$Z#X%I=E#v#7%`#`9!+,_",
"e%E@$-D@F#F#E@E@Y%Y%h+L$L$K$Y%Y%D&Y%N]Z%c&d&F@D$F&F&h=h=#=g;h=h= ,%& ,S=+=U=L&h=g;h=T#:>y+$&P-e*N$%>k=%>f-*&e**&y;k=8>M&Q;:,#;P,`#>2K#1=T]T]J*B9l%g|g|h&H>,$9&n%<=,*04L#3%1=>98-Q4H*h%-{G=V#h;a&3$D@E@d&V#~;M#7&U&T&%,>*8&6#6#a;7&X#F*8%6#o*o*;%#%;%5#2;v*q<m1V}.-_#{&$%!%5;b#,%)%z%9&b#a#b#(&0%(&(&0%W&q=c#`#.$B$i+E#.$2$C@B$B$B$7%@*]=5#!% -.%(#!%w*(&$%!%1%V& 0.;(&)%c#N#)%a#,%!%.-w2[@$!;:!~+$|&F#`#.$.$F#I17%!$)%d#0%w*0%!$_&|&|&!$)%1&E@j+h,Y%1$b$E@r&T%D&L$w$8*T%T%Y%R@f+W%3$3$.$.$F#F#;-.$1$D@k-D@1$q=B$K$C&Z#F#1&L]9},_",
".$$-)$)$F#F#.$E@j+w$t&L$c&j%f+f+S%F@C$c&U=S@D&E&E&U=L%h=F&g;g;1-h==&S=i=C$U=+=L&%&L%L%)-Z@)-:>:>M&:>h- ,%>r>#=#=k=g*8>*~f-.0.}u%7%<=v#1=O#1=k>+0u471b;l%>*+08%3%5%0404.5O#E*b%a&a&H*@00<6=V#P#R@E#g+Q#]*R*V#1:O#5%o*;%o*l%l%5%5%I#4%J*8#7#8&o*#%#%~&~&+%`&#0%1f({&{=K;(#@*(&A%5;A%9&'$ $b#}&/&0%V&@*g&W&>%$*e>'$!$1&D#.$F#!]B$7%7% $a#8%c#,%,%{&!%!%,%a#a#,%U&$0%0J=z%7#_&1&c#z% $)%:&l#6~=.'!&0*00#.$|&F#)$F#{%D#`-!$!$'$x*(&!$1&_&5$!$!$7=3$t&K$E@X%j+f+T%c&L$c&Z%8*C$L$j+D&f+@=4$X%.$)$.$)$U*.$u#$-5$$-D@D@w#f|,;Z#v#D#=07}-0",
"d$F#)$.$F#1$1$E@4$f+F@E&U=C$f+F@f+C$E&L&Z%L$Q*#=U#E&e*h=L%L&h=#=*&V>A+Z%c&]-c&h=h=L%K&Z@y+y+P-M&y;y;O;%>f-h=h=#=k=)-3<l>%'x!z../|%%-O#i+O#F*v4|]J*8&L;g|l%l%u4s4',04G*z4k>*-b%W#o&a&f&E9d%f+O*6&M#f%Q#N*E$~<;0i+8%@%;%@%8&8%8%w#1%c#h&7#y%n%>*V&U&x%4#w=%*|@x.,^P[x*$%!%@*(&|$}&}$)%z%,%(&(&]=]=+%/&^=#%#%g&g&[|^%,$_&B$.$B$.$F#B$a%U&J|A%a#,%8&I#(&0%,%0%9&z*>0,0'0_&x#b#0&1&1&,%^%`.d~m$r%m )0g~b&F#F#)$)$.${%+,b#b#1&9%b#A%1&7%7=F#j%`#R@E@E>d&E@E@f+c&T%|:c&c&D&c&x$c&F@D&F@t&3$$-$-5$F#)$.$F#.$$-1$1$.$X%I#!0b%B$7#B@n$Z{F~",
"g#y$E%k-F#.$D@d&d&w$D&.=+=i=x$w$D&A+.=U=U=c&.=L&g;1-=&O;0>0>;&h~t+c-6'S=W>$;A+g;W>_>P,$'F<0,;&5'0, ,=&O;O;0>4&S=5'3:='q>;/~0]>W5),,5q-c$B$v#k%[|@%@%8&l%c]h&h&n%04G*n%E*P#Y%f+t&s&X%R@g=_;_;8$e%e%r-x$D;|%g*e%D#b#0%>%0%m%}&k%!$!$!$0&}&A% $9&z%q,S*{02&p+d(7)}*g7 +s,L^`-}&b#5;5;!$'$}&b#5;(&*1]=]=m%;%z**1$*E-L^M^A#k-1$c$o$G,Q@M,']D#<$>$`-0&}$0&}$}$0&}$|$]0%%5#'$D#A#`-~$C#*,g##/>7F}=*o m=z=3'D#D#1&)$|&|&+,~%_&`#7=_&!$`#.$Z#5$>>5$X%$-d&E#E@t&S@w$r&C$c&D&w$x$L$c&L$D&f+I@j+X%1$B$5$.$.$B$F#B$B$.$u#<$1$t&|:E@_;3'^0e!P+",
"16a=P@W;H,+;a,M=M=B>i.i.k!),K,j.-'r2&'&'&'*'*'r2&'*'%' !!,V^V^0[/0G5#5V^!,,-&' ! 'v!_'n2`)@+ !@+:,w!:,q>:,5[*'*' 'V^p>9[{,(0q/_0X7n.l=6'O>W>W>b,V>z$[,_]a>9${>a>b,+~0,a<<,3:z>#~@(3:z>.'.'.'@/E[P>d^>875_,:0t+I^|%L,H,1,K=f=W;X2H,9$e+~'e,+;+;~'N@K=:*j,B*s.`=J^9 3,'{l#r+P@P@#-P@Z.P@N@P@f#`.Y.1;K=f,Y.m+m+q+X.q+r+U!7.6.l=x,;'95/5S,l!$]s+i##-`.o=.+.+<0 + +.+p+.+i#i#_-++++8=b>n$f6x^g/[]U{G)[0E;F51&)$1&v#~%_&~%_&F#)$_&~%`#)$b$g,}0p,~%e%!{B@B@k+8$W;!{&~5-V>D^{>N,W;B+|%r-_;s&s&E#C@$-B$5$E%.$z#U*E@k-$-.$E@g]d;l.$~6/Q<y'",
"V['~t!|0b~k<}/2/G)g[$/R'R'v/J[S'Y^S'Y^`'Y^10L[L[K>M'*)t)r/H/$620i)A/30H/&)t)')g)N'e)Q>Q>-)$)R>#)#)$)$)$)=)R>*)Q>Q>Q>#);)z^n>M;2)g!Q>/)R>R>R>$)#)R>K>Q'M'g)g)K>Q>Q>x/40y5r[;5y5v5:)y5y5:):)v5^,_)i8i85060s[/3;)3/3/L'L'K'N;K'L'+)Q>70*)+)E/+)*)z^^>u)v-)!(-c}l q 4,80475/}/}/G)h[2/G)2/G)h[u'A]C=#;F'p)4=#;U-e-o)n X,Q'+)+)Q>])q/l)j[I2#)M'n=U+v)C=C=n n n U-U-o U-z.o v)90o)o)o C8z.]{>;[*l D9j~k&8 175+i'5+O@M+*,W-Z#E#E#B$|-I^A,!'+;O@00a04'7,8.8.Y=R,Q^Q^./,'i!././!,o.l=j.l.k.;;4'_-O>Z.O@A,M=M=!'*/6.7.!'7.l=R,};J}p>![Q'v-",
"Q2<}l { $9S K (.@.^(:.+3W/+ $ + ^ ^ ^ [ -3( {(]!_ {(( W/: k~)&]{C'A.) h@]_,+h 8!%+&+] W)b0b!k k b!,+k k k & o!*+*+*+k {_E7e d <}r {_b!g 7!c07!g R!_ Y +3@ d0( + ^ & :|:|j{E7k$j{D4e0f0b({_g0x)U{d>:<g:#,_+x)d!| | )+h0i0j0k0V 4(R)l0(34(5(` |(,!,!J ^(M R m0m0n0_.T R T @.T (.T R ^(T R ^((.}3^.V8L /.O O O N O L R T + ,!# e -.S+D!, Q2^ U o0F.F.p0G.G!I.q0r0#.#.#.R/^(:.L @.@.R s0s0d}I |(~(t0u0]!z!D*=$v05,D]L)b/k&L),34;]{n)K'^>$<J/C=C/2)l5I)^>z^))z^Q>D/v5j[B/x[Q>*)g)p I)K'J/X,n ) >;) n I)L'h)2)K'$<K'Q'I/g)M'C=;=h@d!i@",
"[9W}({[6~|F5W.w:-*3+n#$[D<p'p'u%l#L]w0P}|6+_o9l{:%I+H+c+ 4r#x0Z{m S+<}y0u&e|H+(@L+V}.+ +3+n+|<p+n+-*3+p+3+-*>[w:L+o+o_@$-#j&73@$G(7+2+N!._z0f(f(z0f]&1f]4]^$}]j3i3A03+6+L]~/,_z@M+,_L])~k{m~<%w|2!.44,5/`[Z^B054X($[3,X(X(&:7{j^x,7{@,_~8~z=19}+~9d@8@L.C0h6h6D0E0K3y@=729F0G0c+c+c+G+-#u@u@B|_@_|)@!4)4)4X}G+G+9+B(8@[929d.=+z!x)A)k~H0B(I0J0K0L0)#'#~#M0N0O0P0p}y(`2Q0!&R0R0R3r}S0x},9T0v},9r}U0#0c9V0P.f<1;-[G,n'm+X.1;16W0X0a6Y0>(>(a69(J ( ,!h}:3Z0# ^ D4c|6|O1B6W[h0)+)+)+~+u ]+c(l~U(h0F3~+e.{+]+]+]+j}~+!+j %+Z/`0C! a$+",
"F4}&k%A%8%z%5%x#x#i+H#X%`_j%j%O*`_[=E#x#i+8%a#k%k%9&!$c9c@2~T~.a| ]_X$Z$H+^^h_g&E-a#,%6%5%b#z%c#w#I#6%7&6%5%8%5%8%8%i+h+D%D%D@%-7%h+7&y%8%'>>*M>l%L;'>s4s4v4|]G9+ab;I;`~a%a%6%7&w#'$!$t,]$r+H+<~} e!r'>8~,@'C^&>h=-& ,y;g;#==~%>H{ ,T=r>T=r>H-H,_;*,b&*,l+P.P.&*G,1,|-9$9$9$8$i-8$8$k+k+i-r-r-r-k+r-o$B@|-s&|->}+$+$F5:%S6[9@an!#a-3`8*7$aR3%a]8&av=~=):t=u*Y&u*I_*aY&y*b2X&6-e_=aW1_1-a^#||#0t]<#|#2;+*)=4#p^@%W&#%;%w*/&;ax*/%31>au9p:x~m6u9u9u9V3!@J+8+m~36,aY |}>{[+}+73}@b@^^u9m6v~o'Y.X2Z.o=-$m#-*j#l#:%k#D+[6l#H+G(^@n~y}",
"7#a#b#)%a%k%a%7%v#h+x#`_K#[=z#j%[=y#y#i+7&8&8&',8%8%7#y%7%'a-~M!{ {_)a-#)||$o*V&o*@%h&8%l%7#8&7#7#'>7#y%H;8%8%y%8%>*G*4%3%3%4%8%7#h&1{>*'>h&>*71g|a;p*8&'>G*+as4|] 2!ad]>%(#@*(&0%@%8&'>L;7#P[O+j~&(:'~a+<Q~Q~ ,*&F&e*%>b=@~M&H{`4},S=X=q-N,D^r-/{1$r-$-e%e%o$E>e%r-r-4$4$/{t&E>t&x$I@4$8$4$d&4$d&I@/{c$1$1$e%c$$-1$1$c$z;G(5@b6w))+{a$a]a^a|_[<y_!=Y1d_`&J|/at=:#N1q*Y&v_t*d_d_A<d_-%e_6-_#{=+%<#2;<#4#~&>%A-8&>%#%V&;%5#$%5#$%$%o*w*.-z*[&I>0%/&z*7-(a-}_ad@{9Y y!:~=#c+3+*,<$7%b#0%0%}&]%]%5$E#j%3$7=|&7%.$j%R@j+f%C@E@2$J*M<",
"y% $k%9&c#k%c#I#x#x#x#E#f%f%K#D%P#g+y#7%7&8&@%8%8%*1k%a%y%D#1+H+(+A)e|^^0%D-o*8&8#5%0%y%5%4%8%7#h&'>7#c]y%h&7#8%>*h&n%G*7&3%G*>*J*u42%:a'>'>'>>* 2>*l%+{J*J*'>G9z4t9J*L;p*8&8&l%l%g|g|'>h&8&8&+;o Y7<aN_/<<,A>-&-&#=(;y;L%g;-&N$O;g;1-D;|-r-d&d&!{e%e%E%c$E%!{r-B@/{L$r-4$d&x$4$x$w$t&E>4$4$/{!{$-8$!{1$e#B#e%c$!{e%d&/{e%b&_|[a_!g <7s~I:U_C_y_C_c_A<A<`&}a32`&):I_Y&%%_#U:s*d_s*A<I_`&Y&6-6-+%+%)=<#)=4#o*W&@%m%/&W&#%_#V7#%5#o*m%W&/&$%>1V7b2_#/&%%{&A1|a1ad@b($!i9}@f< $z%1&,$8%,%}&0&{%1&>$)$j%)$|&)%`# $B$j+E#5$Z#E%w#7&7&",
"I#w# $ $z%c#7%B$h+f%h+x#[=g%E#[=Q#M#h+v#7&V&@%l%',l%a%6%a%',{$t^-.c}{7w2#%o*U&q=7#(&(&y%y%8%>*8%8%>%8%y%'>7#l%h&h&h&G*c]7&7&04G*n%1=E]4%,*v4G*s4>*g|8&'>g|>*>*04v4F*s4[{h&l%@%h&7#h&y%H;h&l%>%p3})2a,<3a4<x+ ,-&1-L%f- ,g;g;C+z+g;S=H-M,$-t&8$r-!{1$1$c$c$c$!{c$e%e%d&4$/{4$t&8$Y%x$t&/{d&E>4$d&d&s&E%1$d&E%x$d&o$e%e%e%1$1$v<[7_!h O3*[U_T_y_B_]:~:c_&%s*V-=%-%I_v_v_u*v_d_A<t*s*e_~=t*e_):f_{&_#q*5#a;U&6#/&z*W&z*/&U&4ax-5a>5z*V&/&#*V7$%6aX&X&Y&{=X&&%*aP0,@h@D]-#f(q=U&z%z%+,)%_&)%)%!$.,|&|&5$!$b#b#(&2$F#v%3$b%f%E#w#v#i+",
"h+E#{%N# $c#5$v#i+j%f%E#D%f%j%f%)<M#y#x#7&',L;W28%8%5%6%6%a#!$6+U{n]-*}&5##%@%V&V&W&8%J#7#>*8%H;h&q=8&8%H;s4h&',>*l%'>'>F*F*,*5%G*3%G9G*04G*h&'>g|q48&>*u4<4l%>*'>G*9-c;I;y%l%7a>%8&7ah&y%l%8#!|a/8a >A:/<<,1-V>#==& ,k=T=S=c*0>T=|%|-o$s&4$4$!{c$e%1$E%1$c$e%!{B@E@!{r-4$*,r-8$8$8$4$4$/{4$4$$-$-!{e%o$1$c$x$L$d&B@A$.$c$e%U*9a,{`8%a0a~:C_[_C_~:~:_:V_|_;^aabaca2#+%_#+%]&s*d_t*f_`&f_I_f_u=*[t*f_~=$%5#!%_#_#5#w*/&6#/&D>m7+*W&(&/&']V76-X1=a*[>^{&}#U:=<daS|l i,9a!]W&)% $b#+,!$!$|&!$i+_&_&)$z%v# $}&}$v#B$3$B$|:f%f%Z#x#y#",
"j%j%j%i+c# $v#v#Z#g+j%g+f%O*E#E#=:`_p&h+3%x<eaM>a%y%6%a%h+5%`#.+>;n/o'W&$%,,@%@%>%7#8%8%8%7#l%8%8&7#q=5%G*y%8&l%l%J*J*,*3%n%5%,*G*7&,*J*G*G*J*'>L;faA-:4b;l%h&l%l%c]H;>*@%l%>%n{K;@*V&@%h&,%l%f=a)D[9,4>w+;&O!h=O;0>h=;&S=B+a>x$H-1>!{d&o$e%r-!{c#e%E%3$1$$-!{!{e%!{o$e%4$d&e%!{8$8$4$4$/{/{t&c$1$e%d&E%;-$-/{d&4$1$7=gaE@E>d&-[#aT6D1x7c:C_T__:x_}_~:B_C_c_habaiaw-3#2#}#32Y1|_=<`&t*d_U:&%V_0_ja0_d_:#_#%%u*_#V&z*w*m%W&o*kaW&0%z**:g&>^&%1_U:la*av=I_;^R1*[mal J{w:0&0%}&!$z%z%_&'$^%z%b#,$M^^%,$^%z%)%}&k%9%Z#y{:=`#X%E#j%E#",
"E#f%Z#v# $ $5$5$p&E#5$5$X%D%i+f%.]h+h+i+I#J|J|',c]n%O#i+x#I#`#`.N)|)Y.(&o*;%b;g&{&$%>%(&8%V&8&7#6#8&p*',I;a#8&V&l%G*4%1{7&6%<=4%s44%G*+{G*>*>*L;A-4#.1t2L;b;b;>*:4:a>*g|@%h&a;4#;%A-l%l%8&(&h&a,J'!,a<9,x+%>*&f-k==&O,O;D;D;c,r-1$!{e%$-e%e%k+!{1$E>e%1$e%e%d&$-e%e%e%d&4$S%L$d&4$4$r&3$d&d&H@t&z#1$1$1$u#E%8$t&d&d&$-ga5$I@t&5-naG(^:&2}_B_]:c:T_T_]:]:U_x_oapa2#x-+*w-X]=%-2[#Y1d_U:R1Y1a_%2qab:B_!=s=`]%%:#v_#%V&W&m%@*.;ra]=;%/&A*sa*aU:&%|_V_t*d_`&;^`7f_ta$#b]X.Y-0%0%}&5;}&!$7%1&7=1&w#S}A%}$(&(&b#c#|&v#E@.$i+x#v#B$3$O*",
"y{D@Z#g%i+x#B$v#7%B$E<(*F#E#p&C@h+Z#h+7&H;>*n%3%x#3%h+h+v#6%k%o=S+->G,a#l%!%D-~&~&4#;%l%@*>%>%@%@%o*;%V&@%a;V&a;8&8%y%6%;,s404c]0404G*+{04<4g|b;U18;D{j>a;B-g|g|7171u4M>#%A-a;b;1{h&h&>*4%>*8&5-})@+x+;&s;#=L%=& ,S=1-H-w$B+r- $ua!{1$.$2$/{/{/{1$r-$-e%1$1$e%e%$-1$o$s&d&Y%F@L$L$8$r&4$D&L$W%8$1$U*E%$-z#E%!{4$4$d&E>E>^-I@8$/=M!vaF_z_t|[_T_c:t|S_S_B_wax_e]xaZ1+*.;9<.;X]2#v*-%-%A<ya!:_:~:~:zac:_:!=_7u=~=#%.-$%$%;%AaBah1/&w*u*=a1_R1R1A<U:s*`&Y&*%Y1Y1}#Y3c>D]n+b#(&(&,%(&}&Y-)%,$}$|$)%,$A%g&(&(&)%z%z%`#`#)%7%{%v#v#5$Z#",
"7%(*j+j%x#i+B$x#9%c#9#h&w#.$i+B$Z#v#n%v#3%7&N#i+i+h+y#x#n%v#`#o=S+m/X.@%8&U&o*5#a;o*8&h&V&T&V&>%l%#%5#@%,,a;a;T&b;a#7#7#1{4%H;l%c]','>'>+{>*:ab;U1Cag|t2A-a;L;:aL;>*8&91F1,,U&c;h&5%a#F*+{--'>a,e-./*=x+x+R8O;T=k=g;1-H-c*D&!{~%A#E%)%E%T<5$r-c$1$!{e%1$$-!{!{o$e%1$e%1$1$/{D&D&L$F@S@D&D&8$_;d&1$U*F#e%1$E%e%d&d&/{E>/{I@8$t&h~w|DaS__:~:z_S_S_^&S_S_~:~:A7EaU]>5Z1+*.;z~z~2;-%-%t*&%|_C_c_C_Fa_:c:{:~:Ga!=`&~=_#v_Ha!%z*5#Ia>1V7Y&d_d_d_A<s*!=]&`&e_-%d_r1y<^$U{%$ +}&b#b#a#)%b#0%b#}$}$a#}&z%*10%,%]=b#b#_&w#!$)%}&`#1&)$}>B$",
"B$X%E#D%Z#F#v#v#v#9%c#7%a%7%h+j%x#i+7&7&x#h+1%x#h+y#E#F#_&v#v#a]O)|)L,V&8&@%8&V&@%l%h&Jaa;,,T&o*o*>%n*b;b;a;B-a;n*L;@%8&91'>h&>*l%@%L;8&h&L;b;L;K1949494a;.1b;b;b;b;h&D{+%D-a;8&h&4%,*<=G9T]<=h{X,6[A>s;%>g;k=5'r>1-1-D;w$D&D@x%Kam%z%C}uae%e%c$E%d&c$c$e%e%e%e%e%e%e%c$1$E>w$D&c&L$f+I@z$|-E%c$g,)$F#1$1$1$e%t&!{4$8$/{d&8$x$a]z)DaU_{:La]:u|D_q<T_T_~:B_]&,]:]w-w-+*+*}{6^w-r]`&t*d_=<B__:C__:B_~:]:~:B_]:0_d_t=:#$%u*$%z*>1I_~=v=t*&%s*!=;^Y1!=U&;a}#v_MaI_Q[U{>3F(5;7#(&b#5;,%b#}&]=0%0%,%A%)%,%0%0%0&b#_&c#9&_&b#c#9%7%.$.$",
"7%B$Z#E#i+v#v#i+7%7%7%c#7#k%v#p&7%i+3%h+h+i+y#i+K#P*Z#5$4%O9.$T;N);<Y.>%a;V&;%;%@%@%m%8&p*o*_^haF-;%;%L;c;L;B9a;U18&l%M>NaOah&h& 271b;Pah&b;L;<1a-ha94b;A-n*g|94a;a;#%r=~&)=a;8&<=1%N#X#T].5c%+~N;`)y+s;*=O; ,-&O;1-#=1>8$8$H#)$F#6#6#6#b#c$e%U*U*k+E%E%E%1$o$1$e%e%E%;-1$4$r-x$B+D&x$c$/{e%b$N>e&u#C#s&E%E%e%d&r-r-t&d&j+4$4$I5>~h(N|b:Qar|D_^:z_]:y_T_C_!=pa-]Z1p,}{w-Ra:]6^w-v*`&d_}_}_T_}_~:B_~:]:c:[_}_waja`&~=>^u*v_{=v_v=d_;^Y1A<]&d_t*&%U:t*v_v_}#Say<`2)&%$:*b#b#b#)%}&}&d[b#g&]=0%0%)%}&,%(&*:z*_&!$_&b#(&0%b# $,%,%)%",
"A%7%B$v#7%v#2$7=c#v#w#y%A%k%c#x#h+x#x#x#p&j%i+E#j%5$F#y#N#O9`#w'S+->A@^=#%Ta~&$%#%#%(#V&@%g|$5Uah&!%a;'>71 2c;l%>*c;b;VaWaXa'>>*'>L;u4%5 2g|g|;]R9Ya94t2U1U1b;C-b;C-n*n*4#~&p*8&n%n%<=1%>->-;*S@u)#<s;Zas;k=*&g;=&F&.=c*x$8$d&`az%D#D#D#E%U*c$E%U*c$U*C#E%B@E%E%c$E%e%;-z#E@r-8$t&e%r-e%/{e%)$D#U*C#C#;-1$;-4$c$o$d&k+!{3$3$w>I5z)-|t|N| bt|z_p<L|z_c_B_]:x_-%p^x%C}=]6^=]z~C-.;v*`&A<V_C_C_C__:]:}_]:C_[_C_B_s:d_v=`&I_v=):&%|_]&H_]&]&t*`&t*A<d_`7v_:#}#ba.b+b$#P&:*b#a#)%k%A%A%)%#*!%@*g&0%b#0&#*]=/&w*z%)%)%a#]=*:q=|$0%5;b#",
"A%7% $`#7%1&7%7%1&n%i+6%(&)%9&v#i+h+[=h+h+h+5$Z#y#`_5$i+h+v#7%r+S+1)X.6;.%C76;#%)=u*+%$%{&,,;%V&V&o*p*l%B9J*J*>*8&T&;%B}@b<1@%'>71L;L;#b71b;L;b;ha1^94K1U1U1.1L;b;A-~&5#4#)=b;@%k%,*:-k>X#P*E*(%n)$b`@N~s;S$ ,@~@~(;O$G@c&w$1$z#)$C#U*D#E%;-C#U*U*E%E%C#U*E%s&s&E%U*s&E%c$$-e%B$d&4$Y%$-d&e%C#)$)$C#)$E%c$U*s&E%$-e%3$o$1$j+E%}%Z{h(87t|N|La^:D_^&T_]:~:y_T_ba+*9<p*x%x%^-2*x%.;v*]&!=yaT_}_}_B_T_~:~:y_x_}_}_S_c_;^t*t*&%*%v*]&[#`&t*d_]&t*A<A<]&}#u*Y&0a2;%b&b*bi4h_,%,%,%)%z%b#}$0%]=w*]=]=}&(&(&/&W&@*b#(& $9&x*V&8&6#,%,%(&",
"7#a# $)%)%z%7%7% $7%v#k%8%k%7#7%p&E#p&h+x#7%x#)$.$5$i+`#7%v#}>8=K)4,o=0%~&r*+%)=+%J;)=+%<#+%4#D-#%$%>%@%8&8&8&=ba;T&b;@%L;>%h&b;=ba;a;B}t2b;a;b;a;L;L;94M>C-g|71T&a;,,4#4#A-8#6#4%N#O#>-.]^*P*.[M'957>@>N~@'k=*&@~g*x>i=i=L$$-U*U*)$U*U*E%E%D#A#U*C#-bC#U*U*;-U*D#D#E%Jauaz%F#9#/{3$I@k-$-z#D#A#A#B$u#;-F#U*E%z#d&$-!{U*D#;bC#,_%1h(t|~:T_-<]:c_x_}_]:]:]:|_=%z~z~p^>b2*^-c;=]w-2;-%A<,bT_}_C_]:T_U_]:y_c_[_S_<<t:V_t*-%`&;^]&]&[#;^t*t*H_]&]&&%`7'b%%%%)=)b!b~b{b>&]b}&a#)%z%|&,%5;g&@*!%w*b#a#a#,%W&(&W&]=0&*:5;/&@*W&l%a#,%,%",
"z%A%z%z%9&z%`#a%`#_&x#G#k%8%7#c#K#j%`_i+x#x#5$B$a%1&e>,$ $i+b&/=]{=*>_B#~&t=~&<#~&~&7<|#*%M|G_^bu*<#r=5#,,V&T&#%D-p]4#,,T&/bL;g|K1L;B-t28;(b,,B-K1_bK1!ag|71717171A-;%A-a;8&h&(&y%8%F*>-[;Q#(% ~2)#< <y>7>@'*&@~e*:b#&L&L$L$D&E%F#C#g,)$z#;-U*>$F#;-E%]%u#}>C#U*A#Z4D#C#E%u#B@2$/{d&3$c$1$1$.$.$F#;-)$U*U*E%$-;-1$e%1$U*A#<bD#[b5}h(t|~:]:D_t|x_2;3]<<E1baba2#.;p,x%x%W&c;^-=]p^2;;^a_/:}_c_C_C_[_C_/:C_}_[_|_t|p<C_`7U:yaV_|_x_;^t*;^d_;^E1s*s*!=}b~=v_{&q*|b1bV;2bZ4B#9&)% $_&0%0&]=w*w*(&b#6#a#(&0%]=(&(&0%5;0%(&V&0%6#,%a#a#",
"c#7%z%z%z%z%z%`#7%7%`#h+c#8%7#a%p&[=E#x#p&i+v#a%k%6%6%a%a%`#|*@,]{k/r+P@(#<#a;+%~&9;!>[#r]r]3b02*%-%N1v=J;4#,,D-<#A-A-T&n*W_a;L;t2.1t2U1;]94M>9471g| 24b71 271+09-h&p*o*8&l%h&,%a#8%4%.]|:(%:=M=n=p>5bQ~^8ZaK&#=r;K&$&c&X=X=L$Y%;-g,C#C#U*U*D#A#D#D#u#>$>$>$>$A#A#>$u#D#U*E%d$I@c$d&r&L$j+3$k-E%E%E%U*E%F#z#c$U*c$7=;-C#D#B$u#!~j@6b~:~:[_c_t|t:}#+%2#-%-%`&v_4#p,=]9-p^7bx%2*.;2#!=B_c:c_c_C_C_}_}_B_C_B_}_}_T_8bT_]:n|}_V_x_]&s*=<!=d_t*;^s*A<x_-%):+%{&y*q+<0N)9bW;`.b#!$z%)%!%0%]=(#(&(&0%m%0%]=(&]=g&@*Y-]=0%m%W&(&W&7#a#h&",
"4%v#w# $ $6%`#7% $w#w#6%n%7#n%n%x#j%[=E#x#v#,*7#6%v#7%N#>$~'l!^{F'C/f[U[1,g_<#v*r*1#|_7;7<+*0b7<8;X]r*=%!>aan*B-4#L;a;A-JaJ:L; 2L;B-t2.1D{94K1L;ab 2bbB9 2>* 2B9l%>*b;p*>%h&c]y%6#'>F*X#y#cbA{n.Q'dbeb%'s;s;@'-&Q7%&L&j=g=X=L$L$c&.$E%F#;-U*D#A#C#D#u#>$!$A#D#>$>$>$A#C#U*;-)$}>U*e%K$/{/{/{1$1$1$e%1$1$z#E%E%C#;-E%s&D#D#h,Y.45R)fbB_c:]:c_t|t:1#t*v*<#v_I_}#q*x-=]c;=]p*=]U&w--2p<c_c:U_[_Q|}_}_[_C_C_B_c_]:U_gb$1qa[_D_x_!=[#0b<<t*]&t*;^t*s*`&):-%I_hbA@ibz=:(d/=>v>f,>$z%Y-@*0%V&0%x*]=w*;%]=]=]={&5#t]A1g&]=0%/&m%a#k%z%a#",
"c#5$x#v#7%c# $9%7%c#7%7%5;1&`#_&)$D@X%B$%-F#E<E#x#Z#Y%V>t+==$~jbF2n5A^@,h~L,>$@*,,4#)=;%D-,,,,o*T&<#)=~&4#n{kbD-r=>%,,@%8&',k%a%v#A#k3F#,$n%k%7#'>G*>*H;>*l%',M9l%7#p*C-0%9&E~Y-9&1&~%lbV{-&mb75nbobpbqbrbsb,5@~tb#=@~V=c*X=X=D&@=Y%E%E%E%U*D#D#u#A#u#>$<$d$d$f'-[f,Q@-[z$b&U*D#u#C#c$c$d&$-E@e%$-1$1$_;f#f'X2g#g#Z.f=G,n'h#3>K%E7X~1_]:T_}_c_]&}#:#Y&:#q*q*r]:]81p,=]p,m7A-9<+*E1S_t|y_y_}_ubvbwb}_}_y_C_t|[_t|xb]:T_ybz_!=!=1#<:Z&t*=a&%d_v=d_f_):t]C4W.V*z=H5E/&)r'0~7{4.F,~$0&0&|$g&*:3#oa5#$*F4*:!%x*w*(#x*!%(&}&b#5;_&}&|$",
"5-~'_]U*)$1&H#7%B$}>_;9$H,5-d;a,_-B>),8'd;~'O>j!Q,8't+l=l!a[l/![]{) J[9[c{h~g#P@-[S2Q@Q@Q@9$L,Q@M,*,1,1,M,|-_;z$z${>N,{>I^~'8'l>*'R^zbAb2-.'B>8,P,O,$;L9$;V>{>L$@=a>b1n7W;Z.W;L,~'O>+~$'<[^[qbBb]3CbDbi/EbEbFbGb,'%~$]7.T;L*('L*k;J-k;>_f=s&*,n'i#r+`{d+,[ibX!W*(~p.05^~7{=>6,i#f#Q]B#t,C#`{`{$,V*,_[%9b(/3-m=80[/3-//f3o%#4s#Hb(30+w~=|DaIbsa-|4]v~4]%*e$P.&*Jbh^n'W;1,Q@f#-[T.x|%{/$z1KbtaLbMbNb:_Obr~y}V_t|t|x7-<[_i2PbX</|E2g5E2A@P.%[]/E,9^%[9^0$|<,[B*d^R']{]{{,-/Z^/'=>3'-$P@`.n'X.X.1;n'.+P.m+q+&*1;l+l+1;P@P@#-5-~[Z.P@",
"48Qb-/n^%~]~T;U[^{`[RbR'$/g[3/M'Q>;)-)R>Q>R>R>s5$)*)R>3/h[H)]{a()&U{>;4)I)^>+)M'M'![$/J^![R'v/')M'M'+)M'*)*)*)Q>Q>R>Q>#)#)$)$)B/~3i8J2i8Sbo[^,v5],x/$)f)x/#)R>D/TbI[y8f)*)+)*)Q>#)D/])Ubw8v[u[;)VbWbx[Xbx[Yb^)Zb3)]{k&b]X/A)`bX-c}J{J{J{7}9}%$F;K)Q<! Q<.3U-F^4/Y^B[B[Y^u)f;n)U-! C.Z{m17}3}V+Z{3}3}9!L/v3 c$.v3.cV8#9+c0!&+@c|.E3'+#c4}9}9}#cw|7}z)>~z)v0n]n]$c1)t>P&})k/K)n/b]>~5 7}m1+94}a}j@9}7)v-C/s P!E79}3}j@_}4;)!o n)C=C=906:2)v-s'h[k<b[A]5/[/T+z{)!m m C]P&h!n=1/1/`=p }/}/A]47m=A]A]%cu^}/O^m=}/}/G)&c2/)[i[$/S'4/R'",
"z':(],^,z.) N)) q g < ] _ + : @ ^ W)} & } } & W)$ ( w):.K S ,(#}*c=c)($3& W)^ '+w)_ + : $ < $ ^ + + ]!# $ ^ $ + ^ W)$ W)$ & H%2 ' X,<)X,<)r8(4:|>.:|>.W[& & ^ ^ d!n:d!H%@ @ -3$ #3| n:-cP^;cC|#,:+#,>cY8u.,co:44p!h4l.$~3.4.4.U!J->_g'1;M,[%a9'cv313)c!c c/.Y [ C)k$(+(+ (k}~c{c]c^cj<S.P1^$P1K<q<;^]&W</cw((c(c_c:c<cw4*a0_d_o<!=!=h(:_ ^ ^DaS.Q[n}J92&W.e$m+8$Y.H,1;n+`.Y.G,F5Z&[#Q[l1Lb[c{#i3c@}cq C.|cc+I+1c31^$E+2c3cG!F!I.I.T %94c5c:.:.:.^(T ^(6cR J d}!(%37cW)$4< !(( ,!J J R R }3@.R T ^(O }3^.8cT ^(J ^(J W/W/@ $ $ ] ",
"9c5 A.0c80G~q!(~};6'6.h'g'5+D+z@9aacd+$,2,D+z@L](@ _bc[4_a)9ccdcJ3-@{a-4l6e| _ec:%M+u%g7H^H^>_`{u%L]l#l#j,~/,[!~j,5]L])~({8~}*d3o]N)d)o ' ,3##g>w'X(F>l!=>g~g~u+;;fcn-$,/=5]$,E;j'{'7{58,}58e6gc`/%:&$5|hc`6ica1},Y!@=K$v#1$5$$-E@7=`#l%7=`#'$F5f]x~K+~@9@[75@H00!E7l |}jckclcmcncoc15v*`&Z&1#[#;^;^s*s*t:s*s*s*t:s*]&t:!=!=s*pcD_x_x_D_!=!=!=;^[#s*N1I_{&_#_#U&w*/&W&$%!%q*$%2#;^;^]&|_}_T_A_^bqcrc{ f c@fbsc!=r]s*]&w=Mbtc~#v7,#ucfbn}vcwcn}'_a8)_y|xc&}ycv}zcAcD0BcCcDc.@X~'_EcS|Fc)#Gcp~,#-})#'#u~u]=}fbn}=}f]n})|z01+HcHc}+",
"}*y'6|IcS~c~;;e*O*j%r&P#g+D%g%G@C@g%G@T%t&K$C@5$y{`#)$F#A#z-]4P12&T.s^N>k+Y%3$|]Z#D%g%g%f+W%F@T%g%5$E@3$D%E@D#E%F@f+t&f+x$+;45t!a^1)>:~!b/F|>7w't+h=F&E&Z%F@G@C$C$~;S-C$D&S@c&L$h^c&L&z+u{H{T^U^e5Q$JcK&M@V=b*KcLcS@@=@=v#B$$-E@$-|&`#7=7=1&A%a#)%7#]%y-^$,@8@[91.#a+ g@j6Mc)#w=pc5#~&;%#%A-r*[#[#;^]&s*s*!=s*z_s*^&]&t:x_s*s*&2S_c_|_D_|_!=!=<<B7;^!=~=v=%%~&#%@*/&3#$%$%{&+%`&;^]&]&A_{:NcOcc_Q0U3_!&+;#P0a_]&`&]&;^H_;^[#+%t=V7.-z*^=.-Baw*W&0%W&z*x*g_41PcG7z1A29:C4:&b#(&w*_#{&v_{={={=u*u*5#>%@*#%5#;%V&>%@%>%,%0%_&+$._u@",
"{*T$;>Qcv'/~i=t&d%r&G@G@D%5$j%x#p&d%0*K$K$f%y#X#h+I#6%7%8%k%7#)% $ $`#Z#j%g%d%y#y#f%O*3$R@f+g%f%j%5$Z#.$C@Z#w#i+5$E#C@g%R@T%Z%J-T!y'C*O12b7/=>*&i=8*8*D$T%F@T%F@t&v%b%T%g%f+Y%3$F@@=c&I~N$$&z+K&W@W@L@M$M$M$RcH@S@S%!{R@3$Z#T@3$B$`#`#5$.$D#)%J]ScTc>%}&b#y-J+-_56/ & 5@9@M0u*t=#%W&o*/&#%4#5#)=|#]&]&]&z_!=s*s*s*UcVcs*x_^&x_x_t:V_|_V_x_c_t|]&|_;^]&s*u*:#.;5#w*z*z*_#{&t=:#]&;^s*t:V_]:y_|_c_sc,#_!c0WcXcs*2#[#]&2#}#}#;^+%}#:#{&_#{&{&_##%#%#%o*#%)={&_#{&Y&6-t=u*$%#%;%V&$%Y&}#`&~=v=-%:#+%+*5##%;%4##%#%p* -V&@%5#>%8%w#n'",
"5+$[,)T15^z,Z%Y%K$G@G@r&f%[-(2:-b%O*d%K$D%K$Z#E#`_Z#x#7%c#c#n%a%A%7%9%h+j%G@G@]*P#d%F@J#g%E@:-.5K#j%X#v#5$E#v#i+x#Z#5$K$O*F@G@F&l!d3D!d-+7{~#=D$U#Z%C$Y%f+Y%C$f+O*g%R@f+g%Y%Y%K$o&T%L$F&M@z+N$z+N$K&I~M$b*M$U@s-W%r&S%S%j+j+3$j+$-.$.$B$B$F#z%)%o*m%Y-}&}&b#>$(|t_(=. '4Yct]+%v_$%.-5#;%/&;%#%5#w-[#s*s*s*!=s*]&|_F7^&B7S_s*!=c_x_D_!=x_|_x_!=]&]&]&s*s*:#q*~&$%w*5#{=6-Y&:#<#~&t:!=t:t|]:y_'b|_`]'#{ V~a8Y:}#-%1#Z&[#!>h2H7Zc2#v__#_#_#_#$%>%W&;%;%#%5#+%t=%%I_Y&t=v__#/&W&#%u*t=}#}#`&*%t=+%<#$%5##%#%#%;%#%o*;%r=;%@%@%)%b#1&",
"h_{*d)T1c~S=L$Z%f+R@8*R#D%K#Q#W#6&R@g%Z#Z#g%P#P#g+g%d%H*K#1%x#y#w#1&.$5$g+v%T%V#R#F@v%j%g%g%K$C@j+y#g+x#1&E<h+x#5$Z#C@O*T%T%R#G@B>@,) d)(~B>N]E&V#f+N]O*D%O*f+W%g%F@F@t&$-d&K$C@R@t&Y%L$.=H~K&L@L@-&b*J&&&`cM$V=T@S@Y*F@j+X%Z#t&Z#j+5$5$5$`#_&_&!$b#o*(&}&b#b#2&E+d!i@!@]#f_:#v_W&$%w*/&#%#%5#$%%%<#s*s*x_s*s*s*|_!=!=S_S_!=D_V_^:c_c_x_s*S_t:]&s*s*t:[#}#+%$%$%w*w*/&$%%%+%v_2;2#Z&Z&]&c_]&}#t*2#]#_!>+]#}#!>[#v*}#|#+%;^ dF7}#<#_#$%<#_#5#>%o*>%V&@*#%$%5#v_:#t=v*+%{&(#@*#%{&*%-%X1H_-%Y&+%<#_#5#5#5#;%@%>%>%V&;%>%5#@%]=6#W&",
"'$i#:<.d{[g;F@F@4$!{8*L$O*C@v%~;g%D%K$X%g%a&a&V#P#P#R#a&d%G#y#`_h+5$y#C@6&v%F@h%N*P#R#O*D%E#g%E#j%Z#K$E#w#x#`#`_j%j%E#r&R@r&G@G@A+}'B=@;/~B+c&C$L$G@~-K$3$f+H@N*v%T%f+j+.$.$D@g+t&Y%j+f+W%e*x4b*T#K&H~K@b*9*T@M$V=S@(%T%j+j+3$Y%E#3$5$E@F#)$1&_&'$A%!$}&5;}&b#!]z@</d o~K:Y&+%+%5#w*$%5#5#5#$%<#v_+%s*!=x_s*s*s*s*D_y_|_t:s*|_D_c_D_D_!=S_x_!=s*s*]&-%32v*2;v_!%+d$%5#$%$%$%t=<#v*@dv*v_-%-%v*%%_#<&C!=7t]}#}#v*2#v*!><#-%F7|#3#%%5#<#v=X&z*@%@%>%V&w*w*$%$%:#:#I_t=+%u*{=+-w=+%)=H_*%`&}#:#%%+%_#<#)=5#/&>%>%o*>%#%V&n*#%x*8#V&",
"}&o=:<#d6'a>t&d&|-j+L$f+P#O*R@g%C@K$Z#g+G@R#G@w$t&E%Y%Y%G@g%6&d%f%K#j%O*[;g%R#D$Z:h%F@V#V#r&g%O*g%g%D%7%7%5$7%F#p&j%D%g%R@R@V#H@c&Y=e;T16.L$G@c&F@T%f+E#Z#R@C$C$G@G@Y%3$I9U])$9%A$X%t&j+h]F&&&L@M@I~b*e*&&RcU@M$V=S@K$S@K$j+Y%t&Z#E#5$.$)$1&!$^%A%b#`#,%b#b#b#_&2@l Q{f]t]Y&:#%%b2$%z*5#/&5#5#+%v_v*]&!=V_D_x_s*!=D_c_[_t:z_x_c_[_!=t:s*!=|_s*!=]&)=)=v*r]_#_#_#{&{&V7_#{&_#{&<#v*$%_#5#+%I_:#{&{&{&j{e~x-v_-%2#+%)=<#)=}#|#2;u*}#{&)=<#_#V&>%V&6#W&@*#%_#5#t=I_t=-%Y&):t*V:X10_U:<#v*t=:#+%+%<#)=)=~&D-U&m%#%@%>%;%n*~&u*l%a#m%",
",%g#B=u).[A+A$j+f+t&Y%j+c$D%Y%Z#D%v%P#R#G@U=T%4$p&g%C@O*F@P#v%]*d%Q#g%R@6&I&c&){c&F@r&F@R#T%f+K$K$R@Z#i+v#5$v#x#v#C@D%g%K$f+o&0*f+6.z.T16.c&F@F@K$F@f+D%E#G@C$Z%R#T%l,3$.$,$d[X<<$U*s&c$Y%Y!J&e*H~&&$&b*x>Y!s-b*8*H@R@S@I@j+Y%Y%:=Y%B$1$.$|&1&9&_&c#`#9%_& $1&)$$d[*'!4]6-v_+%{&_#z*_#V-#%w*4#)=v_v*1#x_D_[_D_D_D_D_x_D_z_s*!=D_x_]&]&!=!=|_t:!=:#+%v_2#2#+%<#_#6-u*{&$%$%{&t=u=u*q*5#5#_#:#+%_#w*V&k&X.$%:#-%v*~=2#2;$%-%!>)=l%)=5#$%4#$%V&6#8&m%#%$%g_2#)=Y&t=t*`&`&X1|_[<22!=D_[<%d^b&dX1v=+%$%)=$%{=_#5#V&o*h&8&9-$%5#o*7#q=",
"b#Z.n)Q'j.F@4$U*j+}>T.*dd$D%F@K$R@r&T%g%F@O*f+g%E<r&d%g%G@c&v%F@F@P#O*v%Q#o&L$f+Y%e%j+A$c&G@g%j+E#K$5$x#c#v#c#i+7%(*g%D%R@m]S70*f+7.@;T16.D&Y%R@3$3$f+f+g%T%L$c&G@O*D%C@x#9&7#b#1&h>U*U*$-b1Y!.=j=T#M$M@#&A+U@W%s-s-r&S@S%3$Y%Y%Y%t&1$F#F#`#~% $_&0#`#|&|&F#`#A#4+h@c|_$u*$%+%{&%%$%#%3#+*$%{&_#:#-%]&!=}_T_[_S_x_D_x_S_D_!=x_x_x_s*S_|_c_S_!=;^+%v_+%+%2#:#{&{&v_u*{&5#_#:#Y&+%#%$%#%>%$%=dy%n<8#>%@6X.#%#%X1:#<#)=4#~&2;)=n*#%#%w*#%5#o*>%m%A-9<@*5#5#<#{&t=t=&%[<!:R_S_D_D_S_c_[_D_c_V_1_s=):<#q*)=_##%6#8&6#8&8#h&,,#%5#(&W&",
",%P@-d$<K,E>C@.$$-1&D#v#1&%-D@X%D%g%O*O*R#d%O*O*`~.5d%T%T%F@f+f+v%V#O*K$0*]*F@E>F#D@j%C@R#Y%K$3$B$k-i+7%a%w#6%I#x#x#Z#Z#$-m&b=r&f+M=@;o 7.D&F@c&j%g%Y%D%f+F@T%T%K$f+D%k-v#9&(&b#`#7%.,~$.,C#d*w$W%A+s-I~b*M$V=H@H@c&S@S%Y%K$K$Y%j+E@D@7=A#|&1&`#7=F#7=7%1&.$_&A#j'K]Q{4]$%;%_#+%_#{&{&_#{&{&2;<#}#-%]&S_[_]:[_x_S_D_}_p<t:s*!=s*s*!=|_|_V_S_!=|#+%Y&u*+%v_<#{&{&:#u*q*{&{&{&Y&<#V&#%V&/&W&m%7#7#y%6#J)`.8&o*5##%%%%%~&4#q*4#9-m%/&o*m%_#@*W&(&z~;d#%_#Y&v_{&t=~=|_|_t:x_!=D_x_c_D_]:y_C_y_D_x_&%t=_#)=)=V&V&@%8%y%8%y%8&,,D-o*(&",
"a#`.n)e;;;e%F#F#D#`#`#`#v#`#5$D%O*R@K$c$f+t&f+3$K#K#Y%r&T%F@F@R@f+3$$-D%o&v%C@D@v#_&B$.$j+e%D%Z#i+h+v#`# $6%`#7%x#x#i+%-;*`^f%D%C@4'A.c)7.w$g%G@D%K$r&v%D&t&Y%T%Y%K$K$C@Z# $k%9&`#7%v#!$_&_&B#w>S%@=S%M$L&L&M$T@N=c&W%@=Y%I@@=3$Y%E@B$)$_&1&7=F#7=7%.$.$.$B$5$F#4+X/;.4]{&.-o*3#$%%%{&Y&u*{&{&:#~=]&z_|_y_]:y_S_S_t|t:!=!=s*R_|_]&D_}_|_c_s*t:H_Y&v_v_):t=:#v_f_:#I_v_y<+%_#)=~&$%w*,%w*z*I>y%d#c#z$k/#-6#6#m%6#@%8#9-9#9-6#q=a#>%o*>%V&6#m%>%@%#%#%{=u*+%u*~=&%|_s*!=S_z_!=!=x_[_[_>d,d'dc_z_z_t*~={&~&#%m%@%7#7#z%5%l%@%a;6#6#",
"T{f=o)6<#-C@D@)$c#`#k%1&`#`#x#Z#E@C@B$B$X%d$D@g%f%>2G@r&F@F@T%v%d&X%5$X%R@&>g+5$5$i+5$.$5$C@D%g%Z#Z#a%z%k% $z%v#v#5$x#h+J#9%.$Z#E@_-) 4,z,D&f+G@C@O*v%&;O*K$K$f+C@D%j+i+v#7% $k%`#`#B$_&_&_&2$7%t,3=E>W%Y!V=j=)di_W%C$Y%@=j+K$3$3$B$B$`#1&|&7%`#Z#`#.$F#B$z#1$F#4+[*;.`2y*$%.-V7_#_#_#<#$%<#u*-%]&!d!=[_D_]:]:c_x_t:x_c_!=]&|_s*v*}#-%|#t*}#+%`&:#v_%%2;-%d_-%v_:#):v_q*_#%%$%5#5#^=z*x-#%7#1&~%~dr-b)g#a#f1a#0#8#q=]=,%a#,%6#m%m%6#]=@%1{6#,%$%#%#%):t=~=):&%!=x_!=S_c_!=t:t:x_[_}_[_]:]:T_B_D_z_&%t*:#!%>%6#z%8#5%7&8%q=o*m%6#",
",%o=:<6<;;w$3$2$7%`#9&`#k%i+5$E#N*K$g%(*)$.$X%K$r&d%T%F@T%R@F@R@F@j%g%R@~;`^6&B$i+i+i+9%B$f%g%D%j%E#6%c#7#a%6%`#6%v#9%J#x#v#7%.$D@_-N)<^u+f+G@R#d%v%R#T%f+f+C@t&D@K$C@F#7%9&A%_&z%`#7%`#_&!$_&|&7=~%E%E>D&#^D&K$~;S@D$H@S@K$f+j+R@Z#$-B$F#`#F#.$.$7#.$)$.$;-w#)$++V$O1_$t]):#%#%;%$%q*_#q*:#t=d_{d!=S_s*D_y_y_x_S_t:]&t||_C_Z&`&v*t*`&}#`&-%t=v_%%:#<#+%-%]d^d-%t=~=t={&$%{&_#/&#%$%5#!%]=J]b#9%9%c-K)4+U&m%7#a#,%/&{=H<k9g_/&@%8&8&W&6#(&l%m%#%#%{=-%G_^bD1!=!=x_!=S_t:s*S_z_S_}_[_^:]:]:}_}_t|!=E1a_*%5#>%8&7#c#w#n%y%'>5%@%(&",
"v#f#/dw1k;t&Z#v#(*c#,% $ $v#F#C@Z#K$O*E#F#`#g,5$K$g%F@F@F@D%F@F@F@d%D%r&0*Z_f%7%.$v#v#.$5$D#g%3$5$E#7%y%8%w#7%I#c#z%3%I#y% $c#_&z#n-) k/7.w$T%G@v%G@&;j+t&t&3$3$E<j+Z#v#i+a%z%A%)%1&.$7=1&1&)%_&z%z%^%C#4$E@o$o;N=s-C$L$S@R@F@S%f+E@B$.$.$`#F#F#7=y%.$7%.$B$.$E%$,N[:+p+']%%$%/&6#z*_#_#%%+%d_!=c_S_D_^&D_D_t|S_<<!=!=|_t:=%}#}#}#[#-%}#`&-%t=;%5#)=v_<#%%2#x_]&~=^d`&{&{&<#_#;%W&_#z*)%,%#*)%2$i+c-,>r+=]U&'%6#w*g__#)=<#{&u*w*/&@*!%@*W&>%V&5#6;n{0_]&<<t:z_t:S_E1s*!=]&s*t:z_c_D_}_]:]:c_c_[_S_E1;^!>$%@*@%7#>>1%c#w#5%4%>*6#",
"+,U!e;M;l=q-5$v#i+x#Q#x#v#7%i+E#Z#j+X%j%v#5$7%`#u#X%d&3$F@f+F@d%F@D%K$D%X%Z#B$`#b#`#.$7%v#i+A#A#7%i+Z#8%6%6%w#6%7%a%n%6%c#k%7% $1$;;) u-u!g=S@G@G@Y%Y%z#K$Y%D%j+5$X%Z#i+Z#i+H#)%z%`#v#7=1&1&)%z%_&b#)%!$E%.$1$S%|%S%S@S@S@Y%F@S%f+Z#5$2$B$7=.$5$5$c#Z#5$B$5$9%X2H^C.G;u%{0%%#%w*5#_#_#u*:#<#!=s*x_!=x_]&S_D_c_]&;^!=s*|_Z&t=+%2#-%`&t=t=}#-%:#$%$%4#U&<#:#*[d_;^t=:#_#_#:#$%_##%V&a#/&a#c#8%c#9%h+z,f;|*A%$*W&x-<#+%{&v_~=_#<#u*_#(##%@*V&@*5#_#:#s*|#Z&;^s*s*]&<<]&s*|_;^]&ybx_(d_ds*U_]:t|S_t:z_Z&=%2;p^o*U&8&y%I#w#w#5%I#5%8%",
"b&7.q5:d+#O>v#B$B$5$`#5$7%`#B$5$Z#g%E#C@p&v#v#k%v#E%)$3$g%T%v%R@O*C@j%j%5$Z#x#`#w#v#7%7%B$h+i+w#i+!$`#1&j%I#i+i+n%w#w#n%6%n%v#a%1>l.z.e-~~0>R#w$G@G@Y%j+C@K$3$K$E#E#X%Z#X%2$v#x#)%1&1&'$|&1&!$_&_&}&}&~%~%k-$-3$F@Y%I@I@f+H@@=f+S@3$D%5$5$B$Z#C@g%:=$-B$F#.$1$H^{*1)d-E;Q@g&_#u*V7g_{=<d[#=%<<z_z_s*!=;^s*[#t:]&s*|_x_c_]&2#<#<#-%`&}#}#v*2#_#$%#%n*#%q*<#|#|#v*:#:#5#D-u*_#V7@*(&7#,%)%z%I#c#.$F#3,a(9^51Z1W&x-)=%%+%v=:#<#<#<#_##%#%/&o*5#K;{&v=]&!>!>-%H_]&`&;^]&]&]&Z&]&!=a_D_}_[_T_]:D_^:]&0b{1;^2;n*o*p*8#8%I#N#X#4%4%8%8%",
"n-%~M;L'E[,-s&.$7%v#7%7%7%`#1&B$E<C@j%j%h+7%v#6%.$v# $.$E@R@g%R#r&R@C@K$j%E#Z#h+i+v#w#v#B$[=i+v#v#i+v#7%y{y#Z#v#v#7%7%7%7%v#v#F#A,S,o v)i!),N]D$Z%T%O*B$E%E%1$F#B$C@X%B$C@B$v#x#_&_&_&1&1&7%1&z%b#}&A%_&+,g,z#k-E@t&V=f+I@w$E>t&Y%Y%@=j+Z#Z#$-4$z#;-D#B4z%D#P@$[)0t>:<#/v>Q@+-X&v_u*e_[dE1L|s*x_s*!=]&]&!=s*s*s*!=D_S_]&[#v*<#$%x-}#q*~&q*#%5##%;%#%#%~&+%+%}#<#2#+%$%>%V&@*Y_>%m%m%(&,%a%b#j%.,G,J-d)N&}dm7@*/&g1<#2#v*:#+%<#<#$%5#5#5##%o*)=:#]&]&Z&2#1#V:V:]&}#]&s*]&1#s*!=x_c_y_y_T_T_^:;^[#=%@1!<2;9<U&8#>*q=I#I#I#c#w#w#>$",
"E;*(^>+)x!P>K,A#_&`#`#7#`#`#`#.$v#(*C@E#E#_&6%6%c#1&A%w#X%k-f+N*v%R@h%r&O*O*j%Z#K#9%v#i+5$i+(*x#x#x#x#x#i+E<j%P#7&`#a%7%7&N#7%I^m!*(X,|dd^_'O,R#Q*T%D%E#E#5$.$B$v#B$D@E<X%5$7%5$p&R@x#B$_&1&1&_&D#C#w>k+/{c$B@e%d&e%k+B@|-3=8$o$|-b&_;*,3=b$t<d$E%A#D#A#.,l+s>p'S~p)X,+[$[b>n'1dK:R:6-i2u=]&!=!=s=&%&%t*U:+%&%s=U::#:#):%%g_y*(#6-<#n*;%5#>%5#.-w*#%V&5#)=<#t=u*u*{=(#w*g&x*0%5;]=q,}$d#u#+$e+K,l=S~B=S~2d3dF,$*g_g_.%v=:#u*K;u*H<u*x*x*#%o*5#!>H_;^1#7<v*]&]&s*]&;^]&[#[#E1!=|_c_c_[_[_x_E1;^Z&Z&r]r]r]p^o*q=y%y%I#4%,*N#4%+,a,",
"$~`,R>$)J[4do.!'*,.,/&Y-b#1&!$)$L{g,E%c$E@y{F#1&1&_&A%.$d&y$1>4&`.o=o=K=8$q-5dd&c$B$D@B$O*z#)$D@g%B$B$D@D@$-f+D%j%G@7%w#F#_;8'u+9 x!W,*)E^,'&'r>a>4$d&3$j:C@D@z#.$5$F#B$B$Z#7%c#B$5$Z#5$E#j%o$+;7.`)6d!,x,s{6'l.k.8.6'8.s+6'M=7.*/u+7.h~8=#-g#u,K=&*P1F5.+[6e~N^m=X/~ h[x!B*'{l#W.x|S:7d%{R}%{<_D2W|;|%{B{;|Q.+bB{%[&*8d&*m+.+f#1;G,!]0%;%}>o=m+X.;%5#*:Z-y-g5l+i&h_E5f#-[-[f#Z.f#f#`.#-n-6.X!K}p>9dv570i!X!8=i#q+l+&*%[P.Q}&*G,G,G,-[K=K=Q@n7s,1d<&6-r*!>Z&Z&]&[#V:v=6-t]6-d_X1U:a_}_a_=<`&[#v*-%<#2;%%$%W&,%b#z%d#d#+,A#_;Z>k.",
"-/0df^n A[-5i!(~/=r+P@f,G,w>Z.Z.|*|*|*.8t+$(8'|*5-5-+;A,6.*'_'@!@!adad@:Y),-@/.'t+6'M=!'z,d;8'4'A,t+,5B>j!Y/l>#'$(#~@(@(j.%'==,'l2R']{T1p)^{S<G<i.8,8,O>6]l>K,c~d;8'b,9$.$Z#N,9#5-4.4'4'4'T;k^b5i):5k)i)]) )![g)3/4/3/4/bd![1/4/g[h[4/p p &cG)&cO^@4#$o%|6_=P2>3k$E7d!x)y=u-T-z:z:M(E|z:cdF}////r'3-U-4=o)4=o)4=C=v)C=v)f;K'u)&)],x[X,5)@6k&k&k&>3,3b ~*})n)X,K'N;2)2)L'K'L'^>+)2)L'w,^>w,e)=)e)w,M;:<:(l5^>h)l5K'h)3)n=47f/u'i[2/h[i[h['})[g[s.s'c/^{45v~2&c9f(-:'{{*167~F(2&7ddd{#*2edS:E2h_Q}g5i&fdi&gdhdI^D^Y[j!a,a,A,;;('Z[",
"90idd-:^,)I)`=`=h[m=jd`[4dg/N;K'N;w/M' )Q>$)R>z.2)w/u)+)')#)x/v[t5J5y/y/_)x/#)#)*)*)*)*)*)g)*)t)*)t)F/L5])R>#)x/$)#)R>R>Q>R>+)I)z.  >.kd;.>;.}o W,*)Q>Q>Y^ )n5N'M'K>+)D'o X-N8+6>3D]n/y=~*4;F;_+D!S+N)' j*1 W)+ ( @ W/( ldmd$9:3W/,!( ^(:.53^(^(^(#a!+_!)+ndT T m0~(~(od....J pdM V8R/4333qdv323V8rd#.#.L @}/.|.7(>(7(A sd<.a'| d!C*, 0 %~,-i.6./=K[r!q6u Y0<. 9<.<.<.Z/ 9Z/!+k$C!C!Z/4(5((3{ (3. W[*ctdQ2U~+ U8@ ,!J J W/J W/,!( :3ud@ W/W/( ,!-!]!S z!w|7)j{k$)&%670H2g)Q'n);=.3=*=*)!;=n)C=N;n=n=4-vdQ'g)g)^)U5^)nbR>U5Q>+)u)",
"[!`5> 4!; -6>.W)+ :.K ^(|.:.S K ;!{(a'] + W[j$# {(W/+3]!_ D.x)-.})z.e;a)L((+r {_f '+)+'+*+'+0!g k ,+b!F:b!f z!E7_}{_9!y!]69!f | E7l8$$Z(F|G^E[@4Hbf :!7!0!wd'+9!0!'+,+a}.a9.3'k;4.U!:8~[!'h5k.34A)m -.xdZ{,&f3P}}+6~)~d~yd8dzd2,,^e~({H+a@}@{71+AdW.P.Bd_$o9CdDdEd_9Fd_9GdHdn~)4B|.@'@&}ycId]@^@9@/@N./@/@)@!~|+|@s!F+F+84i~r#Jda}}!F|7.1-A+j=L$x$T@D&w$I^++'{l&o#o#o#F+~4C<^/8~)~)~d~#/w'i*}*M!_{}~Y$F0M!#4O+z=#/$[[6o#,^3,16d~8~Y(n$n${*v&3,E;{7D+49}%5-$[p'p%b4(-[*)&j$6(A 'cD3KdLd23.c@}sd-!8cMdNdmd{+0']6d!| H%(3U)Od(3{ U)",
"Pd39<+@cQdW q6V!5|w'16=$^/=${'17e~_~$[w'5^J}(~D<1617p'_~}*l;,&J{O1O)' O1J{'72>!1E;V*V*I5$,h~U[=>g~8=h~l.{~F>}'v! '@!_'R^,-l=$]=>a]7.i.w+ ,:>c1w{K{z>8.k;/=&:h~g~h~4'6.O,x$g%5$j+E@E@X%F#Y%8*Rd'~X5(3%3C)r6f3e~3.&~1>t&K$r&Sd0*S@D&8$8$o$d&$-cbI#.$D#!$'$!$>$u#e#P1J9_$*]W.*,#*)%d#>$M^:&$*$*7->$>$u#D#L{u#x$w$d&/{d&e%8$&~r+7~8~J%h@6/b,X=A+s-D&W%I@8$w$8$w$L$w$w$g=L$8$k+r-r-M,A+A+D^g;X*0>N~r>$;O,a,8,=&T=O;0>#=S=w$w$B+L$x$|>:;D;X=A+.=.=.=U=c&d&E@t&1$|-n+e|K%x)(3|}Q!}~Tdd@B(>4/@839+-#B|UdVdWdXd=$s#5|G}9 G}j^!1i*}*Y6YdZd",
"s{j8/~T;g~6.@(3:A>k=k=g;A+@~1-g;g; ,k=k=Q;M:Q~*=f-%>#=8>@(D<W+J%6 d >:,&O&}*3,8,X=L$N]e*D$T#f-F&@&`d`dh-F&L&h-Q~2: e.e5>a|Z@{;@&F&g=U=h=T#$&)-P-f-1-$=$=C$U#H=$=H=J@Z%F@D%K$B$E@5$B$.$D#1$T@b,8~O}</:|J%c3#/A+S@w$w$I@{%Y*O-0*c&x$/{4$e%1$1$$-7=E%C#.$B$d#)$)$U*F#)$D#D#U*1$E@B$m%W&}$}$0%]=|$]%+,)$)$A#Z#3$@=E>d&4$4$Y%f+D&Z%5'q!M);'g=L$A+c*H@t&t&@=w$x$N#w$t&x$w$D;8$4$o$I@8$L$1>L$X=D;e*0>A+X=c*N,A+c*-&L&A+S=X=8$w$@=L$w$B+/{I@X=C$.=L&+=L&.=c&d&/{B$;-h,o_M!U)+c,+Pd+e8+L+F,8$8$X=b1d,B+@eC+X*-&O!z+A>s;b<*=~89>k=S$9>9,K,",
"%>s;y> ,k=k=O;k= ,y;K&f-T@L%L&h=L&L%f-k=A>9>a<y;f-k=h=g;#=h=<,w'_=d!W[W+l@R8F&Z%D&G@T%C$c&$=$=&&&&E$&&!-D$8*&&)2w{;&%>w;M&y;P-&=H=8*Z%E$A;V@&&*~$&U#.=D$~-8*F&@&U#8*C$F@f+D%Z#5$5$5$.$)$b$E>U=$,7/(!Q{*$z=A+J#w$x$x$Y%(%K$,;v%W%w$/{4$e%z#.$9-=-E@$-$-1$]%A#D#F#U*D#A#+,A#E%1$1$7#2*'$'$0&|$}$)$A#)$)$.$$-4$t&@=j+r&c&x$w$D&.=T#&'J)''S%D&B+W%x$Y%D&w$w$w$w$x$E>8$8$x$t&/{4$w$x$8$w$w$X=g=4&-&L&S=&&L&i=|%D;A+.=A+c*D&f+8$L$w$w$S%t&i=A+h=.=U=g;A+L$L$e%2$v%Y%93z6(=3^a.r#}%X=L$L$A{L$L$Y!s-b1s-Y!L&L&L&I~S$s;*=x+R$z+*&R$k=z+S$",
"%>A>s;O; , ,@~ , , ,y;&&%>L%h=e*h=f-y;M&Q;9>x+Q;M&%>h=O!*&f-y;*=2-a^x)J- ,j]8*J@G@S@T%){T%8*&&H=#=$&'-)-H=!-'-P~c<{;5>#eK{&=Z@(;&&T#@&(;1:J$%= ,H=F&$=8*U=H=:>D$F&Z%G@f+E@j+Z#5$5$5$C@i+E#E@x$e,e~x.>:T$;;r&r&D&L$t&4$I=X=S%w$E>e*!{c$E%E%z#.$d&3$d&$-.$E%1&A#D#D#!$A#!$)$F#1$1$7%)$!$)%g&}$}$}$!$)$'$D#$-t&I@8$@=S@S%@=D&+=#=A+R^.}~~+=f+D&w$I@w$w$w$w$8$w$w$E>t&w$E>I@/{D&w$x$x$w$D&g=X=c*C+S=A+a>c*D;c*D;c*D;c*w$D;D&L$I@w$L$Y%d&i=X=A+A+1-g;.=D&D&C@3$@=W%x${*</D.r#$,c*L$L$X=L$Y!A+C$s-F&H~X{*&H~%&%&S$@'S$9>%&%&@~%&R$R$R$",
"S$A>y;M&h=+~ , , , ,O;%&L%h-O;O;L%k=%>M&y+k=y;P~%>%> ,:>h=%>%>*~M&@!4=r2U#$=+=8*H=c&G@G@C$L&f-@&f-)-$eM&}2%ex;&=M:];&e*e=e-eb|h-P-H=%>x;V@&=k=^;h-E&C$Z%E&g;.={-g=G@L$D%K$E@D%E#g%C@j+5$:=$-|>E>{*x.~!y2W>c*X=c*X=D&w$F@X=X=w$w$S%Y%I@.$1$$-1$$-4$E@E@z#z#F#d#>$!$d#!$F#F#E%f+1$B$F#`#!$]=b#}$`-'$!$+,)$D@E>4$D&t&E>I@E>w$w$.=g;''O)==S={-@=@=f+L$D&D&w$Y%x$E>/{E>I@I@t&w$w$D&D&8$x$w$c*D&g=L&S={-4&w$|%w$B+D;c*x$8$x$w$D&D&i=c&w$t&D&i=X=i=A+j=L&w$Y%Y%E>3$S%C$w'] a}}%T=c*X=c*B+A+A+L&F&L&*&N$M@0|H~T^@'@'S$~8x+*&@~-&*&S$z+k=",
"@>Q$A>*=z+Q$k==&;e%> ,O;g;k=h=%&k=k=%>N~s;M&*=P~y;y;%>y;%>y;y;M&w{@!,>l<F&&&h-H=G@V#T%G@L$8*L%:>)-X@:>M&y;k=O~)2+~@(.'&'*e>eZ@%;%;X@x;(;y+P;&&D$e*U#C$N]C$+=U#E&.=C$R#g%f+g%K$K$K$3$D%j%|&5$E@+$j,C)2 g~y;S@D&L$c&L$w$c&X=D&D&w$D&Y%w$.$t&1$1$$-$-E@$-z#.$B$+,D#_&D#D#F#k-E%1$E@$-$-.$B$c#'$]%0&|$^%d#w#E%/{8$x$k+E>t&d&8$w$S=1-Y=O)r!X=w$w$D&D&D&C$Y%t&8$D&D&t&Y%Y%D&w$w$w$D;c*D&w$w$D;w$c*g;c*c*x$|%x$w$B+w$w$8$w$I@r-!{D&u<R%S%T%D&D&L$D&w$@~X=x$8$x$t&t&w$Y%L*D.h4T=#=c*.=A+X=.=O!-&%&*&*&%&K&^]K&H{@'S$ ,A>z+R$%&H~*&z+%&z+",
"%>s;A>y+@'A>L%%&@~k=k=L%#=h= ,h=h=N$y;Q;Q;s;Q;N~s;y;s;%>k=y;y;%>s;28F'_'!-e*h-D$D$G@8*V#8*$=h-)-{;P-)-y+Z@Z@+>w{%>h=c-0,,e.<&=y;M&'e{;%>y;h=g;e*F&Z%G@c&C$Z%U#e*8*Z%G@T%Y%K$R@F@R@j+E#y#~%F#B$$-j'[*j~=>x$S@i=c&D;L&D&c*D;x$D&@=c*D&8$E%1$E%E%d&D@3$$-.$F#.$.$|&F#.$B$.$1$U*E%e%4$Z#B$5$Z#'$]%|$g&}$d#`#.$$-t&s&c$_;I@Y%w$c&X=C+U[k&D;c*c*x$8$w$w$w$x$w$L$w$w$x$I@x$Y%x$x$w$g=D&{-w$x$w${-c*S=A+D&E>8$e%8$x$w$x$x$w$x$Y%D&w$--)eD&D&E&A+{-D&w${-D;4$x$8$E>4$x$w$}%b]U[A+%&.=g;1-O!L&.=X*%&N$%&%&*&K&K&T^H{@'=,R$={=,O!*&M@*&R$P$",
"T^%>y;M& ,k=*& ,#=k=h= ,%&*& ,L% ,f-8>x+*=s;N~P~*=A>Z@e*%>y;=~=~Q~:'D'%'T#T#L%U#8*G@Z%C$+='-P-%;Z@P-Z@c1k_k=w{a|:>h-)-L%M:w+{;Z@s;];Z@x;#=g;U#Z%C$C$G@c&L$c&U#8*D$D$c&G@H@6&K$O*F@j+i%i+)%`#v#E%4+$$&{h~8$i-D;D&L$B+x$x$x$8$r-x$x$x$c&$-1$U*;-b$e%A$4$3$U*U*)$F#)$C#E%E%E%F#1$1$E@E@$-E@f%_&d#E~0&$*8#_&)$;-s&k-u#e%k+C$c&c*A+:;U[b/r!D;w$c$d&w$x$w$x$x$x$w$w$Y%f+E>r-8$x$8$c*Y%w$w$x$x$c*X=g=q-x$x$!{/{8$w$w$t&x$w$I@w$Y%d&x${%x$w$D&D&D&A+L$c*L$Y%w$8$|-d&B@h,h~z)U[-&#=#=g;-&#=-&-&L&%&M&@'%&z+S$T^H{T^@'R$={z+M@%&`!*&%&S$K&",
"%&k=*=y;*&O;h= ,@~O;=&h=-&g;#=z+y;%>*~ ,x+A>P~x{w{N~y>N~P~M&w{N~2:8aJ'}'1-U#f-f-8*C$Z%8*E&&&Z@-eM_3<{;M&P-k=y;e{`>:>k=h-*~x+K{{;Z@y>!e)-h-.=L&c&C$w$c&L$c&C$#=U=U=$=Z%G@C$T%S@I=F@H@m&7=_&|&7=z#n6[]~!6,!{4$_;|%B+r-E>8$E>w$x$8$8$8$8$@=$-E%)$E%1$1$$-d&e&F#D#>$C#A#;-E%.$E%E%1$E%d&D@E@E#5$D#}$0&0&|&.,)$.$$-1$d&E@@=S@L&A+.=L$ /~*};B+_%1$+$k+w$t&8$4$x$w$x$8$!{d&d&r-4$t&D&r-w$w$r-D&w$c*B+B+E>x$e%/{x$w$x$8$r-x$w$D&w$4$b&x$8$w$B+8$w$D&c*8$x$I@x$4$/{3=U*1$<8b]''O!O!O;1-#=-&-&-&F&R$s;T^H{g*/^Q$^8~eQ$P$%&z+M@I~M@*&R$%&z+",
"k=k=*=%>O;O;#=#=%&#=O!O;=&A+g;=&%&k=M&y+M&M&P~P~*=M:s;A>Q~y+K{w{+>*=k/28E$T#K&P-!-8*Z%8*8*@~Z@Q;N~c1f-y+;e:>1-3:#eM&P-h-Z@=~y+M&M&<aa|h-f-U#U=c&D&T%C$G@G@G=U=U=i=+=U=D&S@F@F@f+f+K$:=`#9& $.$F#l#D*j~=>4$e%A$d$B@o$c$!{/{/{8$r-r-r-4$E@e%d&$-1$E%g,c$k-)$F#)$A#D#A#D#g,F#z#;-z#q=F#1$j+j%j+b#}&}$b#)$F#F#1$d&1$E@E@@=c&A+c*i=c*U[>3U[L$f+$-d&c$L$E>d&8$w$x$8$r-'5z%E%s&/{8$w$w$D;D;x$r-x$w$x$x$E>/{$-d&!{w$D&D&D&w$L$C$C$D&C$w$C$Y%D&L$x$|%L$w$8$t&x$c$$-9%U*1$$,n/l=O;h=#=L&=&#=@~*&*&@'A>0,T^u{Q$@'T^~eu{Q$K&^]z+%&M@@~*&L&/^",
"z+k=A>%> ,O,O;#=-&O,#=S=g;L&L%O;h=k=P~Q;=~Q;*=P~P~Q;A>=~%>y;A>s;s;,<})@/T#&&L%h=E&D$E$8*H=T#M&Q~Z@{eP-:>L%%&H-h=P~-eh-)-{e{;N~{;A>K{z7f-1-D$c&F@w$C$N]8*Z%V#E&8*~-Z%C$L$c&f+3$T%f+,;7%7%1&!$1&1$++G>'!&]8$E@$-z#F#N>3=c$o$c$v$-->>A$%,2$o$!{D@1$$-.$|&|&)$)$D#A#_&A#u#u#;-I@)$E%F# $7=f+K$3$7=_&7%!$D#)$.$1$k-$-$-j+f+c*.=D&A+D;J-@6h~4$t&3$$-$-r-e%1$k+x$8$d&C#U*C#c$r-4$8$w$w$L$c*L$w$b1L$D;w$I@1$d&$-Y%I@w$D&L$c&c*c&A+L$@=L$1>c*A+L$L$X=L$L$@=r-c$s&E@E@$-$-<84;m!M& ,K&#=g; ,k=k=%>%>S$y>/^Za]eN$ZaH{H{9{I~^]I~z+*&@~@~F&K&",
"k=k=y;%>f-g;-&S=g;U=+=#=L%%>h=h=L%M&^eQ~Q;*~N~N~+>Q;*=K&*~E$A>=~a<`<! l<1-L&L&4&+=c,+=e*$=f-%>Z@b|{;y+X@h-L%e*E&;ek=Q;:>&=w{)-b|M&y+)-E&F&C$L$w$K$r&C$E&Z%Q*Z%Z%8*U=c&F@D$S@F@j+X%f%7%7%7% $v#1$++D*6||*j-Z#$-z#F#D#+*:1u#d$|&S*>>I#/es&e%!{1$1$$-k-7=^-9-)$D#d#!$]%]%A#=]U*F#F#.;~%1$3$3$j+E@.$.$~%~%F#F#1$3$4$E@@=w$X=A+i=A+D&u+4;J-r-_;$-d&$-d&d&e%!{8$8$4$u#C#U*E%e%!{r-w$w$D&X=H#k,X=c&c&w$8$1$E%S@/{x$L$c&+=+=L&1-F&e*.=.=C$c&A+.=L$A+E&i=D&L$B$$-/{E>S%j+h~X-''=&C+-&.= ,%&S$*&z+@'@'Q$S$R$@'T^e5@'@'={z+@'M@z+%&@~z+%&z+",
" ,k=%>k= ,L%1-#=h=A+L%f-y;y;h=%>y+Q~w{K{*=%>y;*=*=*=*=%>s;K&*~h{@(a<4=l<F&L%H=E$F@F@]-.=#=e*:>y;y>M&Z@h-&&:>e*E&L&1-&=&=P-M&M&K{P-Z@x;L%T#G=T%T%G@T%Z%8*G=Z%G=Z%C$L$f+f+f+F@Y%K$f%v#`#`#v#`#7=k-}%/!C]n-8$:=,*3$`#)$D#>$F#F#z#U*U*/e2$u#e%o$1$z#1$1$2$|&[-g+F#D#>$,$:1>$o*A#D#D#A#M^F#E%/{f+Y%X%g,`#F#.$F#.$3$4$Y%@=X=X=+=X=A+L$u+>3J-!{e%e%$-$-d&$-e%$-e%o$e%F#E%E%U*U*d&4$D&D;X=X=w$~%:;c*.=A+f+E%E%4$x$Y%#^.=g;@~L&%&h==&N$h=Z%.=.=A+L&S=.=A+c*c&d&/{I@/{F@S@@,b ==O;h=0>@~%>z+*&.~R$H{s;Q$N$H{@'@'Q$S$@'K&={={M@%&%&-&%&*&*&",
"*&=&A>y;%>L%k=L%k=&&%>y+O~O~&=y+s;.<Q~-e&=K{M_M&*=Q;+> ,k= ,#=h=k=+'a/*'.=E&&&J@C$G@Y%f++=U=f-*=a<y+y;h-g;L%E$U#$=E$f-Z@Z@M&%ex+f-M&:>L%L%Z%T%G@V#G@Z%8*G=8*G=U=N]F@F@L$f+F@R@K$6&o&5$.$5$E#7%_;d+(e!!^~N,$-e%d&$-)$+,+,C#)$F#F#z#I#e%z#d&/{z#1$e%U*z#.$F#)$E%D#A#0&}$M1U<L^>|*dy-}$A#)$c$4$t&t&k-.$F#.$k-$-d&3$H@L$C$X=g=c*D&w$r!b]/]!{c$k-3$3$d&$-1$$-e%1$k-F#D#g,.$;-A$4$w${-x$x$k+4$8$a>c*8$8$E@j+t&@=w${-c*},#=L%O!(^#=0>#=#=L&L%e*A+|%f#r-D&C$Y%f+t&I@F&L&_e)&D<r>@~-&S=O;9>z+@~R$*=N~T^u{Q$S$N$Q$K&@'@'z+K&I~%&%&*&z+%&O;",
"L%%&y;A>*~%>k=h=h=g;*=Q~.<w;O~-eb|2:w;y>O~O~y+*=*=k=*~8> ,O;T@4&L%_'9/@/H=P-:>Z%F@F@t&D&D&{-D;W>s;M&L%h-Z:T#e*U#$=$=h-M&y+{;O~%e%>c1)-&&T#&&F@c&R#Z%Z%G=G=U=c&c&w$D&F@F@t&S%F@r&E#Z#5$X%5$`#.$M,=>N[D!$~D^s&$-d&e%F#D#A#E%E@I@j+E@S%I@f+d&E@d&e%1$$-d&1$)$e&U*A#_&,$'$e>}$0&]%!$'$'$.,U*e%d&t&j+t&$-.$E%1$1$4$@=x$1>B+D;c*c*w$b1{~X-g#c$e%e%D@$-$-E@1$k-1$U*k-c&)$U*.$1$1$_;B+D&x$8$!{/{h]w$c*D&4$4$4$8$w$x$|%1>c*{-&~.=#=%>%>L%h-h-*&H@L&x$L$8$k+L$w$w$t&j+D&~',&)&a[4&S=g;g;k=/^/^ ,%&A>@'s;Q~@>t{@'S$%&={Q$z+%&M$%&%&M@k=%&f-",
" ,%&A>*~y;y+@>g;O;*&A>+>*=x{s;w;2:.<M:M:`:Q~Q;P~y;%>M&%>y;L%o&J@y;q>9/-'h-k=h=T%F@F@L$T%D&f+S@B+0>g;f-g;8*e*e*D$$=$=h-{e=&y+$>:e-e&=)-&&U#!-G@T%F@c&c&L$c&C$0<f+F@T%L$T%4$w$Y%r&F#.$D#5$9%.$U*_-D<y=#2^{};z$$-1$.$.$B$5$E@t&E>E@4$Y%I@w$t&E@d&E@D@U*1$E%F#F#F#+,'$,$,$}&}&!$,%<e'$}&'$A#z#4$4$4$d&e%.$.$e%g,E@_;r-r-x$x$|%X=9$_-K[5)$]W-|-c$E@E@d&E@1$1$U*.$$-;-F#U*k-.$$-E@k+-[w>k+e%d&x$w$[eL$D&L$L$w$D&w$L$w$c&c&c&g;k=y;N~k=L%#=@~#=.=f+8$D&D&8$8$x$x$8$a,~~&(L(b~8.S=g;g;g;=&@~ ,y;@'s;s;*=N~Q$@'K&M@={Q$M@%&L&@~*&z+/^ ,K&",
"h=O;@~ ,k=x+#=1-@~h=%>A>s;Q;P~N~N:4>2:.<c<v1y;P~*~k=M&%>k=M&%=M&K{@!H)_'e*T#h-H=T%T%C$R#G@F@f+r&D&D;H-8*8*e*D$e*T#f-&&&=y+y+5>.<];w+b|h-L&H=N*T%F@L$Z%U#Y%f+Y%F@f+D&F@D&C@j+D@Z#B$B$E#C@E@.$e%k;T!]{:(+[$~4'_;z#z#1$F#k-E@d&|-$-4$4$8$t&/{4$4$$-K$j+Y%C#*,}ez$A$>$}$]%'$!$)$!$n*d#,$d#!$C#e%w>c$=[U*C#E%c$U*k+|-k+|-1>Q@+;*/l.c{//>;9 /'7.A,|%8$/{!{o$B@z#1$s&_;g,s&e%E%!{4$I@x$k+1>a>b,&~$;E>k+8$E>D&x$D&D&L$L$c*D&D&1-z+ ,;&k=k=k=g;=&g;w$t&c&w$D&4$c&8$a,X!B^|;) b),'j.a,1-@~W> , ,y;Q~Q~T^s;u{T^K&X@*&I~z+H~H~X{j=z+N$%&R$ ,",
"C+T=O!O;;&k=@~.=#=h=%>%>A>+>4>M:2:`:`:>e|e_<&=M&Q;Z@&=y+M_8,0>M&w{M7c)_'O,=&h=8*G@L$q-D;i-1et&x${-D;L$D;H-T=#=S=0>P,k_]<j.r!Q^m!:,w+k_h{h=$;|%Y%f+f+g+R@Y%g%O*c&f+L$@=t&3$t&D%F#B$z#X%j+E@7%|-$,V!y=]{$/8|W*|*Q@b&+$Q@H,W;5-9$b&r-E>d&/{d&t&d&E@K$!{a,;;X!q.%~/'s+K=e#d#+,)$~%d#]%,$d#!$/|z;n'h#r+++g#U!J-n-k;u+u+k;u+T;};c{B^4d.)R>U,+[a[^~/~l=K,7.;;4.;;*/;;U!v>n-;;n-4.u+8.$]};m!c{2e3e(5!,l=X2|-c&x$L$X=g=L$A+.=h=g; ,0,A,8'_-_-O>d;V>k+D;4&D;9$|-Z.4./~!/d/Y^U5[/&(G<R^6.z,0>j!y;A><,A:F<N~h*N~Q$@'z+*&/^*&-&C+X*P$5'k=0>},",
"{>N,$;W>O;O;#=1-g;@~k=%>=~+>4>y>+>+>c<>e_<.<e{@>2:@>b|Q~{e#=M&P~P~Z)K){5(>(>(>9,@(Q,l>.'.'j.B>Q,),),.'<'*'%'w!_'q>q>/0>/4e7[5e6e>/G5/5 !w!@8(>8,O,:;F@O*O*F@r&f+7e!'8,u+3'T[3.g'4'3.J-u+U!i#f~k@,~q%</O1~*V[}*p'>7@4s'u'}/M(q!y'O2O8J-J-$,>_h~$,>_W(b~L5Q5F/Y'S'G)k<@4t!6+u%4+S[-*p+l#6+8eX69e3-[/3-3-[/}/}/v-v-h[&c`=g/`=`=p)4=]{q >;]{o v)2)2)q)1/C=F'n=n=n)C=#;n)C=n)C/g/g/2)N;u)Y^U'U'Y'i) )B'T;8.u+I{I{L*''l=h=F&8,R,Q^,-,-!,!,U>o.l.7.l.Q^Y=l=X!%~D<g^G2L5h!)!D/)8r'!/0e!,U>@!p.(5(5q.6895t'ad68aeebJ,I,be['Q^Q^050505*'j.",
"ce=>I5u!~~''l=Y=L&g;k=k=%>s;w{w;de2: >ee:'Z2fedeR<w;s;@>w{M&.!38 !ge,>ge+[v'jdg[`'Y^L[L[S'3/3/L[10v/1010B[hef)#)s5:)~3{3iejekeleme50r[],x/K5R>*)o5#;k&L)o8n/L)L)L)a~>3D]J{z)J{b]X-B)b]>3b >~6)D.,{d}..neH _!6!R)9!#9#9:.W/,{C!5(_}b X-J{z)A8A)J{o]h@oeS+U{-.[*W)D ^(:.|}L~pew|3}9}#cL~L~9!-!R/qeqe.c$.43#.Q @.T ^(T J ^(Z0J %9O/~(~(d}W/:.^(J J $9re#9L S R L .c96se^.^.Q Q P L R $9| 7)7)U{!*Z5d %$~*4;k&>3,>K)K)5)R+>;l5^>))))*)))*)z^:(K'6:h)L'K'90X,U-C8A.U{j~)&j~<(K'X,Q'w,z^*)z^=)-)^)-)s5w8$6])]){)F8F/0dte4/teF8:5E8Y,ue",
":}C)Z{4;6)y=4;n]ven],>J)k/K)n8G'weF'z./)r5^,/3$)R>A.f;F'I'c),>f!#;o/4=4=4=a)N). H%^ [ ] $ w)# + ] < $ ^ & H%} & }   C*D!^>I)K5/3:dg:k4h@b(</d!{_L~6 G^X)''}'}'m!}'k!l!4'X*O!h=Q,l!==m!====T;]~T;p'36xe56i~V*p'B*@,8,6'$]u+u+};==m!S,%~l!a]f~F>T;W*O[yej{h@B6g `8-_$_ze2+V.p+R]v<f(Q.f(]$W.2+)@,4Ae1aWcBeq}Ce`+!@!@#_J+Y+G(c@0@@@@@@@)9CcDe$_!@^@V3:@K+y|;##_M3Ee)#Feq}M3~@~@_a;@d@j6Gee.z!d U~#+<@Q}i#r+U!g#6+4+g'W-^039Q!%+0!%+!+j )+V ]+>(HeIek}Y0>(7(>(#aC!{(_ W)@ [ &9@ $ ^ Od` >6!6^}1 ~6~6{}W8. [!{6< Od: h}# ] )7&6;c2 i@",
"V}`-D-a%i+i+x=!|Z.|*4.~[B>B>i.v+-'-'Je->y!3 C)d|b4E[#~(>#~B>t+1818.'Q,.'Kex+&&g;j!%(3'H^d+~/u%n+!'M=8=s+k;8.b>('@,V!F|m/@;:(LeMe!2p)(/O_7/0~S,O{.'0,h=0>0>W>W>5-W>g;T=r>S=S=*&g;g;O!O,T=X*c*c*H-H-D;g=q-B+|%1>|%X*0>r>r>r>4&T=~'T=r>O,&~D^[,9$a>$;E;k@ye4($ c0{9_a-}x*<#6;^=g&]=^=^=_#K;!%@*<#g&g&x*x*]=*:*:*:K<#0L^|$,$>$D#>$~$y-N>y-z-~$>$d#D#1&)%z%(&}$}$x**:(#^=0%*:x*E-t,O0Ne)9OeQ(;!C |9g9+_'$A%)%v#`#!$1&2$.$i+.$[,K=j'-:9a,[:% _(@ _ _Adp:I+#_$_e9Pew}QeI3L.Re{au@e|l&7~j'D+|@h~v>;;};h5SeTel^h5n-i#I+.@[@Uei9<%g $ l~ 4",
".,l%@%a%9%i+w#i+I#i+i+x#R@d%R#F=V#E$'-:>*=z>k_L&8*F@a&h;a&P#0*0*T%P#N*V#N*V#V#R#0*N*~;H*h%h%h;/2W=%=j]j]6=Z%j]#=A,$[V!9e})g4Ic!2z{m=@#,-9,+>*=<,(^O,g;S=O,B+c*c*D;4&D;4&L$A{j=%&=&0>@~4&X*4&c*D;4&c*D;B+c*:;D;H-|,},W>T=C+O,D^Z.e+e+V>8$|%o$M,X=4&8'O+_='+$ 299+,| -z*_#2#$%.-{&_#V&(&,%)%7#@%,%>%(#y*@*$%+d$%!%$%x*@*}$}&}$b#b#,%(&,%9&(&(&1&k%'$8%9#,%A%w*@*(#(#!%!%!%w*!%0%$%/#FeVeOe0('(5@H+x|(&7# $v#7%1& $7%B$9%7%5$i+O*5$.$i+1&x%1&`#7%.$)%!$0&|$0&Z-:2E2B{Q./%d#w>/{3$Y%3$$-K$L$;*(%|>H@T#D$9*R-W=]*c#]%S1:*o_c+3&We_{(@",
"8%w#4%h+:=i+7%7&w#k,`#h+O*a&R#8*~-H=$&H=~-D$F=V#v%d%G@h;G@g%0*R#P#G@N*V#N*V#V#R#N*N*R#v%V#G@E=~;/*XeD$R#G@k+){j+0*$=J-d3K-L4G;t>K-J}]<3:8>%>;&9>f-#=r>g;$;c*A+i=g=c*H-L$c*4&4&#=0>1-=&1-S=c*H-1-c*$;B+B+C+|,Q@.+L,P@+;~'9$I^_]a>|,D;B+D,D;|-k+z$$;},b>#$g $ :/+_Y-@*$%=%7<!%{&_#V&(&V&b#,%(&a#)%7#a#!%z*!%(#(#!%!%(#*:]=0&Y-A%}&0%0%5;,%}&b#]%z%a%z%7#a#0% -.-_#(#!%5#!%!%g&V&_#{=k9M3H3a'} >@':]=0% $7%2$9%1&`#B$v#v#v#B$B$g+j%E#E#Z#C-6^z%1&1&z%a#)%(&/&]=0% $(&z% $;,F#N#I#E#E#H#.$4$(%q=3$r&T@H@W%W%T@0*M#a#(&b#U*A@#4D.}+<$",
"7#i+I#h+E#i+c#v#w#d<4%'=r&R#R#8*c&E&&&'-J@F=6=F=C&f%G@~-V#R#0*V#H*T%V#h%N*~;~-V#N*R#R#a&P#V#9*J@(;%;V#R#F@K$4$&>b%g%E&17q!g:g:G~S~,<a<;&k=k==~M_=& ,=&A+H-A+1-4&c*c*c*4&4&4&C+*&0>1-=&h=@~1-4&S=H-|%B+i-9$M,k+8$q-D;D;$;B+:;i-B+B+C+B+|%|%1>r-|-9$|,8'i*n!^ YeS1(&W&$%C7v*(#_#a#V&(&(&A%z%,%U&)%,%,%8%$%_#(#_#!%!%$%(#g&g&g&]=*1g&g&0%w*@*]=(&}$}&,%/&$%V&{&(#{&_#_#_#_#_#@*K;^=.%u*Ze`e_!} '@A2>%(&c#v#.$Z#1&v#7%.$)$v#Z#f%g%R@v%E#5$l%/&k% $z%)%c#7#(&w*C&,%a#}$i+H#7%Z#%,fac#X#.$B$.$E@Q=C@j+S@U@W%H@Z%v%K#3%6#(&z%a%3'>3#- $",
"a%h+y#y#h+x#w#I#v#5%w#Z#O*r&Y%R#R#Z%e*!-E$g-D$V#R#O*D$D$F=E$N*R#V#a&]*R#6=h%8*Z%h%N*T%N*V#h%R*E$!-&=G@f+D%Y%f%j%[;g%g%d; f:<6<k^ !N_y;A> , ,;& ,O;74g;S=g=1-1-X=D;{-4&D;H-$;S=X*b,S=0>=&=&1-X*},D;B+1>M,|%8$k+|%$;D;D;:;B+|%|%B+B+H-B+a>B+1>k+r-k+D;4&3,_=D.1+}&(&(&@*aan*6#a#7#)%,%8# $ $8%9-b#)%,%(&8&(#(#!%(#(#(#{&!%g&(#g&x*(#]=0%!%$%z*g&]=a#x*!%U&V&_#u*{={={=p]p]n{ -X&{&u*i2.fU34((=':7-(&z%7%F#F#E#`#7%`#1&5$h+r&K$E#U*B$.$Z#5$,%z%,$ $b#H#i+7&I#w#N#I#:=E#E#E#A#r&Z#7=0#D#F#.$U*D#D#3$j+D&T@S@0*r&E#w#8#W&a#k%o=J{1,1]",
"I#Z#Z#E#h+h+7&g+v#7%i+i+g%G@F@T%R#U=D$$=D$8*V#a&R#R#D$D$D$N*R#R#R#R#O*R#R#G@R#N*N*Z%h%h%E$-{x;G@T#%>R#f+R@G#E@@{5$O*d%K&3,N)#2N^7'w++>k= ,=&h{T==&1-4&4&A+S=1-4&{-w$4&c*4&D;c,$;S=O,1-S=O!},C+4&|%[,+$8$8$8$1>d,B+H-B+9$a>8$8$D;H-H-B+1>:;|%9$X=8$D^4&d;52l h_(&0%(&,%B4U&7# $ $8%7#C-w#7%8%9#k%b#0%]=,%,%0%!%(#^=!%a#(&0%!%V&(#(#(#]=@*(#!%!%]=g&/#V&@%@%>%@%#%:#:#+%n{{=(#:#t=t=1#>^t~)+k~f]x*]=`-7=v#`#B$9%7% $9%j+K$G@R@k-5$5$~%.$z%a# $8%z%z%v#h+v#9% $v#Z#H#E#E@$-3$X%D%D%E#B$D#.$7%.$.$e'.$E>t&/{r&T%E#N#c#V&7#z%N>B)`.c;",
"I#Z#y#Z#y#Z#i+I#n%6%7%v#E#g%N*T%T%V#8*E$D$V#N*G@V#N*D$N*8*N*T%R#R#0*G@V#o&P#G@V#~-~-E$!-'-H=+=G-G@X=N*O*P#f%g%:=h+d&g%T%4..3w1~,3:+>x+ , , ,0>0>g;i=1-g=4&X=1-c*D;D;4&c*X=c*c*c*c*H-0>r>S=H-D;&~8$8$8$|%|%8$r-H-b1B+D;r-x$|%8$B+B+},c*D;|%|%r-k+k+_]~'O>V$e ~$,%0%,%A%6#}{k%7%c#7%7%Z~7%v#5%>*7%k%(&(&z%k% $a%8%5#a#,%m%a#a#>%(&@*z*/&@*w*@*0%]=,%,%x*(&--@%(&#%l%_#u*K;_#$%:#~=+fv=2^=}z!Q{f]w*@*A%`#.$7=5$E# $a%i+D%K$T%T%R@Z#9%7%|&,%a# $)%z%A%_&.$A#`#7%1&.$B#D#$-B$;-.$d$E@E%h+B$7%_&2$H#7=5$s&F#)$$-Y%f%x#w#z%A%k% $@6x'w#",
"x#Z#E#j%Z#7%6%6%7&w#n%n%E<O*O*G@P#Q*V#D$D$V#8*R#N*D$Z%V#R#8*R#a&R#R#v%~;V#N*-{6=@f%=/*^;Z:D$N*E$K$F@D$f+K$`_f%h+5$E#K$Y%z,[/<()/F<*=w+O;k=%>h=g;O!g;1-4&g=4&S=4&D;c*X=X=4&4&g=c*c*4&4&W>$;a>V>|%|%x$8$x$:;8$8$@=I@B+|%r-1>1>|%B+D;H-H-|%B+|%k+k+k+1>z${>r6A|i',%N#z% $y%y%7%c#a%.$i+}{7%.$v#4%7%9&b#a#)%A%)%z%a#a#z%a#(&b#z%7#7#7#]=V&@*/&@* %(&(&,%@%(&%,7#,]d4>%V&>%{&5#(#:#t=~=t=6-a89!3(f(o*w*a#c#7=c#F#B$i+9%5$C@j+E@I@D%j+x#5$`#(&A%)%b#9&)%}$_&7=B$c#7=F#)$D#.$B$`#)$.$B$B$B$B$B$:=j%B$E#5$Z#B$5$B$k-5$Z#i+w#a#7#7#k&#-v#",
"2$5$F#.$i+7&7&7%i+n%c#N#h+R@j%T%R@c&D$8*c&T%C$R#R#Q*V#c&V#Z%G@R#R#V#G@w$~;h%J@E$!-f*#f/;#=C$N*F=T%N*C$f+r&E#D%`_K#Z#C@T%!'80#[)/<,w+x{ ,%>x+%>=&1-=&S=g=g=4&A+X={-4&S=X=L$S=X=c*D;X=X*{>{>|%D;B+x$x$|%B+q-/{E@j%D;:;|%1>8$8$|%B+D;H-H-B+|%x$1>o$r-r-a>|%7/z).+9&9& $)%>>w#7%w#v#7=`#=]B$B$5$7%7= $z%k%k% $)%c#a#a#9& $)%a# $1&1&c#I#(&>%/&V&>%(&b#,%m%(&7#%,#%;%W&(&V&8&(#!%:#u=~=t=6-n}9!Q2v~V&@*a#7=>$7%v#v#v#E#.$3$}>.$E@E%j%5$B$i+:=,%b#7# $7#,%|$`-|&M^7-89L^,$>$!$!$'$)$F#.$7%A#)%]%D#R@C@E#Z#7%7%B$D#.$B$Z#{%i+ $ $A)z=v#",
"I#Z#h+h+v#v#i+i+x#6%5%x#`_K$d%6&G@V#C$Z%T%P#0*V#Z%N*F@N*8*V#D$V#R#V#V#~;N*J@E$j]:>#fL%g;@&D$$=G@N*T%Z%g%E#g+v%g+j%`_r&T%;;F;e;@+w++>*=9>9> ,y;1-1-4&g;g=g=X=A+A+c*4&X=4&1-S=O!X=4&4&S=D;D;B+q-x$B+B+:;x$B+|%|>@=H-a>:;|%|%i-B+B+$;H-4&|%|%|%|%|-k+r-|%:;T;z){/1& $`# $w#I#v$%,7%v#`#q4_&5$Z#7=2$v#`#7%w#_&A%)%z%a#)%z%a%k%`#c# $7%c#<=(&,%,%a#a#A%o*,%(&C}k,,%7#A%,%(&a#a#!%{&t=t=-%kba8]63(v~g&w*,% $v#7=7%9%5$D#`#7% $7%.$5$E#Z#.$`#c#!%(&9& $k%,%a#z%}&(&(& $a#,%|$L^+,1&+,)$.$1&_&b#)%|&D#5$5$3$E#7%B$2$7=.$f%5$)$v#}>N)k^F#",
"i+i+;-E#x#w#h+N#3%3%w#i+x#E#O*d%T%L$c&G@M#0*0*Z%V#V#V#V#D$~-F=N*R#V#V#R*6=E=E$e*:>f-.=8*U=E$g=C$R#G@E$P#d%P#h;a&r&R@g%f+!'z{@;Q^y;N~s;x+9> ,O;S=A+H-g;X=A+S=S=O!4&4&H-D;S=S=1-1-X=4&S=c*q-D;D;D;B+q-|%:;B+B+8$w$C+h]h]!{r-8$:;B+D;D;a>|%|%8$8$o$k+r-8$1>=>Z{.+2$)$7=i+7%5$9%$f4%Z#E#=]B$v#5$x#v%2$7%5$v# $7#9&)%z% $9&a% $~%|&v#B$i+7%i+9&b#)%)%8&o*a#v9(&--7#8#)%,%V&7#}&(&{&{=n{t=6-a8A!Q22&(#@*(&k%`#`#.$I#9%v#)%`# $7%>$>$.$5$5$`# $,%a#}$b#z%E~a#9&(&V&@%0%b#b#,%(&&,'$b#~%.$c#_&1&1&`-_&.$E@5$k-Z#v#9%7=A#E#Z#j%K#+$N)-=_;",
"i+E#h+`_i+7&5$i+x#x#I#i+x#j%d%R@d%O*T%O*(%g%G@V#~-8*N*V#N*N*D$R#6=N*N*S-U#Z%G=$=g;a>G@E$U#k+F@f+K$O*V#T%v%R#G@0*R#a&]*0*7.&(@; ~M&s;s;x+*~k=#=O!g;S=g;i=S=4&S=X=g=g=c*X=S=S=1-.=O!S=O!c*B+B+q-B+B+q-|%B+B+8$1>B+D;1>!{k+r-r-a>|%D;H-D;1>8$8$r-o$k+r-r-8$d{7}5+z%>$B$Z#9%B$5$0-<=j%5$9-v#$-D%h+R@D%(%E#|&7=7%6% $1&1&`#`#7%1&|&.$E@7% $7%v#v#.$E#d%E#N#6%i+K#7#,$m%a#I# $a#a#8%u*n{t=6-n}g0d _$^=@*a#z%1&`#|& $`#'$7%7%1&7%w#,$1&B$Z#v#1&a#0%0%b#9&,%,%)%W&0%0%0%A%b#(&,%b#(&g&_&.$2$x#!$!$b#d#!$U*E#B$5$E#i+i+T%3$3$j%5$f#q ;<H,",
"Z#Z#Z#E#9%i+x#i+x#x#v#h+M#6&O*g%E#O*D%D%h+j%C&R#g-E$F=R#V#V#D&V#D$D$E$U@8*8$z;1;E&E$C$c&c&T%v%R#R@T@R#o&N*N*]*D$h%Y%K$T%8.,}z.V^x{N~*=;&=~ ,O;1-S=-&#==&X=g=S=X=X=4&S=S=1-0>4&@~S=S=X=X*w$D;w$D;D;B+|%|%:;1>i-D;H-i-r-k+9$1>|%B+B+C+C+|%r-r-1>d,r-8$k+x$}%9}S[_&|&I#9-Z#B${%w&'=5$F#9- $Z#r&K$R@f+j%3$`#2$_&_&7%c#7%v#7%`#c#v#7=B$`#'$7-0&}$z%7=F#Z#x#h+5$i+K#k%(&(&9&z%9&,%>%u*:#{=6-x~c!q%J9*:>%,%A%z%_&A%z%`#c#`#z%)%1&+,b#!$`#j%Z#v#,%0%*1g&0&0&V&,%a#V&]=0%}&A%,%b#(&(&(&i+5$v#5$7%w#z%'$!$1&F#5$E#9%5$B$E#X%5$$-3$#-**;<5-",
"$-j%f%f%Z#:=h;:=6&P*6&Q#6&d%f%(*Z#E<i+Z#E#j%P*Q#D$V#8*G@R#'-G@G@C$k+]*~;T%$-E#C@T%N]G@N*R#d%G@R@v%G@V#f+D$E$D$G@N*T%R#L$6.u^f^@5,< >M:*~*=%>y;O;A+#==&1-A+4&S=S=4&g=S=.=4&W>$;-&O!S=S=4&q-D;{-D;D;{-|%|%i-r-B+D;C+B+9$|-r-1>i-B+|%a>$;B+8$1>r-k+d,1>|-9$'{#cn+_&)$1&8#y%B$,*Z~I-w#7#=]c;C@3$d&j+E@Z#5$1&)%)%2$_&|&5$v#B$v#5$5$E#5$F#a#A%z%9&z%E#5$B$Z#.$5$i+C#g+)%,%)%`#)%a#>%7#_#:#/#._Qdb((@U<@*(&,%7#7#c#`#`#1&)%)%a#!$_&0%c#`#7%+,1&a#,%>%(&V&@*(#g&g&w*#%0%b#a#,%,%(&,%c#9%B$v#B$7%~%)%7#b#,$>$>|3$E#9%.$B$Z#C@E#_;n-N)4,J-",
"a,O*O*K$f%[=g+O*6&a&g+g%h+g+`_i+1&.,`#O*j%j%r&N*Z%R#C$R#G@G@f+Y%f+j%K$V#Y%5$h+E#Y%F@G@P#R#v%G@r&r&R#R#U@c&R#V#E$E$R*G@b,./C/%<p>][4>M:x+A>%> ,%>#=O;0>1-S=4&X=1-g;c*S=B+{>A+c*1- ,h=0>4&D;g;4&4&D;q-x$w$B+8$B+H-D;|%r-8$r-r-r-1>|%D;B+|%|%8$r-r-k+9$8$k+'{L~p+'$!$!$,$D#A#9#fad<faq=U]--t&3$D%k-B$E@)$b#,%Y-1&_&~%z%|&`#7=B$C@R@D@!$A%a#)%)%k%.$5$v#B$5$5$B$v#`#)%)% $b#)%a#9&0%W&:#C4:%E7B6<@y9x*(&A%b#)%_&k%1&z%k%z%A%z%k%,%k%7%`#|&9&9&k%a#(&(&@*(#z*%%(#]=x*(&b#)%(&]=)%c#F#B$Z#--7% $)%z%c#~%1&2$5$z#`#)$5$5$D@D@V>/~]{6<('",
"6.4$D@p&p&5$Z#X%Z#f%g%g%j%C@5$A%k%6%N#y#f%g%P#V#R#8*F@G@d%T%V#R*g+K#b%3$.$6%>$i+g+g%G@G@G@P#G@R#6=V#F@R@F@N*N*c&D$N*E&k!p>N;'[C[T>%'w+x+x+x+%>k=h=O;4&1-S=g=S=h=A+4&1-+=X=X=c*M$w$T=S=X=D;c*H-B+D;{-D;8$B+:;H-H-B+B+9$1>k+k+9$|%1>B+|%|%i-|%r-r-k+r-k+e+T$Z{!~d[`-0&'$1&b#9<}{:]T<6^a-q43$D%k-.$F#5$.$7%,%z%|&1&b#_&!$_&1&F#F#Z#Z#z%_&,%9&9&1&B$i+Z#5$X%B$.$`#B$`#7#9&9&)%b#A%0%]=5#79@$64N[e~5]F,g&,%)%)%3$b#z%k%z%)%,%}&)%(&8%.$|&1&b#'$}&]=x*y*u*X&6-{=y*^=!%(&]=b#(&,%z%1&1&5%7=B$5$`#`#z%7=z% $I#.$`#A#)$5$B$j+c$l^a[:<d)V^",
"B^K,d$E#Z#x#5$Z#Z#p&D% ]Z#B$`#y%6%K#h+j%g%P#0*d%R#G@]*G@R@T%N*d%d%K#m&j%p&7&i+`#C@E#v%V#v%T%G@V#0*h%0*G@N*T%E$8*R#N,(>)/+5N'z^F)y^/5.[=~z+x+ ,=&O;;ec*4&V>4&4&1-c*S=},c*{-X=w$R-S@c*1>c*D;D;a>D;8$D;q-x$4&B+C+H-|%|%r-r-9$o$|-8$r-:;:;|%|%B+1>8$k+y$*/X!%fA)2.n+!]]=A%)%5;2#2;oaJaI<&fd<H#5$.$F#F#F#1& $`-}$A#A#z-:&,$`-,$e>)$.$E@2$_&b#)% $z%Z#3$E#E#P#Z#Z#Z#E#h+7%7%z%xa7;b#0%0%g&]'6~*f0)0 [%V*l+^%9&A% $k%`#l%)%A%,%)%(&,%`-1&'$_&!$*1F4W<=f`]^bt*<#~=:# -g_0%a#}&(&a#_&_&_&7%1&`#5$5$)%9%9%1&`#:-2$7=B$B$}7~%b$U!J}!/n n S~",
"!/m>6'I^A$;-D#A#Z#Z#`_y#v#i+O#k%b%M#*-g+v%v%R#+&0*V#a&a&v%r&G@g+v%6&b=f%x#F#`#7%Z#t&w$D&9${-4&g#g#g#N,{-D;z$$;H-P,+'[[x!48x/-)f)~0K^(5*'h*z>0,T=T==&4&X*$;W>W>%&4&S=S=4&{-c*L$R-8*c*D;D;X=D;D;B+r-D;B+:;H-D;D;H-9$_;z$B@k+B@z$V>~'O>&8&8D^V>I^a,*/('-f$cL5')a^B*s+E,'$)%a#7];f>fJ|W2,fZ~p*`#.$)$A#h,Q@Z.P@P@g#`.i#Z.`.o=-$P@W;y$1$B$5$k%a%w#f%Z#R@R@K$X%5$5$f%C@Z#j%y%5%U&g&,%@*]=d[ _=$i,e!}/'fw'D+h#<$z%v#`#i+W&k%5;}&^%.,{$g5P.A@]%`-7- % -n{t=u=H_t=t=I_~=~=^=g&(#@*w*(&)%b#'$d[.,h,c*~]s^P.F52&d&U*A$!]<$A#e+i.c~g^F)L'+)Rb",
"k2[8c{l.4._-A,d;{>+$N>.$x#x#3%3%g+Q#E9]*V#a&]*P#O*R#a&V#h;d%d%g%O*D%m]D;b,B,d;8,O>Q,),+'&'_'@!(5)f!fq>@!][v!='5[p.i!>8-5Y,%<o ^,S5c2E^>'V^@!Y),-U>_',-~~x,x,Y)88@+5[.'H-D;g=W=e*a{K,a]T;U[J-=>$,/={'}%I5]~a]T;=>5]P@Z.`.1,v>=>%~~f(5B^J}n.c{7{$~X(5^E^b5o)N)v,[8@,u%l+~$(&{f5#:&|$V0]f^ft,3.3'V*^~@[Rbi[G)}/}/}/%cA]A]A]5/p h[h[@4O84'x'4'U!8.Q,#(),8.t+#(j.r!J-d{T[g'U!q-s&.+/fp+{7Y$-7| 9!E7/!=*(/5/r'n$F(>_M,Z.u%F,K=u+=>/'`):'/~T;6,++ +0$W.P1D2(f:1dav=~=*%u*_#{&(#_#.-:&g5e$n'i#k;@+o.!,(50[O{2-l.h5u+;;6.Y=Z[+[{,Y^) d-S'",
"2)F24/4/.)R'S'v/$/~0`[^{%(5-~[c-_f:f(>P8(>+'<f1818B>j.18+/),18#(:f$]#<G2&/R'R'R'S'`'J[f)x/v5_){3y/F[i8q/y5s5v5s5r5=)=)z^z.D!d-! w,=)*)*)+)*)*)^>+)+)n5`=`=3/f)[fI8:5K)>3z)m8W!b}2bG^z)z))3w|7}7}8}b}3}7}Z{7}V+w|L~L~L~j@64F;D'f):5:5])N'f;n)U-;=o)! y=l _}x)_}>;A.]{q 7)%1`(}f<%|f1f2f=$V[c}R+4;N)[*B!{(^(R (.T R @.^.R R J ,!^ _!4;y=~*m/y=J'#;9/4=})a/! C'z.R>')]{,>})9/J),>>~V+7})+Z/( n0m0_.R 3fN/C!x6A)O[c3#$S+o 2)Q'&)B/V,j[j[D/M'C=n)U-z{! .3K)q{A)a}4}3}o63}7}w|pe_}k&A.o X,2)L'nbv5q/j[^,j)H2nb+)+)w,*)e)Q>*)2)S+6|;.S+",
"$3!(W)$ $ W)^ ^ $ [ Q2~*;<L)L)n/|)! G'4f#;5fe-! n8#;n8#;we4=a/|)y=1)(3< w)( w)< $ ^ + W)} >::+n 4)]><(;>2     i@1 s6%3c4- c4> 3!-63!} & $ $ $ W/w)@ W/K 7(!+3 k&>;wes/f6-0+;|*3.>_x'x=>_>_,_>_`{@9~|-:L],_4+S[z@{7@96+!~r_c(j c!h@(+e 6fx I.KdKd7f8fE39f0f6(afbfz o0&4G+n}cfdfefObffgfhfifF(n#D(B!Y0O}p%V(/_/6m~u@G+Z$=$o%8~f~@##~0,+~k]jf~55^/>B^+!B^@+@:b~5/K'<)G~z=`{P@+;n3f=f=-[1;/|>#kflf&7mfnfofi<:&o=`.pfr,qf`8f.!+r 4;S+5)-.3($ T L 7frfrf66r0sftf73ufg(vf2+w:@9wfu&*4J.|.B >(@3{ c|N)]{D!) &{W[9!-3@ ` !6% }!s6#}|!$3xf",
"[9;_}+{*,^5]V*}%x=I^c*R#g+j%X%L*9.C'q!4'r>i+y#d&x'c-Y/Y/B,x'7&s48%c]}$w2]$_$^^._1+1+{75]^/f352a(d)]{yfa(b)(/b~m^+[9eG~7 K9;+HbzfJdh4c3)0}*z=L}z=W(p't!<%M~-7*#0}l O1a^5]b&{%$-.$k-$-Z#B$.$)$)$D#_&A#~%.$F#d#>$d#D#+,!$A#2&G(Af%+,!]!Bf{aCf<7S3DfEfFfGfHfIfJfKfl(LfMfNf!:I:OfPfQfRfSfTfUfVfu*]#Z$| .(q#Wf,4W}n'Q@M,y$9$N,b,},r>r>k=;&s;O;O>P,@(8, [9>*=<,a<B^9e:+:+p'-*_&0%,%7#q=h&8&p*c;h&(&0&0&V&c;r*<#V&Z1V&@%m%a%T.:%2~^_,+;.)&Xf|9Yfy@b9]@BeBeR0N0Zf7-x*z} -(#u*F4x**:g&:2S.+_H+4@<%`f6 (+!!!!<}j@JdK%84s#({6~Y${9T(N(L!z| g",
"1,|%c*d&w$Y%D&T%R#T%c&0*r&D%Z#Y%==A.u!h+K#I#y#O#i+i+y#7%3%H;H;y%l%!%)=;%p*h&(&8%a%`#Z#i-d+i~d(52d 4!, K-}8L_6dzb.g6>+g@g([ '5[w!&'='7'9>9>9>9>+~=&k_Y//=73Wf+9<+# d +7[6j+B$E@$-B$D@1$Z#F#1&D#D#!$d#1&)$)$|&)$d#D#D#D#d#]%)|>@YfR ~ckfr}L0#gh|&a^ah|$g%gk7&g*g=gn|N|T_]:y_]:P|-g;g>g,g'g)ga_!gR0,{1.W~|+K=F#|-|-|-r-B+B+D;~'X*T==&0>0,A+-&O;T==&O>*=z,z>8>c~0 !*L4,^X.6%a#>%,%8#6#W&@%k,8%8&8#8##%,,r*<#5#r=@*;%>%>%/&*2N.;_X3+ {!a}Af]9^9r~X< %*:!%.-(&x*.-(#{&.-g_+%{&W1IbW<Pb41B#v~X}p%l$5 3(1!k$-7g9c+Z.r-t&D&D;1>1,l+-*0$1;",
"E@K$f+C@K$f+R@F@C$F@G@R#O*f+D%v%r!J'd;E#h+h+7&n%n%`#n%x#L#L#4%8&l%;%r=,,8&8&@%8&',n%M#y#g%@9O+W+-c~gD*##.:7',</<{g{g]g4: <w;M:+>4>+>*=M_ ,;& [0>0>O;g;O!0>e|g9<~_!e3[%++.$1$D@k-.$E%z#.$Z#F#)$D#_&_&.$F#F#1&)$+,A#D#D#d#+,d#4]I0x3^g/g<c*%[#]&|_;^s*D_a_s*D_D_S_F7~:T_Nc}_[_C_(g_g:g<g<g[gx_N1y7/+S!)~L,k+d,r-|-k+8$B+q-X=4&O,S==&9> ,O!0>A+1-x+y;5'P,k_5'&'g>!*C.~/E,7#8&W&(&0%>%z*9#1{8#W&a#8&o*#%1{#%)=+%_#;%#%V&#%w*}g%_-_j$d!Yfx@n~e>0%/&(#g&V&z*!%]=/&g&_#^=g_(# -6-u*^=^=@*(&'$A#}@_{<~d!1!J%p#o_D&$-k-F#D%Y%I@r&.$5$X%C@",
"j+K$Y%3$f+f+T%G@Z%R#R-o&Q*T%F@F@j.@-g' $F#w#_& $A%7#y%5%n%,%l%(&a;b;)=>*04>*3%>*y%h+y#y#M#i+i#<*e!~!9'a[4<9,7'2:N_|g6>N_ > >b<A:+>+>x+k=O;k_(^#==&O;4&a>X=a>0^M!E7X/{'S2z#D@$-$-.$F#F#E%;*(%F#B$)$)$z#E%F#D#)$>$+,D#)$+,D#A#.$h,L~K+v=;^H_*%*%s*;^]&c_x_2#D_z_S_^&D_D_1gOcC_O|Pf2g>g3g4g5g!=c_XcE77 ++1>+$k+9$d,1>A+D;4&4&0>=&1-=&O;x+g;O;k= ,9>9>r>r>W>r>j.0~-.c>m#.,7#o*>%;%!%{&/&2%;,8#w*^=@*8#o*o*;%<#<#v={=_#/&V&;%!%uc;4D.r 6@$|/%*10%(&,%/&w*w*w*]=6#0%0%g&^=.-^={&^=x*!%g&*1)%b#B#u@M}(!6g*$d~U*$-3$E#D@1$E>R@K$D@5$5$D%",
"Y%j+Y%j+t&K$Y%c&+=Q*U@Z%F@G@F@E@u+k&n+(&b#9&8%5;&-H>7#5;&->%8&l%T&@%U&l%G*y%7&:-h+O#v#1&>-E*X%g#5 Q{Z[/<N~Q~4<`:.g~a7g(<(</<M:s;+>+>z>k=O;@~#==&=&=&c*X=c*f+Z.P}d!(+5]b& ]D@$-D@z#D#E%.$H#;*.$F#)$)$.$F#E%)$;-_&D#D#)$_&D#D#F#U*7}Q.*%s*;^H_;^]&1#q<^&s*^&s*S_D_&2[_x_Nct|C_8gA_9g0gagbgcg'bybsaf HbH, $d&x$r-8$r-D;4&},T=r>O;=&0> ,+~L%=&;& ,;&x+9>O;1-h=+~@,O1t>4+Y-V&@%U&p*9-p*p*^-W&8#>%@%m%>%V&;%>%A-)=)=:#)=$%5#5#)=3|;#D.y!'4g(x*,%*:*10&0&x*z*]=w*]=q=g&x*(#^=(#^=^=(#g&g&z%_&_&!$o'7364~gP}.+$-$-E@3$B$3$I@Y%I@E@D%Z#E#",
"f+f+j+E@F@g%K$w$Z%C$R#T%f+T%F@U*3'7)f~k9Y-,%@%<=@*g&(#(#>%>%@%8&<=@*U&l%a%8%5%n%1%L#x#)%7&y#h+v%v']{(<>edg7>N:4:6>~aN_N_(<.<b<4>A:N~A>9> ,#= ,8>g;W>g=g=S%D&$;{*j{D]}%c$.$E@D@1$z#F#.$1$F##^B$E%)$F#.$)$.$)$D#_&D#)$C@_&)$D#D#`{Z{T.]&;^]&]&s*V:*%8<C7;^*%;^]&D_s*[_c_egT_T_fggghg9g4g3gigjgkgU:Y0}~9$|-1>k+x$k+r-|%c*},X*H-=&+~P$R$5'O;r>k_0,Q$;&O;O;O;#=+~%~:+t>>[@%h&>*9-h&;,9-1{x&W&,%o*>%;%m%U&>%o*~&)=)=:#5##%5#$%v_W1w~| W$I+y-g&!%g&]=]=g&72(#g&]=]=%,g&w*g&g_*: -(#]=z%(&!$+,!$+,<$<@(!2 3,c$D@B@B$j+3$3$f+f+Y%f+K$j+3$",
"t&Y%N>Z#c$t&j+c&Z%c&L$c&F@f+f+E@3'b]A@_#@*>% ;H<{&.%K;D-T&b;@%8&8&8&@%7#6%y%3%I#i+7&3%y%x#f%f&g+3:K'_<4:lg4:>e]g]g.gmg(</< <4>4>A:M:s;%>O;g; ,O;$;g=g=g=g=D&a>b>X/;.h~4$F#A$E%k-k-F#.$u#1$z#:=h^)$F#F#)$E%)$;-A#D#)$D#D#)$F#.$}%A8V.1#H_;^;^*%;^[#H_0bs*]&s*^&!=x_c_c_OcW:C_ngogpg<gqgrgsgvbtgT_,+8er-8$r-8$r-k+k+r-4&4&O!O!O;j! ,Y/A>w; ,+~5'O;x+x+ ,=&=&5'/~**->n'@%9-9#%,%,'>p*l,w&;,4%U&U&@%@* -kb^4s*1#v=:#~=X1>^v=H_t=tad!64L+e>(#(#]=]=|$g&(#!%]=0%]=g&]=(#!%.-(#V&9&,%b#b#_&_&_&7=g,,_i4C*}%o$E@Y%E@B$k-t&Y%j+3$f+K$D%f+",
"Y%D%C@C@E@D%K$C$N]c&c&T%T%@=4$.$i'z)W.K;{=~=v=~=|#t=+%i>,,$%#%>%@%l%4%y%a%a%7&K#i+N#y#N#y#Q#6&d%ugo5(<vg3a{g6>wg~axgyg{g/</<]<s;4>w+P~A>k=k=k=h=S=D&c*c*g=D&$;/=X/j~3.d&.$$-E@E%1$F#.$E%k-B$.$3$B$z#)$)$z#F#U*+,_&)$D#A#)$1$c$V*Z{V.H_[#]&;^*%]&h7%88<]&]&s*]&|_|_D_D_zgT_}_AgngBgbgqg9gogg2CgDgped{k+r-r-:;8$r-9$k+H-1-},r>=&r>.80,9>k=;&%>=&;&=&0>=&=&#=0>c~D!k/f,a#c;c;T*J*y%8#R%%,9#y%9-;%{&{=~&<#!>}#Z&*%!>t=v*}#Z&v*):tab($!dd|$(#(#]=0&g&(#(#!%0&0%]=]=g&.-(&a#a#}&z%,%5;A%+,)$7=B$F#5+o]d>J-e%B$j+1$h^g+j+T%f+F@T%K$K$E@",
"Y%g,D#B$f+R@F@T%R#C$G@T%Y%g%t&`#`.Eg&1^4!>|#*%r*%8$2!>Fgt4t4r=V&8%I;8%7#3%c#i+h+h+O#X#J#K#g%T%K$(>s8Gg_<4:HgHgIg7g>eZ7mgw;/<N~Q~N~%>*=*=%>y;k=#={-D;D&c*c*c*D;/=(+j~H^d&$-$-3$z#E@F#B$$-B$1$$-1$;-1$.$U*d$E%U*D#A#U*)$D#.$$-;-~/7}Q.;^H_H_[#*%[#h7;^]&;^!=s*s*V_[_[_|_(gC_t|>g;gTfbgJg0gKgLgMgOc9}$,|%r-9$|%8$9$8$k+|%$;$;T=.80>k=0,;&z>;&k=A>r>W>r>O;T==&5'O{>;`|W;,*<=T*S;C~,*4%e=,*8#,%!%q*~&2#~&<#)=<#|#*%}#-%1#}#1#v*~=h(b((!2+x*<#z*g&d#]=(#x*!%]=W&]=g&9&a#)%A%!$b#z%z%b#}&~%.$F#.$F#`{-.L43'E%B$D@Y%f%J$0*0*t&t&Y%t&Y%D%",
"C@E# ])$s&e%8$Y%]-c&f+F@K$t&F#f%.+m9S.|#!>;^)>!>r*r]2;!>i>K|1#;%7#a#',8%6%5%x#x#h+h+y#f&b%g+0*]*v+z[*evg~aNg~aNgzb+g.g/</<7>A>0|Q~y;=~Q;T^y;k=L&c*D;g=D&c*w$H-g~X/'!>_d&$-D@4$$-$-F#F#E@$-k-1$1$F#$-1$k-k-E%D#D#)$)$D#+,1$1$)$,_>~W|h78<8<8<8<;^;^]&s*8<!=S_s*}_c_}_c_P|Fa8gOgpgPgbg<gQgogpgkg}b3}/=|%i-r-|%1>1>|%8$D;D;V>r>W>S=1-0,A>A>8>x+ , [-&b,r>~'O,+~;'N)z{X2w#F*J#c%O-n<S*--l%o*@*~&)=)=2;)=<:+%2#Z&`&Z&1#*%*%-%1#t=Rgb((!w:7-]=@*(&}$]=^=(#g&]=]=g&w*b#,%A%)%)%)%1&+,_&'$_&F#D#F#U*,_!*g4d+g,B$$-f+B$0]i:t&s&c$E@e%d&3$",
"E@X%O*i+5$Z#e%d&f+F@f+@=E@E%.$_&~|7}Q[|_*%q<|#|#$29;r*7<r*=%r*)=g&8%a#y%a%w#x#y#j%h+g+h;*-P#]*v%Sgg!Tg6>AbUg.gzbVgWgXg(< >N~x+x+%>S$%>{;C>X@g*#=4&S=g={-c*A+$;h~h@j~$,d&D@B$E@D@D@F#E%k-1$F#E%E%)$.$k-.$F#F#A#!$D#D#D#)$;-1$}>3.>~T.1#h7|#h7[#s*8<z_%8z_s*!=S_c_[_}_y_U_B_YgZg`g9gbg h>g.h+h@h62w|$,B+8$B+c,|%1>8$1>4&4&S=g;#=S=O,0>j!h{;&8>k=5'X*1-0>0>=&0,X!#h}(X2N#J#X#N#K*,*4%9#;%5#+%<#t=v*v*r]$h%hr*2#Z&*%*%*%[#Z&|#t=h(/+7}j#g&x*]=}&}&!%.-^=g&@*]=0%a#)%b#A%_&1&2$~%)%!$b#1&B$.$j+C#5+)&C*g7d#F#E%j+j]&>&>3$D@B$E%C#$-$-",
"E@X%D%j+E#d%Z#3$K$F@E@1$k-5$x#7%+(7)1#;^|#u2!>|#7<~&i>r*7<7<r*j>@%7#',y%y%n%v#x#f%6&d%g+d%N9R*v%>'g!&h*hXgXg@8Z7<'7'7',<+>^<x+k=x+O;k=X@g*Z@L%=&X=1-c*D;D&{-q-=>C);.>_4$D@E@B$D@B$.$F#.$;-E%.$.$z#k-E@1$k-r&A#!$)$D#D#D#)$)$D@>_A)V.;^8<;^[#[#^&q<^&z_|_!=D_|_y_U_c_]:]:]:MgQg_g<g0gQg=h-hg2_dDg%1$,$;:;x$|%|%i-|%8$4&S=H-W>S=S=1-x+=&+~=&h{+~=&S=O!0>0>@~P$O{.3:<D^I#X#;*G-;hF*,*W&q*n*3#2;7;3]3]9;Z&@h!>2#:#[#=%;^4#1#|#-%Rg_}642@'$g&]=(&}&(#!%!%g&(#g&C}!$)%A%A%1&B$`#B$1&!$!$.$)$2$B$U*5+(+;.9a>$A#.$3$f%-;j;E@E@B$B$E#E@$-",
"C@Z#D%C@R@f+g%D%c$k-3$$-5$E<7%A$W!S+g_!>=%r*!>r*i>~&~&r*r*<#)=4#l%c]y%4%n%1%i+i+f%g+f%f%o&d%6=i=K^w,feee4:]<]< >]<*=w+(>Q,W>M_9>0,O; ,%>X@Y@O;L&i=A+c*w$D;B+|%T;X/U{3'd&$-E@D@k-k-F#E%z#E%.$E%F#)$$-1$k-;-$-D#z-t,)$D#D#C#e%z#>hA)T.1#8<[#;^]&^&%8,hn|U_C_[<[_C_$1s:T_T_Q|'hOg<g9g9g5gcgog)ht|`]w|d{|%|%r-1>|%|%1>1-S=O!H-T=r>=&k=9>O;O;b,O,0>0>S=O,0>=&0>r>@+)!;=!hN#1%B%C&~hn&[-k,9-6^z~7;.;2#2;7<1#q<+%:#|#[#|#[#H_;^}#~= ^'&i,l#]%(&_&}&0%(#w*(#x*!%g&z%+,z%b#+,2$5$2$B$v#.$`#B$1$F#)$C#g7(+C*5+C#F#B$X%g+{hq;E@X%E%B$E%E#C@",
"3$5$$-E@K$3$D%D%f%R@E#3$Z#B$D#K=ceS+>|r*7;)=7<r*)=j>j>7<r*7<<#L;8&I;,*7&w#i+h+Z#g+d%P#P#v%g%h%5'L2]h1'@8N_w; >+<M:A>;&O;O;-&k_8> , ,=&*&Z@X@1-~'g=4&c*c*X=c*&~]~4;!!J-c,$-d&$-3$d&F#1&.$E%;-)$F#1$1$1$3$B$E@F#A#+,D#D#E%E%z#E%>_J{V28<%8q<z_S_z_z_z_R|D_12D_12~: b~:~:}_^h/h,g9g9grg(h_hjgjg]d31w|i^B+B+8$8$k+|%1-S=O!0>W>},0>0>0,O;0>0>k=},S=1-1-@~0>@~k=;&+#)}47d;#^[;G-N{A;C&:-T*;,c;q4C}9;X]w-+*|#%8v*|#u=[#Z&[#Z&Z&*%H<,|k$i,j'z-*10%(&Y-(#g&^=x*!%(&A%!$)%z%~%7=E@.$/e5$5$.$5$5$B$3$k+/=-.g4}%s&z-)$U*|:j;m]3$z#~%)$Z#j%$-",
"j+5$E#K$t&D%D%R@f+R@E#K$5$5$k+v>N[q :*_#7<<#)=~&~&~>)=)=7<g|L;h&h&c]7#4%7&i+x#f%H*g%H*h;6&f%c$6'3/:h<h[h_<7>+>+>4<x+O;k=k=#=M_J&N{L&0,O;h-z+1-A+g={-i=X=i=D&!'G}k&d-c{A,.$B$k-C@E@z#)$F#F#F#.$)$1$E%k-D@I=E@U*F#)$)$A#)$C#1$z#}%>~P1;^^&z_}h^&z_R|^&z_D_S_R|[_T_|h~:c:]:1hZg<g<g3g=h2h3h62Vf]d^$7}b>a>9$i-d,8$D;H-H-W>T=D^&~X*=&5'=&=&T=T=0>=&O;C$O;k=9>M&v+,')}v-4hE>X#:-M{m&C&:-T]k,c;;,q4p1d<J<I<=%[#Z&Z&v*}#|#[#1#-%-%K<y9'&k&V*r9*:*1}$E~x*]=*:.-x*(&'$1&1&d#`#.$$-B$.$3$E@5$E@5$C@K$+;T;:+L(X(H,1&7%5$v#5$E@Z#9%Z#N{b=R@3$",
"3$E@j%j+f+F@F@D%d&D%C@Z#5$3$M=c{N[>;j'y-~&|#~&~&)=4#<#j>h&p*l%'>4%3%6%N#J#x#K#g+H*h;T%C@O*g%C+*'4/0c5h6h]g><4>4>a<k_O; ,%>y;k=F&b%=&O;@~L&b*S=X=g=D;g={-{-a>$]5^y=]{a[u!|-1$B$d&$-F#D#;-D#C#)$1$1$B$E%s&K$j%$-D@1$E%F#e&z#$-;-g#A)R]]&%8|1R|^&^&R|^&^&^:|1S_^:r|~:c:T_S_d:9g7h8hrg=h9h0he2ah^: ^7}E;|%:;|%r-x$$;D;D;$;a>B+{>+;0>W>W>r>X*T=W>T=T=r>d;8,8,+~['a5n)vdbh@ech>-[;C&b=;*N#X;dh;,i;o{d]1{o{=%^&u2]&v*1#v*[#[#|#&%%{ _U{~*o#A@z*z*x**:x*5;]=^=!%7%7%7=`#F#)$5$3$5$3$R@D@Z#E@Z#3$x$u+.:D!}(9 k;.$Z#g%5$.$F#>$)$)$2$b=f%E@",
"C@D%r&j+g%4$f+d%F@4$B$Z#c$l>;'*(p)M;W*`.!%)=)=;%a;b;A-h&U&>*l%04I#n%6%x#x#y#`_d&k-V#T%d%j%_;),V^ehfhU'F)X7*'7'.<w{Z@y;%>@>N~`:k= ,k=#=.=a*J@+=S=S=g=i=D;B+8.ghv')!z.S~y,M=|-1$E@$-.$)$F#5$)$)$<$.$k-E%D@3$R@h^$-E%4$F@Y%Y%1>A,l.S+w's,F4z_z_hh^&z_hhihs|^:D_D_y_~:b:S_}_jhQg5gcg3h8hkhlhz_mhi<n#A)('M=H,1>8$x$B+$;I^B+1>D;a>nhg; ,0>O,$;H-H-4&b,a>$;W>`48,x,n^o)Q'x,8,3${%m&b=|:b=C&F*1{%,Q=6*=]9-C-4#=%|#1#!>Z&!>Z&|#+%X<3@@$q (-n$3+E~(#]=@*/&}&w* -/&5;1&F#7%F#)$k-3$X%4$f+5$$-D@E@t&8'S,Z^z.v)m^,'B>f+T%g%Y%R@j%D%C@B$Z#f%Z#",
"x$8$i-d&d&r-8$e%Y%4$8$b,j.+#*(y^K>^>!/h~|->%L;l%9#5%q=7#A%H>a%a%`#1&1&)$D@k-c$U*b$s&e%_;{-8,''H5g[ohB[phqh(5!,@8{[N~A:+',<]<%'(>2-6.0,-&r;b*g;1-S=S=0>l>''9 *{A^f;L'rhv',}6.D^8$e%E%;-)$<$D#D#s&E%E%E%E%e%/{;$H@x$r-B+a,.'@8=5B^K'B^V*$d{$F4t=V:;^]&x_d_sh<d %F4w=6ai2U:thuhvhvhvhwhigegr^xhp+P+c}0~5^O{*/e+{>D;B+|%$;B+H-D;D;b, ,O;S=a>+;5-O,&~|%f,5-e+h~T$Z^)!$<=5yhy6#^[;m&b=Q#;*f1I#|>|>H#|&2$,%/&<#$%~=:#t=:#{=F4w2*]9ai*m !!L}j#L^x*g&x*]=}&(&0%0%}&1&7%A#F#.$D@3$5$3$j+X%C#c$9$6';'!/c/X,2)A^!/V^6.g#c,r-!{o$b&3=|--[B+{-",
"@+U>Y=8.z,K,l>t+),j.Y=O{c~H5c8f)q5:(jd7{#-A$,%}$d#s&_]N,W;L,I^b,b,a,~'8'O>8'B>F<8'Q,~'O,i.:0B^[8B[y5t5Y,ueE^85T>(5[[0[0[9[o2]58[<h`,#5K}zh9,U>,-''Y=''c~9.Z^y^;/k&k&10{,K[.:7{l.*/n-U!i#i#3'v>n-4.n-|*n-_-8.),e5$(6.l.X!m>P>y^F/m)F/-/7{^^m6W.P1P1P1;[+bi&Ahl>:003m#>[Z>BhChDhEhFhGhHhIhJhKhb>G2g)]54dK[D<X(('4.b,c*S=.=d;$]O>6'O;@(0,.[l^k.6.t+O,a>b,b,k.LhK-x)MhO_Nhx,2-OhC$D&X{,5,5OhbePhJ,l=k.;;54&*&*Q}h_E29^;[]'2+t^=$X6B!& 5 M!~/Z.w:n+L+-*P[-* +.+3'h'x=U!3.4.:8{>f+k+I^A,),/~c~a[$cs'' d-3/E^N^%~X!8.j.7.k;7,u+('O{./@!",
"H2#)teg[3/R'R'L[Y^Y^R'4/4/n5F^) >;;>@;G~.:]~a]O8[8rhJ^![$/g[![R'L[K>Q>=)$)#)-)y5;)$)R>))K'o v)'[q5g:I)z^))*);)Q>*)Q>R>')],^,20J5z/20H2Y^s)QhF2u)n=n=f;F'#;4=! K]&#h@-.A.v)X,C=2)K'C=#;z{U-;=#;f;f;F^n=C=g/+)^>g)h/+)N;g/+)u)f;]{[27)~*|)|;z:k<s'n=F'0=RhbdShb5I[I[g)Q'`=ThUhUhVhWhXhYhY>z{Zh>;U{5 q ]{;=;=! 4=U->;7)b]Z{D]b]D]L)M)U-`h i'}g/F'U-,>>~e!>3P&[2/+H%W8.i(-o)n=I/D/^)')m5&)w[H[z/i)j).)#)g)n=n=n +ih!U-f;o ! -.U)M ..2(_ f Z{Z{9}#cL~m1w|z)b]b n]~*6)k&>3n]c},3M)o X,+)^>w,l5%<#,} 1 #3;::<<)l5L'l5I/+)K'K'E/&)H2A/q/"};
