/* XPM */
static char * CITY1_xpm[] = {
"64 64 10 1",
" 	c #1D2021",
".	c #1D161A",
"+	c #212127",
"@	c #2F2F35",
"#	c #3F3B45",
"$	c #26191D",
"%	c #2F1D1F",
"&	c #3F2225",
"*	c #231E1E",
"=	c #1E1719",
" .............................................................. ",
" ++++++@@@@@@@@@@@@@@@@@@@@@@@@@@@@@@@@+@@@@@@@@@@@@@@@@@++++++ ",
" ++++++@@@@@@@@@@@@@@@@@@@@@@@@@@@@@@@@+@@@@@@@@@@@@@@@@@++++++ ",
" ++++++@@@@@@@@@@@@@@@@@@@@@@@@@@@@@@@@+@@@@@@@@@@@@@@@@@++++++ ",
" .............................................................. ",
" ......+++++++++++++++++++++++++++++++++.++++++++++++++++...... ",
" ......+++++++++++++++++++++++++++++++++.++++++++++++++++...... ",
" ++++++@@@@@@@@@@@@@@@@@@@@@@@@@@@@@@@@@+@@@@@@@@@@@@@@@@++++++ ",
" ++++++@@@@@@@@@@@@@@@@@@@@@@@@@@@@@@@@@+@@@@@@@@@@@@@@@@++++++ ",
" ++++++@@@@@@@@@@@@@@@@@@@@@@@@@@@@@@@@@+@@@@@@@@@@@@@@@@++++++ ",
" ++++++@@@@@@@@@@@@@@@@@@@@@@@@@@@@@@@@@+@@@@@@@@@@@@@@@@++++++ ",
" ++++++@@@@@@@@@@@@@@@@@@@@@@@@@@@@@@@@@+@@@@@@@@@@@@@@@@++++++ ",
" .............................................................. ",
" @@@@@@################################@#################@@@@@@ ",
" ++++++@@@@@@@@@@@@@@@@@@@@@@@@@@@@@@@@+@@@@@@@@@@@@@@@@@++++++ ",
" ++++++@@@@@@@@@@@@@@@@@@@@@@@@@@@@@@@@+@@@@@@@@@@@@@@@@@++++++ ",
" .............................................................. ",
" ......$$$$.$$$$$$$.$$$$$$$.$.$$$$$.$$$%$%%.%%$$$$$.$$$$$$$.$$$ ",
" ......$$$$.$$$$$$$.$$$$$$$.$.$$$$$.$$$%$%%.%%$$$$$.$$$$$$$.$$$ ",
" ......$$$$.$$$$$$$.$$$$$$$.$.$$$$$.$$$%$%%.%%$$$$$.$$$$$$$.$$$ ",
" .............................................................. ",
" .......$$$$$$$.$$$$$$$.$$$$$$$.%%%%%%%.%%$%$$$.$$$$$$$.$$$$$$$ ",
" .......$$$$$$$.$$$$$$$.$$$$$$$.%%%%%%%.%%$%$$$.$$$$$$$.$$$$$$$ ",
" .......$$$$$$$.$$$$$$$.$$$$$$$.%%%%%%%$%%$%$$$.$$$$$$$.$$$$$$$ ",
" ....................................$$$$...................... ",
" ......$$$$.$$$$$$$.........$$$$$$$.%%%%%%%.$$$$$$$.$$$$$$$.$$$ ",
" ......$$$$.$$$$$$$..$$$$$$.$$$$$$$.%%%%%%%.$$$$$$$.$$$$$$$.$$$ ",
" ......$$$$.$$$$$$$..$$$$$$.$$$$$$$.%%%%%%%.$$$$$$$.$$$$$$$.$$$ ",
" .....................................$$$$..................... ",
" .......$$$$$$$.$$$$$$$.$$$$$$$.$$$%$%%$%%%%%%%.$$$$$$$.$$$$$$$ ",
" .......$$$$$$$.$$$$$$$.$$$$$$$.$$$%$%%.%%%%%%%.$$$$$$$.$$$$$$$ ",
" .......$$$$$$$.$$$$$$$.$$$$$$$.$$$%$%%.%%%%%%%.$$$$$$$.$$$$$$$ ",
" .............................................................. ",
" ......$$$$.$%%%%%%$%%%%%%%.%$$%%%%$%%%%%%%.%%%%%%%$%%%%%%%.%%% ",
" ......$$$$.$%%%%%%$%%%%%%%.%$$%%%%$%%%%%%%$%%%%%%%$%%%%%%%$%%% ",
" ......$$$$.$%%%%%%$%%%%%%%.%$$%%%%$%%%%%%%$%%%%%%%$%%%%%%%$%%% ",
" ...............$$$$...........$$$$$........$$$$$$$$........$$$ ",
" .....$.$$$$$$%.%%%%$$%.%%%%%%%$%%%%%%&.&&&&%%%$%%%%%%%.%%%%%%% ",
" .....$.$$$$$$%.%%%%$$%.%%%%%%%$%%%%%%&$&&&&%%%$%%%%%%%$%%%%%%% ",
" .....$.$$$$$$%.%%%%$$%.%%%%%%%$%%%%%%&$&&&&%%%$%%%%%%%$%%%%%%% ",
" ...............$$............$$$$$$$$$$$$$$$$$$$$$$$$$$$$$$$$$ ",
" ......$$$%.%%%%%%%.$$$$$$$.$$%%%%&$&&&&&&&$&%%%%%%$%%%%%%%$%%% ",
" ......$$$%.%%%%%%%.$$$$$$$.$$%%%%&$&&&&&&&$&%%%%%%$%%%%%%%$%%% ",
" ......$$$%.%%%%%%%.$$$$$$$.$$%%%%&.&&&&&&&.&%%%%%%.%%%%%%%.%%% ",
" ...............$.............$$$............$$$$............$$ ",
" .....$.$$$$$$$.%%%%%%%.%%%%%%%$%%%%%%&.&&&%%%%$%%%%%%%.%%%%%%% ",
" .....$.$$$$$$$.%%%%%%%$%%%%%%%$%%%%%%&$&&&%%%%$%%%%%%%$%%%%%%% ",
" .....$.$$$$$$$.%%%%%%%$%%%%%%%$%%%%%%&$&&&%%%%$%%%%%%%$%%%%%%% ",
"*...............$$$$$$$$$$$$$$$$$$$$$$$$$$$$$$$$$$$$$$$$$$$$$$$*",
"=....$$$$$%.&&&&&&&$&&&&&&&$&&&&&&&$&&&&&&&$&&&&&&&$&&&&&&&$&&&=",
"=....$$$$$%.&&&&&&&$&&&&&&&%&&&&&&&$&&&&&&&$&&&&&&&$&&&&&&&%&&&=",
"=....$$$$$%.&&&&&&&$&&&&&&&%&&&&&&&$&&&&&&&$&&&&&&&$&&&&&&&%&&&=",
"=...............%$$$$%%%%%%%%%%%%$$$$$$$$$$$$$$$%$$$$%%%%%%%%%%=",
"=.....$.%%%%%%&.&&&&&&&%&&&&&&&%&&&&&&&$&%%%%%&$&&&&&&&%&&&&&&&=",
"=.....$.%%%%%%&.&&&&&&&%&&&&&&&%&&&&&&&$&%%%%%&$&&&&&&&%&&&&&&&=",
"=.....$.%%%%%%&.&&&&&&&$&&&&&&&$&&&&&&&$&%%%%%&$&&&&&&&$&&&&&&&=",
"=...............%%$$$$$$$$$$$$$$%%%%%$$$$$$$$$$$%%%%%$$$$$%%%%%=",
"=....$$$$$%.&&&&&&&$$$$$$$$$&&&&&&&%&&&&&&&%&&&&&&&%&&&&&&&%&&&=",
"=....$$$$$%.&&&&&&&$$%%%%%%$&&&&&&&%&&&&&&&%&&&&&&&%&&&&&&&%&&&=",
"=....$$$$$%.&&&&&&&$$%%%%%%$&&&&&&&%&&&&&&&$&&&&&&&%&&&&&&&$&&&=",
"=...............$$$$$$$$$$$$$$$$$$%%%%$$$$$$$$$$$$%%%%$$$$$$$$$=",
"=.....$.$$%$%%%.&&&&&&&$&&&&&&&$&&&&&&&$&&&&&&&$&&&&&&&$&&&&&&&=",
"=.....$.$$%$%%%.&&&&&&&%&&&&&&&%&&&&&&&%&&&&&&&%&&&&&&&%&&&&&&&=",
"=.....$.$$%$%%%.&&&&&&&%&&&&&&&%&&&&&&&%&&&&&&&%&&&&&&&%&&&&&&&="};
