/* XPM */
static char * CITY3_xpm[] = {
"64 64 12 1",
" 	c #1D2021",
".	c #2E2A28",
"+	c #3F3834",
"@	c #242221",
"#	c #1E1A1A",
"$	c #181616",
"%	c #261E24",
"&	c #1D161A",
"*	c #252A37",
"=	c #231E1E",
"-	c #30384C",
";	c #1E1719",
" ...............................++++++++++++++++@@@............ ",
" @@@@@@@@@@@@@@@@@@@@@@@@@@@@@@@................###@@@@@@@@@@@@ ",
" @@@@@@@@@@@@@@@@@@@@@@@@@@@@@@@................###@@@@@@@@@@@@ ",
" $$$$$$$$$$$$$$$$$$$$$$$$$$$$$$$################$$$$$$$$$$$$$$$ ",
" $$$$$$$$$$$$$$$$$$$$$$$$$$$$$$$################$$$$$$$$$$$$$$$ ",
" $$$$$$$$$$$$$$$$$$$$$$$$$$$$$$$################$$$$$$$$$$$$$$$ ",
" ###############################@@@@@@@@@@@@@@@@$$$############ ",
" ####@@@@@@@@@@@@@@@@@@@@@@#####@@@@@@@@@@@@@@@@$$$############ ",
" ###@@@@@@@@@@@@@@@@@@@@@@@@####@@@@@@@@@@@@@@@@$$$############ ",
" ##@@@#$$$$$$$$$$$$$$$$$$#@@@###@@@@@@@@@@@@@@@@$$$############ ",
" ##@@#$$$$$##$$##$$##$$$$$#@@###@@@@@@@@@@@@@@@@$$$############ ",
" ##@@$$##$$##$$##$$##$$##$$@@###@@@@@@@@@@@@@@@@$$$############ ",
" ##@@$$##$$##$$##$$##$$##$$@@###@@@@@@@@@@@@@@@@$$$############ ",
" ##@@$$##$$##$$##$$##$$##$$@@###@@@@@@@@@@@@@@@@$$$############ ",
" #@@@@@@@@@@@@@@@@@@@@@@@@@@@@##@@@@@@@@@@@@@@@@$$$############ ",
" #@@@@@@@@@@@@@@@@@@@@@@@@@@@@##@@@@@@@@@@@@@@@@$$$############ ",
" %%%%%%%%%%%%%%%%%%%%%%%%%%%%%%%%%%%%%%%%%%%%%%%%%%%%%%%%%%%%%% ",
" %%%%%%%%%%%%%%%%%%%%%%%%%%%%%%%%%%%%%%%%%%%%%%%%%%%%%%%%%%%%%% ",
" &&&&&&&&&&&&&&%%&&&&&&&&&&&&&&%%&&&&&&&&&&&&&&%%&&&&&&&&&&&&&& ",
" &&&&&&&&&&&&&&%%&&&&&&&&&&&&&&%%&&&&&&&&&&&&&&%%&&&&&&&&&&&&&& ",
" &&&&&&&&&&&&&&%%&&&&&&&&&&&&&&%%&&&&&&&&&&&&&&%%&&&&&&&&&&&&&& ",
" &&&&&&&&&&&&&&%%&&&&&&&&&&&&&&%%&&&&&&&&&&&&&&%%&&&&&&&&&&&&&& ",
" &&&&&&%%&&&&&&%%&&&&&&%%&&&&&&%%&&&&&&%%&&&&&&%%&&&&&&%%&&&&&& ",
" %%%%%%%%%%%%%%%%%%%%%%%%%%%%%%%%%%%%%%%%%%%%%%%%%%%%%%%%%%%%%% ",
" %%%%%%%%%%%%%%%%%%%%%%%%%%%%%%%%%%%%%%%%%%%%%%%%%%%%%%%%%%%%%% ",
" &&&&&&%%&&&&&&%%&&&&&&%%&&&&&&%%&&&&&&%%&&&&&&%%&&&&&&%%&&&&&& ",
" &&&&&&%%&&&&&&%%&&&&&&%%&&&&&&%%&&&&&&%%&&&&&&%%&&&&&&%%&&&&&& ",
" &&&&&&%%&&&&&&%%&&&&&&%%&&&&&&%%&&&&&&%%&&&&&&%%&&&&&&%%&&&&&& ",
" &&&&&&%%&&&&&&%%&&&&&&%%&&&&&&%%&&&&&&%%&&&&&&%%&&&&&&%%&&&&&& ",
" &&&&&&%%&&&&&&%%&&&&&&%%&&&&&&%%&&&&&&%%&&&&&&%%&&&&&&%%&&&&&& ",
" &&&&&&%%&&&&&&%%&&&&&&%%&&&&&&%%&&&&&&%%&&&&&&%%&&&&&&%%&&&&&& ",
" %%%%%%%%%%%%%%%%%%%%%%%%%%%%%%%%&&&&&&%%&&&&&&%%%%%%%%%%%%%%%% ",
" ********************************&&&&&&**&&&&&&**************** ",
" &&&&&&**&&&&&&**&&&&&&**&&&&&&**&&&&&&**&&&&&&**&&&&&&**&&&&&& ",
" &&&&&&**&&&&&&**&&&&&&**&&&&&&**&&&&&&**&&&&&&**&&&&&&**&&&&&& ",
" &&&&&&**&&&&&&**&&&&&&**&&&&&&**&&&&&&**&&&&&&**&&&&&&**&&&&&& ",
" &&&&&&**&&&&&&**&&&&&&**&&&&&&**&&&&&&**&&&&&&**&&&&&&**&&&&&& ",
" &&&&&&**&&&&&&**&&&&&&**&&&&&&**&&&&&&**&&&&&&**&&&&&&**&&&&&& ",
" &&&&&&**&&&&&&**&&&&&&**&&&&&&**&&&&&&**&&&&&&**&&&&&&**&&&&&& ",
" ********************************&&&&&&**&&&&&&**************** ",
" ********************************&&&&&&**&&&&&&**************** ",
" &&&&&&**&&&&&&**&&&&&&**&&&&&&**&&&&&&**&&&&&&**&&&&&&**&&&&&& ",
" &&&&&&**&&&&&&**&&&&&&**&&&&&&**&&&&&&**&&&&&&**&&&&&&**&&&&&& ",
" &&&&&&**&&&&&&**&&&&&&**&&&&&&**&&&&&&**&&&&&&**&&&&&&**&&&&&& ",
" &&&&&&**&&&&&&**&&&&&&**&&&&&&**&&&&&&**&&&&&&**&&&&&&**&&&&&& ",
" &&&&&&**&&&&&&**&&&&&&**&&&&&&**&&&&&&**&&&&&&**&&&&&&**&&&&&& ",
" &&&&&&**&&&&&&**&&&&&&**&&&&&&**&&&&&&**&&&&&&**&&&&&&**&&&&&& ",
" ********************************&&&&&&**&&&&&&**************** ",
"=--------------------------------&&&&&&--&&&&&&----------------=",
";&&&&&&--&&&&&&--&&&&&&--&&&&&&--&&&&&&--&&&&&&--&&&&&&--&&&&&&;",
";&&&&&&--&&&&&&--&&&&&&--&&&&&&--&&&&&&--&&&&&&--&&&&&&--&&&&&&;",
";&&&&&&--&&&&&&--&&&&&&--&&&&&&--&&&&&&--&&&&&&--&&&&&&--&&&&&&;",
";&&&&&&--&&&&&&--&&&&&&--&&&&&&--&&&&&&--&&&&&&--&&&&&&--&&&&&&;",
";&&&&&&--&&&&&&--&&&&&&--&&&&&&--&&&&&&--&&&&&&--&&&&&&--&&&&&&;",
";--------------------------------&&&&&&--&&&&&&----------------;",
";--------------------------------&&&&&&--&&&&&&----------------;",
";&&&&&&--&&&&&&--&&&&&&--&&&&&&--&&&&&&--&&&&&&--&&&&&&--&&&&&&;",
";&&&&&&--&&&&&&--&&&&&&--&&&&&&--&&&&&&--&&&&&&--&&&&&&--&&&&&&;",
";&&&&&&--&&&&&&--&&&&&&--&&&&&&--&&&&&&--&&&&&&--&&&&&&--&&&&&&;",
";&&&&&&--&&&&&&--&&&&&&--&&&&&&--&&&&&&--&&&&&&--&&&&&&--&&&&&&;",
";&&&&&&--&&&&&&--&&&&&&--&&&&&&--&&&&&&--&&&&&&--&&&&&&--&&&&&&;",
";&&&&&&--&&&&&&--&&&&&&--&&&&&&--&&&&&&--&&&&&&--&&&&&&--&&&&&&;",
";--------------------------------------------------------------;",
";&&&&&&&&&&&&&&&&&&&&&&&&&&&&&&&&&&&&&&&&&&&&&&&&&&&&&&&&&&&&&&;"};
