/* XPM */
static char * CITY4_xpm[] = {
"64 64 8 1",
" 	c #1D2021",
".	c #252729",
"+	c #1E1719",
"@	c #2F3135",
"#	c #342D2B",
"$	c #2A2323",
"%	c #231E1E",
"&	c #2D2725",
" .............................................. +               ",
" .............................................. +               ",
" .............................................. +               ",
" .............................................. +               ",
" .............................................. +               ",
" .............................................. +               ",
" .............................................. +               ",
" .............................................. +               ",
" .............................................. +               ",
" .............................................. +               ",
" .............................................. +               ",
" .............................................. +               ",
" .............................................. +               ",
" .............................................. +               ",
" .............................................. +               ",
"                                                +++++++++++++++ ",
"                                                +++++++++++++++ ",
" @@@@@@@@@@@@@@@@@@@@@@@@@@@@@@@@@@@@@@@@@@@@@@@+.............. ",
" .............................................. +               ",
" .............................................. +               ",
" .............................................. +               ",
" .............................................. +               ",
" .............................................. +               ",
" .............................................. +               ",
" .............................................. +               ",
" .............................................. +               ",
" .............................................. +               ",
" .............................................. +               ",
" .............................................. +               ",
" .............................................. +               ",
" .............................................. +               ",
"                                                +++++++++++++++ ",
"                                +++++++++++++++++++++++++++++++ ",
" @@@@@@@@@@@@@@@@@@@@@@@@@@@@@@@##$$$+%%%$$$+##++.............. ",
" ...............................##$$$+%%%$$$+##++               ",
" ...............................##$$$+%%%$$$+##++               ",
" ...............................+%%%+++++++++++++               ",
" ...............................##$%$$$$$$+$$##++               ",
" ...............................##$%$$$$$$+$$##++               ",
" ...............................##$%$$$$$$+$$##++               ",
" ...............................+%%%%%%%+++++++++               ",
" ...............................##$$$%$$$%%%+##++               ",
" ...............................##$$$%$$$%%%+##++               ",
" ...............................##$$$%$$$%%%+##++               ",
" ...............................+%%%%%+++++++++++               ",
" ...............................##$%$$$%$%+%%##++               ",
" ...............................##$%$$$%$%+%%##++               ",
" ...............................##$%$$$%$%+%%##++               ",
"%#######&#&#&&&&&&&&&&&&&&&&&&&&&&&&#&#&#######%+++++%+%+%+%%%%%",
"+%%%%%%%%%%%%%%%%%%%%%%%%%%%%%%%%%%%%%%%%%%%%%%+++++++++++++++++",
"+%%%%%%%%%%%%%%%%%%%%%%%%%%%%%%%%%%%%%%%%%%%%%%+++++++++++++++++",
"+%%%%%%%%%%%%%%%%%%%%%%%%%%%%%%%%%%%%%%%%%%%%%%+++++++++++++++++",
"+%%%%%%%%%%%%%%%%%%%%%%%%%%%%%%%%%%%%%%%%%%%%%%+++++++++++++++++",
"+%%%%%%%%%%%%%%%%%%%%%%%%%%%%%%%%%%%%%%%%%%%%%%+++++++++++++++++",
"+%%%%%%%%%%%%%%%%%%%%%%%%%%%%%%%%%%%%%%%%%%%%%%+++++++++++++++++",
"+%%%%%%%%%%%%%%%%%%%%%%%%%%%%%%%%%%%%%%%%%%%%%%+++++++++++++++++",
"+%%%%%%%%%%%%%%%%%%%%%%%%%%%%%%%%%%%%%%%%%%%%%%+++++++++++++++++",
"+%%%%%%%%%%%%%%%%%%%%%%%%%%%%%%%%%%%%%%%%%%%%%%+++++++++++++++++",
"+%%%%%%%%%%%%%%%%%%%%%%%%%%%%%%%%%%%%%%%%%%%%%%+++++++++++++++++",
"+%%%%%%%%%%%%%%%%%%%%%%%%%%%%%%%%%%%%%%%%%%%%%%+++++++++++++++++",
"+%%%%%%%%%%%%%%%%%%%%%%%%%%%%%%%%%%%%%%%%%%%%%%+++++++++++++++++",
"+%%%%%%%%%%%%%%%%%%%%%%%%%%%%%%%%%%%%%%%%%%%%%%+++++++++++++++++",
"+%%%%%%%%%%%%%%%%%%%%%%%%%%%%%%%%%%%%%%%%%%%%%%+++++++++++++++++",
"+%%%%%%%%%%%%%%%%%%%%%%%%%%%%%%%%%%%%%%%%%%%%%%+++++++++++++++++"};
