/* XPM */
static char * CITY2_xpm[] = {
"64 64 11 1",
" 	c #1D2021",
".	c #181715",
"+	c #32322A",
"@	c #BBBBBB",
"#	c #656565",
"$	c #313131",
"%	c #3E3E3E",
"&	c #1E1E20",
"*	c #29292D",
"=	c #231E1E",
"-	c #1E1719",
" .............................................................. ",
" ++++++++++++++++++++++++++++++++++++++++++++++++++++++++++++++ ",
" ++++++++++++++++++++++++++++++++++++++++++++++++++++++++++++++ ",
" ++++++++++++++++++++++++++++++++++++++++++++++++++++++++++++++ ",
" .@@@@@@@@@@@@@@@@@@@@@@@@@@@@@@@@@@@@@@@@@@@@@@@@@@@@@@@@@@@@. ",
" .@@@@@@@@@@@@@@@@@@@@@@@@@@@@@@@@@@@@@@@@@@@@@@@@@@@@@@@@@@@@. ",
" .............................................................. ",
" ++++++++++++++++++#########++++++++#########++++++++++++++++++ ",
" +++++++++++++++++$#########$++++++$#########$+++++++++++++++++ ",
" +++++++++++++++++$#########$++++++$#########$+++++++++++++++++ ",
" +++++++++++......$%%%%%%%%%$......$%%%%%%%%%$......+++++++++++ ",
" +++++++++.........%%%%%%%%%........%%%%%%%%%.........+++++++++ ",
" ++++++++.....&&&&&%.&&&&&.%&&&&&&&&%.&&&&&.%&&&&&.....++++++++ ",
" +++++++....&&&&&&&&.$$$$$.&&&&&&&&&&.$$$$$.&&&&&&&&....+++++++ ",
" ++++++....&&&&&&&&&.%%%%%.&&&&&&&&&&.%%%%%.&&&&&&&&&....++++++ ",
" ++++++..............&&&&&............&&&&&..............++++++ ",
" +++++&&&***********.......$$$$$$$$$$.......***********&&&+++++ ",
" +++++&&&************$$$$$$$$$$$$$$$$$$$$$$************&&&+++++ ",
" +++++&&************$$$$$$$$$$$$$$$$$$$$$$$$************&&+++++ ",
" +++++&&***********$$$$$$$$$$$$$$$$$$$$$$$$$$***********&&+++++ ",
" +++++&&**********$$$$$$$$$$$$$$$$$$$$$$$$$$$$**********&&+++++ ",
" +++++&&**********$$$$$$$$$$$$$$$$$$$$$$$$$$$$**********&&+++++ ",
" +++++&&*********$$$$$$$$$$$$$$$$$$$$$$$$$$$$$$*********&&+++++ ",
" +++++&&&&&&&&&&&&****************************&&&&&&&&&&&&+++++ ",
" +++++&&********$$$$$$$$$$$$$$$$$$$$$$$$$$$$$$$$********&&+++++ ",
" +++++&&********$$$$$$$$$$$$$$$$$$$$$$$$$$$$$$$$********&&+++++ ",
" +++++&&********$$$$$$$$$$$$$$$$$$$$$$$$$$$$$$$$********&&+++++ ",
" +++++&&********$$$$$$$$$$$$$$$$$$$$$$$$$$$$$$$$********&&+++++ ",
" +++++&&********$$$$$$$$$$$$$$$$$$$$$$$$$$$$$$$$********&&+++++ ",
" +++++&&********$$$$$$$$$$$$$$$$$$$$$$$$$$$$$$$$********&&+++++ ",
" +++++&&********$$$$$$$$$$$$$$$$$$$$$$$$$$$$$$$$********&&+++++ ",
" +++++&&&&&&&&&&&******************************&&&&&&&&&&&+++++ ",
" +++++&*$$$$$$$$%%%%%%%%%%%%%%%%%%%%%%%%%%%%%%%%$$$$$$$$*&+++++ ",
" +++++&*$$$$$$$$%%%%%%%%%%%%%%%%%%%%%%%%%%%%%%%%$$$$$$$$*&+++++ ",
" +++++&*$$$$$$$$%%%%%%%%%%%%%%%%%%%%%%%%%%%%%%%%$$$$$$$$*&+++++ ",
" +++++&*$$$$$$$$%%%%%%%%%%%%%%%%%%%%%%%%%%%%%%%%$$$$$$$$*&+++++ ",
" +++++&*$$$$$$$$%%%%%%%%%%%%%%%%%%%%%%%%%%%%%%%%$$$$$$$$*&+++++ ",
" +++++&*$$$$$$$$%%%%%%%%%%%%%%%%%%%%%%%%%%%%%%%%$$$$$$$$*&+++++ ",
" +++++&*$$$$$$$$%%%%%%%%%%%%%%%%%%%%%%%%%%%%%%%%$$$$$$$$*&+++++ ",
" +++++&**********$$$$$$$$$$$$$$$$$$$$$$$$$$$$$$**********&+++++ ",
" +++++&*$$$$$$$$%%%%%%%%%%%%%%%%%%%%%%%%%%%%%%%%$$$$$$$$*&+++++ ",
" +++++&*$$$$$$$$%%%%%%%%%%%%%%%%%%%%%%%%%%%%%%%%$$$$$$$$*&+++++ ",
" +++++&*$$$$$$$$%%%%%%%%%%%%%%%%%%%%%%%%%%%%%%%%$$$$$$$$*&+++++ ",
" +++++&*$$$$$$$$%%%%%%%%%%%%%%%%%%%%%%%%%%%%%%%%$$$$$$$$*&+++++ ",
" +++++&*$$$$$$$$%%%%%%%%%%%%%%%%%%%%%%%%%%%%%%%%$$$$$$$$*&+++++ ",
" +++++&*$$$$$$$$%%%%%%%%%%%%%%%%%%%%%%%%%%%%%%%%$$$$$$$$*&+++++ ",
" +++++&*$$$$$$$$%%%%%%%%%%%%%%%%%%%%%%%%%%%%%%%%$$$$$$$$*&+++++ ",
" +++++&**********$$$$$$$$$$$$$$$$$$$$$$$$$$$$$$**********&+++++ ",
"=+++++&*$$$$$$$$%%%%%%%%%%%%%%%%%%%%%%%%%%%%%%%%$$$$$$$$*&+++++=",
"-+++++&*$$$$$$$$%%%%%%%%%%%%%%%%%%%%%%%%%%%%%%%%$$$$$$$$*&+++++-",
"-+++++&*$$$$$$$$%%%%%%%%%%%%%%%%%%%%%%%%%%%%%%%%$$$$$$$$*&+++++-",
"-+++++&*$$$$$$$$%%%%%%%%%%%%%%%%%%%%%%%%%%%%%%%%$$$$$$$$*&+++++-",
"-+++++&*$$$$$$$$%%%%%%%%%%%%%%%%%%%%%%%%%%%%%%%%$$$$$$$$*&+++++-",
"-+++++&*$$$$$$$$%%%%%%%%%%%%%%%%%%%%%%%%%%%%%%%%$$$$$$$$*&+++++-",
"-+++++&*$$$$$$$$%%%%%%%%%%%%%%%%%%%%%%%%%%%%%%%%$$$$$$$$*&+++++-",
"-+++++&**********$$$$$$$$$$$$$$$$$$$$$$$$$$$$$$**********&+++++-",
"-+++++&*$$$$$$$$%%%%%%%%%%%%%%%%%%%%%%%%%%%%%%%%$$$$$$$$*&+++++-",
"-+++++&*$$$$$$$$%%%%%%%%%%%%%%%%%%%%%%%%%%%%%%%%$$$$$$$$*&+++++-",
"-+++++&*$$$$$$$$%%%%%%%%%%%%%%%%%%%%%%%%%%%%%%%%$$$$$$$$*&+++++-",
"-+++++&*$$$$$$$$%%%%%%%%%%%%%%%%%%%%%%%%%%%%%%%%$$$$$$$$*&+++++-",
"-+++++&*$$$$$$$$%%%%%%%%%%%%%%%%%%%%%%%%%%%%%%%%$$$$$$$$*&+++++-",
"-+++++&*$$$$$$$$%%%%%%%%%%%%%%%%%%%%%%%%%%%%%%%%$$$$$$$$*&+++++-",
"-+++++&*$$$$$$$$%%%%%%%%%%%%%%%%%%%%%%%%%%%%%%%%$$$$$$$$*&+++++-",
"-+++++&**********$$$$$$$$$$$$$$$$$$$$$$$$$$$$$$**********&+++++-"};
