/* XPM */
static char * 3_xpm[] = {
"35 35 11 1",
" 	c #595959",
".	c #4C4C4C",
"+	c #999999",
"@	c #A6A6A6",
"#	c #404040",
"$	c #60A0B9",
"%	c #77B3FE",
"&	c #B2B2B2",
"*	c #AAC7FE",
"=	c #8C8C8C",
"-	c #6CADC6",
"        ..................         ",
" +++++++++@@@@++++++++++++++@@@@@@ ",
" @###############################@ ",
" @#$$$$$$$$$$$$$####$$$$$$$$$$$$#@ ",
" @#$%%%%%%%$$$..######$$$%%%%%%$#@.",
" @#%%%%%%%%%$$.&####+#$$%%%%%%%%#@.",
" +#%%%%%%%%%%$.&####+#$%%%%%%%%%#@.",
" +#%%%%%%%%*%$.&####+#$%%%%%%*%%#@.",
" +#%%%%%%%**%$.&####+#$%%%%%**%%#+.",
" +#%%%%%%***%$.&####+#$%%%%***%%#+.",
" +#%%%%%***%%$.&####+#$%%%***%%%#+.",
" +#%%%%***%%%$.&####+#$%%***%%%%#+.",
".+#%%%***%%%%$#&####+.$%%**%%%%%#+.",
".+#%%***%%%%%$#+####+.$%%*%%%%%%#+.",
".@#%%**%%%%%%$#+####+.$%%%%%%%%%#@.",
".@#%%*%%%%%%###+####+.##%%%%%%%%#@.",
".@#%%%%%%%%#@@#+####+.@@#%%%%%%%#+.",
".@#%%%%%%%%#@@#+####+.@@#%%%%%%%#+.",
".+#%%%%%%%*#@@#+####+.@@#%%%%%%%#+.",
".+#%%***%%%#@@#+####+.@@#*%%%%%%#+.",
".@#%%**%%%%#==#+####+.==#%%%%%%%#@.",
".@#%%*%%%%%#==#+####+.==#%%%%%%%#@.",
".@#%%%%%%%%#==#+####+.==#%%%%%%%#+.",
".@#%%%%%%%%#==#+####+.==#%%%%%%%#+.",
".+#%%%%%%%*-###+####&.##-%%%%%%%#+.",
".+#%%%%%%**%-$#+####&#$-%%%%%%%%#+ ",
".+#%%%%%***%%$#+####&#$%%%%%%*%%#+ ",
".+#%%%%***%%%$#+####&#$%%%%%**%%#+ ",
".+#%%%***%%%%$#+####&#$%%%%***%%#+ ",
".+#%%***%%%%%$.+####&#$%%%***%%%#@ ",
".+#%%**%%%%%%$.+####&#$%%%**%%%%#@ ",
".+#%%*%%%%%%$$.+####&#$$%%*%%%%%#@ ",
".@#$%%%%%%%$$$.+####&.$$$%%%%%%$#@ ",
".@#$$$$$$$$$$$.+####&.$$$$$$$$$$#@ ",
"###################################"};
